Sungjin-Park-dev/vision_inspection/data/output/500/joint_trajectory_dp_20251102_024029.csv
time,ur20-shoulder_pan_joint,ur20-shoulder_lift_joint,ur20-elbow_joint,ur20-wrist_1_joint,ur20-wrist_2_joint,ur20-wrist_3_joint,target-POS_X,target-POS_Y,target-POS_Z,target-ROT_X,target-ROT_Y,target-ROT_Z,target-ROT_W
0.0,-0.35404325383933477,-1.7815628189791102,2.012249754798463,-1.789946354612827,-1.5498470858913054,-1.9249183521556317,0.7147915586829185,-0.0464627668261528,0.7565164268016815,0.9999285340309143,-2.1031803044024855e-05,-0.00177854229696095,-0.01182445976883173
1.0,-0.3314004919973323,-1.77913809229675,2.0112812573337577,-1.7954014796108102,-1.5563420412506102,-1.9022317524654053,0.7176261954009533,-0.032003507018089294,0.7565317302942276,0.9999668002128601,-9.771101758815348e-06,-0.0012122420594096184,-0.008060088381171227
2.0,-0.32479094945040216,-1.7598568943295758,1.9961054751737195,-1.7971624410797136,-1.5570505231297187,-1.8956149127483477,0.7322246097028255,-0.03222455829381943,0.756530687212944,0.99996417760849,-2.0141180357313715e-05,-0.002489479724317789,-0.008090229704976082
3.0,-0.30110788246868536,-1.7671116183812619,2.0029241961475717,-1.8024912538197473,-1.5647725813149844,-1.87190911848189,0.7274937778711319,-0.014481023885309696,0.7565423548221588,0.9999934434890747,-3.7412635265354766e-06,-0.0010729240020737052,-0.0034869567025452852
4.0,-0.28628233467867037,-1.7788883391445223,2.0126933237332776,-1.804392358360459,-1.5703473131538128,-1.8570786896258649,0.7187520526349545,-0.0019780537113547325,0.7565450072288513,1.0,-9.017782964804155e-09,-3.682648821268231e-05,-0.00024487223709002137
5.0,-0.2638194996350014,-1.7837287155083235,2.016563975341734,-1.8045309344480323,-1.5786131021796015,-1.8346238890632005,0.7146662129089236,0.013911859132349491,0.7565419375896454,0.9999922513961792,2.2762585558666615e-06,-0.0005850902525708079,0.0038904098328202963
6.0,-0.2423014663311374,-1.7922330287649115,2.0274544217917287,-1.8270464616978979,-1.5821154581829648,-1.813074901909523,0.7097116373479366,0.029838699847459793,0.7565165162086487,0.9999287128448486,-7.094404281815514e-05,0.008849109522998333,0.008016511797904968
7.0,-0.217314054795363,-1.7736502752048835,2.009253513899433,-1.807978083831611,-1.5939555025533299,-1.7881682930809426,0.7206820528954268,0.04305495694279671,0.756518080830574,0.9999326467514038,1.9813996914308518e-05,-0.001726279384456575,0.011477090418338776
8.0,-0.2130524492314277,-1.754119793160545,1.993252829026456,-1.8068887273498717,-1.5947120109062844,-1.7839036799218035,0.7353278286755085,0.04279690980911255,0.7565159648656845,0.9999274611473083,4.5630695240106434e-05,-0.004014504142105579,0.011365635320544243
9.0,-0.2352909041486749,-1.7443746202113708,1.9855044878610004,-1.808670093743269,-1.5859269603454362,-1.8061092991157641,0.7440837025642395,0.02591428905725479,0.7565330415964127,0.9999700784683228,2.335258250241168e-05,-0.0033468748442828655,0.006977219600230455
10.0,-0.24981771174092376,-1.7611261476041302,1.999152128616894,-1.8082722930499855,-1.5816716854205222,-1.8206277942106155,0.7317088879644871,0.01901376247406006,0.7565391063690186,0.9999851584434509,8.37786228657933e-06,-0.001610838808119297,0.0052008549682796
11.0,-0.27774311416782627,-1.7518053335666006,1.991960530338186,-1.8106479326109561,-1.5704536440577188,-1.848539456119316,0.7397061176598072,-0.0018344540148973465,0.7565450221300125,1.0,-2.0432882053000867e-08,-9.899892029352486e-05,-0.0002063950669253245
12.0,-0.2733079184528905,-1.7344542534578102,1.978165953958698,-1.813898924630669,-1.5702750210697523,-1.8441042496184699,0.7532591372728348,-0.0023240591399371624,0.7565449923276901,0.9999999403953552,-7.42638093242931e-08,-0.00022289261687546968,-0.0003331820189487189
13.0,-0.24783522097353036,-1.7326089433505216,1.9760809188040753,-1.8108974577764525,-1.580239883988494,-1.818638879850953,0.7538453787565231,0.015080949291586876,0.7565400004386902,0.9999874234199524,1.1626950254139956e-05,-0.002792196348309517,0.004164035897701979
14.0,-0.2137435384956573,-1.7244286240468156,1.9680611161098767,-1.8044110226262595,-1.5933734168676466,-1.7845721197012354,0.7582325339317322,0.03753472492098808,0.7565145194530487,0.999923825263977,7.266965258168057e-05,-0.007289186120033264,0.009968756698071957
15.0,-0.18980336338202086,-1.7087301288414223,1.952624645556097,-1.7927722396131927,-1.6029694180383915,-1.7606259818388308,0.7681087702512741,0.05205554515123367,0.756469264626503,0.9998105764389038,0.00018943060422316194,-0.01379572693258524,0.013728505000472069
16.0,-0.15855600554385935,-1.6696375427737997,1.907664613381218,-1.7217300143771381,-1.6593254123410424,-1.7291797662536774,0.7883627042174339,0.06368003040552139,0.7553059905767441,0.9980735778808594,0.001840221113525331,-0.04992171749472618,0.0367911197245121
17.0,-0.18226241843803626,-1.6672386033529776,1.906204342293823,-1.7305223266999945,-1.6349325697990311,-1.752698795941982,0.7934587448835373,0.04808874800801277,0.7557033002376556,0.9987017512321472,0.0010902495123445988,-0.04473596438765526,0.02433912269771099
18.0,-0.12271680411306518,-1.588531042327695,1.811641651194424,-1.517788042060836,-1.773615722723493,-1.6905366802756505,0.8221417665481567,0.06980647146701813,0.748088002204895,0.9854159951210022,0.012465720064938068,-0.14803560078144073,0.08297949284315109
19.0,-0.07255764779520367,-1.5870596782029776,1.815356095963621,-1.4979889379182862,-1.854973875525964,-1.642536033142904,0.8133010119199753,0.09904035180807114,0.744575560092926,0.9787334203720093,0.020839108154177666,-0.15817879140377045,0.12894226610660553
20.0,-0.07436263716804377,-1.642597329011471,1.8787941740445422,-1.627128182599962,-1.8156957093177348,-1.6459561824467515,0.7865858525037766,0.10544131696224213,0.7497789561748505,0.9884970188140869,0.011363932862877846,-0.09797611832618713,0.11465258151292801
21.0,-0.1510704859945613,-1.6907502138123514,1.9314474719798795,-1.7548050900728955,-1.6488181870652403,-1.7219806789785155,0.7747112214565277,0.07321599125862122,0.7557892799377441,0.9988377690315247,0.0011621752055361867,-0.033865466713905334,0.034277524799108505
22.0,-0.17923181234540259,-1.7295975556427683,1.971246910887239,-1.7972340268008515,-1.6069215865917472,-1.7501048762015574,0.7513265199959278,0.06248626485466957,0.7564682215452194,0.9998079538345337,0.0001757335412548855,-0.010703151114284992,0.016415705904364586
23.0,-0.16766338002354772,-1.7490983672796667,1.988285829382113,-1.8014012359145022,-1.6111959517770849,-1.7385783292414736,0.7355461306869984,0.07304514944553375,0.7564597427845001,0.9997867941856384,0.00014597937115468085,-0.007602027617394924,0.019198594614863396
24.0,-0.1444509500672002,-1.7550481279079937,1.9932430395945884,-1.8012287982068895,-1.6194095381516354,-1.7154036281749516,0.7287740428000689,0.08952797949314117,0.7564238756895065,0.9996970891952515,0.00017248286167159677,-0.007340034004300833,0.02349180169403553
25.0,-0.036005874516955284,-1.698172022115837,1.947074417802657,-1.7241277050154997,-1.8635420806890826,-1.608190510204488,0.7463703341782093,0.12968790531158447,0.7495460212230682,0.9881722331047058,0.00765284663066268,-0.052570126950740814,0.14385223388671875
26.0,-0.0909542384072142,-1.702762034806145,1.9436961783149944,-1.7405516932898413,-1.742241681690987,-1.6627611467646697,0.7551084458827972,0.1065300703048706,0.7539479434490204,0.9956955313682556,0.00354955717921257,-0.04311774671077728,0.08196806162595749
27.0,0.0217141901222534,-1.6040045743216336,1.8584523968282114,-1.513330749162587,-2.04400256910124,-1.5474995761646142,0.7830599471926689,0.14771592617034912,0.7347997575998306,0.9603699445724487,0.03564860671758652,-0.1457487940788269,0.23489627242088318
28.0,0.10244204492675199,-1.5662555639756572,1.8556222537117677,-1.3852934345619161,-2.2670365312273466,-1.4473926678152453,0.7752864062786102,0.18228033185005188,0.712235763669014,0.9144338369369507,0.07065759599208832,-0.18233178555965424,0.3543633222579956
29.0,0.06879019661208666,-1.6502008360315095,1.9304923697845022,-1.618736405088557,-2.1408269704206373,-1.4905113329304784,0.7471118420362473,0.16948509216308594,0.7309059947729111,0.9533600807189941,0.027113083750009537,-0.09013205021619797,0.2867851257324219
30.0,0.0027566865413039786,-1.7242831136194101,1.9869068065120739,-1.772897159747679,-1.9468706225019017,-1.5678377429445092,0.7218546885997057,0.1463204175233841,0.746095597743988,0.9819238781929016,0.005556812044233084,-0.029189419001340866,0.1869295835494995
31.0,-0.10495563067611494,-1.7920170238951745,2.0414356021126148,-1.8869083608177384,-1.6884268775005689,-1.6763305942194788,0.7015528907068074,0.10999992489814758,0.7551439702510834,0.9977164268493652,-0.001671145553700626,0.026927145197987556,0.06192002072930336
32.0,-0.16370847397229962,-1.8347746103405385,2.090462281464486,-1.9735789048741488,-1.592609967487035,-1.732889842337025,0.68366520665586,0.08738019317388535,0.7548942863941193,0.9972363114356995,-0.0016066788230091333,0.07073996961116791,0.022649692371487617
33.0,-0.18957548197977878,-1.8745237550861877,2.1501575364983965,-2.0952325469923743,-1.56367702619885,-1.7546111913738847,0.6624702215194702,0.07867072522640228,0.7502056956291199,0.9922630190849304,-0.0024163476191461086,0.12257929146289825,0.019560011103749275
34.0,-0.21747124924287595,-1.885542495546107,2.1602752868299886,-2.0984775195504692,-1.5478781618811857,-1.781348335602244,0.6567084565758705,0.06435972452163696,0.7487809956073761,0.991946816444397,-0.0019863760098814964,0.1256658285856247,0.01567951589822769
35.0,-0.19812748667052157,-1.8957391559221326,2.1716224208337502,-2.1058669025282426,-1.5571216157222525,-1.7623556123843584,0.6473286673426628,0.0772041380405426,0.746390625834465,0.9915888905525208,-0.0023728918749839067,0.1280956268310547,0.018368566408753395
36.0,-0.1463425922439794,-1.8845110946643138,2.16798250245944,-2.125292835335152,-1.6136706317050717,-1.712233177765841,0.649994783103466,0.1006799265742302,0.7465355098247528,0.9905945062637329,-0.005325711332261562,0.13062578439712524,0.04038728028535843
37.0,-0.09873281214408657,-1.8490901541175595,2.132559754074925,-2.089161098379086,-1.7034669796696813,-1.667977968424904,0.6679544448852539,0.11530856043100357,0.7496576905250549,0.9909204244613647,-0.008535870350897312,0.10992131382226944,0.07694930583238602
38.0,0.04690529124023779,-1.8075634577506203,2.149917603909623,-2.148621112893186,-2.0566948604717714,-1.5195191342827237,0.6641715839505196,0.1602594256401062,0.7341120094060898,0.9638491272926331,-0.030364764854311943,0.12559980154037476,0.23301829397678375
39.0,0.11988552634878161,-1.7176640256800009,2.056280989585507,-1.871072328976027,-2.272817844245023,-1.4138265606060065,0.6985819269903004,0.18624503910541534,0.7231246829032898,0.9388139247894287,-0.010817155241966248,0.0296090766787529,0.34297916293144226
40.0,0.13562653445848522,-1.6432050145562866,1.96499595722191,-1.6008807968856296,-2.3369529023358586,-1.384483685524404,0.7299345396459103,0.19449421763420105,0.7132769823074341,0.9187521934509277,0.031052028760313988,-0.07378853857517242,0.3866335153579712
41.0,0.1628919899509893,-1.5538663961422625,1.888400523251471,-1.3131549135312814,-2.4478780079316373,-1.3355230940794716,0.7563213743269444,0.2077673375606537,0.6881467029452324,0.8698911070823669,0.09248099476099014,-0.17862945795059204,0.4503646492958069
42.0,0.1880591528194035,-1.6076230584777995,1.9776561379971138,-1.4978302703623563,-2.510057677576826,-1.2540471233654982,0.7249527778476477,0.21579760313034058,0.6835969835519791,0.8745422959327698,0.04327943176031113,-0.07944337278604507,0.47643616795539856
43.0,0.20245367090031577,-1.6671818621079266,2.0793326783137642,-1.7719683590102993,-2.5568637263412386,-1.1999092295985434,0.6933516254648566,0.21616467833518982,0.6857545524835587,0.877091646194458,-0.02402803674340248,0.044118255376815796,0.477688729763031
44.0,0.20924230644872294,-1.7100075884526527,2.182293546752645,-2.0877114456592354,-2.573891080055044,-1.2000183400854394,0.6623346917331219,0.21313171088695526,0.6826815232634544,0.8728981614112854,-0.0814184620976448,0.15619906783103943,0.4549964368343353
45.0,0.16122078598738493,-1.7800227833956468,2.254851511574209,-2.3706640864377677,-2.397987135939358,-1.3585464932553126,0.630852460861206,0.19117583334445953,0.6982381865382195,0.9016624689102173,-0.08806176483631134,0.21921728551387787,0.3622067868709564
46.0,0.07428647426134141,-1.849381300520269,2.2675002066099355,-2.4003980789232466,-2.140212965434595,-1.4914872713637737,0.6163875758647919,0.16401006281375885,0.7137917131185532,0.9393553733825684,-0.05974049121141434,0.21658608317375183,0.25910046696662903
47.0,-0.03708256041830146,-1.9211481604120841,2.2924486472144676,-2.4032138694349636,-1.8911083717304107,-1.6059797521210126,0.59625094383955,0.1304008811712265,0.7212672382593155,0.9610450267791748,-0.03735540434718132,0.21984106302261353,0.16330084204673767
48.0,-0.09741155755022027,-1.9571322421490247,2.3114497330357158,-2.4022358731089204,-1.785978073198086,-1.6602934253242199,0.5830155462026596,0.1118808165192604,0.7211921215057373,0.9659525156021118,-0.02919791452586651,0.22417601943016052,0.12581095099449158
49.0,-0.22271830870622417,-1.9620510028647757,2.238452931967103,-2.1489632755195416,-1.5605996852268347,-1.7836281068621638,0.6009361743927002,0.07160619646310806,0.7343253940343857,0.9886176586151123,-0.0041207000613212585,0.14784753322601318,0.027554038912057877
50.0,-0.2433034756644893,-1.9435812623622502,2.2123154332539134,-2.103991772054533,-1.5320568498055545,-1.8055558962072782,0.6153614670038223,0.06051142141222954,0.7384324371814728,0.9910861849784851,-0.0016802154714241624,0.13261863589286804,0.012556594796478748
51.0,-0.27356579347499366,-1.9428735385664193,2.2088423538732367,-2.0926406064487053,-1.5189665132043189,-1.8352837722456103,0.6176002323627472,0.043766479939222336,0.7390241920948029,0.9914990067481995,-0.0011944957077503204,0.1297892928123474,0.009125107899308205
52.0,-0.2791199923406521,-1.9629024136420967,2.2258561225531084,-2.0937167300942274,-1.515645822427567,-1.8403425597629843,0.6035466343164444,0.04496252164244652,0.7355250418186188,0.9911929368972778,-0.001170923002064228,0.13212960958480835,0.00878387875854969
53.0,-0.25448464072326893,-1.9841779053003772,2.259174824671121,-2.16319186354377,-1.5398983692703563,-1.8126012327851373,0.5884654000401497,0.05954018607735634,0.7310117185115814,0.9873114824295044,-0.003818091005086899,0.1569216251373291,0.02402247115969658
54.0,-0.2048513604927149,-2.0057811432060717,2.3282138000927404,-2.3576639550069376,-1.6302023673528119,-1.7557791789257533,0.5670698285102844,0.07811812311410904,0.7207617312669754,0.9726133346557617,-0.016497571021318436,0.22008074820041656,0.07290849834680557
55.0,-0.2793881626439596,-2.0258669135175325,2.321806722571039,-2.2855844728004975,-1.5398908246246905,-1.8263584732094962,0.5627384781837463,0.052623435854911804,0.7219509780406952,0.9780029654502869,-0.008438830263912678,0.20447497069835663,0.040362898260354996
56.0,-0.3282689048435815,-2.025603274516964,2.299365923066685,-2.199370313737517,-1.4921821453543314,-1.878146122999579,0.5663523972034454,0.032244723290205,0.7247666642069817,0.9835633039474487,-0.0033526322804391384,0.17959654331207275,0.018360741436481476
57.0,-0.36492498676787277,-2.023853649616345,2.287601784184971,-2.154834694941303,-1.4664596580676368,-1.9164005225447573,0.568554699420929,0.015163076110184193,0.7258605509996414,0.9858953952789307,-0.0012089766096323729,0.16720625758171082,0.007128468714654446
58.0,-0.3613530373015007,-1.9877205846571897,2.238970370805662,-2.0611783510154247,-1.4844013737310244,-1.921417304425702,0.5883145779371262,0.006757720373570919,0.7316761314868927,0.9919476509094238,-0.00017173121159430593,0.1266414076089859,0.001345123746432364
59.0,-0.3962656696628721,-1.9964791220761466,2.2460883250109553,-2.0617507973510234,-1.4681845385758279,-1.954967496987684,0.5832463651895523,-0.009012295864522457,0.7303994596004486,0.9914407730102539,0.00017804947856348008,0.13054989278316498,-0.0013521690852940083
60.0,-0.4402968053970517,-2.009238863647902,2.2630750953429715,-2.0923446175678944,-1.4288962062694754,-1.9944355237419282,0.5775285735726357,-0.02578471601009369,0.7286072671413422,0.9886058568954468,0.0012270535808056593,0.15030637383460999,-0.008070666342973709
61.0,-0.44580233252094936,-1.9879665676364735,2.2403613821051023,-2.0645237515138413,-1.4429455782835625,-2.0028326567039736,0.5892413109540939,-0.03701411187648773,0.7318671643733978,0.9907304644584656,0.0008705757791176438,0.13569100201129913,-0.006356397178024054
62.0,-0.42643379656241087,-1.9652271344515617,2.220425385034648,-2.058317330498883,-1.4527832580358395,-1.9850930679735816,0.6042791306972504,-0.0338062047958374,0.735727459192276,0.9915554523468018,0.0008176895789802074,0.1295299232006073,-0.006259437184780836
63.0,-0.4038460675907583,-1.9733213544170567,2.2269302171114798,-2.0586743248152852,-1.4643579744399018,-1.9630082452185764,0.5987894982099533,-0.019473114982247353,0.7343171685934067,0.9917609095573425,0.00044752215035259724,0.12805534899234772,-0.0034659618977457285
64.0,-0.3765416856024129,-1.973538944767647,2.2267833396373367,-2.0576374298233184,-1.4778874988204322,-1.9366217126612895,0.59821005910635,-0.005000954028218985,0.7341705709695816,0.9921301007270813,9.557463636156172e-05,0.12520883977413177,-0.000757314614020288
65.0,-0.3402886434579948,-1.9646324379320836,2.2215041618946323,-2.0679239627346058,-1.4921429063367175,-1.9009378239020989,0.604053869843483,0.01221564318984747,0.7356787323951721,0.9920368194580078,-0.0003214811731595546,0.125922292470932,0.002532682381570339
66.0,-0.3155607328922909,-1.9472230931218102,2.2086389989214563,-2.0755878792568074,-1.5020097896428621,-1.8767644969019364,0.615865483880043,0.02153516188263893,0.7386042773723602,0.9920267462730408,-0.0005839273217134178,0.12594209611415863,0.004599507432430983
67.0,-0.34508785633462846,-1.9456160765588202,2.204682829184109,-2.0632900083927046,-1.490388621889166,-1.906152957843196,0.6173876076936722,0.004828736651688814,0.7389950007200241,0.9924051761627197,-0.00014820658543612808,0.12300621718168259,0.0011957199312746525
68.0,-0.3245584374544161,-1.9286288311016957,2.1914880870847444,-2.0697905596137978,-1.4985444590140726,-1.886038240474947,0.6293500438332558,0.012075583450496197,0.7419930100440979,0.992399275302887,-0.00036836741492152214,0.12302342802286148,0.0029715278651565313
69.0,-0.3471272813931814,-1.9249543444937487,2.1868059418930565,-2.0624123744943983,-1.4883854256751932,-1.908432304478127,0.6322621032595634,-0.0014809214044362307,0.7427102625370026,0.9925763010978699,1.1629538676061202e-05,0.12162355333566666,-9.49092791415751e-05
70.0,-0.3835938606339326,-1.929237281999074,2.190200384281076,-2.060212811589982,-1.4705404865689198,-1.9439401343932043,0.6295697316527367,-0.020679248496890068,0.7420433759689331,0.9922515749931335,0.000526599760632962,0.12417265772819519,-0.004208006896078587
71.0,-0.4100148460539684,-1.9317309877441422,2.192183829235059,-2.058141955605464,-1.4575892131600607,-1.9697420989079957,0.6276318952441216,-0.03462805226445198,0.7415571808815002,0.9920008778572083,0.0009140681358985603,0.12602265179157257,-0.007195185869932175
72.0,-0.440299267346407,-1.9278725719746155,2.188890150795893,-2.0556619111793815,-1.4419475868841223,-1.999487586662319,0.6296655833721161,-0.05255608633160591,0.7420351505279541,0.9917065501213074,0.0014348078984767199,0.1280335932970047,-0.011113554239273071
73.0,-0.4674040525939267,-1.923678172454,2.185040540177963,-2.051245018961775,-1.4278716284211785,-2.026396340665731,0.63140519708395,-0.0689048171043396,0.7424362301826477,0.9914978742599487,0.0019541424699127674,0.1292414516210556,-0.014991537667810917
74.0,-0.491116867759153,-1.9163004263840433,2.1784127526792347,-2.0462745617429556,-1.4151297474229327,-2.0502007445185892,0.635020948946476,-0.08455416560173035,0.7432925403118134,0.9913361072540283,0.0024739671498537064,0.12996436655521393,-0.01887080818414688
75.0,-0.5398439693562495,-1.9054160914600924,2.166838359639699,-2.0141548592963603,-1.329917847119498,-2.1046498275626777,0.6408833265304565,-0.10679346323013306,0.7436042129993439,0.9886794090270996,0.00795331783592701,0.13869132101535797,-0.05669627711176872
76.0,-0.5149131661179276,-1.8847102506965856,2.147004903731148,-2.0178291286485743,-1.3694518571268932,-2.078138260569581,0.6554990112781525,-0.10449832677841187,0.7478772550821304,0.9907234311103821,0.0055196573957800865,0.12899407744407654,-0.04239306226372719
77.0,-0.4775824133219854,-1.8946923294084577,2.1589342542374017,-2.04538270986193,-1.4186026197770574,-2.037403565490458,0.6508342772722244,-0.08417017012834549,0.7472646981477737,0.9916254281997681,0.0025392596144229174,0.12760592997074127,-0.019732581451535225
78.0,-0.45262452314729795,-1.881545323749973,2.146422953574578,-2.045371311766705,-1.4299411920784693,-2.0131042814713314,0.661529216915369,-0.07410479336977005,0.7499824017286301,0.992067813873291,0.0022473076824098825,0.124399334192276,-0.01792197674512863
79.0,-0.4626172069245599,-1.8563277436877725,2.110474315781954,-1.9760949872163092,-1.4458603897926419,-2.0282303085139985,0.6737272385507822,-0.08990112692117691,0.7528252452611923,0.9952094554901123,0.0021343345288187265,0.09515965729951859,-0.022321537137031555
80.0,-0.440035944829323,-1.8053588002648735,2.0419650449717066,-1.8458039983367185,-1.4988516786399702,-2.0110446134253346,0.6993637960404158,-0.09485404193401337,0.7562128007411957,0.9991687536239624,0.000796584237832576,0.032678939402103424,-0.02435581386089325
81.0,-0.40452231759654816,-1.7769406279332138,2.006606416825715,-1.7782313971174777,-1.5348623845942913,-1.9755867451382816,0.714644399471581,-0.0812867060303688,0.7564557790756226,0.9997768402099609,-6.566923548234627e-05,-0.003142967354506254,-0.020889360457658768
82.0,-0.3850506214974505,-1.7598415981125635,1.9929754693824333,-1.7791759646389438,-1.5404186683213141,-1.9560070746265952,0.7282568570226431,-0.07321173697710037,0.756468266248703,0.9998080730438232,-0.00010793314140755683,-0.005763382185250521,-0.018723800778388977
83.0,-0.3769744978481945,-1.7769696236405412,2.007813172196074,-1.7852645953625503,-1.5426148656660648,-1.947923435712672,0.7168227769434452,-0.06294069439172745,0.7564919143915176,0.9998672008514404,-3.9067304896889254e-05,-0.002424074336886406,-0.016114240512251854
84.0,-0.40104789995041223,-1.82785572561054,2.0697064408926953,-1.8993444367710635,-1.4994971236137902,-1.9704667210923492,0.6907273372635245,-0.062625452876091,0.7559163272380829,0.998426616191864,0.0008568829507566988,0.053761281073093414,-0.01591358706355095
85.0,-0.3792232319492328,-1.8373405397594404,2.082097786728038,-1.9245094051965375,-1.5025763866672555,-1.947763760763223,0.6867925673723221,-0.045999929308891296,0.755575031042099,0.9979372024536133,0.0007313945679925382,0.06314625591039658,-0.011558657512068748
86.0,-0.3406448990422268,-1.8232206788453211,2.064145741130073,-1.8915160592648887,-1.5287885828707197,-1.9103433149338385,0.6946444092318416,-0.026096880435943604,0.7561388909816742,0.9989842176437378,0.00028931882116012275,0.044594183564186096,-0.006481225602328777
87.0,-0.3056441864603662,-1.8255352218444616,2.0679497410732055,-1.9022692119087545,-1.5414735830250619,-1.8751905141616296,0.6936983945779502,-0.0033715039025992155,0.756105899810791,0.9989016056060791,2.8306707463343628e-05,0.046853628009557724,-0.0006034882972016931
88.0,-0.28446778821054236,-1.847303631141705,2.098829059801563,-1.9677383773602297,-1.5369216425272632,-1.8521889855963325,0.6821489408612251,0.01540202647447586,0.7546961158514023,0.9972155690193176,-0.0003029376966878772,0.07446172833442688,0.004057039972394705
89.0,-0.266987413777849,-1.8675550497390712,2.130416529830951,-2.0357800658763914,-1.5324206412998183,-1.8322537632228666,0.6705764401704073,0.031105969101190567,0.7522041946649551,0.9947161078453064,-0.0008146442123688757,0.10235518962144852,0.007916937582194805
90.0,-0.23559254866412613,-1.865384180921389,2.1299187155844628,-2.0411412993349374,-1.547456630156457,-1.8013991792767161,0.6705999448895454,0.049435682594776154,0.7521929144859314,0.9946421384811401,-0.0012827353784814477,0.10262010246515274,0.012432871386408806
91.0,-0.20676012704432759,-1.8186101501572733,2.063767581088852,-1.9080213890098585,-1.5826128756774362,-1.7767649682402165,0.6949410503730178,0.05774205923080444,0.7561145424842834,0.998923122882843,-0.0006672012386843562,0.04383105784654617,0.015205718576908112
92.0,-0.17632294055361464,-1.786389862396407,2.0232761061168185,-1.8283963611348526,-1.6058022541723482,-1.7472103865457838,0.710072192363441,0.07216429710388184,0.7564623206853867,0.9997932314872742,-0.00013571188901551068,0.007123817224055529,0.01904650591313839
93.0,-0.19156813246958357,-1.7723112116656026,2.0081492754560357,-1.8074029711005917,-1.6030241709874191,-1.762462412772782,0.7200168333947659,0.060036174952983856,0.7564930617809296,0.9998701810836792,4.2777537601068616e-05,-0.0026915022172033787,0.015891490504145622
94.0,-0.23863040884554634,-1.9035425876404992,2.17552406767794,-2.095147470653476,-1.5375604484687764,-1.801811908660016,0.6444597914814949,0.05536392703652382,0.7457072138786316,0.9919130802154541,-0.0016853481065481901,0.12621502578258514,0.013245005160570145
95.0,-0.2604438629928133,-1.9180602196151808,2.1870013194172673,-2.0899685388497637,-1.5270004722058894,-1.8230082799743492,0.6348636522889137,0.045817289501428604,0.7433176636695862,0.9919482469558716,-0.0013504027156159282,0.12619119882583618,0.010615077801048756
96.0,-0.23714859028968452,-1.9240557692043743,2.194332975670622,-2.098126505278964,-1.5374530893308478,-1.80009803888168,0.629014752805233,0.06004888564348221,0.7418614774942398,0.9916147589683533,-0.0017537915846332908,0.12850655615329742,0.013533047400414944
97.0,-0.18980395412100118,-1.9128923656097367,2.18822567515338,-2.110396978010338,-1.5601847808333205,-1.7540749827899904,0.6335006803274155,0.08463703095912933,0.7429147362709045,0.991266131401062,-0.0025351294316351414,0.1304374635219574,0.01926583983004093
98.0,-0.07092100504037044,-1.9055939938499227,2.2325534235827114,-2.2663785775882,-1.795752672868988,-1.6390714357945488,0.6199303045868874,0.12296112626791,0.7334985882043839,0.9768226742744446,-0.021862700581550598,0.1739974319934845,0.1227373406291008
99.0,-0.008223336741788765,-1.8664559346035574,2.2110190572207173,-2.262377304711878,-1.9242583962771798,-1.5790475579848096,0.6349366456270218,0.1423729509115219,0.7327986657619476,0.9696430563926697,-0.030338678508996964,0.1685183197259903,0.17456670105457306
100.0,0.12712141532113932,-1.7843013587276306,2.196407086498639,-2.2349958728884483,-2.2854733529758313,-1.4126698539091285,0.6503257378935814,0.1838068664073944,0.713729053735733,0.9286054968833923,-0.05837447568774223,0.165900319814682,0.3267435133457184
101.0,-0.16993239057214163,-1.9374396131744986,2.2265773560310285,-2.1784206897013494,-1.617828433064336,-1.7329131575099377,0.6132717281579971,0.09134748578071594,0.7367400377988815,0.9870524406433105,-0.007585856132209301,0.15251067280769348,0.04909582808613777
102.0,-0.2894013557711777,-1.9269997844783038,2.1926142258540544,-2.081097898392503,-1.5141922293216168,-1.8513714641138475,0.6295578554272652,0.031371649354696274,0.7420314848423004,0.9921335577964783,-0.0009249082067981362,0.12496574968099594,0.007343071512877941
103.0,-0.29774796208677795,-1.9123848161015196,2.1791250430087246,-2.078035032360697,-1.509938500655733,-1.8597441935200603,0.6406473889946938,0.02347189374268055,0.7447814643383026,0.9923256635665894,-0.0007165935821831226,0.12351585924625397,0.0057571083307266235
104.0,-0.26952249169226855,-1.9027366402248054,2.1729071813369094,-2.0883816952345753,-1.5221819464868642,-1.8319612151764255,0.6469188258051872,0.03759981691837311,0.7463456988334656,0.9920688271522522,-0.0011466378346085548,0.1253635436296463,0.009073959663510323
105.0,-0.30257150047355796,-1.895709679954521,2.1644634416142643,-2.079561103806318,-1.5056947953103192,-1.8644434599511177,0.6534819975495338,0.017092663794755936,0.7480151355266571,0.992289662361145,-0.0005315527669154108,0.12386691570281982,0.0042582349851727486
106.0,-0.3215133382159973,-1.8817101964290976,2.148380473879805,-2.063169140925293,-1.4982680803190662,-1.8838743165438507,0.6637546829879284,0.002564423717558384,0.7506020069122314,0.9929941892623901,-0.00010523504897719249,0.11816016584634781,0.000884374079760164
107.0,-0.3507743688774241,-1.9073534868393534,2.1722633157811195,-2.066785831666301,-1.4837565911600539,-1.9118637254308106,0.6454857774078846,-0.00787115003913641,0.7460037171840668,0.9924048185348511,0.0001989214215427637,0.12300428748130798,-0.0016049081459641457
108.0,-0.3770248570355033,-1.9064593724495564,2.170999651387159,-2.063669713842775,-1.4702465750479063,-1.9375853793653472,0.646232184022665,-0.023044027388095856,0.746185839176178,0.9922510981559753,0.0006466210470534861,0.12413962185382843,-0.005168458446860313
109.0,-0.3735126159710775,-1.885850588346506,2.1522920526100155,-2.0627664354880766,-1.4698540970301361,-1.934433688458581,0.661366306245327,-0.02661050483584404,0.7500011324882507,0.9923995733261108,0.0007768151117488742,0.1228957250714302,-0.0062728868797421455
110.0,-0.4012734186505053,-1.8897090197577484,2.1550752088615246,-2.0574173659764727,-1.4562236061025398,-1.9618322072317953,0.6579740606248379,-0.041668761521577835,0.7491318732500076,0.9922760128974915,0.0012418783735483885,0.12364254146814346,-0.00996652152389288
111.0,-0.4338377878370367,-1.9093282381784837,2.1722607426705833,-2.0532020448502912,-1.4425485444504818,-1.9936932825040579,0.6428099349141121,-0.05452600494027138,0.7452969551086426,0.9919657111167908,0.0015914059476926923,0.12587420642375946,-0.012541249394416809
112.0,-0.5295085055279273,-1.9426626267038027,2.203310175670209,-2.0465073259965836,-1.3573240044660309,-2.0885867133869085,0.6174774169921875,-0.09061336517333984,0.7382649481296539,0.9886160492897034,0.005641448777168989,0.1453779637813568,-0.03836362808942795
113.0,-0.601768413306479,-1.9327519819422132,2.195780973694427,-1.9955261132183522,-1.2150453013121412,-2.177834942542063,0.6214246302843094,-0.11772792786359787,0.7358760088682175,0.9809656739234924,0.01687501184642315,0.16562697291374207,-0.09994633495807648
114.0,-0.7234974424331608,-1.8804898576888032,2.1545158069751085,-1.7387503277870648,-0.9313340515788405,-2.437067851178469,0.6318015605211258,-0.16701683402061462,0.7201164066791534,0.9467591047286987,0.05099685117602348,0.18878889083862305,-0.2557445764541626
115.0,-0.6708637219412358,-1.864764628341034,2.127107756630789,-1.7822685696614433,-1.0335025494139816,-2.328117648626958,0.6489968150854111,-0.15764939785003662,0.7318500280380249,0.9632104635238647,0.03490754961967468,0.1552506536245346,-0.21657441556453705
116.0,-0.712848721858811,-1.7580615389316987,2.024346359347797,-1.4125127181224864,-0.9082981786594085,-2.5156945452263946,0.6758506745100021,-0.19311575591564178,0.7149951606988907,0.9261267781257629,0.03895195946097374,0.09973674267530441,-0.3616967499256134
117.0,-0.6409895262204405,-1.7333078599763263,1.9739800040881148,-1.4450698621774574,-1.0631690221436205,-2.3232952460827594,0.7009715009480715,-0.1786229908466339,0.7302901595830917,0.9528340697288513,0.0073649585247039795,0.023197529837489128,-0.30251428484916687
118.0,-0.6234542101500737,-1.6423334101251514,1.8850078864894702,-1.2361451508483765,-1.0799968471321393,-2.2836971236771815,0.7321334630250931,-0.18934711813926697,0.7200156301259995,0.9320673942565918,-0.027515336871147156,-0.07246825844049454,-0.3538949489593506
119.0,-0.5426220383695408,-1.6609542940314193,1.8822064187788623,-1.392996084032443,-1.2432791168841177,-2.1383804959564414,0.7488659434020519,-0.15888747572898865,0.7383704483509064,0.9673755168914795,-0.020240887999534607,-0.08197416365146637,-0.23886233568191528
120.0,-0.5238780266159475,-1.7286986959772281,1.9484607561332432,-1.5706586047904572,-1.315234809961161,-2.1131088458664635,0.7249050159007311,-0.1416151076555252,0.74827940762043,0.9859449863433838,-0.00489570340141654,-0.02936115860939026,-0.16439726948738098
121.0,-0.5261434576072588,-1.7886810599526324,2.016936184896054,-1.7254200117196237,-1.3295266139511326,-2.1132628268358595,0.6999744768254459,-0.13143782317638397,0.7518869936466217,0.9920628666877747,0.0036672805435955524,0.029794961214065552,-0.12210697680711746
122.0,-0.6019778241279056,-1.8272709358039796,2.070769035530742,-1.7582058589167877,-1.1705850596469276,-2.218862383661375,0.6750509291887283,-0.14698350429534912,0.743601605296135,0.9795286059379578,0.017001179978251457,0.09397346526384354,-0.17721109092235565
123.0,-0.41832867952007097,-1.7612834302739855,1.9927385309300765,-1.770675791884361,-1.5312583126709765,-1.9894363611847736,0.7241461351513863,-0.09529050439596176,0.7564170658588409,0.9996800422668457,-0.0001564353151479736,-0.00638987822458148,-0.024473901838064194
124.0,-0.40419799725047545,-1.720206158115973,1.951920890923561,-1.7273896245456672,-1.5117682897798916,-1.975290140212837,0.7521522864699364,-0.09321640431880951,0.7558005005121231,0.9988596439361572,-0.0009604048100300133,-0.022907206788659096,-0.04187806323170662
125.0,-0.3737648215672544,-1.7298921687791544,1.966936081477222,-1.7720511894458768,-1.5442719067168162,-1.9445895766481356,0.7502380535006523,-0.07394185662269592,0.7564460188150406,0.9997520446777344,-0.00022308995539788157,-0.01181503664702177,-0.018877189606428146
126.0,-0.3551196088420574,-1.7099554687392944,1.9493537371194778,-1.7687093801176776,-1.550203932724258,-1.9258077256462707,0.7658656537532806,-0.06624989956617355,0.7564378082752228,0.9997318983078003,-0.00026763282949104905,-0.015867676585912704,-0.016862016171216965
127.0,-0.39613679267312574,-1.6820749263934067,1.9074383036135927,-1.6473939808924614,-1.493264717904274,-1.9657702302609124,0.7734309956431389,-0.09265837073326111,0.7543843686580658,0.9964838027954102,-0.0034595278557389975,-0.053632188588380814,-0.06427788734436035
128.0,-0.4528211450211207,-1.5966564681127076,1.808488711150295,-1.351940768953684,-1.3676978212930162,-2.0110513976450033,0.7955517172813416,-0.12892784178256989,0.7409670650959015,0.9717150926589966,-0.02776794135570526,-0.14897121489048004,-0.18112577497959137
129.0,-0.4883269295339552,-1.6299787786718598,1.845255409467557,-1.3905438098766643,-1.32462901804449,-2.0603918411108815,0.7744872197508812,-0.1412592977285385,0.7416554242372513,0.9731056690216064,-0.023504983633756638,-0.1155991181731224,-0.1978633999824524
130.0,-0.5548186356529495,-1.5586272554646503,1.7932953988560147,-1.1337346351647417,-1.1805081925981415,-2.1283082465809713,0.7786434665322304,-0.17703229188919067,0.7179645597934723,0.9262911081314087,-0.06266196072101593,-0.17794927954673767,-0.3261784315109253
131.0,-0.5338212518779811,-1.4335156848971242,1.6935208057188675,-0.864207096018785,-1.1899036497872781,-1.9929902140664906,0.8156705945730209,-0.1819951832294464,0.6903786212205887,0.8631971478462219,-0.13633215427398682,-0.32804885506629944,-0.3587316870689392
132.0,-0.5766864746916334,-1.466678340925107,1.7398163960119917,-0.9008700480405369,-1.1230274236423783,-2.0867592232896888,0.7933858335018158,-0.196580171585083,0.6864424496889114,0.86517733335495,-0.12717533111572266,-0.2756817936897278,-0.39911672472953796
133.0,-0.6198444645741142,-1.5064496966830527,1.790097642554059,-0.940546511468098,-1.0541820961380737,-2.2067261442566277,0.7682950422167778,-0.20774060487747192,0.6845055669546127,0.8685089349746704,-0.10572344064712524,-0.21055230498313904,-0.43609946966171265
134.0,-0.6643930159075109,-1.5506879950427523,1.8476956798041388,-0.9908191925950357,-0.984872153320915,-2.356755664419366,0.741150613874197,-0.21676407754421234,0.6801796704530716,0.8726638555526733,-0.06973089277744293,-0.13078323006629944,-0.46528613567352295
135.0,-0.6922645210806304,-1.595226266348537,1.884115351369728,-1.021332395519285,-0.926382551950337,-2.482955168176266,0.7203536778688431,-0.21576467156410217,0.6895125210285187,0.8753290176391602,-0.03303687274456024,-0.060422465205192566,-0.47859904170036316
136.0,-0.7389631090977241,-1.6605662928138645,1.9587743947667111,-1.1103694548878216,-0.8385498559159604,-2.6852924622352647,0.6897031422704458,-0.21696589887142181,0.6878617778420448,0.8768507838249207,0.031672194600105286,0.058324553072452545,-0.4761594533920288
137.0,-0.7791580611581558,-1.7625141098589234,2.0595221142306284,-1.3001455236681536,-0.7649617413856775,-2.785790402497476,0.6530545204877853,-0.20600739121437073,0.6935004591941833,0.8859681487083435,0.08372167497873306,0.17632682621479034,-0.4206661581993103
138.0,-0.8213742256155114,-1.8143474278096103,2.125058526910475,-1.3521133876330824,-0.6894515046024077,-2.9114174085857845,0.6252317875623703,-0.20208609104156494,0.6849059909582138,0.8723558187484741,0.11625214666128159,0.25196921825408936,-0.40248262882232666
139.0,-0.7417011052545078,-1.929624960361644,2.2105199961423363,-1.8273068666122518,-0.9159400798064672,-2.436477915328905,0.607518807053566,-0.15655267238616943,0.7151626199483871,0.9452265501022339,0.05474141612648964,0.22350406646728516,-0.2315082550048828
140.0,-0.6787547162482753,-1.9837573182565327,2.2578599978582075,-2.0120953773618684,-1.067170091861683,-2.272710271015103,0.5894611924886703,-0.1215539202094078,0.7218435555696487,0.964774489402771,0.03197871148586273,0.2204614132642746,-0.13994398713111877
141.0,-0.5997412343397913,-2.00626423466112,2.27288030916556,-2.0904849357938033,-1.2190006211210958,-2.1565839466155357,0.5808217525482178,-0.08923668414354324,0.7255116999149323,0.9768284559249878,0.01526910625398159,0.2000330537557602,-0.07456416636705399
142.0,-0.518620983285683,-2.001830600012488,2.261121347301874,-2.0962873030974216,-1.3523546624217657,-2.0704406529399004,0.5830311179161072,-0.06282120198011398,0.7292003631591797,0.9853422045707703,0.005116745829582214,0.16784611344337463,-0.030037904158234596
143.0,-0.4590406499660274,-1.9650266723510807,2.2207366750424673,-2.0581230577986247,-1.4364002771708595,-2.016770353266318,0.6038888245820999,-0.05120161175727844,0.7356083989143372,0.991089403629303,0.0012838481925427914,0.13284717500209808,-0.009577985852956772
144.0,-0.4976661427125972,-1.961551624075728,2.2190561301446734,-2.058025472137108,-1.4058234297788188,-2.0546058452803595,0.6055008471012115,-0.07136870175600052,0.7358148097991943,0.9900745749473572,0.002583622932434082,0.13931457698345184,-0.018361173570156097
145.0,-0.5920630885016501,-2.0478925978028246,2.319719937162817,-2.1596909718898893,-1.2118460569804557,-2.1349436817477616,0.5594037026166916,-0.06867324560880661,0.7187940031290054,0.9718976020812988,0.014618203043937683,0.22641582787036896,-0.06274912506341934
146.0,-0.5139996737003869,-2.035544647691057,2.2981914845353564,-2.1440969358543156,-1.3313617031744984,-2.058942300158322,0.5651477575302124,-0.04624568670988083,0.7236454635858536,0.9810466170310974,0.005795431323349476,0.1913941651582718,-0.02970617450773716
147.0,-0.5002250278895604,-2.0608609053616274,2.3320763393691686,-2.207300217811059,-1.3231466891092285,-2.0359009896858486,0.5520198047161102,-0.029560351744294167,0.7188065126538277,0.9760811924934387,0.005294468253850937,0.2160213440656662,-0.02392277680337429
148.0,-0.5859341769491552,-2.0936702647946333,2.383367250524185,-2.279896851261074,-1.1906545408563451,-2.1031927779060924,0.5358421206474304,-0.04567418992519379,0.7089671641588211,0.9611870646476746,0.013606974855065346,0.2713128626346588,-0.04820578172802925
149.0,-0.5057800683258,-2.1000843327171443,2.4012083887498994,-2.3577926362090835,-1.2830068280418394,-2.0137718863833367,0.5303036272525787,-0.013867581263184547,0.707780547440052,0.9612137675285339,0.004317874554544687,0.27535831928253174,-0.015072726644575596
150.0,-0.47268280724529504,-2.1102880520162137,2.438234783597405,-2.46941250400055,-1.314052272057287,-1.9640111181413367,0.5204525887966156,0.003629975952208042,0.7016156911849976,0.9523521065711975,-0.0017974008806049824,0.30494382977485657,0.005613355897367001
151.0,-0.3694923841188667,-2.0918636239740604,2.4791187243484973,-2.6581356501805886,-1.4431086431660545,-1.8524525979883268,0.5142956674098969,0.03744180500507355,0.6942983716726303,0.9375011920928955,-0.01929902657866478,0.34342917799949646,0.052682943642139435
152.0,-0.2990829645081635,-2.0647352428349364,2.4165887606190175,-2.517761850090923,-1.533888748493929,-1.8194222299345215,0.5327228009700775,0.052040182054042816,0.7057463228702545,0.9557254910469055,-0.018704885616898537,0.2869822680950165,0.06229212507605553
153.0,-0.19533923564963868,-2.0257732570108136,2.4027038207653093,-2.5522948570560007,-1.6737117745449395,-1.73488751315069,0.5431543290615082,0.0812678337097168,0.7066673263907433,0.953039824962616,-0.030205674469470978,0.28374195098876953,0.10145558416843414
154.0,-0.1118027329809425,-1.990522625634447,2.4266288876106,-2.6840128523678404,-1.8156324488702593,-1.6623454208979231,0.5421320647001266,0.1037602573633194,0.698801726102829,0.9357178807258606,-0.05003482475876808,0.3162456750869751,0.1480446457862854
155.0,-0.00850254353306889,-1.9307622054796878,2.411695691354713,-2.7231348202374264,-2.004343882872634,-1.5781501253149126,0.5553747266530991,0.13146239519119263,0.6954182833433151,0.922041118144989,-0.07138396799564362,0.3201025724411011,0.20561833679676056
156.0,0.1311462419798461,-1.8178419031993245,2.4023792880412684,-2.819061981989111,-2.3339602953397067,-1.438172094985449,0.573679193854332,0.17083348333835602,0.6803275272250175,0.8773478865623474,-0.12197502702474594,0.34604549407958984,0.3092498779296875
157.0,0.17998108950278352,-1.7743981556442738,2.331409509188735,-2.5968452882549764,-2.466945645435148,-1.3394062891245035,0.6053305119276047,0.19196447730064392,0.6813041269779205,0.8737344145774841,-0.12316915392875671,0.2910812199115753,0.3697150945663452
158.0,0.20976846265054774,-1.7259954961858235,2.233877929900772,-2.242143062083191,-2.5541510755775687,-1.2250033165037308,0.6446710377931595,0.2114437371492386,0.6750980168581009,0.8739487528800964,-0.09816360473632812,0.19824080169200897,0.43275630474090576
159.0,0.20863719443931025,-1.6540875885574118,2.0795886219149264,-1.7550763054090823,-2.55076916817711,-1.1910072835367773,0.6953259697183967,0.22168469429016113,0.6730025261640549,0.8775638341903687,-0.018450744450092316,0.033880557864904404,0.4779054820537567
160.0,0.19213733070950356,-1.5845263011976884,1.9704074896304435,-1.4733971286061174,-2.492996670354632,-1.2576711185839162,0.7321204394102097,0.22192075848579407,0.6673961281776428,0.8743908405303955,0.053705763071775436,-0.09952066093683243,0.4718601107597351
161.0,0.17582950983628232,-1.5426938678423452,1.9120443937659353,-1.355113477921829,-2.4438550463402606,-1.315407189815947,0.7553096823394299,0.21824774146080017,0.6642732992768288,0.8718913793563843,0.0873134657740593,-0.1686590611934662,0.4513712525367737
162.0,0.15440597847859808,-1.501253582181137,1.8534071368047889,-1.2508142935426796,-2.3880067073005624,-1.3748520876073391,0.7796309664845467,0.21088914573192596,0.6630672365427017,0.8688743114471436,0.11301027238368988,-0.23262427747249603,0.4221043288707733
163.0,0.12784566462610275,-1.4698809096962835,1.7963769642329142,-1.1573197870302634,-2.3355174898849596,-1.428276406161756,0.8009185940027237,0.19790296256542206,0.6705679818987846,0.8659718632698059,0.12856793403625488,-0.285547137260437,0.38990485668182373
164.0,0.10127992735962857,-1.4414345329803147,1.7466975136169844,-1.0806791502157476,-2.2825920965028805,-1.4709013113721106,0.8198796212673187,0.18405069410800934,0.676544539630413,0.8640890121459961,0.13554255664348602,-0.328926682472229,0.35606974363327026
165.0,0.07057520685612106,-1.4036454695445195,1.700324223336705,-1.019071211340275,-2.211641956566179,-1.5101593198191117,0.8430217504501343,0.16861492395401,0.6719643175601959,0.8643261790275574,0.13393531739711761,-0.3709852397441864,0.312044233083725
166.0,0.019125616161358227,-1.3571917336186528,1.6405266217652825,-0.9462549540678764,-2.1053234583836153,-1.556994037060542,0.873257115483284,0.13912031054496765,0.6677211597561836,0.8665086627006531,0.11811379343271255,-0.4189751446247101,0.24427847564220428
167.0,0.05259820165401837,-1.3801132308107384,1.6789204977914098,-0.9963286018035805,-2.167018162241364,-1.5288033469640807,0.8570419698953629,0.15963628888130188,0.6640579551458359,0.8655391931533813,0.12880194187164307,-0.3912067711353302,0.2849723994731903
168.0,0.09171322435322164,-1.4139945112332057,1.733065321578276,-1.0697946948909602,-2.2433045112042556,-1.4862569646182364,0.8337777256965637,0.18200501799583435,0.6603238135576248,0.8652685284614563,0.13463793694972992,-0.348224401473999,0.33454856276512146
169.0,0.11924038885466898,-1.441063057242667,1.7787935115981846,-1.1367291712235856,-2.2980170557646535,-1.4472567642848906,0.8152043148875237,0.19679445028305054,0.6558978334069252,0.8661733269691467,0.1320025473833084,-0.30929499864578247,0.36966997385025024
170.0,0.15663263876288364,-1.4855837207595173,1.8541560814904197,-1.2559961562312805,-2.3746640141534363,-1.3764346240588634,0.7851210087537766,0.2150023728609085,0.6490199826657772,0.8694225549697876,0.11470159888267517,-0.2392822653055191,0.41676366329193115
171.0,0.1805005617299444,-1.5283604064969978,1.9162726815301148,-1.3640112240618203,-2.4339107520201497,-1.3126078544997977,0.7590615041553974,0.2236536741256714,0.6495536118745804,0.872559666633606,0.08873376995325089,-0.17272700369358063,0.44825366139411926
172.0,0.19769778345884645,-1.5697610587747637,1.974446470729923,-1.4776018077640403,-2.482762850919302,-1.2538416154404173,0.7351540215313435,0.22782471776008606,0.6523194946348667,0.8750709891319275,0.05644293501973152,-0.10530918836593628,0.46901488304138184
173.0,0.21710622901802418,-1.6462341673159933,2.094843075214962,-1.7789526207034914,-2.5485736113255855,-1.1767894073439076,0.6930386582389474,0.22767406702041626,0.6581137403845787,0.878031849861145,-0.021316569298505783,0.03927846625447273,0.476511150598526
174.0,0.219820201717331,-1.6924469794352563,2.180535775626075,-2.042113831695413,-2.5669536577854526,-1.1787865180197457,0.6645207107067108,0.2217191457748413,0.6636871919035912,0.8755619525909424,-0.07154714316129684,0.13684874773025513,0.4577605426311493
175.0,0.20289484416786327,-1.748110064723271,2.29836571238317,-2.444777983041903,-2.5124486499103913,-1.2755814541480621,0.6203246861696243,0.20545697212219238,0.6683353632688522,0.8752346634864807,-0.11361204832792282,0.2495419681072235,0.3984788954257965
176.0,0.1762771216766102,-1.7799439902455758,2.358575588578925,-2.656865222709789,-2.437331571268615,-1.3559515075336726,0.5946594327688217,0.1906466782093048,0.6710989773273468,0.8763471841812134,-0.12230278551578522,0.30243968963623047,0.35438376665115356
177.0,0.1059827974827326,-1.8365118463443955,2.437106089242675,-2.8914580542176838,-2.263900008127485,-1.4728737716467686,0.5587976574897766,0.16243699193000793,0.6720513105392456,0.8807212114334106,-0.1161145567893982,0.3619929552078247,0.28250426054000854
178.0,-0.00611608788296604,-1.907229858092334,2.498558342043931,-3.0120368747634227,-2.0365680462744495,-1.5753250326959736,0.5299089848995209,0.12846340239048004,0.672423467040062,0.8863865733146667,-0.09585235267877579,0.40002623200416565,0.2123916745185852
179.0,-0.11821185455627647,-1.9651294146136702,2.5392056793988544,-3.046193585034023,-1.8363885359447414,-1.6490027835556282,0.5117853581905365,0.10084471106529236,0.6689341440796852,0.8909022212028503,-0.07550521194934845,0.4179585874080658,0.16094359755516052
180.0,-0.21040865687568083,-2.02700259340622,2.5078700121714137,-2.8729738683231347,-1.6779377494029737,-1.718550547088827,0.5149328261613846,0.07868642359972,0.6851822063326836,0.9144254922866821,-0.050042010843753815,0.38351744413375854,0.11931580305099487
181.0,-0.3503880190118599,-2.060628525387488,2.5801083895554475,-3.0048230570333083,-1.4678927031469722,-1.785120755061292,0.4931645691394806,0.05064227432012558,0.6677545234560966,0.8955429792404175,-0.03826078772544861,0.4363163411617279,0.07853058725595474
182.0,-0.48569922419407086,-2.1034789260689326,2.5872520095959657,-2.934187518102649,-1.2644870655076552,-1.8738604820087699,0.4889373481273651,0.021800018846988678,0.6688935607671738,0.8964389562606812,-0.016863614320755005,0.44152072072029114,0.03423893079161644
183.0,-0.5863944251897945,-2.128830969112685,2.5843364643907485,-2.85556801959158,-1.1138490556027068,-1.9538451119850595,0.4884553551673889,-0.0014569273917004466,0.6709143370389938,0.8961365818977356,0.0002885292924474925,0.4437778890132904,-0.0005826375563628972
184.0,-0.6411087981519665,-2.144331358078365,2.526867570091567,-2.62471963031059,-1.0454302806217253,-2.059842526817941,0.4999518543481827,-0.025738127529621124,0.6829425543546677,0.9156570434570312,0.01603715866804123,0.3999587595462799,-0.036715127527713776
185.0,-0.752738519551057,-2.148067485991942,2.529047179858607,-2.538335406963846,-0.8650922620951621,-2.188796163090451,0.5004580914974213,-0.05625885725021362,0.6780218780040741,0.9030101299285889,0.039203375577926636,0.41941845417022705,-0.0844050720334053
186.0,-0.8048421133632038,-2.1291574673566345,2.482443208748814,-2.3466915758775,-0.7856177138636585,-2.325279724756313,0.5125962793827057,-0.08562354743480682,0.6810720562934875,0.905105710029602,0.057471808046102524,0.4007943570613861,-0.12978743016719818
187.0,-0.8725106255958818,-1.6891601468529849,2.104709659770591,0.9450351632154015,0.64943369921701,0.6032684546710517,0.5236108601093292,-0.12003125250339508,0.67360058426857,0.8875866532325745,0.08889216184616089,0.4086754620075226,-0.19306150078773499
188.0,-0.8602524902515531,-1.7397565237405443,2.1256948213816225,0.8544126594573793,0.6870099274723283,0.6999238455831547,0.5110037922859192,-0.10279583930969238,0.6674676463007927,0.8912475109100342,0.07507026940584183,0.41757676005363464,-0.16022486984729767
189.0,-0.8248949190201905,-1.8020678614828123,2.141151892694393,0.7502624223457746,0.7519294681061676,0.8300978016986077,0.49998122453689575,-0.0788760781288147,0.6657872423529625,0.8941001296043396,0.057329170405864716,0.42771023511886597,-0.11984286457300186
190.0,-0.7231707348736619,-1.8835275699921767,2.153412590507884,0.607986987571377,0.912915599616118,1.031999663318105,0.4897497594356537,-0.0383533351123333,0.6665062010288239,0.8964693546295166,0.027285592630505562,0.4387366771697998,-0.05575257167220116
191.0,-0.63187366117897,-1.9157049704279352,2.1647374913469606,0.534744238755652,1.0569282071691553,1.1404358091504025,0.4842560589313507,-0.011380878277122974,0.660247728228569,0.8985220789909363,0.007093532010912895,0.4386304020881653,-0.014530899934470654
192.0,-0.5456640006615016,-1.9269415576058067,2.165705644060212,0.4903179588148352,1.1823913622089035,1.2175487106215301,0.4832743704319,0.010087752714753151,0.6579290516674519,0.899013340473175,-0.007551722228527069,0.4375811815261841,0.01551506295800209
193.0,-0.42261241158594687,-1.9239342334003608,2.160332373940204,0.4458143702071622,1.3636307801784364,1.3071417594760821,0.4849609136581421,0.03709726780653,0.6555912867188454,0.898769199848175,-0.027001025155186653,0.43400269746780396,0.055915988981723785
194.0,-0.23964968072758208,-1.8856306777898704,2.138268926139812,0.41119233745174544,1.6380055999571348,1.4190991291840953,0.4938035309314728,0.07558725029230118,0.6534591019153595,0.8969036340713501,-0.054201528429985046,0.4236240088939667,0.11475634574890137
195.0,-0.09808263424009549,-1.8277960074783224,2.1076606432327942,0.4108344180918868,1.8638590582379924,1.503883631705938,0.5065681636333466,0.10733489692211151,0.6518054977059364,0.8939573764801025,-0.07613778859376907,0.4090997874736786,0.16637490689754486
196.0,-0.020081581245252677,-1.781594522342291,2.087875649415605,0.4243248335225269,1.9952825889541497,1.5559893067138666,0.5154935717582703,0.12712553143501282,0.647033829241991,0.8923323750495911,-0.08826799690723419,0.3952799439430237,0.19926229119300842
197.0,0.03571891097588211,-1.7391822454217882,2.05626871161121,0.45143218711268585,2.1003475720005955,1.5991419523190011,0.5281884223222733,0.14200884103775024,0.6518127582967281,0.8889053463935852,-0.0989060029387474,0.38438233733177185,0.2287255823612213
198.0,0.10965895378541808,-1.6617463657492408,2.002671696635326,0.5192344074096034,2.2539124249853617,1.6721001779941038,0.5510585457086563,0.16490179300308228,0.6564671620726585,0.8838571906089783,-0.11283591389656067,0.35903400182724,0.27777546644210815
199.0,0.1710676465706519,-1.5587831342290235,1.9351523683960388,0.647790543351132,2.401525945733373,1.7674803124039384,0.5823835581541061,0.1889611780643463,0.6587122231721878,0.8795387148857117,-0.12019721418619156,0.3138546049594879,0.33683785796165466
200.0,0.20068135272788562,-1.48088501875882,1.8897082367717846,0.7733331802999159,2.4817373869294763,1.8431947907385526,0.6059689968824387,0.20397618412971497,0.6572420448064804,0.8775404095649719,-0.11647695302963257,0.26972755789756775,0.378949910402298
201.0,0.22191964737332534,-1.3743116255431203,1.83161140662163,0.9869977596300734,2.5469583327327223,1.9369249733739924,0.642323911190033,0.21995627880096436,0.6541268453001976,0.8770425319671631,-0.09306563436985016,0.18905854225158691,0.4317314624786377
202.0,0.22590807063606022,-1.2872517544147937,1.7898616138885022,1.1973623315952533,2.5588920781171898,1.9799820273427147,0.676598496735096,0.22954747080802917,0.6491746157407761,0.8776991963386536,-0.04992238059639931,0.09376806765794754,0.4672895073890686
203.0,0.23137145352358007,-1.3259334855170095,1.8199735217937851,1.080800260843982,2.5540512660941337,1.9731887388938907,0.6558368057012558,0.22907094657421112,0.6421610713005066,0.8784244656562805,-0.07434011995792389,0.1454026997089386,0.44911259412765503
204.0,0.22768461128109974,-1.3854570875083312,1.8550172886529965,0.9409295257462864,2.5344170606211662,1.9344963506508108,0.6315337792038918,0.22257483005523682,0.6414700075984001,0.8787492513656616,-0.09704199433326721,0.2024707794189453,0.4211747944355011
205.0,0.21529694801407426,-1.44711322965466,1.8891094000025088,0.8163955820043958,2.4971601975672426,1.8786527820476404,0.6105069369077682,0.21299079060554504,0.6428489163517952,0.8795815706253052,-0.11031767725944519,0.2485789954662323,0.39035236835479736
206.0,0.1938584914471383,-1.514007650347949,1.9248595969591933,0.7027610431714613,2.441278843616839,1.8137620659479954,0.5903711020946503,0.20050480961799622,0.6463286429643631,0.8805683255195618,-0.11719803512096405,0.2895795404911041,0.3563818037509918
207.0,0.15238658477768305,-1.6008999967587776,1.9763694479339065,0.5805054038035986,2.3395542283844746,1.730195572720501,0.564818263053894,0.181566059589386,0.6482048332691193,0.8831691741943359,-0.1165643185377121,0.3326018452644348,0.3095173239707947
208.0,0.16958731392648604,-1.5771285441010503,1.9804614395419637,0.5981101810622933,2.3615604140553232,1.756203169433591,0.5652386844158173,0.18942543864250183,0.6350009888410568,0.8848237991333008,-0.1151735782623291,0.320376992225647,0.3180887699127197
209.0,0.12227554679728504,-1.6505209563092642,2.0251012374898347,0.5141343520626607,2.2574958892684176,1.6862665619986752,0.5443155765533447,0.17084193229675293,0.6358906105160713,0.8877789974212646,-0.10957630723714828,0.35034772753715515,0.2776656746864319
210.0,0.055797639574120775,-1.7227080323808346,2.065597158870233,0.45371795953410343,2.1279009081035727,1.6166973586955602,0.5260126292705536,0.14898373186588287,0.6383638456463814,0.8908190131187439,-0.09939200431108475,0.3754212260246277,0.2358425259590149
211.0,-0.004865655236746745,-1.7711576155454987,2.10233371203407,0.4206812952138024,2.014303548245182,1.5671109143515036,0.5111933052539825,0.13230261206626892,0.6325680539011955,0.8948178887367249,-0.0880914255976677,0.387507826089859,0.20341727137565613
212.0,-0.12118479828769795,-1.8389355100946172,2.136700469295682,0.40025732279433557,1.822307279329581,1.4881878392871706,0.4965001046657562,0.10333647578954697,0.6356166452169418,0.8979381918907166,-0.07034439593553543,0.40559250116348267,0.15573491156101227
213.0,-0.20958423910734014,-1.8754314252319957,2.148820305704826,0.40322493366476797,1.6841475509471007,1.435008936816299,0.49093180894851685,0.08322862535715103,0.6416626647114754,0.8987444639205933,-0.057684265077114105,0.4164537191390991,0.12448780238628387
214.0,-0.2984742765168636,-1.9024516363057336,2.163420600816152,0.41283828171031045,1.5509910665590942,1.3819727507812551,0.48486027121543884,0.06432048231363297,0.6425638645887375,0.89993816614151,-0.04508865252137184,0.42293447256088257,0.09594157338142395
215.0,-0.4718702170943898,-1.9282339190962485,2.1812384543013543,0.4550825459832079,1.2983170835479714,1.2693358372716381,0.47827422618865967,0.028206713497638702,0.6437577344477177,0.9015504121780396,-0.020010190084576607,0.4301717281341553,0.041937194764614105
216.0,-0.5977985544686198,-1.9239877042849047,2.1832035813388315,0.5084086927315634,1.1170907567280421,1.1692508106275772,0.4779929369688034,-0.000479583308333531,0.647373478859663,0.9011580944061279,-0.00037416262784972787,0.43348976969718933,0.0007778261206112802
217.0,-0.706921262362793,-1.8963687495573103,2.180882834171849,0.5794927654425934,0.958964708036174,1.051823529146176,0.48053012788295746,-0.029561316594481468,0.6489766873419285,0.9004769325256348,0.019819488748908043,0.43248775601387024,-0.04126589000225067
218.0,-0.7599919688248854,-1.8671647817674975,2.1681344389005126,0.6356370763382491,0.8723069291440404,0.9744606134156717,0.48653820157051086,-0.048230357468128204,0.6551217809319496,0.8985201716423035,0.03336630389094353,0.43212834000587463,-0.06937821954488754
219.0,-0.846809936536705,-1.7850827625730035,2.15709402627798,0.7728894296736271,0.7389893438147471,0.7799935423613281,0.4966175854206085,-0.08605499565601349,0.653253473341465,0.8961296677589417,0.06031777709722519,0.4204602837562561,-0.12855565547943115
220.0,-0.8729037896019635,-1.733078929459735,2.143692837544855,0.8566881332395386,0.6918204480582628,0.6758532190324199,0.5061075091362,-0.10574838519096375,0.6545539870858192,0.8938072323799133,0.0741710513830185,0.4119594991207123,-0.16092510521411896
221.0,-0.8882472302009823,-1.6582203144681071,2.115107024596485,0.9868131770325723,0.6466251036721506,0.5372750537910769,0.5243157148361206,-0.13111163675785065,0.6611300557851791,0.8889076113700867,0.09306799620389938,0.3972576856613159,-0.20824986696243286
222.0,-0.8971143438406616,-1.5759702860597375,2.0983708002205534,1.1217846010248027,0.6375822278070878,0.39539578234827755,0.5418656468391418,-0.1578834503889084,0.6547747142612934,0.886161744594574,0.10744062811136246,0.3701527714729309,-0.25721752643585205
223.0,-0.9038450690072413,-1.614488618882862,2.121699523092413,1.0486631396478323,0.6454505086604102,0.4520478257243823,0.5278278887271881,-0.1462366282939911,0.6483305729925632,0.8893197774887085,0.09927793592214584,0.38181695342063904,-0.2312360256910324
224.0,-0.9064613474040393,-1.5327420907501077,2.1034931295085313,1.1755458436227721,0.6520554431007479,0.3292211747304966,0.546305924654007,-0.17270347476005554,0.6396050751209259,0.8868587613105774,0.11059670150279999,0.3508513569831848,-0.27955901622772217
225.0,-0.9138658626678174,-1.5877090607517883,2.13032517996205,1.0764463096329533,0.6536508072967091,0.4070740491731048,0.5284169614315033,-0.15546995401382446,0.6358589828014374,0.8907689452171326,0.1010989248752594,0.37040191888809204,-0.2431298941373825
226.0,-0.9155507666143026,-1.6476937637809503,2.159935172232544,0.9712382570273426,0.6703778138613736,0.5012179459299139,0.5103254914283752,-0.1357646882534027,0.6292028278112411,0.8953707814216614,0.08814109116792679,0.38554060459136963,-0.20469684898853302
227.0,-0.9082628989009901,-1.6947565183284465,2.1779925005703076,0.8953140883783215,0.6913327536912885,0.5810733672561182,0.4989291727542877,-0.11949232220649719,0.6260969564318657,0.8982781767845154,0.07749737799167633,0.3950086534023285,-0.17623461782932281
228.0,-0.6053987313005692,-2.034439953327732,2.34668844183304,-2.016823504778161,-1.3606964425528871,-2.1732812099678838,0.5323045998811722,-0.08482412993907928,0.655130572617054,0.9922725558280945,0.0055629173293709755,0.11412664502859116,-0.04836670309305191
229.0,-0.5460260730300636,-1.9982517826498538,2.29536126818664,-1.8954130240612637,-1.5282021088538715,-2.1167411907211533,0.5375705063343048,-0.08376776427030563,0.6576874814927578,0.9996787905693054,0.0002522881841287017,0.022807883098721504,-0.011057892814278603
230.0,-0.546566317714968,-1.9723848949627618,2.2801278792229076,-1.8991457582069489,-1.5360157807272443,-2.1173433443345373,0.5514773428440094,-0.09395673125982285,0.6580993831157684,0.9997957348823547,0.00016951942234300077,0.017838388681411743,-0.009501125663518906
231.0,-0.5799427360071099,-1.9706377276056999,2.280589405568844,-1.902944908903743,-1.5151530708688314,-2.1509650411445342,0.5507456660270691,-0.11023880541324615,0.6575575433671474,0.9995514154434204,0.0004216746019665152,0.0245246272534132,-0.017186211422085762
232.0,-0.8635878507969196,-2.033646501334435,2.4024739148550682,-1.964859477411027,-0.829687926640082,-2.566792959758683,0.5288592427968979,-0.14907874166965485,0.6351166218519211,0.9297084808349609,0.06622010469436646,0.29725736379623413,-0.2071114182472229
233.0,-0.7069393687164973,-1.9674065677417285,2.3064833542229035,-1.953658957698467,-1.2050629877577022,-2.3041311566347873,0.5615326911211014,-0.1427467167377472,0.6520262695848942,0.9829526543617249,0.01695474237203598,0.13608011603355408,-0.12246982008218765
234.0,-0.6593605973638716,-1.922018730421169,2.2628758071537236,-1.9331465723135461,-1.3303287638148764,-2.242243961156389,0.5824868530035019,-0.15067435801029205,0.6556745320558548,0.9926974773406982,0.007288448512554169,0.08243939280509949,-0.08776416629552841
235.0,-0.6123530420445272,-1.906551406185078,2.2420055048197987,-1.9119005327613752,-1.4917321066561928,-2.184466264185041,0.5842515900731087,-0.14986930787563324,0.6573654264211655,0.9992144703865051,0.0007695829262956977,0.025046980008482933,-0.030701443552970886
236.0,-0.6168125727087715,-1.8700939602892166,2.217373575384727,-1.9116254516932685,-1.4798120140301942,-2.189753354612327,0.6051185950636864,-0.1655016988515854,0.6572860814630985,0.9989598989486694,0.000924437481444329,0.023718755692243576,-0.03893442451953888
237.0,-0.8088454863274183,-1.9010155573495107,2.270064861480831,-1.7876576298915072,-0.9457563142408154,-2.5355260612199895,0.5825718641281128,-0.18860399723052979,0.6410322710871696,0.9477475881576538,0.050575144588947296,0.19189319014549255,-0.24978722631931305
238.0,-0.6590435883935943,-1.8421568153890298,2.1982419252819527,-1.874874111311935,-1.3139769583672447,-2.250579842939617,0.6240105107426643,-0.1795225888490677,0.6554079316556454,0.9914126992225647,0.006951530929654837,0.05921437591314316,-0.11638788133859634
239.0,-0.6138424668745167,-1.8215368751577057,2.181613221638978,-1.9053513489443286,-1.4727929088811875,-2.1875865172299416,0.634081706404686,-0.18244916200637817,0.6570153497159481,0.9987182021141052,0.0008469548192806542,0.017863541841506958,-0.04735170304775238
240.0,-0.6032400532857469,-1.7821833626807881,2.149707639094668,-1.8937835830633425,-1.4600409183730965,-2.1780465350708385,0.6602085269987583,-0.19003073871135712,0.6569912880659103,0.9982199668884277,0.0007690672646276653,0.013200785033404827,-0.05815550684928894
241.0,-0.5912169672439347,-1.7498706463703428,2.1224527062458507,-1.8844300573881363,-1.4616148887686142,-2.16598953967286,0.6819574069231749,-0.19546891748905182,0.6567533910274506,0.9980778694152832,0.0003763235581573099,0.006090316455811262,-0.061671704053878784
242.0,-0.5776727117764288,-1.7216103226396002,2.0965782756628246,-1.869931651875414,-1.4578096093840782,-2.1526570103680815,0.7021468656603247,-0.1969936192035675,0.6566903740167618,0.9976894855499268,-5.1222708862042055e-05,-0.0007522396626882255,-0.06793627142906189
243.0,-0.6290822140586352,-1.6952129444848594,2.0578449075178846,-1.6833077235925755,-1.257446189187576,-2.2376177570646,0.7060666242614388,-0.20640084147453308,0.6514916345477104,0.9802302122116089,-0.0009676493355073035,-0.004795335233211517,-0.1978003829717636
244.0,-0.7003241875419672,-1.7033287694224062,2.072059870939387,-1.57514517184682,-1.089114526066006,-2.3825400802692887,0.6847913805395365,-0.22081419825553894,0.6435583718121052,0.9559891223907471,0.0100298672914505,0.03290720656514168,-0.2913782298564911
245.0,-0.7969331619920665,-1.6636462657575057,2.063170739385181,-1.2540846669356491,-0.8327137859605143,-2.784847657581845,0.6629407778382301,-0.24226798117160797,0.6204510070383549,0.8807533979415894,0.057161763310432434,0.11015922576189041,-0.4570240378379822
246.0,-0.8254646841117665,-1.7223400668403877,2.1184191112965784,-1.32676255302871,-0.7856225600166379,-2.8617440888254935,0.6380078867077827,-0.23409417271614075,0.6246116235852242,0.8811198472976685,0.08515547215938568,0.1739160120487213,-0.43142762780189514
247.0,-0.855611547319671,-1.7866024106723424,2.1826675565908626,-1.4209177200368308,-0.7425065261705551,-2.9064721741543806,0.6111486107110977,-0.22373470664024353,0.6253040730953217,0.8820816874504089,0.10420133918523788,0.2316746562719345,-0.39673781394958496
248.0,-0.8790320666689049,-1.8464243260018085,2.240411159888264,-1.515942291415957,-0.7089980516585369,-2.912661827383467,0.5883081704378128,-0.2115592658519745,0.6264014132320881,0.883512020111084,0.11269062757492065,0.2749931216239929,-0.36205825209617615
249.0,-0.9040135981038927,-1.932867716410404,2.3217362688227863,-1.6718792303426617,-0.6733791412629467,-2.8681420590440894,0.5585006773471832,-0.18959848582744598,0.6286487821489573,0.8866626620292664,0.11323140561580658,0.3242175281047821,-0.30966266989707947
250.0,-0.8500518536782578,-1.7968490926373424,2.175265440821157,-1.4143957707295383,-0.7285465416291128,-2.908210214945312,0.6127825975418091,-0.21859830617904663,0.6375736519694328,0.8802513480186462,0.10754620283842087,0.23951053619384766,-0.3952547609806061
251.0,-0.8229988506572952,-1.7384724641406564,2.115511318261535,-1.322940398000525,-0.7673385121753808,-2.873473896055112,0.6369395703077316,-0.2278408706188202,0.6378578469157219,0.8793068528175354,0.09129761159420013,0.18749144673347473,-0.42817220091819763
252.0,-0.7806647426111131,-1.660874531803694,2.035182233337359,-1.2155980488468132,-0.831085530351166,-2.763150116236975,0.6718207597732544,-0.23616918921470642,0.6372288316488266,0.8790073394775391,0.051810719072818756,0.09821483492851257,-0.46369773149490356
253.0,-0.7574331947059119,-1.6137293681913503,1.996271802017279,-1.1727714255472148,-0.8776404470250938,-2.668288475338799,0.6917125824838877,-0.24174772202968597,0.629066776484251,0.8791376948356628,0.019813871011137962,0.036691922694444656,-0.4747399687767029
254.0,-0.7053827584209582,-1.5403502704684213,1.9205567973814264,-1.1019028286069792,-0.9684671718514882,-2.4541981849548047,0.7296132333576679,-0.24246764183044434,0.6238865461200476,0.877627968788147,-0.04434754699468613,-0.08280118554830551,-0.4700493812561035
255.0,-0.6721749401320467,-1.506476964610764,1.8764314561583646,-1.0634276935523594,-1.0168710428779417,-2.337055607318374,0.7513746954500675,-0.23733407258987427,0.626650920137763,0.8753175139427185,-0.07505705952644348,-0.14427222311496735,-0.45538055896759033
256.0,-0.6396368825666969,-1.4739840797939787,1.8349663031298569,-1.0293998838203733,-1.065341165283185,-2.2323112419574964,0.7725907787680626,-0.23114395141601562,0.6282034870237112,0.8724824786186218,-0.09949106723070145,-0.1996631622314453,-0.4347533583641052
257.0,-0.5774845252932546,-1.4221871187583122,1.7635163110060417,-0.9732295854073657,-1.1553779218770925,-2.0718397586568758,0.8093629032373428,-0.21313722431659698,0.6329438611865044,0.8684472441673279,-0.12656906247138977,-0.2854110300540924,-0.38512369990348816
258.0,-0.5522619311461657,-1.40895884335167,1.7339254105409976,-0.9435383945779463,-1.1876895847212132,-2.0207358776573567,0.821233943104744,-0.20221425592899323,0.6416079178452492,0.8669235110282898,-0.13176412880420685,-0.3133385479450226,-0.3645559251308441
259.0,-0.4995120579434564,-1.3704580920671494,1.684019221950445,-0.9104213611909435,-1.2661761038152441,-1.9292665001847806,0.8492246270179749,-0.18169738352298737,0.6418042108416557,0.8663507699966431,-0.13237230479717255,-0.3648461401462555,-0.31432658433914185
260.0,-0.4576837874922871,-1.3441797700966427,1.6498979960740283,-0.8898665966577418,-1.3288477249352326,-1.8726497047263997,0.8689905852079391,-0.16276465356349945,0.6414363160729408,0.8672258853912354,-0.1250295639038086,-0.3971988558769226,-0.2729838788509369
261.0,-0.41579501160629123,-1.3179021390811394,1.6221253446559367,-0.8795529835138753,-1.39251890237812,-1.826640114300602,0.8882816284894943,-0.1425779014825821,0.6363176330924034,0.8689857125282288,-0.1122840940952301,-0.42319947481155396,-0.23056095838546753
262.0,-0.3718183595466478,-1.2992501990931242,1.5951412934708846,-0.863581516975637,-1.4581304323042887,-1.7865502652527778,0.9035005569458008,-0.117964006960392,0.6374787166714668,0.8706719279289246,-0.09523118287324905,-0.4451620578765869,-0.18625828623771667
263.0,-0.3164690303930735,-1.2771532129629688,1.5719715925305386,-0.858709170932657,-1.5411263357987404,-1.7455512328366742,0.9207545816898346,-0.08520451933145523,0.6325959973037243,0.8731212019920349,-0.06914547085762024,-0.464762806892395,-0.12989933788776398
264.0,-0.26348519379430346,-1.2693418257364084,1.5546113305691185,-0.8477783048618477,-1.6219384381355173,-1.7122347932179123,0.9286846965551376,-0.05050395429134369,0.6374235823750496,0.8744261860847473,-0.041052769869565964,-0.47753819823265076,-0.07517224550247192
265.0,-0.2978250433263806,-1.278791381235452,1.5609365403457405,-0.8425678638385727,-1.568507121413176,-1.7326263044015944,0.921388566493988,-0.0721990168094635,0.6419791355729103,0.8730236887931824,-0.060010358691215515,-0.4710168242454529,-0.11122843623161316
266.0,-0.2243888668272548,-1.2695334060438355,1.5466279469497721,-0.8409619680784921,-1.6839652338976883,-1.6903556825585886,0.930219292640686,-0.02401028946042061,0.6435539536178112,0.8747429847717285,-0.018568608909845352,-0.4830624461174011,-0.0336245521903038
267.0,-0.2564092071690412,-1.2782300308303811,1.5469044984315068,-0.8280194461905948,-1.6338650308151699,-1.707408989979172,0.9240872263908386,-0.044537778943777084,0.651498094201088,0.8737344741821289,-0.03709637373685837,-0.4802679121494293,-0.06748812645673752
268.0,-0.2907566139754175,-1.2866643853719377,1.5523818388989137,-0.8225759565971568,-1.5790502779456435,-1.727332843097368,0.9175415635108948,-0.0660855770111084,0.6555995605885983,0.8723793625831604,-0.056625183671712875,-0.47423380613327026,-0.10416515916585922
269.0,-0.3241423527540211,-1.2934683815960877,1.5660759997324747,-0.8322558568183271,-1.5293409956629198,-1.7495302114114628,0.9113347828388214,-0.08741382509469986,0.6523223370313644,0.8716687560081482,-0.07355038076639175,-0.46446865797042847,-0.13803206384181976
270.0,-0.39321344791886836,-1.3152050643989757,1.602093787230214,-0.8547333831462742,-1.4227023393377272,-1.8044304498196173,0.8929071724414825,-0.12813664972782135,0.6477206945419312,0.8688545227050781,-0.10514996945858002,-0.43604737520217896,-0.20951858162879944
271.0,-0.4052126086566971,-1.3304543665649853,1.6043101568306104,-0.8418715618476507,-1.4032863764655081,-1.815093634999328,0.883574828505516,-0.13230594992637634,0.6603189744055271,0.867782711982727,-0.11031068116426468,-0.4305170476436615,-0.2223505675792694
272.0,-0.37164316991196406,-1.3187856663843998,1.5826167553722854,-0.8255486937029715,-1.453918955983964,-1.7849102607938754,0.8934659659862518,-0.11319378763437271,0.6645929738879204,0.8689720034599304,-0.09690738469362259,-0.44726818799972534,-0.18827585875988007
273.0,-0.4372624442236544,-1.350055837681384,1.6233164477455093,-0.8469357402296934,-1.351459509856967,-1.848294854016249,0.869687020778656,-0.14759191870689392,0.6651942059397697,0.8660354614257812,-0.12182976305484772,-0.4116319715976715,-0.2563185393810272
274.0,-0.47546135201879625,-1.3676641644123004,1.6566682599633136,-0.8753963051355222,-1.2967948856371152,-1.8953945340259983,0.855102002620697,-0.16721796989440918,0.6580130122601986,0.8656905293464661,-0.13014836609363556,-0.3843059539794922,-0.2931731641292572
275.0,-0.5225862552647433,-1.40370143086526,1.6961317088585501,-0.8954960618827313,-1.2226835183421345,-1.9682610332092205,0.8302372694015503,-0.18551543354988098,0.6627597138285637,0.8650859594345093,-0.1349126100540161,-0.3424836993217468,-0.34077826142311096
276.0,-0.5707331443746744,-1.4392164423837916,1.7457555085291647,-0.9328544593670312,-1.150603439352528,-2.0635782185717058,0.8049137741327286,-0.20309960842132568,0.6593146584928036,0.8666108250617981,-0.12873362004756927,-0.2892765998840332,-0.3856584131717682
277.0,-0.6142583216920429,-1.4809671390693884,1.7930346636518948,-0.9643453936380061,-1.0813183450435253,-2.175819968259793,0.7781630903482437,-0.21408414840698242,0.661835577338934,0.8691642880439758,-0.1114235445857048,-0.22823765873908997,-0.42431801557540894
278.0,-0.66465758690416,-1.5290169046087605,1.8562107818312474,-1.0171414931454068,-1.0052365077652259,-2.3349473689399365,0.7471868097782135,-0.22508344054222107,0.6575694233179092,0.8734850287437439,-0.0756138265132904,-0.1439248025417328,-0.45890316367149353
279.0,-0.7432366273830535,-1.6281744404879923,1.969430297543342,-1.1310756802573545,-0.8697359191049966,-2.6531683652458327,0.6947400667704642,-0.2303261011838913,0.657121304422617,0.8780937194824219,0.017727913334965706,0.03263162821531296,-0.4770454466342926
280.0,-0.778847070794518,-1.6916845103568523,2.030646659791475,-1.2037196513206387,-0.7953043343927861,-2.8014739711112884,0.6676052957773209,-0.22472921013832092,0.6625106707215309,0.8758829236030579,0.06718111038208008,0.1278037279844284,-0.4604153037071228
281.0,-0.8070831175922881,-1.7605493071657057,2.088822289253095,-1.2885490849558021,-0.7345274663595924,-2.8834767315928183,0.6417688578367233,-0.21402132511138916,0.6718277782201767,0.8744202256202698,0.09984198957681656,0.2035301923751831,-0.42894795536994934
282.0,-0.7779217715468301,-1.7077216328858777,2.0284180635127624,-1.1988475595537094,-0.7764865580008568,-2.8206977790414487,0.6652758456766605,-0.2187284231185913,0.6755882278084755,0.8740693926811218,0.07515066862106323,0.14341305196285248,-0.4580259621143341
283.0,-0.7409559374629681,-1.6446410678992296,1.9638813374714055,-1.1199793086871315,-0.8541020355311917,-2.6691655460369024,0.6922711031511426,-0.22352156043052673,0.6728342324495316,0.877509593963623,0.024647990241646767,0.04536519572138786,-0.47677189111709595
284.0,-0.6978775964194669,-1.580541478839466,1.8967026630829786,-1.0417000690492983,-0.9402746186441167,-2.475000229871753,0.7213907074183226,-0.22394774854183197,0.669814795255661,0.8755525350570679,-0.03720901906490326,-0.06832477450370789,-0.4768175482749939
285.0,-0.6349869815579724,-1.5095004715961067,1.8133482485356445,-0.970587043335684,-1.0400793731300544,-2.2456832734014824,0.7629722505807877,-0.21547037363052368,0.671176590025425,0.8701893091201782,-0.09721100330352783,-0.19059015810489655,-0.4438423216342926
286.0,-0.5900381928251655,-1.4659910127668192,1.761202901369947,-0.9313847784020253,-1.1122699308050437,-2.114394292188439,0.7902267798781395,-0.20504885911941528,0.6712196618318558,0.8668108582496643,-0.1225365698337555,-0.2611498236656189,-0.4067244231700897
287.0,-0.5513178799628689,-1.4367215616378501,1.7183500028595475,-0.8964931938885746,-1.1712212529887849,-2.025371703276905,0.8105292171239853,-0.19198167324066162,0.6759227588772774,0.8648385405540466,-0.13325978815555573,-0.3100573420524597,-0.37169960141181946
288.0,-0.49013879918518327,-1.3951428567496023,1.6574223620184496,-0.849342987991282,-1.2638945246194382,-1.9170948958002194,0.8401927947998047,-0.16764111816883087,0.6819921359419823,0.8636563420295715,-0.13459512591362,-0.3717792332172394,-0.3126692473888397
289.0,-0.45116272136527075,-1.3753808382767678,1.622798696214799,-0.8213270671151143,-1.322246055369473,-1.864662677012444,0.855439081788063,-0.14892561733722687,0.6884582191705704,0.8642039895057678,-0.12755034863948822,-0.40221187472343445,-0.2740583121776581
290.0,-0.41217915641246555,-1.3508585491400509,1.5974198416247904,-0.8115565241331566,-1.3854626033633985,-1.8213109234006821,0.8724901378154755,-0.13106906414031982,0.6839383542537689,0.8659793138504028,-0.11489669233560562,-0.42742103338241577,-0.23278722167015076
291.0,-0.371964567914586,-1.3359189329173389,1.5704925752380783,-0.7910672895233081,-1.4477059096205,-1.7840181270951179,0.8843587636947632,-0.10892055928707123,0.6891113519668579,0.8673612475395203,-0.0989559143781662,-0.4486587941646576,-0.19130468368530273
292.0,-0.33521638107730295,-1.3213237903830635,1.5526414682834468,-0.7831140998503414,-1.5067431159911269,-1.7552199383314357,0.8951886892318726,-0.08854521811008453,0.6881745904684067,0.8688855171203613,-0.08129776269197464,-0.4639470875263214,-0.15225541591644287
293.0,-0.24892590908240814,-1.3027388943216014,1.527040208557986,-0.7748692414622476,-1.647522420621464,-1.7012478600622691,0.9101264178752899,-0.03616344928741455,0.6891866326332092,0.8716257810592651,-0.032933034002780914,-0.48547688126564026,-0.05912800878286362
294.0,-0.21289767177888372,-1.3231688769827108,1.5395644314004178,-0.8281756566725648,-1.704719331257089,-1.6925496030944511,0.9073310345411301,-0.011576700955629349,0.6973142847418785,0.8857208490371704,-0.00949100125581026,-0.4637671411037445,-0.018126288428902626
295.0,-0.18210547479931857,-1.38362801844419,1.5905724022747114,-0.9834472564469053,-1.749920942571615,-1.698201097428339,0.8937977701425552,0.011837025173008442,0.7134776711463928,0.9190748929977417,0.009465049020946026,-0.3933480978012085,0.022115496918559074
296.0,-0.138336105011449,-1.3409967009446244,1.5591678687350334,-0.8793575383731868,-1.828643389925984,-1.656510517462379,0.9016454368829727,0.03768089413642883,0.7005706652998924,0.8920686841011047,0.03302064538002014,-0.4458223283290863,0.06607270240783691
297.0,-0.09696705858238172,-1.4173676017568246,1.6327280892235239,-1.0691357462987208,-1.8855402773048426,-1.64618956082693,0.8780241310596466,0.06854884326457977,0.7171756029129028,0.9253880977630615,0.045011747628450394,-0.357889860868454,0.11638590693473816
298.0,-0.14784872285327688,-1.488346659972073,1.6957482729045912,-1.2553169123761578,-1.7801709753153394,-1.6999374947983243,0.8623658120632172,0.04235541820526123,0.7350048422813416,0.9609405994415283,0.018021879717707634,-0.2685317397117615,0.06449128687381744
299.0,-0.20521324410552874,-1.5473663392307626,1.756787979858349,-1.4088225061910746,-1.682157845756223,-1.7619597950191068,0.8458999842405319,0.01172435749322176,0.7458688616752625,0.981332540512085,0.003381549147889018,-0.19150671362876892,0.01732797734439373
300.0,-0.21387780905448706,-1.6361907762007848,1.8670471977757916,-1.6596528818203333,-1.6306558574546335,-1.7825757038628527,0.8116644620895386,0.01994713582098484,0.7547046840190887,0.9970356225967407,0.00107681006193161,-0.07561371475458145,0.014198720455169678
301.0,-0.21788281080599395,-1.6870127248528135,1.9326844950833018,-1.787706874832676,-1.5927376809945963,-1.7886131605177962,0.7863740995526314,0.028298815712332726,0.7564796060323715,0.9998364448547363,0.0001247749460162595,-0.01641019620001316,0.0076022581197321415
302.0,-0.2456653515576336,-1.7043146705765064,1.9523166584255653,-1.8130030974055085,-1.5788492570033295,-1.8164625959791485,0.7761187180876732,0.011344627477228642,0.7565401047468185,0.9999877214431763,1.2130792129028123e-05,-0.0037898216396570206,0.003200847888365388
303.0,-0.2735271958253354,-1.7101868678771772,1.9574468269981276,-1.8133499954627599,-1.5686502805762816,-1.844321971645447,0.7720205187797546,-0.007492681499570608,0.7565436959266663,0.9999966621398926,-3.2972013741527917e-06,-0.001975808758288622,-0.0016687799943611026
304.0,-0.2955078033678983,-1.718902224122897,1.9630145008953541,-1.8028541393042419,-1.5634785136981464,-1.8662988274188672,0.7642286196351051,-0.021359721198678017,0.7565350830554962,0.9999751448631287,-2.470336403348483e-05,-0.00470037292689085,-0.005255487281829119
305.0,-0.31607886166512317,-1.7301976799384493,1.9713895162792967,-1.7961619886361817,-1.5583845064716313,-1.8868799232010822,0.7546518445014954,-0.03331270441412926,0.7565248012542725,0.9999494552612305,-4.6738641685806215e-05,-0.005591857247054577,-0.00835791788995266
306.0,-0.3010167593971522,-1.7420723095238844,1.9827249994750005,-1.8040332595002677,-1.5628084494629477,-1.8718195323991886,0.7465668357908726,-0.020018240436911583,0.7565392851829529,0.9999851584434509,-1.1581423677853309e-05,-0.002356946701183915,-0.004913667682558298
307.0,-0.34241581276224875,-1.7328202728165307,1.9716488678656987,-1.7851287168557948,-1.5519608634424853,-1.913225356591504,0.7508436068892479,-0.0511704757809639,0.7564973682165146,0.9998806715011597,-0.00010873207793338224,-0.008374321274459362,-0.012982438318431377
308.0,-0.35913706375649596,-1.750171488230735,1.9860015451416162,-1.7846907204753302,-1.5473884772367046,-1.93000781713345,0.7371919602155685,-0.058199889957904816,0.7564939707517624,0.9998714923858643,-9.115036664297804e-05,-0.006153434049338102,-0.014811025001108646
309.0,-0.3265062825004765,-1.7098648870182909,1.9517398995491286,-1.7829723381326754,-1.556454300272205,-1.89724367720507,0.7685879692435265,-0.0457160584628582,0.7564906477928162,0.9998641610145569,-0.00013594185293186456,-0.01176471821963787,-0.011553475633263588
310.0,-0.3110200978915998,-1.6937619223194758,1.9370193358210934,-1.7789244293260995,-1.5617297559220364,-1.8816784402558602,0.7810014858841896,-0.038455937057733536,0.7564792186021805,0.9998355507850647,-0.00014860059309285134,-0.015334473922848701,-0.00968902837485075
311.0,-0.2856424650863027,-1.690739925133534,1.93692302068813,-1.7934567487005129,-1.567170450589772,-1.856372534537282,0.7852440848946571,-0.020533865317702293,0.756516695022583,0.9999293088912964,-5.444373528007418e-05,-0.010773863643407822,-0.005052958149462938
312.0,-0.25153542744887025,-1.628565497598184,1.8556535994387866,-1.6318034294538906,-1.602613349504974,-1.818810859798694,0.8157219886779785,-0.007160010281950235,0.7543664425611496,0.9964288473129272,-0.0004346814821474254,-0.0842796191573143,-0.005139191634953022
313.0,-0.23217411485196202,-1.4776360830772501,1.6781664495360575,-1.2114804389927765,-1.6568745004946763,-1.7671643445842133,0.8680812418460846,-0.012336628511548042,0.7345558255910873,0.960245668888092,-0.005304007325321436,-0.2785063683986664,-0.018287373706698418
314.0,-0.27826162101175,-1.4175579535249565,1.6195078312096431,-1.0393165633088914,-1.59687103945198,-1.7789761120273355,0.8815556019544601,-0.04697968065738678,0.7208097279071808,0.9330217242240906,-0.0280300285667181,-0.3508989214897156,-0.07453037798404694
315.0,-0.3038256155077482,-1.5658857374184962,1.7739449946318813,-1.4174989972406393,-1.5586665704411513,-1.8564641080555344,0.835199624300003,-0.049253273755311966,0.747124433517456,0.9836535453796387,-0.010020628571510315,-0.17021127045154572,-0.05790936201810837
316.0,-0.3349931068122361,-1.5784678699434842,1.7876190781483412,-1.4288969947232812,-1.5229417016663778,-1.88877200874495,0.826673835515976,-0.06712991744279861,0.7474704086780548,0.9842819571495056,-0.012553234584629536,-0.15779833495616913,-0.07830198109149933
317.0,-0.34315099361285056,-1.6691769589376637,1.9003449210348782,-1.684590038994263,-1.5396285603347006,-1.912330483555927,0.7894497066736221,-0.06350936740636826,0.7553572952747345,0.9981561303138733,-0.0017209391808137298,-0.050020914524793625,-0.03434095159173012
318.0,-0.38815767213302305,-1.5875421445999915,1.7968888624717438,-1.402387658565676,-1.4572784077798675,-1.9419819869945343,0.8138092532753944,-0.09673143923282623,0.7454866468906403,0.9805082678794861,-0.018972337245941162,-0.1534544676542282,-0.12122510373592377
319.0,-0.4346642971980863,-1.4849359508276978,1.699379826556715,-1.092550776663939,-1.3642426444945557,-1.9419729349017678,0.8345280140638351,-0.13095712661743164,0.7221091389656067,0.9340259432792664,-0.06467343121767044,-0.2725905776023865,-0.2216021865606308
320.0,-0.3892687183961025,-1.4572016385343496,1.6666341324301248,-1.0654185065282733,-1.430618325725684,-1.8852064310389336,0.8529645353555679,-0.1093309223651886,0.7214401289820671,0.9329363703727722,-0.059452835470438004,-0.3049973249435425,-0.18185637891292572
321.0,-0.48141613346198686,-1.4420947654236054,1.677573551055412,-0.9408359151038459,-1.2793973414482456,-1.952583924745326,0.8315061330795288,-0.15759983658790588,0.7040544599294662,0.8940641283988953,-0.10553150624036789,-0.3217141330242157,-0.2932787835597992
322.0,-0.4621249254175524,-1.372051603663653,1.6382686808763518,-0.8458488686946875,-1.310922797685963,-1.8782051021182178,0.8553443849086761,-0.15719638764858246,0.6746671423316002,0.8649057745933533,-0.12884296476840973,-0.39427661895751953,-0.2826366722583771
323.0,-0.35608197759288335,-1.321848720177851,1.5680300870984678,-0.8028749071938561,-1.4760743950850705,-1.77156934360726,0.8932713866233826,-0.10221691429615021,0.6777300238609314,0.8687849640846252,-0.0906604453921318,-0.4550022780895233,-0.1731077879667282
324.0,-0.319367662077261,-1.308987028777449,1.5526347800653353,-0.7975854822169464,-1.5340276739158833,-1.7449077165188651,0.9031896740198135,-0.08099451661109924,0.6765398010611534,0.8704107999801636,-0.07230044156312943,-0.46806052327156067,-0.1344507485628128
325.0,-0.28367889562785065,-1.3027590071777733,1.538648567719507,-0.7874408745870077,-1.5904477329346567,-1.7216982901507816,0.9087743908166885,-0.05873586982488632,0.6807003319263458,0.8712818026542664,-0.05312424153089523,-0.478202223777771,-0.0967920646071434
326.0,-0.22835283451988164,-1.2919202572748074,1.5321430107759042,-0.7962588419818366,-1.6799562484437418,-1.6910049654962418,0.9172313213348389,-0.024071626365184784,0.6753649115562439,0.8728761076927185,-0.020698854699730873,-0.48608386516571045,-0.03716958686709404
327.0,-0.19533331310391697,-1.2933258083943173,1.5290334653496358,-0.7943293015966364,-1.7336424850299303,-1.6738522646571325,0.9170340746641159,-0.002045523375272751,0.6793715506792068,0.8726410269737244,-0.0008221449097618461,-0.48835957050323486,-0.00146907614544034
328.0,-0.13841253983132631,-1.2952880748968165,1.5405494837471316,-0.8182249128864115,-1.8252440203378864,-1.6463787816032163,0.9160095453262329,0.036123719066381454,0.6740398555994034,0.8724818229675293,0.03332115709781647,-0.48379144072532654,0.060092225670814514
329.0,-0.10012769923281865,-1.302407223106313,1.5543214341297393,-0.8384410719855229,-1.8912919890429856,-1.6277385403308706,0.9112071990966797,0.06161367893218994,0.6720774620771408,0.8714594841003418,0.056592244654893875,-0.4760495126247406,0.10359814018011093
330.0,-0.06323440752904105,-1.3106726366869164,1.5759379389402386,-0.8701508792592125,-1.9525303168150097,-1.6087836543087015,0.9049963057041168,0.08650270104408264,0.6657963842153549,0.8705863952636719,0.07711771875619888,-0.4638810157775879,0.14473029971122742
331.0,-0.03394096116823108,-1.3206479791834969,1.5966193990021942,-0.8977404108831614,-2.001251307956783,-1.5922832676894065,0.8974411934614182,0.10622003674507141,0.6617496088147163,0.8695828318595886,0.0921681597828865,-0.4514569342136383,0.17753155529499054
332.0,0.026877298094474304,-1.3508850199630311,1.6516927555261602,-0.9696426651840208,-2.110049980866493,-1.5511238547934616,0.875330001115799,0.14534378051757812,0.6545546874403954,0.8670788407325745,0.11922204494476318,-0.4144081175327301,0.24945193529129028
333.0,-0.003210716576398379,-1.3279696804431147,1.6238666049852672,-0.9390042462478619,-2.052233356106061,-1.572965767498587,0.8907972276210785,0.12669143080711365,0.6510324031114578,0.8686081171035767,0.10620571672916412,-0.43506211042404175,0.21204131841659546
334.0,-0.03445271134953367,-1.3105699277315412,1.6004101860389173,-0.9123686593003498,-1.9942533651483745,-1.5925622386860685,0.9029080271720886,0.10655763745307922,0.6495755612850189,0.8704121708869934,0.09042835235595703,-0.4514511525630951,0.17434874176979065
335.0,-0.07046918269235074,-1.29649944407256,1.5776468343710983,-0.8840998586525944,-1.9309338379536172,-1.6126271580763738,0.9130544662475586,0.0825401246547699,0.6507946103811264,0.8719688057899475,0.07084757089614868,-0.46590736508369446,0.1325947344303131
336.0,-0.09859070487020076,-1.2882065774674896,1.5630858265052363,-0.8651634531723973,-1.8853904366792982,-1.6271240840653218,0.9191471636295319,0.06308860331773758,0.6523068733513355,0.8726847767829895,0.05533117428421974,-0.47433847188949585,0.10179794579744339
337.0,-0.1479053870348464,-1.2800675533968064,1.5465341438440354,-0.8404537203115844,-1.8039839078840207,-1.6513734933395285,0.9249322712421417,0.029360689222812653,0.6549559533596039,0.8737602829933167,0.026214582845568657,-0.4833321273326874,0.04739031568169594
338.0,-0.17981589131549489,-1.2783880738332676,1.541326779910055,-0.8298452394330916,-1.7522076435637715,-1.6670316242598242,0.9259588718414307,0.007679032161831856,0.6564236618578434,0.8741031289100647,0.007069299463182688,-0.48552215099334717,0.012727116234600544
339.0,-0.22275600085736252,-1.2832987700691654,1.537751332434486,-0.8140716773331673,-1.6883355533648225,-1.6886478251573391,0.9224282503128052,-0.021404774859547615,0.6631482616066933,0.8736693859100342,-0.017381757497787476,-0.4852011501789093,-0.03129817545413971
340.0,-0.2630561152781721,-1.2902980590241873,1.5409007760431621,-0.8062092833993741,-1.6250630488512168,-1.710388569742719,0.9169052541255951,-0.04742610454559326,0.667296938598156,0.8727439641952515,-0.04073227196931839,-0.4808250963687897,-0.07393299788236618
341.0,-0.16787423326925363,-1.288676116436608,1.5370693430561206,-0.8153204601723147,-1.7745079248396467,-1.660820397746867,0.9200463742017746,0.016285544261336327,0.6695437282323837,0.8733530640602112,0.014944978058338165,-0.4861174523830414,0.026849977672100067
342.0,-0.07190467484327204,-1.3185881476900847,1.5653714302912134,-0.8459276364058047,-1.9448901746596283,-1.6134124356109045,0.9010347574949265,0.08008842915296555,0.6804682090878487,0.8700438737869263,0.07409832626581192,-0.4674533009529114,0.13791494071483612
343.0,-0.03695071152741398,-1.3351325753602938,1.587324006610387,-0.8714439626530136,-2.0094399422261944,-1.5941627538916618,0.8900255262851715,0.10265743732452393,0.6818428039550781,0.8683019280433655,0.09375597536563873,-0.4526814818382263,0.17983613908290863
344.0,-0.0012722739390233055,-1.3528955874211586,1.617473377828142,-0.909837707788822,-2.074110798983079,-1.5716693128755341,0.8776660710573196,0.1254597008228302,0.6787995100021362,0.8666565418243408,0.1109914481639862,-0.43260371685028076,0.2223546952009201
345.0,0.035279409074087685,-1.3791180043904459,1.6547443386084877,-0.9555879972214874,-2.1454262584892105,-1.5438868408823643,0.8601911216974258,0.1475667804479599,0.6788901686668396,0.8649201989173889,0.1257098913192749,-0.40502363443374634,0.2684510350227356
346.0,0.07887680099098915,-1.4254598999215602,1.711353857127287,-1.027091917590905,-2.2422628476985653,-1.4994422779723244,0.8315117359161377,0.17105543613433838,0.6846355199813843,0.8635953664779663,0.13602429628372192,-0.3568052351474762,0.329227089881897
347.0,0.05146506982182226,-1.4029180486934136,1.6722313126241926,-0.9719364068721139,-2.1891729627112695,-1.5287933959097961,0.8465917855501175,0.15530656278133392,0.6894795671105385,0.8636183142662048,0.13206429779529572,-0.3873039782047272,0.29447969794273376
348.0,0.004507190438219181,-1.3920141803671353,1.639946600235734,-0.9687860929441603,-2.090805084817945,-1.5673616648195807,0.8636870384216309,0.12822431325912476,0.6976845264434814,0.880372166633606,0.10646679997444153,-0.39750373363494873,0.23579753935337067
349.0,-0.043970686901993364,-1.4503089553871842,1.6764229482246193,-1.1424819934386719,-1.9724195875104673,-1.6082787875278255,0.8590570539236069,0.1030205488204956,0.7190353274345398,0.928115725517273,0.0610986202955246,-0.3223767876625061,0.1759015917778015
350.0,0.09712628357266637,-1.4709404366310224,1.7561053941403406,-1.11456070804351,-2.285710123251651,-1.4702135065830013,0.8104375004768372,0.17928433418273926,0.695496529340744,0.8733749389648438,0.12524589896202087,-0.3055257499217987,0.35802754759788513
351.0,0.1596349662521653,-1.5300957623910734,1.8721571080866124,-1.2827430492325775,-2.422345481647907,-1.3528710467077154,0.7668179422616959,0.20947492122650146,0.6771592348814011,0.8692541122436523,0.10269751399755478,-0.2034979611635208,0.4386788308620453
352.0,0.06573409157213807,-1.3764200093420302,1.6978696588254383,-1.0312367354502867,-2.179608932009783,-1.5166684057851412,0.85640087723732,0.16937679052352905,0.6485243625938892,0.8662348389625549,0.13011382520198822,-0.38111379742622375,0.2957361340522766
353.0,0.10209155386206867,-1.4076966105787172,1.749865835244754,-1.102370911618757,-2.248220222009177,-1.4747399853158494,0.8340156525373459,0.19027549028396606,0.644068282097578,0.8663723468780518,0.13362736999988556,-0.3398629128932953,0.34064042568206787
354.0,0.1398471931300877,-1.4469154093460377,1.8155871193535533,-1.1993198491944626,-2.3225897339432526,-1.4158988025397916,0.8064481541514397,0.21008408069610596,0.638434000313282,0.8681808710098267,0.12624725699424744,-0.2825281023979187,0.3879453241825104
355.0,0.16740488474489654,-1.4852028242752182,1.8753265453660908,-1.294998228572391,-2.383005447456066,-1.3570296285224719,0.7812136113643646,0.22228415310382843,0.6361397206783295,0.8709717392921448,0.10895507782697678,-0.22409991919994354,0.423457533121109
356.0,0.19037397455201466,-1.5209037656755773,1.9347629604765044,-1.399819388392379,-2.433685558779994,-1.2957655650128945,0.7575227245688438,0.23129631578922272,0.6325824037194252,0.87412428855896,0.08363479375839233,-0.16245189309120178,0.45002371072769165
357.0,0.20894694850237772,-1.5732798095467715,2.0043216023742048,-1.5374588406983287,-2.490994603550954,-1.227326213389668,0.7277151830494404,0.2342652976512909,0.6389314010739326,0.876859724521637,0.043340351432561874,-0.08052092790603638,0.4719693660736084
358.0,0.22307388167222628,-1.6196040728021677,2.079031932361019,-1.7152117328518557,-2.532860461743958,-1.1736052391582956,0.7005270677618682,0.23522111773490906,0.6408951506018639,0.8785387277603149,-0.0038259837310761213,0.007037784904241562,0.4776040017604828
359.0,0.22260578386445842,-1.587674679749574,2.0492753554943004,-1.633087912779346,-2.5087875349620083,-1.1896750403424448,0.7137845391407609,0.24008435010910034,0.6276190988719463,0.8786556720733643,0.020139450207352638,-0.037208735942840576,0.475577712059021
360.0,0.2350795549826996,-1.6353730824809922,2.134899369198259,-1.8516226420778883,-2.5432656460281358,-1.1484909954345952,0.6837399378418922,0.23934507369995117,0.6280460469424725,0.879737377166748,-0.031374406069517136,0.05862783268094063,0.47078725695610046
361.0,0.24258515711824719,-1.6585552011038378,2.1915345189326354,-1.9987767535955432,-2.546622421850599,-1.142489444864533,0.6633100584149361,0.23956412076950073,0.6220270246267319,0.8805766701698303,-0.05730095133185387,0.11033773422241211,0.457303911447525
362.0,0.23856882363678228,-1.6903183835332574,2.2479619813334195,-2.176523681195306,-2.540296405593422,-1.1712907990353632,0.6421759985387325,0.2320912778377533,0.6269991211593151,0.8807730674743652,-0.08226623386144638,0.16631245613098145,0.4356732666492462
363.0,0.21939724710656566,-1.740068547033171,2.3567515453115324,-2.526043886443814,-2.478064304733494,-1.268417158094097,0.5986613929271698,0.2148832380771637,0.627819461748004,0.8821871280670166,-0.11051899939775467,0.2577330768108368,0.3782922923564911
364.0,0.20387858786315408,-1.7589066978760823,2.4001651466625176,-2.6480693638832853,-2.4255055973512114,-1.3169369125627253,0.5801550000905991,0.206336110830307,0.6226474307477474,0.8860070705413818,-0.11181659996509552,0.2835068106651306,0.3494459092617035
365.0,-0.007146075547355057,-1.8461342929782432,2.2332660798440673,-2.064034567077402,-1.7487897347182317,-1.5780172616869783,0.6161321103572845,0.16928184032440186,0.6565852463245392,0.9946411848068237,-0.004675891250371933,0.05217955261468887,0.08913134038448334
366.0,-0.021311539353654183,-1.8383964441842275,2.2088038790649502,-1.9842476487577547,-1.6573371979408624,-1.5921697881352068,0.6209776103496552,0.17447003722190857,0.6571085527539253,0.998832643032074,-0.0008999764104373753,0.02057231403887272,0.043695900589227676
367.0,-0.040886716424384274,-1.863678316976444,2.226432858749621,-1.983169046992866,-1.6468790253886665,-1.611757452942433,0.6063785627484322,0.16462342441082,0.657249242067337,0.9989690780639648,-0.000906280183698982,0.023212328553199768,0.03900280222296715
368.0,-0.04084490192916051,-1.8763816220232035,2.249103241211572,-2.0465967575136914,-1.7015756960363255,-1.6117968586284832,0.6004199907183647,0.1564914584159851,0.6572282463312149,0.9965381026268005,-0.003288706997409463,0.04869373142719269,0.06730479747056961
369.0,-0.06699122221992575,-1.8910441127147968,2.2445269737609284,-1.9805960427170743,-1.6356755711091324,-1.6378386555984858,0.5914861559867859,0.15174177289009094,0.6574567891657352,0.9990777969360352,-0.0008876380743458867,0.02590559981763363,0.0342327356338501
370.0,-0.0917813688435367,-1.9186291420792487,2.260213335334039,-1.9666649689024973,-1.6202555639285263,-1.6625773930176155,0.5755693316459656,0.14121350646018982,0.6573368534445763,0.9993260502815247,-0.0006712161120958626,0.02475093863904476,0.027100536972284317
371.0,-0.13049012703010235,-1.933116808137911,2.266564296278503,-1.9558193933328436,-1.6046299697564994,-1.701218207081758,0.5708679258823395,0.12254087626934052,0.6580365858972073,0.9995244741439819,-0.00047028562403284013,0.023362359032034874,0.02012048475444317
372.0,0.07952297115701518,-1.874057328997632,2.4767741357634754,-2.7887377439440098,-2.131234501453965,-1.4962572193235086,0.537215918302536,0.1621691882610321,0.6310845836997032,0.9160909652709961,-0.08145722001791,0.3103950321674347,0.24041052162647247
373.0,0.04937469067558816,-1.870743328143751,2.536905490324568,-3.008381982756326,-2.1062574930165097,-1.530451320185412,0.5182542651891708,0.14802896976470947,0.6254160664975643,0.8939623236656189,-0.09549111872911453,0.37344223260879517,0.22859080135822296
374.0,-0.15729697356424047,-1.9713221180073481,2.3102006651609868,-2.0479160147620643,-1.6272247840340572,-1.72705115152485,0.5537485033273697,0.10687290877103806,0.6572035253047943,0.9972139596939087,-0.0024679945781826973,0.0637972503900528,0.038577184081077576
375.0,-0.1648562378676482,-1.9713652382939706,2.288217711104989,-1.9408672742048731,-1.5963973514773449,-1.7355130067522184,0.5488145351409912,0.1084543839097023,0.6574597656726837,0.9995641708374023,-0.0004103083338122815,0.02414451539516449,0.01698645018041134
376.0,-0.19869729491609092,-1.9879253272692463,2.2958971161337067,-1.9298407344283783,-1.587948478350451,-1.7693038036134419,0.5412313789129257,0.09335538744926453,0.6575564704835415,0.9996371865272522,-0.00031384488102048635,0.023339228704571724,0.01344222016632557
377.0,-0.1333503558091316,-2.013520019602502,2.446276401096009,-2.478405403174187,-1.7419526439524,-1.692561777735937,0.522192656993866,0.1062340959906578,0.6472046859562397,0.9682570099830627,-0.025712575763463974,0.2218690663576126,0.11221204698085785
