Sungjin-Park-dev/vision_inspection/data/output/2000/joint_trajectory_dp_20251102_024151.csv
time,ur20-shoulder_pan_joint,ur20-shoulder_lift_joint,ur20-elbow_joint,ur20-wrist_1_joint,ur20-wrist_2_joint,ur20-wrist_3_joint,target-POS_X,target-POS_Y,target-POS_Z,target-ROT_X,target-ROT_Y,target-ROT_Z,target-ROT_W
0.0,-0.14680752549095236,-1.29137493924802,1.5397117929238338,-0.8193437267607966,-1.8109562848312217,-1.6504774453965656,0.918395921587944,0.030280591920018196,0.670728012919426,0.872749388217926,0.028149176388978958,-0.4847136437892914,0.05068390071392059
1.0,-0.163346477303766,-1.2916873010655505,1.5360097909499384,-0.8115258114901458,-1.78350853969099,-1.6585228538587173,0.9182927310466766,0.019349301233887672,0.6732820421457291,0.8730731010437012,0.018070947378873825,-0.48617252707481384,0.032451972365379333
2.0,-0.19792553588268746,-1.2895266225229436,1.5319090886134548,-0.80212720788575,-1.7287886804151216,-1.675400195323357,0.9192666113376617,-0.004118042998015881,0.6736293137073517,0.8730247020721436,-0.0025085010565817356,-0.4876488745212555,-0.0044909012503921986
3.0,-0.21682181123910194,-1.2891878205006342,1.5333154398120588,-0.8024705079130647,-1.6989030061504333,-1.6851963482664718,0.9191413819789886,-0.016839182004332542,0.6720283329486847,0.8732313513755798,-0.013680355623364449,-0.4864945113658905,-0.024555496871471405
4.0,-0.2512691863499805,-1.2932291313749187,1.5350131040328576,-0.7958179483845292,-1.6436576398269966,-1.703303366304405,0.9156732559204102,-0.03912831470370293,0.6743951141834259,0.872467577457428,-0.034108538180589676,-0.48358047008514404,-0.06153803691267967
5.0,-0.28171414748467555,-1.2983044223849003,1.5412871552685508,-0.7960892567232241,-1.5938046605531304,-1.7208797283886161,0.9114537239074707,-0.058231890201568604,0.6745853573083878,0.8717280030250549,-0.05183957517147064,-0.47797954082489014,-0.09454381465911865
6.0,-0.304138896309466,-1.3034755122475352,1.5479055700555244,-0.7977501546070004,-1.559318894591133,-1.734775638881843,0.9071897566318512,-0.0722213163971901,0.6747241243720055,0.8710060119628906,-0.06394209712743759,-0.4726243019104004,-0.11783981323242188
7.0,-0.3215882744270926,-1.306463998409449,1.5557558734574282,-0.80437816639644,-1.5309962448867391,-1.7466800106202476,0.90444615483284,-0.08298654854297638,0.6719408705830574,0.8705949783325195,-0.07323985546827316,-0.46696409583091736,-0.13654637336730957
8.0,-0.34537733996600645,-1.3112575123228551,1.5670115495378727,-0.8127567910921792,-1.4932856486311468,-1.7637780298064543,0.8999834358692169,-0.09750068187713623,0.6685417219996452,0.8696320056915283,-0.08525705337524414,-0.45862486958503723,-0.16166210174560547
9.0,-0.36524344302474326,-1.317661367954761,1.578312495125567,-0.8210897635068045,-1.463890830279587,-1.7795093182091648,0.8946690857410431,-0.1093006432056427,0.6665550172328949,0.8691415786743164,-0.09409908950328827,-0.45027485489845276,-0.18163447082042694
10.0,-0.3856029904896041,-1.3275034040250968,1.58775880426923,-0.8225316032675554,-1.4302241779580485,-1.7966019709194263,0.887517437338829,-0.12000396847724915,0.6691768616437912,0.8678761720657349,-0.10353013128042221,-0.441115140914917,-0.20369136333465576
11.0,-0.4046784904273308,-1.3362234828174693,1.5999753596789126,-0.8298938960177544,-1.4025091193812718,-1.8141574606982935,0.8806896805763245,-0.1304393857717514,0.6686779260635376,0.8672638535499573,-0.11070097237825394,-0.4313453137874603,-0.2225756198167801
12.0,-0.4260949572044099,-1.348297231479771,1.6133263228630008,-0.8355697634664437,-1.3676720475201976,-1.8360620541723154,0.8720520734786987,-0.14090684056282043,0.6704866215586662,0.8662729263305664,-0.11858836561441422,-0.4186996817588806,-0.24535460770130157
13.0,-0.44411426305005663,-1.360616696978139,1.6242343627778102,-0.8375289758473076,-1.3387667843321192,-1.8559284752826752,0.8635064363479614,-0.14898353815078735,0.6741441041231155,0.8652748465538025,-0.12443961203098297,-0.4073719382286072,-0.2643148601055145
14.0,-0.4665685206751166,-1.373327952874436,1.6427343301185098,-0.8507364366853649,-1.3046612029965488,-1.8839653033645727,0.8540579974651337,-0.15965920686721802,0.6727170273661613,0.8649236559867859,-0.12964937090873718,-0.3909059464931488,-0.28686389327049255
15.0,-0.5124647475593221,-1.4048990922429994,1.6818957643178143,-0.8746521449665737,-1.2330754316361707,-1.952188950167875,0.8318031430244446,-0.1786840260028839,0.6735816448926926,0.8643523454666138,-0.13548049330711365,-0.3514668047428131,-0.3331833481788635
16.0,-0.5285531368237392,-1.4184604529133087,1.6954771041890029,-0.8807858490975842,-1.2058874555962984,-1.9809078660371442,0.8229910731315613,-0.18407705426216125,0.6760557144880295,0.8641522526741028,-0.13573573529720306,-0.3350839912891388,-0.35005059838294983
17.0,-0.5516955004569166,-1.438273397233455,1.7180695372891261,-0.8947975647695083,-1.1695782682415186,-2.026625064608656,0.8098583668470383,-0.19164538383483887,0.6774371862411499,0.864765465259552,-0.133233442902565,-0.3092881739139557,-0.372518926858902
18.0,-0.5708379872576657,-1.454491876545643,1.7378793514823334,-0.9086777400936347,-1.1383478982099433,-2.0697525356016073,0.7993058115243912,-0.19755032658576965,0.6775631904602051,0.8655146956443787,-0.12887383997440338,-0.285247266292572,-0.39103689789772034
19.0,-0.6078740765753499,-1.4870793669020255,1.7800333347355357,-0.9413277638055233,-1.080940282947682,-2.1652810127882693,0.7779882103204727,-0.20798754692077637,0.6756507530808449,0.8680453896522522,-0.11372832953929901,-0.23322831094264984,-0.42328202724456787
20.0,-0.6230524660130825,-1.5051136425560812,1.7959519113914895,-0.9497020110790292,-1.0529120706037296,-2.2134054240052614,0.7678461596369743,-0.21015363931655884,0.6794479489326477,0.8689643740653992,-0.10425819456577301,-0.20725713670253754,-0.43712204694747925
21.0,-0.6615118237893051,-1.5462749038739383,1.8444852790323587,-0.9892229094118542,-0.9908356968254424,-2.344686399696269,0.7433382272720337,-0.2168206423521042,0.6789264231920242,0.8724917769432068,-0.07287859171628952,-0.13725854456424713,-0.4632568955421448
22.0,-0.6471088492056507,-1.526679162470292,1.8273429681252857,-0.9779609351828382,-1.0184213668995987,-2.2886284296905677,0.7536029443144798,-0.21604979038238525,0.6751987636089325,0.871300458908081,-0.08706210553646088,-0.1674526333808899,-0.45300722122192383
23.0,-0.6759158799144341,-1.5554708851165455,1.8654565599838349,-1.0124117513250381,-0.9733284314694151,-2.3918346756172006,0.736074909567833,-0.22136671841144562,0.6719034612178802,0.8737268447875977,-0.060624390840530396,-0.112883560359478,-0.4692370891571045
24.0,-0.6626187067774427,-1.5370543685333535,1.8498820290758786,-1.0028411197435807,-0.998980401669009,-2.3378722249954165,0.7456093579530716,-0.22094005346298218,0.6680990532040596,0.8729571104049683,-0.07475635409355164,-0.1416345238685608,-0.46075698733329773
25.0,-0.6452554049031681,-1.5186613049470432,1.8273287820989697,-0.9836026881119372,-1.026487165288484,-2.277253847947452,0.756686732172966,-0.21800287067890167,0.6689037829637527,0.8713259696960449,-0.08980347961187363,-0.17388945817947388,-0.44998762011528015
26.0,-0.6147261598140727,-1.4866883733309755,1.7912168202897802,-0.9573417206043677,-1.0758836699416194,-2.180726145127227,0.7761859521269798,-0.2122184932231903,0.6677331924438477,0.8689283728599548,-0.11060276627540588,-0.2252916395664215,-0.42658430337905884
27.0,-0.5935844749869591,-1.4688859044516767,1.7655499542679787,-0.9351482355887015,-1.1074546904558489,-2.123192501306985,0.7881765514612198,-0.20615775883197784,0.6706239581108093,0.8671277165412903,-0.12107903510332108,-0.2563830018043518,-0.40950843691825867
28.0,-0.558979163843396,-1.4364247824859149,1.7299288492761071,-0.9130266381633666,-1.1642222246245024,-2.039641528615526,0.808825820684433,-0.19688332080841064,0.6677256077528,0.8656463623046875,-0.13157875835895538,-0.3023148775100708,-0.37676170468330383
29.0,-0.5395153747057548,-1.4207456060733645,1.7093923818400731,-0.8978991345124181,-1.1928687520934855,-2.0002335557836592,0.8197006583213806,-0.19017358124256134,0.6684800013899803,0.8647579550743103,-0.13464510440826416,-0.3243896961212158,-0.3589369058609009
30.0,-0.5216950767080488,-1.405605222300972,1.6938627422676682,-0.8905797495844132,-1.2223703674269963,-1.9671388593445132,0.8296506106853485,-0.1842910200357437,0.6659755855798721,0.8648682832717896,-0.13512887060642242,-0.34305861592292786,-0.340666800737381
31.0,-0.5030275787230118,-1.393198002747084,1.6760922717288271,-0.8773120878154463,-1.251416582226569,-1.935843812185694,0.8385589569807053,-0.17669352889060974,0.667316734790802,0.8647311329841614,-0.13451151549816132,-0.3610638380050659,-0.322148859500885
32.0,-0.4788484062398085,-1.3756326826293022,1.655774268936413,-0.8662320092533619,-1.287995993279721,-1.900332615687828,0.8509839028120041,-0.16680113971233368,0.6657873839139938,0.8650292158126831,-0.13150344789028168,-0.3814319670200348,-0.2982296943664551
33.0,-0.4520498880523026,-1.3601396488017679,1.633939386421656,-0.8514917658929729,-1.3296982870933043,-1.8653889854444328,0.8624605983495712,-0.15439850091934204,0.6669356673955917,0.8656401634216309,-0.1257600039243698,-0.4018019139766693,-0.2709367871284485
34.0,-0.4359619803394848,-1.3496327374379147,1.6222996206718914,-0.8460496491771434,-1.3534462062534927,-1.8468524867158629,0.8700724542140961,-0.14688143134117126,0.6655066013336182,0.8660889267921448,-0.1214364767074585,-0.4124561548233032,-0.25499632954597473
35.0,-0.41448744342323374,-1.335681704382966,1.6100556673552915,-0.8442322842560075,-1.3895335311352364,-1.8241383608042245,0.87969771027565,-0.13706272840499878,0.6611372083425522,0.8674267530441284,-0.11361268907785416,-0.42544811964035034,-0.23163969814777374
36.0,-0.39280792879782184,-1.3247104201634472,1.5957926720402897,-0.8360888433617331,-1.420703176886961,-1.8034150734055368,0.8881420493125916,-0.12544846534729004,0.6609745994210243,0.8680325746536255,-0.1059257909655571,-0.43708908557891846,-0.2103622406721115
37.0,-0.3539793192416823,-1.3090861878137054,1.5752618951511628,-0.826286681312819,-1.4817919713066623,-1.770860988552851,0.9003312289714813,-0.10380524396896362,0.6606575809419155,0.869899332523346,-0.08867824822664261,-0.4545430839061737,-0.1697114109992981
38.0,-0.3433551451663969,-1.301473781947175,1.5719848027738308,-0.8300009356460061,-1.4974374190065598,-1.7629925456721327,0.9054639637470245,-0.09824848175048828,0.6558140590786934,0.8704327940940857,-0.08372601866722107,-0.45831388235092163,-0.15901298820972443
39.0,-0.36696305707584514,-1.3092408540424958,1.5852488006760848,-0.839430972794457,-1.463863576638018,-1.7815485904411068,0.8988676965236664,-0.11252107471227646,0.653783768415451,0.8698788285255432,-0.09395325928926468,-0.44866743683815,-0.18215705454349518
40.0,-0.4011681519086934,-1.3245056714592027,1.6041294303545466,-0.8478615226340919,-1.410002081746385,-1.811520465265468,0.8871406763792038,-0.1311303824186325,0.6549398191273212,0.8682319521903992,-0.10851868987083435,-0.4323187470436096,-0.21793963015079498
41.0,-0.4216238755114568,-1.334539845322506,1.6177800540872354,-0.8559091274714385,-1.3801108189952154,-1.8316682471736145,0.8792930841445923,-0.14203837513923645,0.654724970459938,0.8675633668899536,-0.11559166759252548,-0.4209844470024109,-0.23821094632148743
42.0,-0.447755412479234,-1.3467116657963485,1.6371175248830199,-0.8694249255371489,-1.3398334992712335,-1.860575880651319,0.8695908188819885,-0.155489981174469,0.6525659188628197,0.8666378259658813,-0.12359367311000824,-0.4043378233909607,-0.26490458846092224
43.0,-0.48020512617542843,-1.3668685270634844,1.6626098272691832,-0.884298856458828,-1.2912049709232671,-1.9017475706895752,0.854609802365303,-0.1704988032579422,0.653227660804987,0.8658730983734131,-0.130636066198349,-0.38064682483673096,-0.2971632778644562
44.0,-0.5007585637366335,-1.381356764277097,1.6798465437683938,-0.8939778602802312,-1.2596008171791047,-1.931740509236777,0.844244122505188,-0.1790521740913391,0.6543125472962856,0.8655580282211304,-0.13339751958847046,-0.36341235041618347,-0.31771984696388245
45.0,-0.5149690700705873,-1.39363965381035,1.6916745170748373,-0.8986626575693316,-1.2381810794985562,-1.9542599084348673,0.8358927667140961,-0.18419042229652405,0.6569872908294201,0.8654730916023254,-0.13434597849845886,-0.35063183307647705,-0.33160945773124695
46.0,-0.5363016709600389,-1.407270534122738,1.7121883478785118,-0.9142578776837553,-1.2047545226234166,-1.9920271100611116,0.8258623629808426,-0.1928277462720871,0.6549442335963249,0.8655675649642944,-0.13415706157684326,-0.3292349874973297,-0.3527024984359741
47.0,-0.550216872336584,-1.4154513698491074,1.7278606379780408,-0.9289356330996035,-1.1859314351423267,-2.0182879246396412,0.8192102164030075,-0.19874531030654907,0.6512902155518532,0.8662588000297546,-0.13247598707675934,-0.31454843282699585,-0.3648356795310974
48.0,-0.5688803176654765,-1.4299910160068574,1.7475951772848504,-0.9434746536436495,-1.159611807236012,-2.056510692764025,0.8086931854486465,-0.20529401302337646,0.6502417623996735,0.867081880569458,-0.12906038761138916,-0.29351213574409485,-0.3812650740146637
49.0,-0.5933896787985826,-1.4486220420335165,1.774402326066422,-0.9648462491079316,-1.1215659208362934,-2.1143920182455735,0.7955908104777336,-0.21333551406860352,0.6478925421833992,0.8682295083999634,-0.12170175462961197,-0.26190268993377686,-0.4034515619277954
50.0,-0.6154111190640812,-1.466480931433539,1.801153418371145,-0.9878489969730025,-1.0912287711193256,-2.1707154858999957,0.7827004790306091,-0.2200210690498352,0.6445640586316586,0.8700876235961914,-0.11192402243614197,-0.23162196576595306,-0.4204424023628235
51.0,-0.6303388776814547,-1.4826461307584817,1.817443785785792,-0.9975149810503178,-1.0664096464680963,-2.2151436482037434,0.7728584855794907,-0.2227807343006134,0.6468256860971451,0.8710002899169922,-0.10334494709968567,-0.20790217816829681,-0.43296074867248535
52.0,-0.6663236663634583,-1.5208430604955616,1.8619189834216348,-1.0312244894498246,-1.010852256574992,-2.332180283798615,0.7490350604057312,-0.2290092408657074,0.6473959311842918,0.8740050196647644,-0.07634056359529495,-0.145952507853508,-0.4571489989757538
53.0,-0.6817349810339772,-1.5405908793169145,1.8804843103017095,-1.04358111574633,-0.9832247451086468,-2.391480250264324,0.7382256798446178,-0.23007848858833313,0.6504143476486206,0.8749464154243469,-0.06106109917163849,-0.11452275514602661,-0.466502845287323
54.0,-0.7073157352721118,-1.5730917141724619,1.9156251519793621,-1.0734487881222434,-0.9416140593907282,-2.4914721641528375,0.7200492359697819,-0.23165354132652283,0.6516580320894718,0.8767969012260437,-0.032983649522066116,-0.06077367439866066,-0.4758632779121399
55.0,-0.7258085725829801,-1.5952128866208983,1.9431199762118967,-1.1025529979903648,-0.9118917453117629,-2.565538020151179,0.7079051826149225,-0.2331598699092865,0.649981003254652,0.8778939843177795,-0.010794144123792648,-0.019811106845736504,-0.4783232510089874
56.0,-0.7573764510582705,-1.6408578721679121,1.9945481524891224,-1.1634430075691018,-0.8502939001645943,-2.7028457396797423,0.686619084328413,-0.23246413469314575,0.6499624885618687,0.8780524730682373,0.033187754452228546,0.06155235320329666,-0.4734276831150055
57.0,-0.7754876385205888,-1.6726763760310697,2.025518182711732,-1.1998828620112123,-0.8158153015556198,-2.773405338993846,0.6725270971655846,-0.22977034747600555,0.6523226052522659,0.8772925734519958,0.05673127993941307,0.10717392712831497,-0.46438467502593994
58.0,-0.7942285754515976,-1.7079065642407598,2.0590775090598203,-1.2423138528186892,-0.7837962078766041,-2.832383966455542,0.6571414843201637,-0.2261202335357666,0.6546894162893295,0.8766836524009705,0.077300526201725,0.15048235654830933,-0.45033925771713257
59.0,-0.8107288955232925,-1.745228791334714,2.0945749970736935,-1.2958950241886058,-0.7525656219439879,-2.87327277042792,0.6425560526549816,-0.22074759006500244,0.6571129262447357,0.8766174912452698,0.09404457360506058,0.1910555511713028,-0.43150338530540466
60.0,-0.8317751938379994,-1.7877452156744764,2.138860317368562,-1.362034284127187,-0.7231961396999522,-2.904290546166739,0.6243579238653183,-0.21497967839241028,0.6563367880880833,0.8768330812454224,0.10740317404270172,0.230936199426651,-0.40779510140419006
61.0,-0.8439323526398423,-1.8145320159000038,2.1690031348049197,-1.4132536479565492,-0.7070053916121473,-2.910477387896742,0.6134158819913864,-0.2107754647731781,0.6544739678502083,0.877728283405304,0.11279679089784622,0.25338977575302124,-0.3907219171524048
62.0,-0.8521564314418508,-1.8385895646446897,2.1895510748844105,-1.4483228452945855,-0.6917309216119303,-2.9133080304584613,0.6048747897148132,-0.20574912428855896,0.6568182855844498,0.877627432346344,0.11672699451446533,0.27137935161590576,-0.3774893283843994
63.0,-0.8576128175126347,-1.8628484050095175,2.207665354089122,-1.4848361493194409,-0.6759337572375057,-2.908775161153598,0.5976872444152832,-0.19969233870506287,0.6612453684210777,0.877444326877594,0.11969341337680817,0.28846806287765503,-0.36407598853111267
64.0,-0.8660153562562277,-1.8975941534677174,2.2395425195757364,-1.5531380614206416,-0.6578978445732242,-2.889012895708004,0.5867066234350204,-0.19113707542419434,0.6639574617147446,0.8783453106880188,0.1211661547422409,0.31097611784935,-0.3422311544418335
65.0,-0.8479611695309567,-1.8454994001080762,2.184494579589327,-1.4462892606031195,-0.6820699144637637,-2.912040057375454,0.6059866920113564,-0.20206871628761292,0.6654298901557922,0.8762602806091309,0.1187959685921669,0.27678149938583374,-0.3760952055454254
66.0,-0.8568086349719608,-1.8759989832998232,2.2121316049055793,-1.5005562658052527,-0.6650336549358827,-2.902758925563433,0.5957119911909103,-0.19515103101730347,0.6676801219582558,0.8767349720001221,0.12145429104566574,0.29762476682662964,-0.3577767312526703
67.0,-0.8754871006556769,-1.9457103712926886,2.2822563320083544,-1.651145780360545,-0.6367129541092509,-2.8481638654955628,0.5718470364809036,-0.17799921333789825,0.6686742380261421,0.8792498111724854,0.12039429694414139,0.33896851539611816,-0.3122904896736145
68.0,-0.8821857830593932,-1.9692918972244184,2.311017504417592,-1.7146713865066652,-0.6331571859737016,-2.818307057239794,0.5628301203250885,-0.1718219667673111,0.6657320559024811,0.8810778856277466,0.11737416684627533,0.3505932092666626,-0.2949736714363098
69.0,-0.8883462626966452,-2.0012794513730645,2.3453130898941805,-1.7964515568212318,-0.6285509107552424,-2.7740639325955483,0.5516300350427628,-0.162155881524086,0.6649706438183784,0.8827049136161804,0.11296570301055908,0.36565524339675903,-0.27270326018333435
70.0,-0.8867378110585863,-2.0269360791967905,2.3701504326140133,-1.8746330822894148,-0.6267207227164104,-2.721500101462537,0.5446672737598419,-0.15214787423610687,0.6682529747486115,0.8839044570922852,0.10831199586391449,0.3778795003890991,-0.2533544600009918
71.0,-0.8891957362507246,-2.0470668659563533,2.396256621825895,-1.9413115717862641,-0.631813561760406,-2.680757965632434,0.5367595255374908,-0.14493635296821594,0.6653405129909515,0.8857892155647278,0.10302872210741043,0.3857254087924957,-0.2365976870059967
72.0,-0.8890322977888203,-2.066569267744488,2.4203785299289566,-2.007560564331037,-0.6386546821403692,-2.637043034995615,0.5294555425643921,-0.1368137151002884,0.6635761559009552,0.8874220848083496,0.09754561632871628,0.39300253987312317,-0.2202635407447815
73.0,-0.8826785540915711,-2.0870120170370914,2.4447656111511096,-2.0935001999700784,-0.6490303556456877,-2.5748452312646064,0.5230071842670441,-0.12607283890247345,0.6649684011936188,0.8887505531311035,0.09070621430873871,0.4021265506744385,-0.20047220587730408
74.0,-0.8728558971504193,-2.1082772196956086,2.471039667119562,-2.190018042016244,-0.6663863851147014,-2.5031343881343227,0.5157049000263214,-0.11332473158836365,0.666320376098156,0.8900448083877563,0.08237993717193604,0.41142934560775757,-0.1782124638557434
75.0,-0.8659273327621425,-2.1200517214337875,2.4905648013887496,-2.2528346682134908,-0.6850498128016501,-2.4578983172064337,0.5102851390838623,-0.10524895042181015,0.6635525748133659,0.8918318152427673,0.07592671364545822,0.41503316164016724,-0.16315288841724396
76.0,-0.8430914194498889,-2.1381305152486867,2.51823933653342,-2.372078641833231,-0.7234287757237212,-2.3653200592537234,0.502907931804657,-0.08850346505641937,0.6648054420948029,0.8932662606239319,0.0642673596739769,0.42378589510917664,-0.13546431064605713
77.0,-0.8100307340676582,-2.149051719556201,2.543885892855387,-2.492401704962292,-0.7795249746205358,-2.2705948083991077,0.49654316902160645,-0.07093048095703125,0.6641829535365105,0.8951044678688049,0.051105789840221405,0.4299491345882416,-0.10639635473489761
78.0,-0.7747553515812079,-2.1551551133609808,2.5654162202170583,-2.588608646869843,-0.8403861582107831,-2.1942188431916927,0.4906711280345917,-0.05499579757452011,0.6611917316913605,0.896809458732605,0.03914817422628403,0.4331637918949127,-0.08105121552944183
79.0,-0.7469747248468898,-2.1550255115355856,2.5753553265247597,-2.6470086402974133,-0.8844797048793024,-2.1461774279989494,0.4883294999599457,-0.04497889429330826,0.66052520647645,0.8975186944007874,0.03157927468419075,0.4349913001060486,-0.06515760719776154
80.0,-0.8053901299869975,-2.153395640649145,2.5549721703792128,-2.514993517968794,-0.7955960710500071,-2.2560523443564686,0.49286986887454987,-0.06700155884027481,0.6591508872807026,0.8964250087738037,0.04756564646959305,0.42929553985595703,-0.09932325780391693
81.0,-0.8294874473981757,-2.1467175637538354,2.538478699553654,-2.437002527440064,-0.7554879426152643,-2.317987429352796,0.4972028285264969,-0.07909445464611053,0.6596876978874207,0.8954200744628906,0.05638211965560913,0.4253927171230316,-0.11868017166852951
82.0,-0.8556669256535492,-2.1355072027263406,2.5169897352402195,-2.3333227278815816,-0.713857185042964,-2.4003396105952772,0.5023881494998932,-0.09406653791666031,0.6586356274783611,0.8940953612327576,0.06700742244720459,0.41913169622421265,-0.14294081926345825
83.0,-0.8700121450467853,-2.122395015619691,2.498022991575019,-2.254658119830826,-0.689862131377253,-2.4613601813898223,0.5075227618217468,-0.10530348867177963,0.657881036400795,0.8931116461753845,0.07463105767965317,0.41323742270469666,-0.1612967848777771
84.0,-0.8821793697450753,-2.112210891978494,2.4857890236473503,-2.1901637475048057,-0.6759232898983105,-2.513268697649543,0.5100881457328796,-0.11405438184738159,0.6542084030807018,0.8927543759346008,0.07998303323984146,0.40724605321884155,-0.17533674836158752
85.0,-0.8688773580673825,-2.130138199125798,2.5127013934446225,-2.285818863661848,-0.703023599416216,-2.4418998829993175,0.5027793645858765,-0.10099449753761292,0.6526055857539177,0.8947537541389465,0.070557601749897,0.413703054189682,-0.152601420879364
86.0,-0.8497178138637103,-2.1448606906132204,2.5367148304952885,-2.380680527464872,-0.7371384488222072,-2.368654290929858,0.496263712644577,-0.08709214627742767,0.6517139747738838,0.8963541388511658,0.06078828498721123,0.4195042848587036,-0.12988623976707458
87.0,-0.8263420332197813,-2.1515217468150167,2.5510465492806977,-2.461102934760111,-0.7713823121660075,-2.303507576622557,0.49315986037254333,-0.0753769725561142,0.6537482962012291,0.8970240950584412,0.05261645093560219,0.4245212972164154,-0.11117985844612122
88.0,-0.8102922107127902,-2.1581598317034656,2.5665716328987553,-2.5150728824342083,-0.8022716769795225,-2.2621608931552797,0.4884812980890274,-0.06622646003961563,0.6503817513585091,0.8983153104782104,0.045939214527606964,0.42607274651527405,-0.09685647487640381
89.0,-0.7925156262944536,-2.1613924084937484,2.5796980491293677,-2.5645151814948006,-0.8348604980596563,-2.224121039750224,0.4849031865596771,-0.058017268776893616,0.6470150351524353,0.8996410369873047,0.0396074615418911,0.4267379939556122,-0.0834997147321701
90.0,-0.758237177350725,-2.1604327861759725,2.5885293643946428,-2.635251162402306,-0.8835308947023998,-2.1638953081700936,0.48332926630973816,-0.046093154698610306,0.6489741504192352,0.899924099445343,0.031283073127269745,0.42996618151664734,-0.06547583639621735
91.0,-0.7220539127866659,-2.159195394370921,2.599170634946328,-2.699144628484845,-0.9379001835290662,-2.1097943708701568,0.48053401708602905,-0.03375624492764473,0.6480891406536102,0.9004620909690857,0.022799184545874596,0.43172550201416016,-0.04755290970206261
92.0,-0.682318472556558,-2.1527228201980364,2.6044084413327333,-2.7557920595633196,-0.9951767689332193,-2.059643583773848,0.4799353778362274,-0.022742193192243576,0.6488134413957596,0.9007771015167236,0.014827701263129711,0.43293076753616333,-0.030851243063807487
93.0,-0.6378520172684651,-2.145136888242297,2.611605362681295,-2.8099947407057666,-1.0606106183290993,-2.0114693814445626,0.47835564613342285,-0.010575666092336178,0.6470663025975227,0.9013170599937439,0.006400526035577059,0.43290767073631287,-0.013325944542884827
94.0,-0.5707250081474753,-2.1297976491378394,2.61464312946429,-2.875150343727111,-1.1549107928097582,-1.9485587940462992,0.47840622067451477,0.005801417864859104,0.6475381106138229,0.901208758354187,-0.004590936936438084,0.43325573205947876,0.009549539536237717
95.0,-0.5128065243281554,-2.1137152903007603,2.612126409834086,-2.919955205157733,-1.2354705193305169,-1.9009018228643917,0.4801720678806305,0.018582534044981003,0.6496831625699997,0.9006489515304565,-0.013351724483072758,0.4334554374217987,0.02774268575012684
96.0,-0.4112578950371186,-2.0820859381968404,2.6073070341396787,-2.9825673482929664,-1.3823152050889125,-1.8285767314601047,0.4831618666648865,0.04010465741157532,0.6503259241580963,0.8997907638549805,-0.028705552220344543,0.43123674392700195,0.05989516153931618
97.0,-0.32868592272209246,-2.053083664253679,2.599645054260639,-3.0190875396132917,-1.5042755724094905,-1.7761585037746646,0.48682647943496704,0.05716964602470398,0.650694940239191,0.8987561464309692,-0.04097139090299606,0.4279668927192688,0.0860423892736435
98.0,-0.27344058839238533,-2.0315150991524,2.5969127760538373,-3.038088622981471,-1.5874748068031583,-1.7436429094506145,0.4886719882488251,0.0690273568034172,0.6473191864788532,0.8986824750900269,-0.04887814074754715,0.4233371913433075,0.10376109182834625
99.0,-0.20449646680966932,-2.0026043073569575,2.588372422067976,-3.0535708722904844,-1.69237813232568,-1.7030213613585803,0.49286046624183655,0.08394809067249298,0.6452451683580875,0.8978937268257141,-0.05882112309336662,0.41752320528030396,0.12649624049663544
100.0,-0.11491014881866002,-1.961620398822576,2.5681556936737056,-3.0573973052209418,-1.8345194489819112,-1.6486797187425735,0.5018755346536636,0.10391915589570999,0.6458041742444038,0.8956930041313171,-0.07260012626647949,0.40886178612709045,0.1590450406074524
101.0,-0.02714421163469239,-1.9166558577000163,2.545703614687248,-3.040993139346019,-1.9809872828378867,-1.5907051142321902,0.512259304523468,0.12561066448688507,0.6429261527955532,0.8934158682823181,-0.08638425171375275,0.3952438533306122,0.19526439905166626
102.0,0.018490001348291887,-1.8908130368595015,2.527395523692573,-3.018000645868594,-2.061331577156889,-1.5564546380091464,0.5207420289516449,0.13796111941337585,0.6430244110524654,0.8916736841201782,-0.09389415383338928,0.38611528277397156,0.21683406829833984
103.0,0.05182418709676704,-1.8716753659070828,2.5115984295480884,-2.992083507921265,-2.124417463236007,-1.5284850103899803,0.5276605188846588,0.14740478992462158,0.6434486992657185,0.8899348974227905,-0.09984192997217178,0.3778058886528015,0.23518113791942596
104.0,0.07656036171594707,-1.855782772142481,2.495752241701982,-2.963982056340605,-2.1731026733154497,-1.505344838717552,0.5350450873374939,0.15495935082435608,0.6445789784193039,0.8886587619781494,-0.10415372252464294,0.3699013888835907,0.25022104382514954
105.0,0.1118794200353897,-1.8327079742465908,2.470186573138266,-2.9116368004040325,-2.247380852975862,-1.4673332867770807,0.5465294122695923,0.16644611954689026,0.6464775130152702,0.8860600590705872,-0.1105959415435791,0.3565523326396942,0.2748394310474396
106.0,0.1296233143557351,-1.8198215383749425,2.4525726786317166,-2.873080413499858,-2.2882678243884524,-1.4447577285879996,0.5545722246170044,0.17268364131450653,0.6484854593873024,0.8845677375793457,-0.11376509815454483,0.347397118806839,0.2896769344806671
107.0,0.14830498148123306,-1.8052966467002347,2.436079597463875,-2.8274771469489934,-2.3288867070445143,-1.4180131895101473,0.5624997317790985,0.18000516295433044,0.6474533751606941,0.8836385011672974,-0.1158994808793068,0.33557870984077454,0.3051839768886566
108.0,0.17096452643601354,-1.7880194751085146,2.417397795136377,-2.7613947692335383,-2.3773833370609077,-1.3803768903233955,0.5710696280002594,0.18952706456184387,0.6434891298413277,0.8826990127563477,-0.1172776073217392,0.3183455169200897,0.3251838982105255
109.0,0.18950888031834864,-1.7702205684849943,2.3876060315773278,-2.6713028411506747,-2.4251248564155325,-1.3403297537295051,0.5846608206629753,0.1983247697353363,0.6436345614492893,0.881504237651825,-0.11718154698610306,0.2967912554740906,0.34804272651672363
110.0,0.20302211264167036,-1.7563731666422577,2.360025798725468,-2.5833694601473,-2.4631230431555835,-1.3040846486184245,0.596381664276123,0.20533809065818787,0.6443364508450031,0.8800815939903259,-0.11569266766309738,0.2764604389667511,0.36829498410224915
111.0,0.20948871961235146,-1.7474386734710323,2.3386366430862924,-2.517205229070547,-2.4854049110681156,-1.2810837345728041,0.6053684800863266,0.20921064913272858,0.645882148295641,0.8792934417724609,-0.11335858702659607,0.2609570324420929,0.38196122646331787
112.0,0.22168044361772563,-1.72663331495397,2.295059878591338,-2.3697034964044685,-2.5214088774511976,-1.232199524930216,0.6232605502009392,0.2178005874156952,0.6446760706603527,0.8786720037460327,-0.1041327565908432,0.22393906116485596,0.4085867702960968
113.0,0.22872343561162867,-1.7044081775689677,2.2478374901477376,-2.212205982684983,-2.5441753771709275,-1.1915575251181547,0.641667939722538,0.2247680276632309,0.6430295817553997,0.8786046504974365,-0.08921553194522858,0.18112517893314362,0.43276798725128174
114.0,0.23065375273199482,-1.6844465832614504,2.2018343870722448,-2.069265559924137,-2.55639222688286,-1.166444128315288,0.6583222523331642,0.2289399802684784,0.644087165594101,0.8780410885810852,-0.07195749878883362,0.1397736519575119,0.4520282447338104
115.0,0.2305472355893592,-1.6689413811203173,2.1719892953211266,-1.9778106026747175,-2.5567747019579947,-1.157868920930541,0.6691923141479492,0.2313820868730545,0.6427837461233139,0.8783193826675415,-0.05750623345375061,0.10936672985553741,0.4618300199508667
116.0,0.227194902987947,-1.6582547477132858,2.1451985745819395,-1.9072978186015586,-2.5564153481259226,-1.1590916465420535,0.6787996105849743,0.23121148347854614,0.6458871960639954,0.8780553936958313,-0.04552986100316048,0.08529675751924515,0.4686899185180664
117.0,0.2225734858626871,-1.6388801574275085,2.1017036446370567,-1.785865249966315,-2.5458985157913316,-1.168141596085429,0.6925012744031847,0.23185908794403076,0.6479591839015484,0.8783659934997559,-0.021183907985687256,0.039097726345062256,0.4759157598018646
118.0,0.2174093959564977,-1.6165139560511335,2.060738418936918,-1.6725701960547377,-2.5279805611463777,-1.1869433346361027,0.7052589016966522,0.2324451506137848,0.6470518708229065,0.8781596422195435,0.005490925163030624,-0.01008282508701086,0.47822991013526917
119.0,0.21075401467907767,-1.5887142460341859,2.0199341235339,-1.572539718127995,-2.503862447141929,-1.2152488111359487,0.720350144430995,0.23287582397460938,0.6437252163887024,0.8772668838500977,0.03247632086277008,-0.05996284633874893,0.4751342833042145
120.0,0.19833203519666226,-1.5575490226404365,1.96926453328176,-1.4651357954034645,-2.471532401214796,-1.259639131349956,0.7394058220088482,0.23026439547538757,0.6445379108190536,0.8752251863479614,0.062105633318424225,-0.11682799458503723,0.4652687609195709
121.0,0.18270716080948485,-1.5282383140422224,1.9210700722893315,-1.3730150647687938,-2.4351624894168835,-1.3081668488334126,0.7581228502094746,0.22511857748031616,0.6466668210923672,0.8729230165481567,0.08709622919559479,-0.1692563146352768,0.44919028878211975
122.0,0.1750661084457857,-1.5062701784248933,1.8961628208782622,-1.3291065533591855,-2.4097624281303087,-1.3336081809304465,0.7700849249958992,0.22375640273094177,0.6422627456486225,0.8716474175453186,0.09946906566619873,-0.19839991629123688,0.43700599670410156
123.0,0.18389894642256513,-1.5204187605173622,1.9203886783531083,-1.3726302796133565,-2.4290208858805227,-1.309380679368543,0.7607147395610809,0.22718197107315063,0.6403904221951962,0.8730688095092773,0.08882118761539459,-0.17350564897060394,0.44694235920906067
124.0,0.19400137114802515,-1.540228200841274,1.9511466311925922,-1.4290878235252447,-2.452809254167788,-1.278623603850398,0.7481027506291866,0.23042422533035278,0.6397219151258469,0.8746852874755859,0.07362063974142075,-0.14061009883880615,0.45796775817871094
125.0,0.2125108255611551,-1.578182702596393,2.016720273000077,-1.5635412204583774,-2.4965190614293835,-1.2168809551872934,0.7236876711249352,0.2356431782245636,0.636465884745121,0.8774354457855225,0.03681037202477455,-0.06822875887155533,0.47338876128196716
126.0,0.22317967236055267,-1.603911401285543,2.0632626766935056,-1.6670765873299829,-2.5211219909001676,-1.180585357817897,0.7065808409824967,0.23774582147598267,0.6343066953122616,0.8784478306770325,0.009347736835479736,-0.017199119552969933,0.47743722796440125
127.0,0.2292676658583658,-1.6317764384634899,2.1130209238574262,-1.803986164884789,-2.5440270783816508,-1.1570833339358477,0.6908106822520494,0.2366274893283844,0.6361272409558296,0.8787311911582947,-0.023171400651335716,0.042882245033979416,0.4748219847679138
128.0,0.23020271886948476,-1.6499192548668113,2.1414818357346523,-1.8863135224027716,-2.5518122611281426,-1.1546454891490454,0.6806002613157034,0.23424217104911804,0.6392624899744987,0.8787283301353455,-0.04034385085105896,0.07549504190683365,0.46958425641059875
129.0,0.22224834816690692,-1.6169205325285663,2.0739580888740585,-1.701493843111455,-2.530494230062897,-1.1764904672631016,0.7021066942252219,0.23517027497291565,0.6408861055970192,0.8784886598587036,-0.000491076847538352,0.000902971311006695,0.4777621030807495
130.0,0.23298972476242094,-1.6921385926609893,2.231710885750643,-2.1498728145734587,-2.547404848799946,-1.1750847249412124,0.6480649784207344,0.22896306216716766,0.6375542990863323,0.8792836666107178,-0.08099406212568283,0.16161374747753143,0.4406602382659912
131.0,0.22819148423358165,-1.714725869600517,2.275780997788065,-2.2941956584254224,-2.533472143998317,-1.2071093684907501,0.6307452917098999,0.22282347083091736,0.6404118537902832,0.8788899779319763,-0.09725901484489441,0.20331965386867523,0.4204215109348297
132.0,0.21763640850009355,-1.7359599211925383,2.322022362624485,-2.4509797928052754,-2.5017410033649714,-1.2553386567480007,0.6126622706651688,0.21457210183143616,0.6415447555482388,0.8796914219856262,-0.10890906304121017,0.2432679831981659,0.3938305377960205
133.0,0.2260804481784807,-1.722131485139875,2.300305094166639,-2.368055342753565,-2.5185787221125855,-1.225461398671888,0.6217206940054893,0.22066938877105713,0.6369588151574135,0.8799210786819458,-0.10250849276781082,0.22117865085601807,0.40781232714653015
134.0,0.21721587086718408,-1.7393298120554659,2.338023601948739,-2.4899127116915167,-2.4903462300716135,-1.2641181175709468,0.6061587184667587,0.21394246816635132,0.6368196532130241,0.8806255459785461,-0.11027804762125015,0.25152531266212463,0.3860989809036255
135.0,0.20803938907267108,-1.751837211695739,2.3652393357613684,-2.5787852276647967,-2.462540312616536,-1.295997487040024,0.5947700589895248,0.20826426148414612,0.6365111395716667,0.8814183473587036,-0.11401040852069855,0.2728258967399597,0.36833328008651733
136.0,0.19736075000472525,-1.7635166606918515,2.389950425500409,-2.6540177406236958,-2.4315443187603107,-1.326113661175146,0.5842098146677017,0.20247316360473633,0.6351252868771553,0.8827266693115234,-0.11537859588861465,0.2898496985435486,0.3513812720775604
137.0,0.1866544878071056,-1.7745174025765273,2.411837651383823,-2.7173908921267653,-2.401416182545746,-1.3522440637951563,0.5744769424200058,0.1971033811569214,0.6336745247244835,0.8837537169456482,-0.11574169248342514,0.30433595180511475,0.3360994756221771
138.0,0.1987695031970623,-1.7629006521541009,2.39840701110823,-2.664541823602513,-2.4259326533491357,-1.3260671460103144,0.5808121263980865,0.2032468020915985,0.6295730788260698,0.8837983012199402,-0.11451546102762222,0.29042890667915344,0.34847962856292725
139.0,0.2120752988812621,-1.7488637133845126,2.3763080278516893,-2.5876202435295124,-2.456588909874619,-1.2920370088948152,0.5905710607767105,0.2105330526828766,0.6270245611667633,0.8831882476806641,-0.11241409182548523,0.27171412110328674,0.36539435386657715
140.0,0.22102448818577738,-1.736280438364008,2.3439879432278725,-2.4910679679589207,-2.488061485969815,-1.2587734903378673,0.6039687544107437,0.21616089344024658,0.6301624905318022,0.8816802501678467,-0.10912308841943741,0.24981726706027985,0.3851281702518463
141.0,0.22803806562319828,-1.7228232954585174,2.3138894416409004,-2.3944734998570234,-2.510650261586793,-1.228170256663167,0.6164090037345886,0.22149069607257843,0.630442826077342,0.8811158537864685,-0.10317128151655197,0.2258785516023636,0.40245455503463745
142.0,0.23526170104994598,-1.7076700264257159,2.2838797686358414,-2.2916331981252362,-2.5289330019862346,-1.1961989142001646,0.6281333416700363,0.22744551301002502,0.6283618658781052,0.8806400299072266,-0.09483683854341507,0.19918736815452576,0.4192892611026764
143.0,0.2402350215752164,-1.6808646748432319,2.2310230753192135,-2.121632463455665,-2.543476082440416,-1.160541145414707,0.6486648209393024,0.23456034064292908,0.6253267452120781,0.8808436393737793,-0.07522046566009521,0.1496352106332779,0.4427933096885681
144.0,0.23890081874653044,-1.645816975440034,2.16089541569542,-1.9172510061303418,-2.545069928575832,-1.1439828459905532,0.6744605768471956,0.23975884914398193,0.6247293315827847,0.8803523182868958,-0.04336484521627426,0.08207342773675919,0.4651486575603485
145.0,0.23510126390328817,-1.626194519458614,2.122594453535335,-1.8156076963450614,-2.5391509714868565,-1.149382933787865,0.6883728392422199,0.24083971977233887,0.6255857106298208,0.8796900510787964,-0.023531554266810417,0.04376940429210663,0.47294390201568604
146.0,0.22730706781169038,-1.5905134849516376,2.0635196802095988,-1.6640391948214823,-2.51336545218974,-1.177896106055102,0.7096760086715221,0.24232251942157745,0.6228871569037437,0.8790614604949951,0.013039590790867805,-0.024085095152258873,0.47592097520828247
147.0,0.2189968421787262,-1.5655331003499176,2.023987023177636,-1.5761509290083244,-2.4898809653528624,-1.2092109399334827,0.7250721119344234,0.24161741137504578,0.6219121068716049,0.8782318830490112,0.03716054931282997,-0.06918077170848846,0.47174346446990967
148.0,0.21142768521543576,-1.541629168955736,1.990328023748919,-1.5058101013896086,-2.4661218129191265,-1.2392164967389971,0.7389138825237751,0.24101468920707703,0.6195227317512035,0.8769195079803467,0.05741184577345848,-0.1083313375711441,0.46473684906959534
149.0,0.20111425989817788,-1.5212232695729775,1.9584056157493246,-1.4454032022851706,-2.4414247109818166,-1.272661102536608,0.7522051930427551,0.23806121945381165,0.619652520865202,0.8757533431053162,0.07468095421791077,-0.14382098615169525,0.4547465741634369
150.0,0.19170805360887191,-1.503835046117819,1.930463616418341,-1.3943693786365055,-2.419692655131999,-1.3010593651755458,0.7636465132236481,0.23499709367752075,0.6205027960240841,0.8742615580558777,0.08826842159032822,-0.17352990806102753,0.44470536708831787
151.0,0.18289446517280342,-1.493141657886938,1.9077221676944467,-1.3530849547481472,-2.4032600633572843,-1.323988789377643,0.771805927157402,0.23110893368721008,0.6242567840963602,0.8728637099266052,0.09786549210548401,-0.1958933174610138,0.43607011437416077
152.0,0.16874890056532177,-1.4712558118907633,1.874698831922217,-1.298698186136477,-2.3717082093400776,-1.3594134200445116,0.7863116413354874,0.22547709941864014,0.6245289985090494,0.871405839920044,0.1106371283531189,-0.23018281161785126,0.41884028911590576
153.0,0.1601564474007162,-1.4515486143845817,1.8534621373734985,-1.2668730549474778,-2.346691961990088,-1.3811272976601525,0.7976229339838028,0.22298789024353027,0.6199692711234093,0.8704701662063599,0.11791954934597015,-0.2532971203327179,0.4052373468875885
154.0,0.13669978350516812,-1.465802033251976,1.8581987239136357,-1.353842520792477,-2.2622754489710277,-1.4154140238620558,0.8045661896467209,0.21424688398838043,0.6262565106153488,0.8984053134918213,0.09327410161495209,-0.2321823388338089,0.3609143793582916
155.0,0.0963731031199775,-1.486873311082387,1.8640455888072167,-1.4561104991909748,-2.131326493913348,-1.4675876639090262,0.8131412267684937,0.1981317549943924,0.6364635452628136,0.9322925209999084,0.0641568973660469,-0.20606617629528046,0.29026108980178833
156.0,0.0924167197480965,-1.4605703368822431,1.833495390540324,-1.388269314947653,-2.1452606713653766,-1.4742287227414375,0.8260826170444489,0.1942196935415268,0.6335115134716034,0.9224421381950378,0.07575760036706924,-0.2360588163137436,0.29603642225265503
157.0,0.0386217036288356,-1.5049902261349068,1.8705045927165047,-1.5626097639005156,-1.9769027359255376,-1.5314187250762301,0.8277745097875595,0.17213651537895203,0.6458536721765995,0.9624212980270386,0.03709778934717178,-0.17408445477485657,0.2050941437482834
158.0,-0.0034256359196092674,-1.5693500654196137,1.9461185765472582,-1.7742373420705977,-1.8060204944430749,-1.5742656954835392,0.8104302957653999,0.1622634083032608,0.6549219414591789,0.9893644452095032,0.01017813105136156,-0.08635985851287842,0.11660371720790863
159.0,-0.035862056139236514,-1.5912147974211606,1.977716953544671,-1.8729987857418855,-1.6933439099486585,-1.6067875504273754,0.8092003837227821,0.15322335064411163,0.657424159348011,0.9972367882728577,0.0026447062846273184,-0.04422871395945549,0.05963091179728508
160.0,-0.03672997990710374,-1.582367560804748,1.9695268538126445,-1.8720906642736856,-1.685364369017968,-1.6076190394609737,0.816545270383358,0.15347936749458313,0.6567294895648956,0.9974396824836731,0.0025034931022673845,-0.044923048466444016,0.055585794150829315
161.0,-0.043322868709802946,-1.5759171705564001,1.9644974727997053,-1.879938187074095,-1.671265746841099,-1.6141863271346268,0.8238433599472046,0.14998427033424377,0.6565235406160355,0.9979508519172668,0.002027417067438364,-0.04179610311985016,0.048407915979623795
162.0,-0.04889845495057137,-1.5847622200773133,1.9705651705038956,-1.8726633198867426,-1.6805409538155982,-1.6197952274287883,0.8170123994350433,0.14433817565441132,0.6578167080879211,0.9976155757904053,0.002351151779294014,-0.04452348127961159,0.0526810958981514
163.0,-0.0553842475930986,-1.5784088376568721,1.9633074828409967,-1.8675004451410953,-1.6774154098017109,-1.6262512501370672,0.8229605704545975,0.13923756778240204,0.6578148268163204,0.9976086616516113,0.0023841846268624067,-0.04690138250589371,0.05071243643760681
164.0,0.015298637520543057,-1.5053308510328955,1.8678120639313986,-1.58792733364896,-1.927007648258108,-1.555407124291801,0.83632892370224,0.16000451147556305,0.6480573415756226,0.9695464372634888,0.03039637580513954,-0.16640253365039825,0.1771048605442047
165.0,-0.0003229601754431822,-1.4874108553661267,1.8429961832716601,-1.5463240400566476,-1.9121278787039886,-1.5711145898195447,0.848951667547226,0.14907512068748474,0.6474965400993824,0.967732310295105,0.03207803890109062,-0.1861964762210846,0.16672149300575256
166.0,-0.0623658113007346,-1.5637921800865304,1.9437106855289328,-1.8353562686073943,-1.6910083118336192,-1.633143881188328,0.833159863948822,0.1308232545852661,0.6575400605797768,0.9965342283248901,0.003453765297308564,-0.06116846576333046,0.056267477571964264
167.0,-0.07024123548379639,-1.5584114797471584,1.9398209645290028,-1.8444598708582214,-1.677831812654895,-1.6409753360548542,0.8397958874702454,0.12588655948638916,0.6573325470089912,0.9971197247505188,0.00284936698153615,-0.057384517043828964,0.04951091483235359
168.0,-0.04645681013549766,-1.5204080403627207,1.8831032284637415,-1.6905206806314805,-1.785594774281383,-1.6168374522210567,0.8499589413404465,0.1287776380777359,0.6540149301290512,0.9869132041931152,0.01278524287045002,-0.1252790093421936,0.10071858763694763
169.0,-0.08282732039568182,-1.5557318780008464,1.9370009419925063,-1.8476557030014737,-1.6668890268250245,-1.6534860524659543,0.8443378657102585,0.1167416125535965,0.6576998457312584,0.9974853992462158,0.0024375240318477154,-0.05590730160474777,0.04348975419998169
170.0,-0.0822071849956035,-1.5456911979961692,1.9268362415736835,-1.8414735611066269,-1.6656695286421312,-1.6528015572447265,0.851911187171936,0.11682317405939102,0.6567323617637157,0.9973520636558533,0.002517084591090679,-0.058841023594141006,0.042664434760808945
171.0,-0.0759430377968273,-1.549820552700126,1.933475813217377,-1.8548027501682662,-1.6617497761452866,-1.6466243574757728,0.8488020449876785,0.12294091284275055,0.6566011346876621,0.997726559638977,0.0022067606914788485,-0.05305137857794762,0.041502103209495544
172.0,-0.06720625836093083,-1.5558672995340175,1.9417462577281444,-1.8662179016264855,-1.6612887031274866,-1.6379658510148047,0.8434346914291382,0.1307097226381302,0.6565098874270916,0.9979550242424011,0.002026700647547841,-0.04809866100549698,0.042050160467624664
173.0,-0.05957677322861131,-1.5616529804704689,1.9461769910939648,-1.8581119063548202,-1.6735741905428116,-1.6303708332836195,0.8365789651870728,0.13559865951538086,0.6566934436559677,0.9975005984306335,0.002494506072252989,-0.05148962512612343,0.048325687646865845
174.0,-0.05365223265980333,-1.5669288817750742,1.9542272069665634,-1.8731484248556711,-1.667357514546363,-1.6244815436274256,0.8325519561767578,0.1416807770729065,0.6565290465950966,0.9979338645935059,0.002065672306343913,-0.04493637755513191,0.04587384685873985
175.0,-0.029060687724412525,-1.590799632738639,1.9797648238627878,-1.882643876418842,-1.6841864231108759,-1.599950423518862,0.8090348765254021,0.16010117530822754,0.6566556952893734,0.9976511001586914,0.002230976941064,-0.040118925273418427,0.05547846481204033
176.0,-0.023872889336770252,-1.5968788656487394,1.9875245330499522,-1.8925349269757485,-1.6806769205985912,-1.594752686587339,0.803849920630455,0.16493812203407288,0.6565547026693821,0.997898519039154,0.0019332090159878135,-0.035697221755981445,0.054041922092437744
177.0,-0.019244532119030027,-1.6022706183375555,1.9909556425230106,-1.8819957676867174,-1.699745772986295,-1.590139984928676,0.797534741461277,0.16584166884422302,0.656825378537178,0.9971732497215271,0.0025449993554502726,-0.03988753631711006,0.06362400949001312
178.0,-0.010873709216000598,-1.5959525447293497,1.979158457824362,-1.840496142066755,-1.7520637177145162,-1.5817775338622648,0.7970864847302437,0.16452597081661224,0.6567313708364964,0.9942919015884399,0.005187384318560362,-0.05747383460402489,0.08974126726388931
179.0,-0.013041299068035332,-1.611620066134238,2.000457251989929,-1.8843921134791717,-1.711442500464173,-1.5839285864620658,0.7887599319219589,0.16909798979759216,0.6570036299526691,0.9968224167823792,0.0026881354860961437,-0.03843451663851738,0.06971842050552368
180.0,0.0018901360215764099,-1.6165116418791785,2.0035186512696064,-1.8663383438696484,-1.7575915274137406,-1.568880707304067,0.7798732817173004,0.17381919920444489,0.6568423882126808,0.994600772857666,0.004250939469784498,-0.04533994942903519,0.0932508185505867
181.0,0.06783578068320197,-1.5731543121143432,1.959898889112844,-1.7204038643427995,-1.9850482907142164,-1.498273396280599,0.7832645177841187,0.19242863357067108,0.648730956017971,0.9718093872070312,0.022048858925700188,-0.10115842521190643,0.2118191123008728
182.0,0.019566209129583227,-1.6181144077185143,2.0046170660485894,-1.846145508531715,-1.8037703474278906,-1.550800755706446,0.7724526077508926,0.18052397668361664,0.6557754389941692,0.991690993309021,0.0062431157566607,-0.052865590900182724,0.1171128898859024
183.0,-0.0006333698921285446,-1.641887723699151,2.031564824544844,-1.9010940459005332,-1.7227835821845443,-1.5714359504987985,0.7629217803478241,0.17715537548065186,0.6575909703969955,0.9966745376586914,0.002256841864436865,-0.029647953808307648,0.07586819678544998
184.0,0.06321922115130804,-1.6081949495380736,2.0004819895266106,-1.8008439497287825,-1.9398849466316286,-1.503648286728048,0.7643483057618141,0.19401076436042786,0.6513626426458359,0.9798147678375244,0.012944298796355724,-0.06757237017154694,0.18769527971744537
185.0,0.11559986990956557,-1.5823038571934003,1.985043466990284,-1.712342032904462,-2.1105004256326176,-1.4384171383601358,0.7609476447105408,0.21088513731956482,0.6436210684478283,0.9558604955673218,0.02669849433004856,-0.0918608084321022,0.2778119742870331
186.0,0.08623739570340448,-1.624191835184661,2.025245761689763,-1.821089489910258,-1.9951452369918983,-1.476731619291687,0.7465774528682232,0.20252618193626404,0.6496501043438911,0.9748538732528687,0.012043888680636883,-0.05441625788807869,0.21576328575611115
187.0,0.01466310125580184,-1.6699613538389149,2.061200018199932,-1.9184032383481349,-1.743123684256906,-1.5559253163763933,0.7381762973964214,0.18538479506969452,0.6573689952492714,0.9960533380508423,0.001773717231117189,-0.02046038955450058,0.08634816110134125
188.0,0.045696446272392915,-1.6679956136872118,2.06362595014541,-1.9071247420680641,-1.8379090666811113,-1.5234703399439022,0.7308634016662836,0.1938614845275879,0.6553899124264717,0.9906618595123291,0.0031405724585056305,-0.02316235937178135,0.1343233287334442
189.0,0.03526104773491698,-1.6856695255854752,2.080044055585441,-1.9276918583938025,-1.7973350204666605,-1.534625900923074,0.7211975362151861,0.1918874830007553,0.6564088463783264,0.9934183359146118,0.0016662541311234236,-0.014571164734661579,0.11360020935535431
190.0,0.014587142803754798,-1.7039532655487515,2.096374534861187,-1.951096617956838,-1.717784866364396,-1.556050891055805,0.713625836186111,0.18883073329925537,0.6574392095208168,0.9972822666168213,0.00036607604124583304,-0.0049665821716189384,0.07350751757621765
191.0,0.011485019613894414,-1.7159469304506898,2.106956231421555,-1.9558718852194152,-1.7143530563825244,-1.5591920389116085,0.7053098105825484,0.187037855386734,0.6578565798699856,0.9974206686019897,0.0001532934111310169,-0.002131107496097684,0.07174581289291382
192.0,0.030049035546593467,-1.720821294413454,2.116143090171026,-1.967195116527043,-1.7717035163225,-1.540131080160582,0.6976918838918209,0.1912562996149063,0.6569665521383286,0.9949585795402527,-0.0003605557722039521,0.0035794253926724195,0.10022225975990295
193.0,0.021315910975780623,-1.724232580853323,2.1166154906657226,-1.9630643975315567,-1.7168653214375262,-1.5492510396484942,0.6968932168092579,0.19343934953212738,0.656849317252636,0.9973342418670654,-0.00011019241355825216,0.001506409258581698,0.07295406609773636
194.0,0.018561208725236433,-1.733652364138908,2.1246638240979006,-1.96559813971283,-1.6921719079645046,-1.552097878765962,0.6903145266696811,0.19516365230083466,0.6566094420850277,0.998157262802124,-0.00018343687406741083,0.0030212001875042915,0.06060467287898064
195.0,0.019262337865359223,-1.7371089308305294,2.128601477799547,-1.9700208339781249,-1.720596073007329,-1.5513169018019608,0.6877842014655471,0.19125524163246155,0.6570213623344898,0.9971888661384583,-0.000397528667235747,0.005303827114403248,0.07474058866500854
196.0,0.016541728239750836,-1.746392286893729,2.136014491870019,-1.9706197558223593,-1.6925641260785798,-1.5541324360413364,0.6812445223331451,0.19355255365371704,0.6567315384745598,0.9981342554092407,-0.0003713199694175273,0.006100598257035017,0.06075259670615196
197.0,0.012918543835322217,-1.7519416720535184,2.1415020305155377,-1.977241343095932,-1.7111961694463087,-1.5577516797123652,0.6782906614243984,0.18818539381027222,0.6573786549270153,0.9975014328956604,-0.0006550516118295491,0.009331226348876953,0.07002454251050949
198.0,0.04458283659899488,-1.741795592702946,2.1434562785426636,-1.9999052207506578,-1.822327704624086,-1.5247987749314231,0.6794327553361654,0.19306951761245728,0.6558282375335693,0.9920070171356201,-0.0024231255520135164,0.01927979104220867,0.12467755377292633
199.0,0.08553577990134739,-1.7402974742603794,2.1602370463751055,-2.0275329887485123,-1.9558867682702603,-1.4787173318502613,0.6697052475064993,0.20098702609539032,0.6518093794584274,0.9813376069068909,-0.006731086410582066,0.03495514765381813,0.18896983563899994
200.0,0.0032757934578897053,-1.7642390916527695,2.1510838823236864,-1.9804445492139553,-1.693704457232754,-1.5674965229322648,0.6712925881147385,0.18428298830986023,0.6578428708016872,0.998047411441803,-0.0007122076349332929,0.011581793427467346,0.06137365847826004
201.0,-0.002861456870912149,-1.7786141132756097,2.162807714057164,-1.9831475252674409,-1.6861013503498323,-1.5736757965616543,0.6618000194430351,0.18135486543178558,0.6578977815806866,0.9982396364212036,-0.0008022112306207418,0.013889504596590996,0.0576549731194973
202.0,0.07905402648085236,-1.7576342545367323,2.1778174462812094,-2.051532414613633,-1.9419966858175415,-1.486302964039382,0.6593493968248367,0.197717547416687,0.652153953909874,0.9823564291000366,-0.008257964625954628,0.04471901059150696,0.18140529096126556
203.0,0.044088039798533374,-1.782193078542767,2.1879975433831182,-2.051830624628563,-1.83964434202384,-1.5252384959254464,0.6509862691164017,0.18888963758945465,0.6550870649516582,0.9902738332748413,-0.005767695605754852,0.04323025792837143,0.13212038576602936
204.0,0.001686026953158579,-1.7908274502132393,2.1746372057795877,-1.9902167716348151,-1.6972749376173701,-1.5690978145786978,0.6518848463892937,0.18263569474220276,0.657352976500988,0.9978429675102234,-0.001131417229771614,0.01787572167813778,0.06315699964761734
205.0,-0.005813857576287553,-1.8044032450358551,2.1851110182919666,-1.9920717877573226,-1.6881974179727266,-1.5766458275191906,0.6434202007949352,0.17918889224529266,0.6574663892388344,0.9980723857879639,-0.00117212045006454,0.019905121996998787,0.058771856129169464
206.0,0.022462204775291126,-1.801545894464894,2.1975645969892303,-2.043357473186281,-1.786351527134584,-1.5478780884416554,0.6415793038904667,0.18245290219783783,0.6562516167759895,0.9934686422348022,-0.004342322703450918,0.04046884924173355,0.10659956187009811
207.0,-0.012100193484374846,-1.8194870718685119,2.200896376563928,-2.0139603614518506,-1.7013530638267078,-1.5829783050298207,0.6347484961152077,0.17324456572532654,0.6576738879084587,0.9973945617675781,-0.0019730867352336645,0.030012842267751694,0.06557013839483261
208.0,-0.02179407448941335,-1.8316734486056356,2.208648644281226,-2.009667827004046,-1.6881313968512253,-1.5927027131741087,0.6275107115507126,0.16930198669433594,0.6578000672161579,0.9978016018867493,-0.0017582878936082125,0.029602155089378357,0.059266719967126846
209.0,-0.017520345093061693,-1.828766567249425,2.202785061224844,-1.9896758554219403,-1.6679026183511199,-1.5883832250153613,0.627600759267807,0.17507168650627136,0.6572645008563995,0.9985703229904175,-0.0010553239844739437,0.02154706045985222,0.048907604068517685
210.0,-0.009062375466541907,-1.8168436633862348,2.1927262793593782,-1.9822748110717108,-1.6637989524494132,-1.5798925424204626,0.6341981068253517,0.18093053996562958,0.6569711454212666,0.9987608194351196,-0.0008103861473500729,0.017355049028992653,0.046636682003736496
211.0,0.0002894605679453096,-1.7995398812453254,2.179530573528681,-1.9808618398001328,-1.6701731106366238,-1.5705055630403268,0.6450496390461922,0.18587811291217804,0.656884141266346,0.998652994632721,-0.0007475001038983464,0.015032694675028324,0.04965798556804657
212.0,0.0071533362139393,-1.7790160731320679,2.1636610753449066,-1.980248474416945,-1.6833656662172902,-1.5635997882210062,0.6589872390031815,0.1883859485387802,0.6569261811673641,0.9983397126197815,-0.0007193101337179542,0.01278688944876194,0.0561603419482708
213.0,0.2118782155630175,-1.722615859571809,2.2623428752579113,-2.2298458822861806,-2.401261797963182,-1.2720176520605455,0.6321130245923996,0.2250525802373886,0.6295273564755917,0.9114875793457031,-0.06370526552200317,0.15449370443820953,0.375850647687912
214.0,0.15830724709670402,-1.7670883998292035,2.2623175690058757,-2.234926430317599,-2.2107499281666834,-1.3807666606528797,0.6255729794502258,0.21010534465312958,0.6402157954871655,0.9453200101852417,-0.04153038188815117,0.13317030668258667,0.29480674862861633
215.0,0.08157084621289766,-1.8069092995873826,2.2444762699881267,-2.1611207472744596,-1.9814563361654434,-1.4833671532386887,0.6238962486386299,0.19087117910385132,0.6500223726034164,0.9760897755622864,-0.01841694302856922,0.09159314632415771,0.19626569747924805
216.0,0.10794452661585356,-1.8244706172488283,2.3027281172521787,-2.300954396152984,-2.0828526782506693,-1.4527611257496333,0.6012983098626137,0.19129176437854767,0.6447820514440536,0.9595677256584167,-0.03665320202708244,0.1490745097398758,0.23593054711818695
217.0,0.02789456677167736,-1.8564610971268254,2.2728709203768585,-2.1705181084491327,-1.8712133366606962,-1.5421287405808615,0.602452240884304,0.1722097247838974,0.6527410931885242,0.9845843315124512,-0.01407715119421482,0.09467468410730362,0.14639757573604584
218.0,-0.04103205819874231,-1.8520952557697816,2.2216174416019925,-2.0036047438306217,-1.663568294497263,-1.6119329151001989,0.6160622611641884,0.16157059371471405,0.6579809971153736,0.9984244108200073,-0.0014148422051221132,0.02967357262969017,0.047605086117982864
219.0,-0.03091197904252088,-1.8488809166614943,2.216980512857513,-1.9884409539216221,-1.657567475371339,-1.6017910443926369,0.6154801994562149,0.1686859130859375,0.6573254130780697,0.9987525939941406,-0.001033005304634571,0.023392939940094948,0.04410376399755478
220.0,-0.04142433119199548,-1.8624140303603385,2.2260963649854584,-1.986428996287073,-1.6498043828097189,-1.6123012039371512,0.6075884401798248,0.16380050778388977,0.6573554165661335,0.9988828301429749,-0.0009855128591880202,0.02429310418665409,0.04052227735519409
221.0,-0.0525592857917508,-1.869149930759014,2.2309378998488123,-1.9893886219890018,-1.6485547003357663,-1.6234419713658301,0.6050294116139412,0.15744611620903015,0.6577555723488331,0.9988413453102112,-0.0010606974828988314,0.026294773444533348,0.040291979908943176
222.0,-0.049455878068959035,-1.8806425495529244,2.2495882366880164,-2.037403217888722,-1.6860065121587382,-1.6203725095949726,0.5986543744802475,0.1538555771112442,0.6574452221393585,0.9971515536308289,-0.002750237239524722,0.04582427814602852,0.05984608083963394
223.0,0.008125157983919898,-1.8913209477034247,2.311889960740394,-2.2334141802890217,-1.8661650683001973,-1.5625558478613133,0.5823647901415825,0.16082146763801575,0.6517531462013721,0.9818786382675171,-0.017821691930294037,0.12060628831386566,0.145089790225029
224.0,-0.07812655270679678,-1.9058887994912947,2.2644871215508644,-2.0292387568861185,-1.6617486498379246,-1.6489120713607952,0.5855430439114571,0.14171774685382843,0.6575912237167358,0.9977215528488159,-0.002273929538205266,0.04615430161356926,0.049155738204717636
225.0,-0.0769652555740499,-1.895020003893229,2.247280834610824,-1.9828449643723451,-1.6346935803406035,-1.6478037052325116,0.5905480161309242,0.14617326855659485,0.6577803194522858,0.9990431666374207,-0.0009337220690213144,0.027330046519637108,0.0341319814324379
226.0,-0.07235258703097851,-1.8997086264764265,2.249119648193985,-1.973573869695355,-1.629256319138524,-1.6431857917134642,0.5858976989984512,0.15002302825450897,0.6573055498301983,0.9992170333862305,-0.0007613222114741802,0.02448638342320919,0.03106730990111828
227.0,-0.0863024072254991,-1.9086535390228494,2.2554752384703187,-1.9772035079511923,-1.6277903758016463,-1.6571109932555388,0.582233227789402,0.1425553560256958,0.6575861498713493,0.9991503953933716,-0.0008426383137702942,0.02721034176647663,0.03094126470386982
228.0,-0.10346634452244462,-1.921147523752917,2.2629282639885613,-1.974294869451768,-1.6219004143186835,-1.6742347585490323,0.576145626604557,0.13433107733726501,0.6577206626534462,0.9991976022720337,-0.0008022415568120778,0.028041861951351166,0.028585758060216904
229.0,-0.11146216206575468,-1.9322952337361619,2.2681289419149446,-1.9628257776090279,-1.6140644182384694,-1.68221745686044,0.5690263956785202,0.13185034692287445,0.657474260777235,0.999371349811554,-0.0006282456452026963,0.025508560240268707,0.024613337591290474
230.0,-0.1339618696981713,-1.9294589201613075,2.262320560930682,-1.9475388683372419,-1.5975140903378682,-1.7046988877908529,0.5733836144208908,0.12138346582651138,0.6582380346953869,0.999670147895813,-0.0003227085981052369,0.01995692029595375,0.016164926812052727
231.0,-0.11350578096975036,-1.951698928709728,2.3073689027267785,-2.0868309804924623,-1.6700895223975112,-1.6836108384561597,0.561940386891365,0.12284812331199646,0.6566399820148945,0.9955574870109558,-0.004318980034440756,0.07390038669109344,0.058183640241622925
232.0,-0.12090409027240503,-1.967031875609068,2.3296102594239425,-2.1399017884184977,-1.682873510765536,-1.6902272506597331,0.5542421042919159,0.11775528639554977,0.6556457132101059,0.9931071400642395,-0.0065049477852880955,0.09549757838249207,0.06764684617519379
233.0,-0.12291190626934193,-1.9832940347696129,2.363360419683595,-2.233898777252933,-1.711103591991631,-1.6906030274092223,0.5447788685560226,0.11348637193441391,0.6534461081027985,0.9875513315200806,-0.011420069262385368,0.13126324117183685,0.08591821789741516
234.0,-0.18320027493983304,-1.9703228201858214,2.292011377191733,-1.9664654176303673,-1.596621175814483,-1.7536294258217928,0.5533672273159027,0.09784208238124847,0.6579688414931297,0.9992325305938721,-0.0006609598058275878,0.034012824296951294,0.01941774971783161
235.0,-0.17655575276270677,-1.9978605620840293,2.3445667979542706,-2.1270908438183573,-1.6400875201453042,-1.744411409696857,0.5415431261062622,0.09670364111661911,0.6558486893773079,0.9939109086990356,-0.005084673874080181,0.09694074094295502,0.052131980657577515
236.0,-0.21173780688968277,-1.9741178097255894,2.2837918921257327,-1.9138721481774785,-1.5779790054041911,-1.78243541693702,0.5504820197820663,0.08612629771232605,0.6581751629710197,0.9998540878295898,-0.00010932909208349884,0.015572726726531982,0.007019524462521076
237.0,-0.22659663140699637,-1.9824980035415758,2.289222676603469,-1.915641256340787,-1.5769569618587955,-1.7972498976117401,0.5465918779373169,0.07927733659744263,0.6581363342702389,0.9998136162757874,-0.00013022070925217122,0.017880290746688843,0.0072815618477761745
238.0,-0.23361081849229826,-2.009334588347741,2.3282871849895104,-2.02705471517189,-1.5925748355977292,-1.8024980711900729,0.5368824899196625,0.07540418207645416,0.6572243720293045,0.9975841045379639,-0.001699207117781043,0.06424210220575333,0.026386156678199768
239.0,-0.19618286303609206,-2.0332809012090127,2.4152845668113465,-2.327829567934125,-1.6572998545013358,-1.755467393801332,0.523175984621048,0.08736393600702286,0.6514117233455181,0.9814891219139099,-0.01370992697775364,0.17483624815940857,0.07696426659822464
240.0,-0.20438982231481184,-2.0429406218711974,2.537856730441272,-2.743167835237078,-1.6775608324369606,-1.7340585946373142,0.4972020983695984,0.08541852980852127,0.6382010206580162,0.9412710666656494,-0.03709239140152931,0.31702443957328796,0.11013028770685196
241.0,-0.2408597577237949,-2.0158038218192025,2.6179670150150125,-3.055295819846008,-1.6380439075052835,-1.7279272927792697,0.4820614606142044,0.07789014279842377,0.6267953850328922,0.9023498892784119,-0.05216553062200546,0.4123236835002899,0.1141616627573967
242.0,-0.2974174204716728,-2.0857122952421365,2.5007303615151923,-2.5379877558872863,-1.5573981437935043,-1.825557629080269,0.4982551783323288,0.059672433882951736,0.6449133343994617,0.9619280695915222,-0.01869264245033264,0.26402029395103455,0.06810452789068222
243.0,-0.3196312850212758,-2.0633403026164454,2.395036078763731,-2.1816927803807724,-1.5437200540828022,-1.878225945720684,0.5173158198595047,0.04490241780877113,0.6541681103408337,0.9901739954948425,-0.0041571808978915215,0.13648653030395508,0.030159253627061844
244.0,-0.30810296242208,-2.0225417991951855,2.320545617495791,-1.954189540809931,-1.5571289408802296,-1.8777661328565027,0.530582845211029,0.04429458826780319,0.6577368229627609,0.9990653991699219,-0.00027437423705123365,0.04274497926235199,0.006412864197045565
245.0,-0.28737603195904354,-2.0115149849787994,2.3095152656386326,-1.9313383198761218,-1.5687158777817696,-1.8576310082609049,0.5341551303863525,0.05205656215548515,0.6579372398555279,0.9995105266571045,-0.00023801707720849663,0.03028038516640663,0.007856589742004871
246.0,-0.27217220333207426,-2.019358483642005,2.328242554946027,-1.9998954540850016,-1.5707247716453618,-1.8410982126934357,0.5327841639518738,0.059994135051965714,0.6574197970330715,0.9981936812400818,-0.0009313173941336572,0.057884711772203445,0.0160601157695055
247.0,-0.2693530204179061,-2.007124886000335,2.302901220418389,-1.9101103351663409,-1.5735372343348324,-1.8399156550194191,0.5340240299701691,0.06065616011619568,0.6579154916107655,0.999762237071991,-0.0001466469548176974,0.02061847597360611,0.007110713981091976
248.0,-0.2604691433303177,-2.013603142158975,2.3070530210234126,-1.9104891794291388,-1.575735275424412,-1.8310175841502034,0.529353678226471,0.06614243984222412,0.6576119214296341,0.9997296333312988,-0.00018099854059983045,0.02170475572347641,0.008336866274476051
249.0,-0.24385277755517162,-2.0091721376218596,2.3054218608660286,-1.9148903676838422,-1.5786868575439486,-1.8144102356224263,0.531076580286026,0.07373925298452377,0.6575580015778542,0.9997060894966125,-0.00021376798395067453,0.022260889410972595,0.009600027464330196
250.0,-0.2328687328509199,-1.9999867675629803,2.301001621216696,-1.9206030415862665,-1.5803529723613492,-1.8034328554751993,0.5363066494464874,0.07786373794078827,0.6577272936701775,0.9996910095214844,-0.00023262226022779942,0.02263365313410759,0.010274539701640606
251.0,-0.21554794547416095,-1.994166436255075,2.298596770207196,-1.925232059423365,-1.5841779751579632,-1.7861323488312986,0.5386620312929153,0.08570811152458191,0.6576352119445801,0.9996650815010071,-0.00027319681248627603,0.022991692647337914,0.011878433637320995
252.0,-0.18732612210809305,-1.9850104871479461,2.294768257590397,-1.932328930266073,-1.5905933458446146,-1.7579485621297812,0.5420288592576981,0.09872934967279434,0.6574560180306435,0.9996159672737122,-0.0003431190853007138,0.023588936775922775,0.014540176838636398
253.0,-0.16997357443265984,-1.9748425604848703,2.2899176570006237,-1.9387524597777477,-1.594963310364559,-1.7406219934243328,0.54702989757061,0.10626926273107529,0.6574552580714226,0.9995774626731873,-0.00039336810004897416,0.024012528359889984,0.016374865546822548
254.0,-0.1522260924896757,-1.9636986017694977,2.2844176455333587,-1.9452119886829922,-1.5998902965394335,-1.722905638229618,0.552539274096489,0.11404381692409515,0.6574325114488602,0.9995338320732117,-0.0004488638951443136,0.024327898398041725,0.018441980704665184
255.0,-0.1422329563298937,-1.9530593404179089,2.279303802955535,-1.9537363488690822,-1.6040512948874828,-1.7129191585965988,0.558849111199379,0.11784064024686813,0.6576036587357521,0.9994600415229797,-0.0005262952181510627,0.025699058547616005,0.020468108355998993
256.0,-0.1287494252252632,-1.9473581285971824,2.276231708479216,-1.9553092274931037,-1.6074306914068146,-1.699467643572066,0.5609054863452911,0.12436097860336304,0.6574509255588055,0.9994454383850098,-0.0005485137226060033,0.025231296196579933,0.021727368235588074
257.0,-0.16330231755081323,-1.9571222910501733,2.279756764377012,-1.9453812317859094,-1.5961489496412717,-1.733968499533873,0.5583510249853134,0.10774669796228409,0.6579538211226463,0.9995823502540588,-0.0003942706389352679,0.02356564998626709,0.016723746433854103
258.0,0.008331096349719996,-1.9295843853462442,2.4868266486611814,-2.7459496175782894,-1.9934088826889975,-1.5633667557626532,0.5259823799133301,0.14210158586502075,0.6356236338615417,0.9314912557601929,-0.06335363537073135,0.29886600375175476,0.19745758175849915
259.0,0.008169880383443488,-1.9308657143098316,2.420525165280875,-2.52524794129895,-1.9475745230596815,-1.5629535739737854,0.5448719412088394,0.14868538081645966,0.643444187939167,0.9559072256088257,-0.042975325137376785,0.2276868373155594,0.18042512238025665
260.0,0.055340164736083386,-1.89933692101615,2.421538071650872,-2.5708576526106155,-2.0428357445174306,-1.5163282199839585,0.5500102490186691,0.16150860488414764,0.6399546898901463,0.9446797966957092,-0.054928138852119446,0.242222860455513,0.21422214806079865
261.0,0.1230239573949128,-1.8406664782800823,2.446162379968587,-2.7270323886924404,-2.212233093114023,-1.4460063224599788,0.5521385222673416,0.17777366936206818,0.6303603611886501,0.9131789803504944,-0.08652341365814209,0.2935539782047272,0.26915445923805237
262.0,0.15107083518368777,-1.818045127748424,2.396501975923565,-2.5822962750113003,-2.257240887847937,-1.4026448131800475,0.5715659111738205,0.19140492379665375,0.6321952417492867,0.9190366864204407,-0.08014823496341705,0.2519683539867401,0.29233500361442566
263.0,0.19846672690684605,-1.76553378548721,2.4009797749147235,-2.645875093269672,-2.406810053552788,-1.327734530495796,0.5788484066724777,0.20465993881225586,0.623686321079731,0.8897139430046082,-0.108379065990448,0.28119179606437683,0.3429202437400818
264.0,0.2239943697578632,-1.7351821621564847,2.3571785512198424,-2.512227254988777,-2.480228431926373,-1.258816871344587,0.5987731069326401,0.2176743745803833,0.6221448555588722,0.8830212950706482,-0.10879020392894745,0.25259631872177124,0.3803066611289978
265.0,0.22983849475467855,-1.7235029124934422,2.327518037561024,-2.421581722175364,-2.5025371993024725,-1.2312453412023585,0.6110444813966751,0.2222011387348175,0.6240728050470352,0.8822739720344543,-0.10381428897380829,0.2307359278202057,0.39695870876312256
266.0,0.23276357248151713,-1.6893382105517933,2.236582738073572,-2.1443378241114197,-2.4908490400826175,-1.2006600431147847,0.6456016674637794,0.23344852030277252,0.6238310188055038,0.8934500813484192,-0.06731569766998291,0.14305603504180908,0.4204171597957611
267.0,0.24342957391421055,-1.6542330947384176,2.187230010043115,-1.9829891238321686,-2.544994823405665,-1.1404393102871677,0.6650520861148834,0.24075229465961456,0.6197804138064384,0.8808699250221252,-0.0541912317276001,0.10409386456012726,0.4585806429386139
268.0,0.23953933702663882,-1.6280962061012976,2.1378435726776885,-1.8471110700428857,-2.537564151948457,-1.1432551084002869,0.6832453943789005,0.24304580688476562,0.6192024089396,0.8806009292602539,-0.02865789085626602,0.05370163917541504,0.4699328541755676
269.0,0.2349280925493724,-1.6073526332550787,2.0983128100879895,-1.7466791338462584,-2.5295584155603428,-1.1538758159477251,0.6975252584088594,0.2437695562839508,0.6205098479986191,0.879243016242981,-0.0075673130340874195,0.013974768109619617,0.476108580827713
270.0,0.16863928776503243,-1.619576961373152,2.0556888053835234,-1.7805906084197063,-2.2554070016430385,-1.3532253121018412,0.718924131244421,0.2273147702217102,0.6372301504015923,0.9366058707237244,0.014993717893958092,-0.04038580134510994,0.34772634506225586
271.0,0.15463163247714243,-1.6122492304032263,2.0394921776827393,-1.77221634129046,-2.2125108577020596,-1.3784805987931696,0.7293138317763805,0.22363512217998505,0.639477550983429,0.9434248208999634,0.017762567847967148,-0.05122723802924156,0.327123761177063
272.0,0.10337167050213832,-1.6788118219799142,2.09552976493176,-1.9252619990593915,-2.0182304618143094,-1.456099242428458,0.7060326864011586,0.20820683240890503,0.6495749242603779,0.9746307134628296,0.0013853923883289099,-0.006035064347088337,0.22373344004154205
273.0,0.13736782767221978,-1.6853908111273879,2.1239224146637263,-1.966142046720217,-2.1259928410335043,-1.4090960345183363,0.6915546897798777,0.21640431880950928,0.6453539058566093,0.9614930152893066,-0.005780879408121109,0.020284289494156837,0.274018794298172
274.0,0.019864459262703783,-1.7115592185059392,2.1045054179832947,-1.9567408106391457,-1.696641193602652,-1.5507737082689137,0.7067010807804763,0.19570927321910858,0.6565549895167351,0.9980150461196899,0.00014121363346930593,-0.002239250810816884,0.06293771415948868
275.0,0.01751145421370539,-1.6885573557739213,2.082554174056118,-1.9460346835581184,-1.69636344480029,-1.553148309115501,0.7247006446123123,0.19439558684825897,0.6565488055348396,0.9979858994483948,0.0005203218897804618,-0.008256280794739723,0.06289442628622055
276.0,0.018961094999586616,-1.686613058207842,2.079878312029665,-1.939184125879034,-1.7264595374164187,-1.551607740204881,0.7254325393587351,0.19086652994155884,0.6569329462945461,0.9968956112861633,0.0008537312387488782,-0.010915573686361313,0.07796942442655563
277.0,0.01594232861449188,-1.6774477239179464,2.0710352218708388,-1.936482416072667,-1.7096848535740354,-1.5547042799927302,0.733241219073534,0.1913517266511917,0.6567439995706081,0.9974928498268127,0.0008933147182688117,-0.012803591787815094,0.06959570944309235
278.0,0.010254530766458056,-1.6610906744781548,2.0553810287113303,-1.9321449380788067,-1.6924300453108763,-1.5604706529447858,0.7473190054297447,0.18995141983032227,0.6565324850380421,0.9980158805847168,0.0009655428002588451,-0.015813477337360382,0.060937073081731796
279.0,0.007928072161378596,-1.6515550897076163,2.0452041823893623,-1.9240037531340373,-1.699002834808745,-1.5628088578228754,0.7549489885568619,0.18726299703121185,0.6566405817866325,0.9977421164512634,0.001265613711439073,-0.019667625427246094,0.06420480459928513
280.0,0.0036298165338781068,-1.6435643816386578,2.0375376206938207,-1.922749193602944,-1.6891566197832188,-1.5671440966455978,0.7622588500380516,0.18554769456386566,0.6565227061510086,0.9980291724205017,0.0012313841143622994,-0.020756423473358154,0.05920852720737457
281.0,0.0005359140358997193,-1.6362165292507609,2.028961051079654,-1.9131815597175699,-1.696745849169364,-1.5702568170415845,0.7681613191962242,0.18202902376651764,0.6566615104675293,0.9977014064788818,0.0015826728194952011,-0.025093242526054382,0.06292668730020523
282.0,-0.0036732347016639397,-1.6281578318367185,2.0211970412664853,-1.912306630221174,-1.6888028962263868,-1.5744902940613568,0.775580421090126,0.1799861490726471,0.6565634310245514,0.9979285001754761,0.0015294820768758655,-0.02593374438583851,0.0588543526828289
283.0,-0.0016050819342094689,-1.6292586749101896,2.0198707639717983,-1.8980731907128296,-1.7172784384180353,-1.5724155070920351,0.7730502635240555,0.17723797261714935,0.6569474972784519,0.996819019317627,0.002323935739696026,-0.031695302575826645,0.0730879008769989
284.0,0.0017020940438004096,-1.6553497528664107,2.0470269731903383,-1.9199801903400417,-1.7084783771663088,-1.5690795059326914,0.7530736923217773,0.18110477924346924,0.6575781516730785,0.9974062442779541,0.0014540337724611163,-0.021077169105410576,0.06880727410316467
285.0,0.01058858390575868,-1.6598903028863181,2.0509885429064165,-1.9133947041876849,-1.738514026330989,-1.5600687593494484,0.7468186654150486,0.1831601858139038,0.6574187576770782,0.9961930513381958,0.0019617623183876276,-0.023268526419997215,0.0839887335896492
286.0,0.13032935026374598,-1.5238626887660975,1.920352335127433,-1.532294015332187,-2.197061995342608,-1.4191554981159014,0.7832028120756149,0.21416306495666504,0.6354351155459881,0.9296151995658875,0.056568291038274765,-0.16098979115486145,0.32664644718170166
287.0,0.12747105186141558,-1.413667121616709,1.791696467279635,-1.1736669186689157,-2.2811528055557933,-1.4406821415631108,0.8244527131319046,0.2068682312965393,0.6236826479434967,0.8682136535644531,0.13028712570667267,-0.31007179617881775,0.3648092746734619
288.0,0.11140461043253023,-1.3935741519660387,1.7651346214019346,-1.1380012406080084,-2.2463880872238335,-1.4648993430271928,0.8377732783555984,0.19887880980968475,0.6219618543982506,0.8678468465805054,0.1321113407611847,-0.33405572175979614,0.34321343898773193
289.0,0.092253873364258,-1.376586300614399,1.7367471724231964,-1.099039285754278,-2.2108425368036775,-1.48912843010822,0.8503998517990112,0.18798786401748657,0.6241776645183563,0.8676018118858337,0.13170893490314484,-0.35711005330085754,0.3199879229068756
290.0,0.06700538711643948,-1.3551586502814745,1.703356089456033,-1.0555709818441825,-2.16313326821902,-1.5164189893211264,0.8659779578447342,0.17322459816932678,0.6254334691911936,0.8679189682006836,0.12760333716869354,-0.38339322805404663,0.28886619210243225
291.0,0.054520892399640856,-1.3478536594478696,1.6880126597516394,-1.0344253284495453,-2.1422429995053798,-1.5281575189281316,0.8720034956932068,0.16531142592430115,0.6283802706748247,0.8680530786514282,0.12476838380098343,-0.39429059624671936,0.2746846377849579
292.0,0.03876621844441003,-1.3368139267470769,1.6692998591837063,-1.0101074549407585,-2.1142039934653436,-1.541867672183494,0.8802639842033386,0.15545104444026947,0.6300604566931725,0.8682584762573242,0.1201799213886261,-0.4076167047023773,0.2559935450553894
293.0,0.020571315587800527,-1.3239317830719917,1.6521310975528882,-0.9908130524652407,-2.0800947495939677,-1.5561682029865662,0.8894604742527008,0.144095316529274,0.6288132779300213,0.8693475723266602,0.11308135092258453,-0.4204505681991577,0.23381343483924866
294.0,-0.006069271678962263,-1.3067493981633997,1.6279104586421866,-0.9626370218152658,-2.0318888424500003,-1.5748418033346296,0.901805967092514,0.1268768608570099,0.6280760746449232,0.8704240322113037,0.1015186682343483,-0.43729013204574585,0.20207247138023376
295.0,-0.0324519189006331,-1.2932780943861018,1.6087910008679254,-0.9412238571790711,-1.9864864809050458,-1.5913376370343482,0.9117947518825531,0.10916353762149811,0.6274063196033239,0.8717941641807556,0.08873120695352554,-0.45006752014160156,0.171875
296.0,-0.05135128587718553,-1.284893412942901,1.5960230251470622,-0.9258522232147091,-1.9534369728920846,-1.6022077410596953,0.917913019657135,0.09640055894851685,0.6275375075638294,0.8725280165672302,0.07878348231315613,-0.4582413136959076,0.15001001954078674
297.0,-0.06767216072061082,-1.2815776522365003,1.5864277359205285,-0.9121647458864827,-1.927708354281354,-1.6112135735213309,0.9209860861301422,0.08500728756189346,0.6304602101445198,0.8731558322906494,0.07035254687070847,-0.46379634737968445,0.13244765996932983
298.0,-0.08182335164178929,-1.2748437811807338,1.5798038155952538,-0.906176148573494,-1.9036132829056196,-1.618718301920884,0.9255690276622772,0.07519204169511795,0.628172243013978,0.873733639717102,0.062391988933086395,-0.4681190848350525,0.11645323038101196
299.0,-0.1038959841138834,-1.270174639338565,1.5697824128158708,-0.8920100541044391,-1.8669868921703754,-1.630032537870589,0.9292256087064743,0.05991698056459427,0.6300107520073652,0.8743788003921509,0.049827687442302704,-0.4738403558731079,0.09194716066122055
300.0,-0.11942496242258736,-1.2665328863283314,1.5648373017483084,-0.88601066819716,-1.8422085318185746,-1.6378884816172392,0.9318497776985168,0.04896032065153122,0.6295494362711906,0.8748708963394165,0.04097972437739372,-0.4767240285873413,0.07520487159490585
301.0,-0.1337355340400841,-1.2619898862452885,1.5608979275910808,-0.8821307095736406,-1.8189814821534724,-1.644979608427017,0.934772178530693,0.038803499191999435,0.6276011411100626,0.8751325607299805,0.032624803483486176,-0.4790899157524109,0.0595942959189415
302.0,-0.1537610054820274,-1.2612071612754143,1.5559561073497155,-0.8727542851578576,-1.7869781198151515,-1.6548889060350704,0.9355587065219879,0.02490996941924095,0.6298698261380196,0.8754323720932007,0.020902950316667557,-0.481390118598938,0.03801308199763298
303.0,-0.17610330641652266,-1.2583694711377273,1.5534094639534388,-0.8687641756166177,-1.7528491916226834,-1.666083180378192,0.9372476935386658,0.009002765640616417,0.6285227667540312,0.8756891489028931,0.008094517514109612,-0.4825839400291443,0.01468818448483944
304.0,-0.2011300860967174,-1.2601953729795983,1.5505321754237056,-0.8591220572135307,-1.7159261352126944,-1.6786400324501907,0.9359917789697647,-0.008475258015096188,0.6319919899106026,0.875464141368866,-0.006003255490213633,-0.4831235706806183,-0.010878447443246841
305.0,-0.2203828250192518,-1.259819954849073,1.5519772579026354,-0.8593825659795398,-1.6870062429994257,-1.6888129290762286,0.9357432723045349,-0.021978922188282013,0.6303769964724779,0.8755283951759338,-0.016882533207535744,-0.4818964898586273,-0.030672850087285042
306.0,-0.2466206127868978,-1.26257385576241,1.5534031185289385,-0.8546773004967417,-1.6464094117229384,-1.7028124534009599,0.9332427084445953,-0.03968770056962967,0.631855309009552,0.8748935461044312,-0.03192209079861641,-0.4797428846359253,-0.058215416967868805
307.0,-0.26429311724944715,-1.264851934565802,1.5574890115607962,-0.8565995030594349,-1.6200363574698924,-1.7130492615870787,0.9311008304357529,-0.05161556601524353,0.6310463715344667,0.8747682571411133,-0.041546620428562164,-0.4766988158226013,-0.07624030858278275
308.0,-0.28053969462247946,-1.2693816364343193,1.559859046533605,-0.8531863393651148,-1.5963062027295722,-1.7224390094938222,0.9276343286037445,-0.06220569834113121,0.6337050199508667,0.8741444945335388,-0.05024253576993942,-0.47409412264823914,-0.09263820946216583
309.0,-0.30989377582213323,-1.2747970545036698,1.5698233211366794,-0.8587200923611723,-1.5507663093837099,-1.7411875293855559,0.9225798547267914,-0.08112133294343948,0.6318500675261021,0.8733640313148499,-0.06586158275604248,-0.46658235788345337,-0.12328186631202698
310.0,-0.33058716913734953,-1.2827525945085896,1.5762484153283158,-0.8573218230866959,-1.5205560648022771,-1.7550368259379243,0.9164681434631348,-0.09381525218486786,0.6349731348454952,0.8724008798599243,-0.0761018916964531,-0.4608360230922699,-0.1440671980381012
311.0,-0.3576186249877005,-1.2926811768055895,1.588311044825989,-0.8617973507918333,-1.4787403084962765,-1.7752345547418682,0.9085682332515717,-0.10980197042226791,0.6360164806246758,0.8712806105613708,-0.0890800803899765,-0.4508935511112213,-0.1721331924200058
312.0,-0.376249351272389,-1.3021934668673858,1.5967267584757374,-0.8623335823064784,-1.4516468803582327,-1.7900769260054779,0.9014406204223633,-0.120293989777565,0.6391596794128418,0.8703691959381104,-0.09716235846281052,-0.4434521198272705,-0.19070178270339966
313.0,-0.39372920059465094,-1.3116983999008296,1.604663428429892,-0.8619838403689561,-1.422946380489001,-1.8051533758298481,0.8945875763893127,-0.1293630599975586,0.6426550559699535,0.8691613674163818,-0.1049867793917656,-0.43545982241630554,-0.2095496505498886
314.0,-0.4093043765840609,-1.3217387364945599,1.613699601706882,-0.8639424397259117,-1.4001267618409412,-1.8197841506997297,0.8873755782842636,-0.13728320598602295,0.6457076855003834,0.8685952425003052,-0.11072379350662231,-0.4273630380630493,-0.22504088282585144
315.0,-0.43369259085375733,-1.3341132296616862,1.6297459356593704,-0.8724258756063584,-1.36332042369604,-1.844773812659827,0.8777660131454468,-0.14995735883712769,0.6460961848497391,0.8675657510757446,-0.11895991861820221,-0.41331109404563904,-0.2497042566537857
316.0,-0.46365362904920854,-1.3529769921793993,1.6517007046271703,-0.8833517952017065,-1.318537872682959,-1.879847474700841,0.8638170212507248,-0.16413167119026184,0.6481704525649548,0.8666718006134033,-0.1268513798713684,-0.39321693778038025,-0.27958744764328003
317.0,-0.4942967120943365,-1.3719583089045382,1.676453480571178,-0.8982266345807627,-1.271141833444881,-1.921730969863847,0.8497095853090286,-0.1778537929058075,0.6483282782137394,0.8658704161643982,-0.13240908086299896,-0.3691830337047577,-0.3105481266975403
318.0,-0.5324428113484809,-1.3989655980759956,1.7116111290917884,-0.9213846870504736,-1.2146450037281373,-1.983878034125592,0.8299910724163055,-0.19329434633255005,0.6480925530195236,0.8660585880279541,-0.1338537484407425,-0.333920955657959,-0.3471635580062866
319.0,-0.5591201190280997,-1.4170718506490823,1.7399096265654885,-0.9445830638739557,-1.1763747356777994,-2.0350737045565115,0.816277027130127,-0.2037140130996704,0.6444870084524155,0.8670437335968018,-0.13077391684055328,-0.30532902479171753,-0.37135908007621765
320.0,-0.5242912629959404,-1.3885485143856147,1.706510289068978,-0.9242538351988996,-1.2305784964521294,-1.9686288282727482,0.8359454572200775,-0.19173991680145264,0.6424182280898094,0.8664594292640686,-0.1335284560918808,-0.34262627363204956,-0.33767691254615784
321.0,-0.5047477387169057,-1.3749894897145196,1.6884498204386904,-0.9122911527136304,-1.2582927144276674,-1.9373221921585149,0.8461269438266754,-0.18363766372203827,0.6427878811955452,0.866339921951294,-0.13282811641693115,-0.3602294623851776,-0.31944727897644043
322.0,-0.47517398382359083,-1.3550181028778763,1.6635758808765053,-0.8975591688602076,-1.3039346156816976,-1.8945384345216427,0.8606972396373749,-0.17102012038230896,0.6418735682964325,0.8668228387832642,-0.1286533623933792,-0.3848133385181427,-0.2898019850254059
323.0,-0.4615731449840068,-1.3450001925606436,1.6538355661146615,-0.8945068412021495,-1.3238492120759822,-1.87744543347057,0.8678852319717407,-0.16507576406002045,0.6394767612218857,0.8672868609428406,-0.12573222815990448,-0.3944231867790222,-0.27646932005882263
324.0,-0.44592458322039175,-1.3365394510807134,1.640781549709993,-0.8848374228063707,-1.3458223602282469,-1.8586490372417352,0.8746740221977234,-0.1571899652481079,0.6407589390873909,0.8674196004867554,-0.12219962477684021,-0.4052664637565613,-0.26155218482017517
325.0,-0.4194251710712641,-1.3199252838847055,1.624404637637691,-0.88046889251043,-1.3872842579821314,-1.8302400470986984,0.8867297768592834,-0.14447307586669922,0.6366265192627907,0.8688359260559082,-0.1135072112083435,-0.4212172329425812,-0.2341289222240448
326.0,-0.40377019747909354,-1.3112550977381514,1.6144992649720935,-0.8761658788644,-1.4099084281255263,-1.8149767433135777,0.8933572173118591,-0.1362258493900299,0.635399580001831,0.8694020509719849,-0.10809453576803207,-0.42967116832733154,-0.21871984004974365
327.0,-0.3867596130539161,-1.3015281406304018,1.60504384834824,-0.8738177148791327,-1.4362272580016076,-1.7994145095988712,0.9004798531532288,-0.1273571103811264,0.632806658744812,0.8701959848403931,-0.10130000859498978,-0.43821507692337036,-0.20115891098976135
328.0,-0.34670077300124647,-1.2850418566156157,1.5845039884292018,-0.8649376043106123,-1.4950135158969056,-1.7669880593666871,0.9137331396341324,-0.1039889007806778,0.6314324364066124,0.8718245625495911,-0.08403481543064117,-0.45488470792770386,-0.16105975210666656
329.0,-0.3607448773077122,-1.288113379811881,1.5932673072263839,-0.8735157830402527,-1.4748666878081287,-1.7782036191558057,0.9105388820171356,-0.11288045346736908,0.6282311286777258,0.871651828289032,-0.09006556868553162,-0.44892019033432007,-0.17487700283527374
330.0,-0.32988527071460694,-1.2765754261023743,1.5794695826084706,-0.8686109771721408,-1.5213339013879297,-1.7551047303903293,0.9198004603385925,-0.09441716969013214,0.6268103141337633,0.8729082345962524,-0.07559233158826828,-0.46016913652420044,-0.14339329302310944
331.0,-0.2944560483862449,-1.265146114165472,1.567084550380492,-0.8661031837265845,-1.5735314938344258,-1.7314494983652045,0.9289621561765671,-0.0721292644739151,0.6245333384722471,0.8740717172622681,-0.05790294334292412,-0.4701685309410095,-0.10764506459236145
332.0,-0.2692604439737101,-1.2613538023519275,1.560986489911055,-0.8648080438555725,-1.611984905145076,-1.7162748813796478,0.9327073395252228,-0.05546979606151581,0.6251727174967527,0.8749823570251465,-0.044280216097831726,-0.47518104314804077,-0.08153609931468964
333.0,-0.23942439220290984,-1.2567979273906809,1.5549069379535205,-0.863718840543782,-1.6569471554743764,-1.6991025467987297,0.9367077499628067,-0.03542117029428482,0.6252464279532433,0.8753244876861572,-0.027907272800803185,-0.480040580034256,-0.05088719725608826
334.0,-0.22209850551027985,-1.2548817777681003,1.5547840147224188,-0.8684001628604898,-1.6829840656992232,-1.690005622505716,0.9383947849273682,-0.023559821769595146,0.6235727909952402,0.8758783340454102,-0.018128061667084694,-0.4810607135295868,-0.033006176352500916
335.0,-0.2053138471154025,-1.2530603684957744,1.5546729913315374,-0.8722458155638497,-1.707705806592885,-1.681219254252881,0.9398291707038879,-0.011916615068912506,0.6220569014549255,0.8760584592819214,-0.008761043660342693,-0.4818621277809143,-0.015928180888295174
336.0,-0.18397534802414714,-1.2500105956100713,1.5562686038365363,-0.8803025538624396,-1.7390646641217231,-1.670311168878517,0.9417864680290222,0.002918062498793006,0.618257187306881,0.8761686086654663,0.003181683598086238,-0.4819595515727997,0.0057840775698423386
337.0,-0.1702312404145199,-1.2524457271892202,1.5599422846029911,-0.8901758275445246,-1.759439775404551,-1.664250726368819,0.9412026107311249,0.012800297699868679,0.6180153787136078,0.8775704503059387,0.010989179834723473,-0.47889864444732666,0.02013741061091423
338.0,-0.20279984109900168,-1.33574541195578,1.6411532276415925,-1.134324683957877,-1.699238276579015,-1.7198355296703518,0.9276292622089386,-0.005717519670724869,0.6350421383976936,0.9303551316261292,-0.001742308959364891,-0.3666289448738098,-0.004421271849423647
339.0,-0.2155966074670772,-1.2776046654171613,1.581844771562977,-0.9569014067392411,-1.6903646361621767,-1.7012641467483935,0.9371696412563324,-0.018318500369787216,0.6236229762434959,0.8951805830001831,-0.011626523919403553,-0.444937527179718,-0.023391686379909515
340.0,-0.234053167085279,-1.2514138870138922,1.5574052580756532,-0.8739921518330902,-1.664014987064398,-1.6965713463499619,0.9398451149463654,-0.032211922109127045,0.6182642467319965,0.8758876323699951,-0.025038525462150574,-0.4796912670135498,-0.04571885988116264
341.0,-0.2531126460753282,-1.254106929474702,1.5600587405348223,-0.8728541755116493,-1.6354468259257868,-1.707201902176388,0.9375200420618057,-0.045180678367614746,0.6188792362809181,0.875605046749115,-0.03557616472244263,-0.4772738218307495,-0.06526792049407959
342.0,-0.26810964005669313,-1.3146176933782583,1.6190954373512703,-1.0469898889613563,-1.6145342704901984,-1.7530486207965845,0.9267641752958298,-0.0531538724899292,0.6301116980612278,0.914777398109436,-0.030486732721328735,-0.3966215252876282,-0.07031533122062683
343.0,-0.2842865746738699,-1.2888602751785991,1.5948764895276417,-0.9637061220518011,-1.5889039126433384,-1.746858241845016,0.9290198385715485,-0.06496619433164597,0.6243594884872437,0.896442711353302,-0.04455878213047981,-0.43106651306152344,-0.09266410768032074
344.0,-0.30175815847583914,-1.262227889842959,1.5725213195394219,-0.8766542715133162,-1.5627057179170998,-1.7366333935679732,0.9299037456512451,-0.07762594521045685,0.6178712993860245,0.8743544220924377,-0.06146503984928131,-0.4674489498138428,-0.11496919393539429
345.0,-0.31761275209745454,-1.2681556240695733,1.5776590040963294,-0.8763938229686762,-1.5392264422770272,-1.7471324281775342,0.9253917932510376,-0.08750578761100769,0.6199718564748764,0.8738134503364563,-0.06944099813699722,-0.4630981683731079,-0.1310272514820099
346.0,-0.3445474663718577,-1.2753310563949845,1.5882224494471309,-0.8806294078923358,-1.4993276774557052,-1.7660241681931586,0.9189260601997375,-0.10451038181781769,0.6195766404271126,0.8725663423538208,-0.08249115198850632,-0.4547152817249298,-0.1582946628332138
347.0,-0.3601378239509165,-1.2815754403777224,1.59639378437755,-0.8849789797043501,-1.4764537425232194,-1.7782443850137015,0.9139177799224854,-0.11383479088544846,0.6198438741266727,0.872175931930542,-0.08940179646015167,-0.448419451713562,-0.1738865226507187
348.0,-0.37795669024350315,-1.2869096934607225,1.606637706232987,-0.892546608749198,-1.4506112501208797,-1.7929337649314125,0.9089403450489044,-0.12472197413444519,0.6178613863885403,0.8715863823890686,-0.09686940163373947,-0.44074681401252747,-0.19156140089035034
349.0,-0.398095175967438,-1.2963824016755177,1.617164725828435,-0.8956461246972861,-1.4210532891005447,-1.8103617454173602,0.9014216512441635,-0.13606935739517212,0.6196294762194157,0.8705146312713623,-0.10498685389757156,-0.4316978454589844,-0.2117050141096115
350.0,-0.4171381065079237,-1.3053067549180248,1.6302150150083874,-0.9041926365382231,-1.3935576884732304,-1.8288928991772102,0.8941168785095215,-0.1466144472360611,0.619026742875576,0.8700445294380188,-0.11156704276800156,-0.42129427194595337,-0.23040500283241272
351.0,-0.4337946205234502,-1.315864748451493,1.6400639193931401,-0.9059339276565876,-1.369098408674665,-1.8457714339042455,0.8862985074520111,-0.1549685001373291,0.6221514455974102,0.8691691756248474,-0.11710071563720703,-0.41211333870887756,-0.24697169661521912
352.0,-0.45454470208191555,-1.3250370105578289,1.6563560406246967,-0.9185843417778012,-1.339429946141542,-1.8692700040673862,0.8782826364040375,-0.16609591245651245,0.6195319406688213,0.8686953783035278,-0.12259526550769806,-0.39876317977905273,-0.26707062125205994
353.0,-0.4696456649558969,-1.3427212824964323,1.677202857209646,-0.9560803868388099,-1.3209961649703224,-1.8993397186708747,0.8701566457748413,-0.17344124615192413,0.6201917044818401,0.8763386607170105,-0.11900019645690918,-0.37473100423812866,-0.27829158306121826
354.0,-0.489441521451813,-1.3475581565219124,1.6872649021211823,-0.9460351800327388,-1.2905407022703645,-1.9175918133040375,0.8619639277458191,-0.18304890394210815,0.6186974085867405,0.8704307675361633,-0.12712547183036804,-0.3694102466106415,-0.29954206943511963
355.0,-0.5062587702372191,-1.3787970912683922,1.7187479609667686,-1.0115231982167368,-1.2741734884503502,-1.9649557855476711,0.849674180150032,-0.18971003592014313,0.6229596808552742,0.8857323527336121,-0.11402053385972977,-0.32910215854644775,-0.3068702816963196
356.0,-0.5244079083814533,-1.3834887885774778,1.728596927717275,-1.0000052313874814,-1.2444523594954313,-1.9855567197441832,0.8415879756212234,-0.1974511295557022,0.6213418655097485,0.8797813653945923,-0.12020964920520782,-0.3230814039707184,-0.32734227180480957
357.0,-0.5421532121994687,-1.3824715978340272,1.7319803169021921,-0.9656533080374973,-1.2131115676796373,-1.9980246585686998,0.8341040313243866,-0.2047174870967865,0.619993768632412,0.8679236173629761,-0.1317870020866394,-0.3263864517211914,-0.3504467010498047
358.0,-0.5600606831788635,-1.396234408116964,1.750521839613552,-0.9791745093520601,-1.1869851508909488,-2.0327162481095833,0.8239836543798447,-0.2112223207950592,0.6195018514990807,0.8685705661773682,-0.12964101135730743,-0.3070012331008911,-0.36678141355514526
359.0,-0.5955520799487062,-1.4270111330299826,1.786395342104961,-1.0008498803923311,-1.1342301010681899,-2.1106574061450307,0.8024762719869614,-0.2221677303314209,0.6218193024396896,0.869718074798584,-0.12130451202392578,-0.2647688388824463,-0.39846354722976685
360.0,-0.6155668187282342,-1.4456015313427286,1.8097334824771696,-1.0183991036552684,-1.1044156118558897,-2.1622150442727786,0.7898042649030685,-0.22740979492664337,0.6217570304870605,0.8712504506111145,-0.11275670677423477,-0.23677565157413483,-0.4149046838283539
361.0,-0.6337639894501425,-1.4659358693248215,1.8293258542314124,-1.0285055848742406,-1.0755984734788422,-2.2140068893558,0.777136892080307,-0.23067912459373474,0.6254208460450172,0.8722822070121765,-0.10310746729373932,-0.20927521586418152,-0.4297633171081543
362.0,-0.650777844042718,-1.4855443467743787,1.8484704884903314,-1.0395335542778565,-1.047427733316782,-2.2678728629022364,0.7653346061706543,-0.2331845760345459,0.6285839471966028,0.8733647465705872,-0.09166020154953003,-0.1807454228401184,-0.442903608083725
363.0,-0.6725442661212592,-1.507839493947074,1.876580587977773,-1.0625529304268229,-1.015647255407784,-2.33899609416626,0.7508342787623405,-0.2370457947254181,0.6276140883564949,0.8753036856651306,-0.07458104938268661,-0.14321744441986084,-0.455817848443985
364.0,-0.7066220646316821,-1.5474226227186825,1.921034674379464,-1.0979300754417556,-0.9622399358813511,-2.464235973165746,0.7272527329623699,-0.24057477712631226,0.6289073918014765,0.8775653839111328,-0.04137958958745003,-0.0770302563905716,-0.47141605615615845
365.0,-0.721648353664351,-1.5673966360533194,1.9420354311218928,-1.1157169393218092,-0.9378944135556998,-2.5235915128944653,0.7162104453891516,-0.24094092845916748,0.6301249153912067,0.8783930540084839,-0.02429991215467453,-0.04491741582751274,-0.47520267963409424
366.0,-0.7628034784381887,-1.6243663969843414,2.0053452479828726,-1.18273397127291,-0.8670651462486841,-2.690942276729793,0.687116801738739,-0.2405879646539688,0.6307907979935408,0.8793074488639832,0.02742580510675907,0.05101485177874565,-0.4727194905281067
367.0,-0.7844628500851626,-1.6566068796893245,2.04200925641569,-1.2261196864332746,-0.8370768167006811,-2.761744779034861,0.6705364473164082,-0.2393048107624054,0.6295562852174044,0.8798508048057556,0.05059013515710831,0.0962100476026535,-0.4626519978046417
368.0,-0.811030913923216,-1.7081764347511188,2.091719108601209,-1.2906587816749526,-0.7923533129851623,-2.841377667990351,0.6482108496129513,-0.2331846058368683,0.632818691432476,0.8798962831497192,0.07885200530290604,0.15717433393001556,-0.44143083691596985
369.0,-0.82426775651937,-1.7283712403449796,2.1168301112827006,-1.3245339491610038,-0.7786449306275898,-2.86609154927287,0.6377735286951065,-0.2316572666168213,0.6298974212259054,0.8804070353507996,0.08745767921209335,0.17890788614749908,-0.43037983775138855
370.0,-0.8106704340988844,-1.695906387988152,2.0901387558193156,-1.2889579077467168,-0.8053017134304352,-2.829208371518664,0.6502666771411896,-0.23710274696350098,0.6252057794481516,0.8808027505874634,0.0735221579670906,0.14569851756095886,-0.44446930289268494
371.0,-0.7979153973630723,-1.6677412213997973,2.064891547955499,-1.2557328965453871,-0.8285620571259071,-2.7907651948290444,0.66178859770298,-0.24130450189113617,0.6222215555608273,0.8805616497993469,0.0593298114836216,0.11456066370010376,-0.45603400468826294
372.0,-0.753103693456033,-1.2717979765289984,1.8676929738779768,1.5389006500666036,0.941175847734595,0.5748020888216727,0.6779992077499628,-0.2355227768421173,0.6308311298489571,0.9170089960098267,0.025113271549344063,0.05848579853773117,-0.39375531673431396
373.0,-0.6656874442232856,-1.3166340094532665,1.7856253826124702,1.3846264798648447,1.1811917432667598,0.8403364165797287,0.6903902282938361,-0.2120533287525177,0.6486340798437595,0.9716669917106628,0.004183226730674505,0.017246194183826447,-0.23568695783615112
374.0,-0.6225747479710384,-1.3568848027873126,1.775731243523884,1.2856035856245474,1.324912433977651,0.9263346390392653,0.6841170620173216,-0.19740718603134155,0.6551893949508667,0.9902673363685608,0.0026478569488972425,0.01902162656188011,-0.1378476321697235
375.0,-0.6368031163373739,-1.36476593213231,1.7907429465924403,1.287537323840851,1.2999387892588095,0.9067382458132462,0.6755919121205807,-0.19831052422523499,0.6544576287269592,0.9883612990379333,0.0038424436934292316,0.025326134636998177,-0.1499527096748352
376.0,-0.6121087313594719,-1.3859589389213682,1.792394788543283,1.243862333777817,1.3882112299679017,0.9473811700046983,0.6692349836230278,-0.19002315402030945,0.656929399818182,0.9950536489486694,0.0020022874232381582,0.02050202712416649,-0.0971798300743103
377.0,-0.6603898510593841,-1.3835852826359807,1.8195648029398428,1.2797602188052615,1.2581179536046887,0.8732228584557623,0.6595416739583015,-0.19767601788043976,0.6532392576336861,0.9852504134178162,0.007043551653623581,0.04186321049928665,-0.16576994955539703
378.0,-0.6560066068175189,-1.4020736660944964,1.8286746867923518,1.2512415009436597,1.2847400094769443,0.8854688190965748,0.6515125185251236,-0.19289393723011017,0.6543763503432274,0.9883770942687988,0.006864690687507391,0.046981193125247955,-0.1444174349308014
