Sungjin-Park-dev/vision_inspection/data/trajectory/264/joint_trajectory_dp.csv
time,ur20-shoulder_pan_joint,ur20-shoulder_lift_joint,ur20-elbow_joint,ur20-wrist_1_joint,ur20-wrist_2_joint,ur20-wrist_3_joint,target-POS_X,target-POS_Y,target-POS_Z,target-ROT_X,target-ROT_Y,target-ROT_Z,target-ROT_W
0.0,-0.64087035868079,-1.6396786145567983,1.875807895218795,-1.2055344151165497,-1.0615028641778286,-2.3154336644230735,0.7296888045966625,-0.19966359436511993,0.7245712280273438,0.9269554615020752,-0.02657361887395382,-0.06689979135990143,-0.3682008385658264
1.0,-0.5020443940911455,-1.693108006976539,1.89824527173237,-1.5136899526835348,-1.3389633117830524,-2.084100601386322,0.7477193213999271,-0.14073026180267334,0.7570869326591492,0.984832227230072,-0.009577374905347824,-0.05774599313735962,-0.163337841629982
2.0,-0.41324655904168617,-1.763847194344347,1.980885858974573,-1.75746548897424,-1.532812269278376,-1.984324845871335,0.7248528376221657,-0.09197234362363815,0.766414999961853,0.9997044205665588,-0.00014742006896995008,-0.006274603307247162,-0.02348777838051319
3.0,-0.42168696442802467,-1.8323610740907135,2.058965377792316,-1.8837896892675008,-1.4903611366374223,-1.9911356456959124,0.688743150793016,-0.07508216798305511,0.7657804936170578,0.9982603788375854,0.0010635332437232137,0.055795036256313324,-0.01902827061712742
4.0,-0.3699449484010987,-1.8095139296201934,2.0305276859909505,-1.831323758244806,-1.5285898354043799,-1.940560396793968,0.7019523959606886,-0.04964916408061981,0.7663612812757492,0.9995822906494141,0.0003264754777774215,0.026041919365525246,-0.012531299144029617
5.0,-0.3818006545241097,-1.7657784180693523,1.983891133712095,-1.7661730100065263,-1.5414589503777716,-1.9527490641570473,0.7263375632464886,-0.07015284895896912,0.766469269990921,0.9998279213905334,-9.070939995581284e-05,-0.005081858951598406,-0.01784657873213291
6.0,-0.39202468530857143,-1.7262183699991553,1.9469878176203887,-1.7407906379545302,-1.533968008118613,-1.9628782545616434,0.7525200508534908,-0.08746177703142166,0.7662569880485535,0.9995083808898926,-0.00043880840530619025,-0.016421686857938766,-0.02670813910663128
7.0,-0.3589247075606662,-1.7172529012070583,1.941645688218145,-1.7552972545449308,-1.5490680757686268,-1.9296438725845486,0.7624325938522816,-0.0677851140499115,0.7664315700531006,0.9997420907020569,-0.00025524134980514646,-0.014857817441225052,-0.0171744953840971
8.0,-0.435430910386033,-1.5990472128175393,1.7973573731693675,-1.3729116020041618,-1.4001095516562694,-1.9931586289237424,0.8015565499663353,-0.12230022996664047,0.7526383697986603,0.9767439961433411,-0.023158350959420204,-0.14357219636440277,-0.15754984319210052
9.0,-0.5148068082594806,-1.5660685427593617,1.7764108997231607,-1.202169295215393,-1.2619313949799882,-2.0747740923122993,0.7919282615184784,-0.16316333413124084,0.7359371781349182,0.9467336535453796,-0.049035828560590744,-0.17436251044273376,-0.2662491202354431
10.0,-0.3927334707209077,-1.5555687057597567,1.7495843809837925,-1.307812333090882,-1.4471441234144198,-1.9368340584963761,0.8265730291604996,-0.10424788296222687,0.7500052005052567,0.9718729853630066,-0.026970162987709045,-0.18771959841251373,-0.13963152468204498
11.0,-0.3696900811123128,-1.4176229613872764,1.6174284158719263,-0.9879464833932237,-1.4592386200833543,-1.8486280416092142,0.8719126880168915,-0.10388606786727905,0.722518116235733,0.9210162162780762,-0.06361766159534454,-0.3446422815322876,-0.1700107753276825
12.0,-0.4423031673135977,-1.3629775706635794,1.5960247537685541,-0.8023849803056112,-1.3409728743833957,-1.852302758335852,0.8658331781625748,-0.1487608700990677,0.6963002905249596,0.8642116785049438,-0.12485349178314209,-0.41039586067199707,-0.2629165053367615
13.0,-0.4816834175087523,-1.3776109658744993,1.6340796651782148,-0.8400845759289751,-1.285580822187399,-1.9023073339145782,0.8528496474027634,-0.17003366351127625,0.6828949078917503,0.8641904592514038,-0.13253870606422424,-0.3812466263771057,-0.3004319667816162
14.0,-0.42230147810347674,-1.3408153086466033,1.5907897775322104,-0.818388824818997,-1.37730239080406,-1.83099095296048,0.8796211332082748,-0.14235855638980865,0.6795788407325745,0.8662863373756409,-0.11693410575389862,-0.4222968518733978,-0.2398749142885208
15.0,-0.3425358889494869,-1.3086522000511598,1.5425026695480462,-0.7880612991439953,-1.4979678831883934,-1.7608932713023688,0.9050894975662231,-0.09743118286132812,0.6835492476820946,0.8691138029098511,-0.08414196223020554,-0.46084803342819214,-0.1586834341287613
16.0,-0.26742905484310014,-1.2939688752720977,1.515143546654786,-0.7727505897126901,-1.616065440649362,-1.7120727913683162,0.9180564284324646,-0.050372134894132614,0.6891714334487915,0.8716716766357422,-0.043991819024086,-0.4815733730792999,-0.0796273723244667
17.0,-0.23145405168247019,-1.2805975326209795,1.5159890679800851,-0.7918199384470528,-1.6719540547017206,-1.6928106305027177,0.9273345172405243,-0.028054215013980865,0.6759599819779396,0.8730342984199524,-0.023226682096719742,-0.48530998826026917,-0.041782964020967484
18.0,-0.1719475817725909,-1.2781665911963491,1.5187080628156517,-0.8063590650919135,-1.7620195502902722,-1.6627493498292127,0.9298023283481598,0.012771478854119778,0.6723714545369148,0.8735244274139404,0.011056814342737198,-0.4862492084503174,0.019863059744238853
19.0,-0.12866327064909272,-1.2906260782882777,1.5230124063979797,-0.8070586268011878,-1.8360778696472542,-1.6414638891876037,0.9221618473529816,0.04257612302899361,0.6822202801704407,0.8722590208053589,0.03790586441755295,-0.4827382564544678,0.06849206238985062
20.0,-0.07085472632980441,-1.3135280650002887,1.5435598234658026,-0.82659800917617,-1.9404339943869335,-1.6125823413369045,0.907328724861145,0.08122391998767853,0.691165030002594,0.8697957992553711,0.07338432967662811,-0.46851855516433716,0.13623659312725067
21.0,-0.14030031192520617,-1.3970149443603943,1.5944589843271526,-1.0245933605973274,-1.8085399809314833,-1.6749492215225301,0.8937012553215027,0.04007895290851593,0.7241585776209831,0.9257193803787231,0.02636031061410904,-0.3715307414531708,0.06568030267953873
22.0,-0.19447061680003558,-1.4163044817850585,1.6070453336198078,-1.0665817263381487,-1.7200161159464482,-1.7198179664457265,0.8907325118780136,0.006043124012649059,0.7306758463382721,0.9379536509513855,0.004071517381817102,-0.3465619683265686,0.011019369587302208
23.0,-0.2528982768392476,-1.423006511776714,1.6118495684334246,-1.0665671619544765,-1.6330542683075981,-1.765463898198141,0.8871499001979828,-0.03157944232225418,0.7318614721298218,0.9400084614753723,-0.016800936311483383,-0.337508887052536,-0.04679291322827339
24.0,-0.3084881641304893,-1.423586861384381,1.6147715132690141,-1.0415610966905406,-1.5514464091059752,-1.8068201258439651,0.8811510503292084,-0.06669677793979645,0.729478269815445,0.9350413680076599,-0.037305742502212524,-0.33703750371932983,-0.10349712520837784
25.0,-0.2912078179721728,-1.6340032069680441,1.8460781183532582,-1.6131661533091444,-1.5726485798409118,-1.8580236772593477,0.8132914304733276,-0.03423060104250908,0.7642078995704651,0.9963999390602112,-0.0019045775989070535,-0.08149398863315582,-0.023286640644073486
26.0,-0.33143527610313145,-1.6687738047401066,1.8871722514584715,-1.6791252027091124,-1.5474885852986446,-1.9007217156576905,0.7932130694389343,-0.0565960593521595,0.7654577940702438,0.9984173774719238,-0.00139477604534477,-0.04824524745345116,-0.02886437065899372
27.0,-0.32624482893751,-1.741811207777832,1.9665987140174626,-1.7797884921111191,-1.555855700209864,-1.8970614076985306,0.7476646341383457,-0.03833448886871338,0.7665193378925323,0.9999409317970276,-4.887063550995663e-05,-0.005086654331535101,-0.009607051499187946
28.0,-0.30804364622277,-1.7190210907309016,1.9477494197410143,-1.7817297916558896,-1.5602972165589128,-1.8788273296043445,0.7655983045697212,-0.030963033437728882,0.766521543264389,0.9999467134475708,-5.303014404489659e-05,-0.006886870134621859,-0.0076997713185846806
29.0,-0.2849358519703009,-1.6989754457405069,1.9313277966192153,-1.7866603301297683,-1.5660781194128812,-1.8557046546331006,0.7819004952907562,-0.018819820135831833,0.766528844833374,0.9999632239341736,-3.320836185594089e-05,-0.007248606998473406,-0.004581175744533539
30.0,-0.25847016129462247,-1.71343243224347,1.9466120985445774,-1.801964965453412,-1.5736677291898002,-1.8292666287489758,0.7719334810972214,0.0033609766978770494,0.7665443420410156,0.9999985694885254,1.5144991039051092e-06,-0.0013390794629231095,0.0011309983674436808
31.0,-0.23497314560550286,-1.6208309762408342,1.832385458752812,-1.5994910516311083,-1.62000396018493,-1.801783712909076,0.8210637047886848,0.0023165009915828705,0.7636975198984146,0.9955244064331055,0.0002622086030896753,-0.09446511417627335,0.0027632960118353367
32.0,-0.20867214933855566,-1.6530900949260712,1.8746620458021956,-1.6877482012902647,-1.624185370279639,-1.7784094726456485,0.8053285405039787,0.026508336886763573,0.7653679251670837,0.998276948928833,0.0008669998496770859,-0.05664747208356857,0.015278810635209084
33.0,-0.14215452992106897,-1.5576048024990023,1.7605367538626508,-1.4315485031035322,-1.7570444549943982,-1.7059325599228683,0.8404179811477661,0.05390424281358719,0.7550688683986664,0.9811796545982361,0.01238904520869255,-0.18055570125579834,0.06732480227947235
34.0,-0.06758726775239833,-1.4795148414675796,1.6874325699640427,-1.2241383750278994,-1.909712635191807,-1.6309824487095446,0.8585449308156967,0.09192796051502228,0.7366939187049866,0.9481893181800842,0.04265861213207245,-0.2796323597431183,0.14464864134788513
35.0,-0.222314806512445,-1.7122722341270271,1.9431943786614296,-1.788335418248388,-1.589637568835074,-1.7931177769529212,0.7703741863369942,0.02894706279039383,0.7665156424045563,0.9999332427978516,6.636462057940662e-05,-0.008603590540587902,0.007713081315159798
36.0,-0.18943072162297656,-1.7186829431113892,1.947357856217982,-1.78036111809521,-1.6029677120331016,-1.7602671942144568,0.762733481824398,0.053368911147117615,0.7664680331945419,0.9998250007629395,0.00017376149480696768,-0.012411724776029587,0.013997336849570274
37.0,-0.15171286878124252,-1.6554435647555246,1.8759909616612802,-1.6713527020777161,-1.6780178367981047,-1.7219983671181687,0.7969068810343742,0.06479387730360031,0.7644209414720535,0.9967674612998962,0.002958347788080573,-0.06725828349590302,0.04384269937872887
38.0,-0.1372034603583893,-1.691410460957759,1.9166752660119006,-1.7289351207443469,-1.6675330513016815,-1.708207696104476,0.7735676541924477,0.08105504512786865,0.7653539478778839,0.9982678890228271,0.001726223505102098,-0.039816178381443024,0.043279726058244705
39.0,-0.010554437495021619,-1.5496139806591231,1.7748783216076456,-1.381952799415227,-1.985357933170416,-1.5813331791866172,0.8189753964543343,0.13021329045295715,0.7419508099555969,0.957692563533783,0.04229939356446266,-0.20328980684280396,0.19927126169204712
40.0,0.10213536796121396,-1.589564945728285,1.864881331764798,-1.4446259318744048,-2.231147705995779,-1.448126215718711,0.7691596150398254,0.18574309349060059,0.7256254553794861,0.9276036024093628,0.0551256388425827,-0.15180206298828125,0.33685141801834106
41.0,0.07744250041002713,-1.5171677488403663,1.7761056846526986,-1.2634189943747587,-2.195732916883612,-1.4877436612825896,0.8068859875202179,0.17367278039455414,0.7194041758775711,0.9139212965965271,0.08332318812608719,-0.241343691945076,0.31552860140800476
42.0,0.0282868594373935,-1.380475137176775,1.6267717816722433,-0.9345269532060099,-2.1258340508439924,-1.5493628696858737,0.8659411519765854,0.14423689246177673,0.6987350881099701,0.8692018389701843,0.11999187618494034,-0.40447351336479187,0.25785908102989197
43.0,-0.01486091873562861,-1.3356403734306779,1.5833259007892575,-0.8773710067373298,-2.0383755003019437,-1.5805414064765069,0.8916472792625427,0.11821572482585907,0.6860666275024414,0.8673346042633057,0.1028146743774414,-0.4435543417930603,0.20104576647281647
44.0,0.04150391228432381,-1.3672637656671558,1.640180639096719,-0.9505020127258406,-2.137711007430166,-1.5392953422493534,0.8687713146209717,0.15431591868400574,0.6783833503723145,0.8653116226196289,0.12512356042861938,-0.40518924593925476,0.26721063256263733
45.0,-0.08360179716901418,-1.2938323299986518,1.5452704960494135,-0.8442164570890939,-1.9075605423888935,-1.6191811646726373,0.919047549366951,0.07352615147829056,0.6706683039665222,0.8715648055076599,0.0633881539106369,-0.4718559682369232,0.11708422005176544
46.0,0.007573278540077174,-1.3342258542321621,1.6090223136535027,-0.9213159146552232,-2.065941637836217,-1.5655943464840811,0.8899897038936615,0.13442681729793549,0.6676181107759476,0.8676794171333313,0.11028823256492615,-0.4308590292930603,0.22210240364074707
47.0,0.08064375389728537,-1.3967912101465547,1.690280510534979,-1.0169276301302277,-2.210419434486291,-1.501081753136553,0.8478722125291824,0.1777786761522293,0.6731236949563026,0.8646413087844849,0.1339769959449768,-0.36764341592788696,0.315093457698822
48.0,0.1336998105875436,-1.4577103182840947,1.7775677317230685,-1.1380885294487864,-2.321779378690563,-1.424929323143158,0.8080446124076843,0.2052578628063202,0.6724501550197601,0.8660428524017334,0.12949441373348236,-0.2910078167915344,0.3853769898414612
49.0,0.17894196706630053,-1.5273656400686941,1.880505459091931,-1.3056659567074216,-2.4257904024522454,-1.32074438071456,0.7645758092403412,0.22423651814460754,0.6706239283084869,0.8708053231239319,0.0952393189072609,-0.1864454746246338,0.44482117891311646
50.0,0.21555812422691925,-1.6163729385636223,2.0176735711866893,-1.5876781213353441,-2.520599235626304,-1.1953956183846406,0.712134619243443,0.23322555422782898,0.6697961539030075,0.8771473169326782,0.017375068739056587,-0.031827252358198166,0.47885048389434814
51.0,0.1580999659481013,-1.5143143798823804,1.834022290001065,-1.2238149218832917,-2.3986415255874305,-1.3662120824376103,0.7773342728614807,0.21239598095417023,0.6873654127120972,0.8679769039154053,0.11146152019500732,-0.22611629962921143,0.4278596043586731
52.0,0.194750769605282,-1.583649059306371,1.9415203765038815,-1.4237725230278921,-2.4871988678549712,-1.257545953480144,0.7357712015509605,0.22522127628326416,0.6837226450443268,0.8734415173530579,0.058866582810878754,-0.10919663310050964,0.4708617329597473
53.0,0.22500057412291055,-1.699646576147457,2.157959829242951,-1.99921857791416,-2.5717096452833297,-1.1658834897596737,0.665986567735672,0.22535136342048645,0.6807773262262344,0.8743627071380615,-0.07166706025600433,0.13615456223487854,0.4602343440055847
54.0,0.21828915121777784,-1.7466851137237822,2.2619666393093376,-2.3332430224659797,-2.5372980981934634,-1.2332669712993414,0.6274804472923279,0.2150154709815979,0.6798794865608215,0.8737616539001465,-0.10953538119792938,0.23146994411945343,0.4134783446788788
55.0,0.21195513603676167,-1.6719676768729674,2.0693276786658843,-1.7563920708774234,-2.55716404288217,-1.182298686910947,0.6913261208683252,0.22272935509681702,0.6951843053102493,0.8768977522850037,-0.02737651765346527,0.050301194190979004,0.4772532284259796
56.0,0.18388354918886943,-1.7524284745391392,2.1829416510750916,-2.16173340943527,-2.4420699982128586,-1.3020315231901163,0.6530009061098099,0.20580770075321198,0.7073818817734718,0.901438295841217,-0.07212325930595398,0.16517813503742218,0.3936033844947815
57.0,0.05710977192875889,-1.8607024781392745,2.232628704149634,-2.3151548893436154,-2.0742597490411647,-1.51076101143854,0.6217733025550842,0.16231074929237366,0.7295899391174316,0.95167076587677,-0.04750752076506615,0.19332802295684814,0.2338590770959854
58.0,-0.09328361609080309,-1.8794480469094779,2.1612996358039793,-2.144214195637646,-1.7164342519750508,-1.6614710449353252,0.6484327614307404,0.11872313916683197,0.754456639289856,0.986755907535553,-0.011856051161885262,0.13765834271907806,0.08498597890138626
59.0,-0.18607460088200814,-1.8890310131447356,2.1495857794049145,-2.087569499816223,-1.564139483132367,-1.7508771766663886,0.6541370525956154,0.08243298530578613,0.7584039568901062,0.9917965531349182,-0.0025470585096627474,0.12622427940368652,0.020013300701975822
60.0,-0.1792244492269707,-1.8322676124468649,2.0672142608150628,-1.9281763487271735,-1.5893782479443912,-1.748809138090065,0.6875039339065552,0.07680428773164749,0.7657027542591095,0.998083233833313,-0.0011730545666068792,0.05855490267276764,0.019995015114545822
61.0,-0.1160857291931833,-1.8324774715345507,2.0790783763903944,-1.9721493235735235,-1.6614694419660319,-1.6861628891949805,0.681921998038888,0.10877667367458344,0.7637960612773895,0.9959822297096252,-0.003861400531604886,0.07148544490337372,0.05379955843091011
62.0,0.05676083379659795,-1.7922197068811232,2.103795047416555,-2.042376689283386,-2.0657751235685247,-1.5074441747216896,0.6748564392328262,0.1662580966949463,0.7451996505260468,0.9663597345352173,-0.022762278094887733,0.09199868142604828,0.23909635841846466
63.0,0.08886014579176517,-1.6970760303980847,1.9820849351681853,-1.732250706313032,-2.161518569996869,-1.4639592813795925,0.7199286743998528,0.17965856194496155,0.7397431135177612,0.9549950361251831,0.009387589991092682,-0.030399395152926445,0.2949105203151703
64.0,-0.028504874067524548,-1.7215624599190142,1.9597272560203474,-1.748388551185085,-1.8632728327902064,-1.6004946914256681,0.7328906394541264,0.13567852973937988,0.7594874352216721,0.9888697266578674,0.005002674181014299,-0.03418382629752159,0.14471735060214996
65.0,-0.11977931569887777,-1.7176032850849896,1.9441737874427272,-1.7557546046748786,-1.6772726185596105,-1.6910842604423608,0.7535420320928097,0.09524105489253998,0.7654143869876862,0.9983667731285095,0.001360971829853952,-0.026996292173862457,0.05033094435930252
66.0,-0.17596764783502136,-1.7418189427621202,1.9679216422502783,-1.7861332993323729,-1.6078043067229721,-1.7468598508710556,0.7441322691738605,0.06604234129190445,0.7664633393287659,0.9998143315315247,0.00014752853894606233,-0.008538729511201382,0.017274368554353714
67.0,-0.17012959022618376,-1.7677382103669084,1.989865947162566,-1.7900167071496154,-1.6103362630213955,-1.7410524341706906,0.7238574381917715,0.0734039694070816,0.766458585858345,0.9998035430908203,9.198306361213326e-05,-0.0047806608490645885,0.01923687942326069
68.0,-0.2080714671570397,-1.761164495808428,1.9847760225452522,-1.7920226564582857,-1.596565806164231,-1.7789317223571406,0.7318452410399914,0.046855099499225616,0.7665081918239594,0.9999163746833801,4.7327266656793654e-05,-0.003828742541372776,0.012360014021396637
69.0,-0.24381089927499822,-1.79980914504435,2.021192541389666,-1.8230846538680066,-1.5794964008671033,-1.814519866785199,0.7073294161818922,0.029787423089146614,0.7664883434772491,0.9998711943626404,-0.00011088247265433893,0.013945086859166622,0.00795033946633339
70.0,-0.21446552785609954,-1.8117187335954363,2.0377858335370407,-1.860994728832046,-1.5843200936782234,-1.7848925090749836,0.700254563242197,0.051051072776317596,0.7663088589906693,0.9994630813598633,-0.0004013586149085313,0.029889078810811043,0.013421057723462582
71.0,-0.22623120187783505,-1.8883926059066485,2.1460494302490445,-2.078150517643172,-1.5440684017321455,-1.7899911416091037,0.6579418666660786,0.05904769524931908,0.7594097554683685,0.9921276569366455,-0.0018264082027599216,0.12436693161725998,0.014570029452443123
72.0,-0.25855587186411194,-1.8795464229873449,2.1299950261982037,-2.0408189530984346,-1.533141740415727,-1.8230552914042377,0.6649253889918327,0.0380626805126667,0.7611487805843353,0.9938048720359802,-0.0010662240674719214,0.11072111874818802,0.009570159018039703
73.0,-0.27929715279701584,-1.8027197312366947,2.0235917455431007,-1.8238653855875149,-1.5660154918781533,-1.8499474687091224,0.7064304202795029,0.007270607631653547,0.7664867490530014,0.9998675584793091,-3.451593511272222e-05,0.01613304205238819,0.002139172749593854
74.0,-0.2562712319799301,-1.7683561599356292,1.990623158032918,-1.7926704965812394,-1.5797028769876698,-1.8270770302189854,0.7285351864993572,0.015465103089809418,0.7665406465530396,0.9999901652336121,5.615592272079084e-06,-0.0013188098091632128,0.004258034285157919
75.0,-0.24280832873187863,-1.7367366360486258,1.9651015641857321,-1.794973514486766,-1.5823445760768868,-1.8136153647455584,0.7526493184268475,0.0188108142465353,0.7665367424488068,0.999981164932251,1.7450245650252327e-05,-0.003420701250433922,0.005101268645375967
76.0,-0.2808994091800801,-1.741780093035109,1.96950664155392,-1.7961824527284522,-1.5684243467797945,-1.851696180303806,0.7496730051934719,-0.006721741985529661,0.7665444612503052,0.9999986290931702,-1.1646393431874458e-06,-0.0007955656619742513,-0.00146391149610281
77.0,-0.3120525577581129,-1.7631326847576854,1.985171065474648,-1.7858905871110353,-1.5608728736221489,-1.8828627129188058,0.7324295677244663,-0.023467371240258217,0.7665369510650635,0.9999817609786987,-1.0308613127563149e-05,-0.0017809938872233033,-0.005788018461316824
78.0,-0.31577762467890047,-1.8177807667704493,2.0414200437862666,-1.8555528926742972,-1.544568537897413,-1.8859698074915419,0.6988718826323748,-0.012615986168384552,0.7663019001483917,0.9994473457336426,9.877092816168442e-05,0.033110346645116806,-0.002981435274705291
79.0,-0.3047707945400231,-1.875112055632299,2.119982133407257,-2.0120472819619803,-1.5148862729928432,-1.8695305803788758,0.6686104759573936,0.009423731826245785,0.762019082903862,0.9947981238365173,-0.00026241070008836687,0.10183373093605042,0.002563450252637267
80.0,-0.31765269646041494,-1.916895282727085,2.166290178210823,-2.0570610032535406,-1.5004285584252777,-1.87928845763759,0.6406245455145836,0.012376886792480946,0.7550913393497467,0.992388904094696,-0.0003890003135893494,0.12310308963060379,0.0031359049025923014
81.0,-0.361648561978261,-1.9353443866711013,2.1797634659657965,-2.0445541226056987,-1.4818850008256972,-1.9225600884386362,0.6275978535413742,-0.007862179540097713,0.7518613785505295,0.9924641847610474,0.00017973776266444474,0.12252633273601532,-0.001455877092666924
82.0,-0.34377014735905975,-1.9013640747792522,2.1515241460538332,-2.0523251493860575,-1.4861622796687053,-1.9050446409111936,0.6526082903146744,-0.006278363987803459,0.7581117153167725,0.992438793182373,0.00015815976075828075,0.122733935713768,-0.001278895535506308
83.0,-0.367634750957925,-1.8802990996823838,2.125216621913592,-2.014184580357131,-1.4816758339144405,-1.930910583337103,0.6658986769616604,-0.02635829895734787,0.761388286948204,0.9941020011901855,0.0006751853507012129,0.10826953500509262,-0.0061993724666535854
84.0,-0.4076989218224648,-1.8917781365257602,2.1410072488423557,-2.0395360163608087,-1.4530969311970234,-1.9682565652270656,0.6588805243372917,-0.04588671028614044,0.7596677541732788,0.9922822713851929,0.001362593611702323,0.12350860983133316,-0.010947233997285366
85.0,-0.4097330877520419,-1.9262470296340464,2.171559577162999,-2.0403894323500222,-1.456711856903226,-1.9697337461910263,0.6340119540691376,-0.037071291357278824,0.7534159868955612,0.9921225905418396,0.0010246009333059192,0.12500227987766266,-0.008132089860737324
86.0,-0.4744058074630548,-1.9343659571295935,2.178515997542385,-2.0342745175536376,-1.4255877669942554,-2.0331684117203,0.6261963993310928,-0.07051286101341248,0.7514450550079346,0.9914040565490723,0.001974087208509445,0.12995123863220215,-0.01506040059030056
87.0,-0.5317046181614897,-1.9626320028858504,2.2052738527646105,-2.0355198368287257,-1.3573088756412985,-2.0896586331948686,0.6070072054862976,-0.08592580258846283,0.7458792924880981,0.988240122795105,0.005460638087242842,0.1484244018793106,-0.03635804355144501
88.0,-0.5888601113447519,-1.9466177923406165,2.1919892550660065,-1.998959982925772,-1.2541985619531775,-2.157428546466134,0.6154668033123016,-0.11159499734640121,0.7458930313587189,0.983390748500824,0.013292072340846062,0.1620473563671112,-0.08066347241401672
89.0,-0.8258101183111786,-1.5472875417188907,1.9737528547417753,1.236517794588114,0.7675630472913241,0.523048554718346,0.5786679610610008,-0.16718080639839172,0.7046073079109192,0.9157920479774475,0.08392026275396347,0.28947770595550537,-0.26549023389816284
90.0,-0.7237279901044804,-1.627687052529627,1.9339411754416762,1.0966761948452666,0.998765129373515,0.812994870731952,0.5708709210157394,-0.12476539611816406,0.7226823046803474,0.9554566740989685,0.039935264736413956,0.24907977879047394,-0.1531895399093628
91.0,-0.6043565947478908,-1.6498699953697324,1.901020672598214,1.0594645236012288,1.2185517249973397,0.9822978283960347,0.5732334852218628,-0.08688600361347198,0.7335783839225769,0.9763609170913696,0.014988294802606106,0.203250452876091,-0.07199976593255997
92.0,-0.47130899302603796,-1.609324666018279,1.8418349788859012,1.1035901268010373,1.4307272706577396,1.1133125460801132,0.5968608558177948,-0.054394789040088654,0.744107574224472,0.9907210469245911,0.0013444811338558793,0.13554872572422028,-0.00982676725834608
93.0,-0.423985524156692,-1.5982676820730282,1.827826863381736,1.1097319039106794,1.4540972348206591,1.1587864481740668,0.6059830635786057,-0.03328012675046921,0.7464479506015778,0.9916402697563171,0.0007975036278367043,0.12888509035110474,-0.0061359829269349575
94.0,-0.5110499343510366,-1.6778480625104921,1.911417586437807,1.0270402396553457,1.3394076330231017,1.0855221101130503,0.5612863302230835,-0.04372217133641243,0.7330622375011444,0.9815405607223511,0.005182553082704544,0.18928571045398712,-0.026874111965298653
95.0,-0.404814180751554,-1.6153114531532689,1.8480423822532086,1.1028489020417704,1.4649966718618963,1.1777444528092358,0.5925436317920685,-0.017491387203335762,0.7430442571640015,0.9917223453521729,0.00037180542130954564,0.12836900353431702,-0.002872405108064413
96.0,-0.3759165422940667,-1.6248702364918133,1.8604962366869504,1.1031357584448829,1.48093853029224,1.205435296141515,0.5832930207252502,0.0007577372016385198,0.7407324612140656,0.9922888278961182,-3.79319790226873e-05,0.12394686043262482,0.00030367434374056756
97.0,-0.36398757543822735,-1.5948979649495878,1.8233325459801952,1.1118565699173495,1.483511801658881,1.2168656601701366,0.6080933958292007,-0.0021748861763626337,0.7469910681247711,0.9924325942993164,2.678587225091178e-05,0.12279045581817627,-0.00021649217524100095
98.0,-0.3184622588007143,-1.5863568507986985,1.809763896476373,1.1051814845494943,1.5007983965192147,1.2619307010089142,0.616623193025589,0.01971440576016903,0.7491129338741302,0.9920768141746521,-0.0005329904379323125,0.12556092441082,0.004211242310702801
99.0,-0.27379278221773773,-1.5786375703648758,1.7983060789453444,1.1003948479587324,1.52051083415182,1.3057276750110511,0.6228767037391663,0.041900016367435455,0.7506745159626007,0.9918426275253296,-0.0011829969007521868,0.12712854146957397,0.009229609742760658
100.0,-0.22895199041252168,-1.5632162104658014,1.7778919737947092,1.0999103986298877,1.5418535381528866,1.3493479656056664,0.6343762949109077,0.06313668191432953,0.7534698694944382,0.9917019605636597,-0.0018719559302553535,0.12772096693515778,0.014534985646605492
101.0,-0.23972059068657747,-1.5974594889510725,1.819342070853249,1.0812800323309715,1.5332541745076296,1.3396868470262246,0.607658177614212,0.06435463577508926,0.7468023151159286,0.9908869862556458,-0.001762069994583726,0.13405391573905945,0.013024701736867428
102.0,-0.17734259384493503,-1.5917595939631815,1.8072046096251755,1.0509551886055963,1.5999793602573613,1.4011161409101414,0.6134767010807991,0.08967804163694382,0.7474387288093567,0.9883193373680115,-0.005998644977807999,0.14682888984680176,0.04037746042013168
103.0,0.07949629355230145,-1.5998677061905675,1.8721593410893205,0.7935667977429091,2.14926387811396,1.6518448073080336,0.5887182727456093,0.16390708088874817,0.7118252143263817,0.928022563457489,-0.07196636497974396,0.26079410314559937,0.25608864426612854
104.0,-0.009756054079394666,-1.6811684119347905,1.9227820952421402,0.7338955720294136,1.97002695861255,1.5620086390612173,0.5617555975914001,0.13554812967777252,0.7116605117917061,0.9370180368423462,-0.05860651656985283,0.28567466139793396,0.19223037362098694
105.0,-0.2858090996990402,-1.6123401052991806,1.8384750253880815,1.0825979275571582,1.5121050471014172,1.2949664168260506,0.5968797653913498,0.04353637620806694,0.7441268712282181,0.9910075664520264,-0.0011110496707260609,0.1335470825433731,0.008244721218943596
106.0,-0.3362279516329051,-1.6159452448641303,1.845781496315945,1.0931483978770578,1.4924952061848238,1.2452174994053133,0.5932112336158752,0.01838141307234764,0.7432089149951935,0.9915847778320312,-0.00044238968985155225,0.12941385805606842,0.003389643970876932
107.0,-0.30938939399570853,-1.6698565574715927,1.890641553083086,1.002527980122205,1.5075227230947932,1.280175164521038,0.5675020068883896,0.03985770791769028,0.7354575246572495,0.9844599366188049,-0.003770205657929182,0.17427223920822144,0.02129780687391758
108.0,-0.16502084874374603,-1.6919232234697819,1.9047034448664044,0.8647341909807811,1.6873376933644562,1.422826370882889,0.5630999207496643,0.09180344641208649,0.7276840209960938,0.9679357409477234,-0.022471418604254723,0.23195293545722961,0.09377285093069077
109.0,-0.23516889955377276,-1.7351511059122449,1.9438535391239302,0.827694070017337,1.6076150736964798,1.366422976807659,0.5446793138980865,0.07034209370613098,0.7218718975782394,0.9641615152359009,-0.019708072766661644,0.2537667453289032,0.07487887144088745
110.0,-0.3683445597486393,-1.7857123296463464,1.9915429009755623,0.7971210880182601,1.4497013089179525,1.2613540781717743,0.5246144086122513,0.03295080363750458,0.7147311940789223,0.9582886099815369,-0.011273115873336792,0.28301742672920227,0.03817043825984001
111.0,-0.5162833312288931,-1.9055888674370491,2.1082025471389585,0.583654054214561,1.2335077426993544,1.2135816122980276,0.4902907907962799,0.011532960459589958,0.6882113739848137,0.9131548404693604,-0.008412722498178482,0.40708887577056885,0.018870864063501358
112.0,-0.4550536539138647,-1.7517537528974725,1.9685380892575914,0.8976653631064433,1.3581716101763317,1.1652349072913635,0.533783808350563,-0.0011603225721046329,0.721898764371872,0.9688791036605835,2.8896603907924145e-05,0.24753451347351074,-0.0001131046810769476
113.0,-0.564683421829586,-1.7771340335517052,2.0050805959707643,0.8696982505593702,1.2147320004260476,1.073110876853441,0.5226999670267105,-0.029517218470573425,0.7140200510621071,0.9576339721679688,0.009437781758606434,0.2860947251319885,-0.03159072622656822
114.0,-0.6953164827949586,-1.7075329401143187,1.9829178762058501,0.9846822155448574,1.0452912780999193,0.8960995078452537,0.5414581894874573,-0.08916957676410675,0.7163133770227432,0.9544110298156738,0.03035416640341282,0.27807262539863586,-0.10418269783258438
115.0,-0.8112454898938499,-1.664554657769182,2.0189353370063645,1.044814540826525,0.8224041865254507,0.6892938401868574,0.5421333014965057,-0.12653324007987976,0.7030381560325623,0.9257054924964905,0.06387507915496826,0.32558849453926086,-0.18160809576511383
116.0,-0.898972831466752,-1.5719555621038217,2.0716904506943163,1.1935187605619326,0.6230474730933594,0.35224764190436914,0.5476097613573074,-0.1643598973751068,0.6792085319757462,0.8812684416770935,0.11374311149120331,0.37038925290107727,-0.2706294059753418
117.0,-0.8766950596392231,-1.7541686899425197,2.127102942130687,0.8729224213177016,0.6846257906616906,0.6846207605845083,0.5032797902822495,-0.10365257412195206,0.6750191748142242,0.8911970853805542,0.07357477396726608,0.41942182183265686,-0.15633337199687958
118.0,-0.8367455233016112,-1.8250582795114572,2.148864552451474,0.7539980061711922,0.7616418845931044,0.8309915127263607,0.48943039774894714,-0.07571232318878174,0.669535256922245,0.8950892686843872,0.05274231359362602,0.4288538694381714,-0.1100819781422615
119.0,-0.6633879080745669,-1.9242725094759097,2.155161705097187,0.568594634970859,1.0163187930613966,1.112891676018621,0.47966527938842773,-0.016669580712914467,0.6731474101543427,0.8970312476158142,0.011015011928975582,0.44126206636428833,-0.022392161190509796
120.0,-0.4811936202127308,-1.9417843086820503,2.1593176606599513,0.47859550001085616,1.2830626595645445,1.2682227295514845,0.47709330916404724,0.027041226625442505,0.6652752682566643,0.8983681797981262,-0.01948297768831253,0.4369790852069855,0.040054284036159515
121.0,-0.17963890182055753,-1.8778576833191978,2.114771916685569,0.424582187676267,1.7303429850266505,1.4556516692476025,0.4941161572933197,0.08964291214942932,0.6676699444651604,0.8939637541770935,-0.06385110318660736,0.4224908649921417,0.13510487973690033
122.0,-0.29417282918747767,-1.91358738236516,2.1243083211699654,0.43812168718719935,1.553827194480334,1.390428950064682,0.4892438054084778,0.06453507393598557,0.675578273832798,0.8943512439727783,-0.04716581851243973,0.4341312646865845,0.0971660315990448
123.0,-0.03472836135137885,-1.7926121805088573,2.0396986044470555,0.47989692013232865,1.9721170300046555,1.545438997850866,0.5217581689357758,0.12268291413784027,0.6855264455080032,0.8936123251914978,-0.0858081579208374,0.3956407308578491,0.19381023943424225
124.0,0.12024455424644635,-1.664166781596906,1.9801390731204551,0.545588314825036,2.2714326698158827,1.6828073720614936,0.5519065260887146,0.16894598305225372,0.6748547479510307,0.8813050389289856,-0.1155417412519455,0.36123666167259216,0.28188586235046387
125.0,0.054528990276163605,-1.737022118513277,2.0309233835181857,0.47901899016558946,2.1316941699364707,1.614697440283263,0.529853418469429,0.14801868796348572,0.6700545996427536,0.8860320448875427,-0.10280831158161163,0.3853594660758972,0.2363804578781128
126.0,0.12651345234333622,-1.6622442072848176,2.0039221916343117,0.5347036464126244,2.264885074954191,1.6893291216316608,0.543950766324997,0.1723073273897171,0.6574558280408382,0.8847211003303528,-0.11220423132181168,0.35667580366134644,0.2783184349536896
127.0,0.014947531707497543,-1.7714981995522197,2.0770345460312902,0.4458300282686243,2.045002017675808,1.5822020602232745,0.5126658380031586,0.1382199376821518,0.6516826748847961,0.8917368054389954,-0.09198792278766632,0.3900083601474762,0.21032634377479553
128.0,-0.22525050570719807,-1.8935708959778805,2.1457020319224087,0.4198288129944778,1.658291709668166,1.4263297758127047,0.48379042744636536,0.08152119815349579,0.6516416780650616,0.8983370661735535,-0.0553206205368042,0.4193907082080841,0.11849704384803772
129.0,-0.3714883107836237,-1.9298421468073423,2.17091998986656,0.4412895820937681,1.445291999235186,1.3366434877791857,0.47419965267181396,0.051705747842788696,0.6491846889257431,0.9008967280387878,-0.034946322441101074,0.42627373337745667,0.07385636121034622
130.0,-0.5512566672877783,-1.943231517209607,2.198704548637542,0.49327243516844144,1.2005485945095264,1.2057750348002618,0.4653102159500122,0.015404842793941498,0.6404480524361134,0.903982937335968,-0.010556533001363277,0.42685315012931824,0.022356459870934486
131.0,-0.7813583709196469,-1.8846736653732354,2.191085472412219,0.6469511607868967,0.8786631784325533,0.9522371921388054,0.47181323170661926,-0.0462007001042366,0.6472949460148811,0.9016535878181458,0.029846906661987305,0.4267950654029846,-0.06305501610040665
132.0,-0.679191022955158,-1.9239652196833061,2.180255965035084,0.5681390328167555,1.012367243060788,1.090813870285879,0.47224174439907074,-0.01784980669617653,0.6561441868543625,0.9006643295288086,0.01097151543945074,0.4337792694568634,-0.022780373692512512
133.0,-0.8476947116188022,-1.8268786501181744,2.1740454076075992,0.7458413913602135,0.7728775774166324,0.8166845678785402,0.48164111375808716,-0.0750320553779602,0.6533444747328758,0.8986159563064575,0.049942974001169205,0.4227592945098877,-0.10615865141153336
134.0,-0.8931472542898085,-1.755292342316619,2.1598176237509232,0.8592670904875859,0.7008186916455708,0.6665914231989523,0.49296101927757263,-0.10384494811296463,0.6538791358470917,0.8958415389060974,0.06938603520393372,0.41220659017562866,-0.15079548954963684
135.0,-0.9146018301539425,-1.6768560151685465,2.1373139583687006,0.9850558969461285,0.6574140020972944,0.5210451236559108,0.5093971788883209,-0.1318875402212143,0.6561976671218872,0.8918478488922119,0.08802690356969833,0.39724236726760864,-0.19762898981571198
136.0,-0.9331225764959848,-1.620517798327228,2.1436668446673943,1.0575186544812087,0.6579650695416865,0.4189372797476501,0.5144976377487183,-0.15168437361717224,0.6403899267315865,0.8925014138221741,0.09581398963928223,0.3784070909023285,-0.22598449885845184
137.0,-0.929551637829414,-1.6883278178610208,2.1713154131299017,0.9487434486826096,0.6785014155789912,0.5271134396494848,0.49656811356544495,-0.12838830053806305,0.6359354332089424,0.8967615365982056,0.08125746250152588,0.3936336040496826,-0.18511773645877838
138.0,-0.5867471517048279,-1.5654659950112726,1.9502478649480814,1.1654362735935677,1.5131711073370988,0.9837445717708233,0.552493691444397,-0.1152864471077919,0.6674759909510612,0.9995319843292236,0.0004486437828745693,0.024516478180885315,-0.01829111948609352
139.0,-0.5599673913263996,-1.5858698568580951,1.9690509865757129,1.1619971111132128,1.5241991677479183,1.0108247621790876,0.5406239479780197,-0.09320461750030518,0.6675985082983971,0.9996466040611267,0.0003004954196512699,0.02322264201939106,-0.01293518953025341
140.0,-0.5199397557664375,-1.5938104433266782,1.9733279611140409,1.1534190614864686,1.5313005038325649,1.0511982461972695,0.5399918258190155,-0.07050806283950806,0.6680097207427025,0.9996260404586792,0.00020300457254052162,0.026231689378619194,-0.00773601233959198
141.0,-0.5121094441233476,-1.6123863736514903,1.9933958139291785,1.159328719625764,1.537984855956518,1.0588950106420685,0.5246914625167847,-0.05855818837881088,0.6675852164626122,0.9997496008872986,0.0001457935868529603,0.021310176700353622,-0.006839788053184748
142.0,-0.8489154294026797,-1.8406027816228103,2.2034549151089475,0.7180675955643901,0.800664636299835,0.82726726012423,0.47139163315296173,-0.06867672502994537,0.6357821673154831,0.902661144733429,0.0436050146818161,0.4176351726055145,-0.09424624592065811
143.0,-0.7117829190898398,-1.8536977038283204,2.169287133247243,0.716975716130082,1.0358042808817058,0.972121911297042,0.47295284271240234,-0.03864007443189621,0.6422306150197983,0.9322081804275513,0.01761235110461712,0.35858234763145447,-0.045786913484334946
144.0,-0.4461142529008039,-1.6204307150685822,2.000443398026775,1.1593976894699507,1.5507837329829546,1.124912750518934,0.5206881612539291,-0.02280171401798725,0.6677479967474937,0.9998268485069275,4.170892862020992e-05,0.018472308292984962,-0.0022575254552066326
145.0,-0.40110675248581157,-1.6195542034230792,1.9990401970797793,1.1581328729974893,1.5568157429631762,1.1699229637153121,0.5219124257564545,-0.000670241133775562,0.6678494811058044,0.9998379945755005,-7.160833774833009e-07,0.017999878153204918,3.97762305510696e-05
146.0,-0.35453555518953833,-1.621628214859508,2.000351838541407,1.1553365231628754,1.5625782627635874,1.216505827781897,0.5201208889484406,0.023144984617829323,0.6677193567156792,0.9998228549957275,-4.702889054897241e-05,0.01865115948021412,0.0025210529565811157
147.0,-0.3138855211137932,-1.5970541167272923,1.981279117356575,1.1710380610636468,1.5683022981354269,1.2569490164727573,0.5339964181184769,0.038385357707738876,0.6681011393666267,0.9999690651893616,-9.418348781764507e-06,0.007772119250148535,0.001211774768307805
148.0,-0.2570869127464888,-1.7382876732659445,2.0454199936900137,0.824326948127789,1.5964950113647989,1.336478676052857,0.506908655166626,0.07046211510896683,0.658574789762497,0.9757940769195557,-0.01390958670526743,0.20829398930072784,0.06516218185424805
149.0,-0.002491073408279278,-1.7848015934440147,2.107121652206526,0.4298423749876466,2.0065066064067345,1.5689173849679416,0.5017515867948532,0.13462752103805542,0.6359130330383778,0.8956823945045471,-0.08629253506660461,0.3881416320800781,0.19913014769554138
150.0,-0.1997058135961614,-1.5836678040068146,1.9603198986053458,1.141594580671427,1.5878637055812752,1.3712954041907512,0.5446531772613525,0.09214925765991211,0.667774073779583,0.999618411064148,-0.00032659518183209,0.02405778504908085,0.013570265844464302
151.0,-0.14654094350974958,-1.5622117382412801,1.9381621851852273,1.1376712955893518,1.6029737935375201,1.4243775462625252,0.5578704178333282,0.11581862717866898,0.6676500290632248,0.9994620084762573,-0.0005208998918533325,0.025926440954208374,0.02008064277470112
152.0,0.046192984507682375,-1.6942930370974216,2.0401896735555414,0.6013301089850214,2.053029811775262,1.6125383179646402,0.5233210325241089,0.15377116203308105,0.6406791061162949,0.9244149327278137,-0.07119274884462357,0.30758556723594666,0.21396206319332123
153.0,0.15442946477586464,-1.6312843813081497,2.0222612575498164,0.5457388794528537,2.2935215944239156,1.7242156876673551,0.5399221181869507,0.18418191373348236,0.6314160041511059,0.8888525366783142,-0.10977208614349365,0.33967718482017517,0.28724682331085205
154.0,-0.08585116364861989,-1.914245140528338,2.244302295238975,-1.9608802554866425,-1.6280286653360716,-1.6566587530456995,0.5817437618970871,0.14281781017780304,0.66757532954216,0.9991404414176941,-0.0008529953774996102,0.027433667331933975,0.031066283583641052
155.0,-0.04846097469590008,-1.8667702119163885,2.215841951557081,-1.9817875130392182,-1.6550101944673892,-1.6193486072468621,0.6102421954274178,0.15864604711532593,0.6679838076233864,0.9986349940299988,-0.0012574346037581563,0.02885088324546814,0.04352442920207977
156.0,-0.01609399868015584,-1.8357982580138814,2.192393007322121,-1.9699561801981713,-1.6632930141114473,-1.5869457958611333,0.6257089972496033,0.17670126259326935,0.6671082228422165,0.9987045526504517,-0.0009561585611663759,0.020510291680693626,0.04655808210372925
157.0,0.002491407300107152,-1.8024763841681217,2.166973161283343,-1.9653447589517026,-1.6732825018601303,-1.568292928294597,0.6462769396603107,0.186824768781662,0.6668681502342224,0.9985747337341309,-0.0007755912374705076,0.015133398585021496,0.0511772558093071
158.0,0.11213827292267589,-1.769248037605315,2.1929873692822808,-2.082085926189854,-2.0300368725482434,-1.4468948548873901,0.6460749767720699,0.20619691908359528,0.6579063422977924,0.9727446436882019,-0.0156819149851799,0.06909038126468658,0.22079049050807953
159.0,0.24291765852766004,-1.7272891925635163,2.307141311853688,-2.3599228319754295,-2.512580095901298,-1.2034759022886037,0.6125087141990662,0.23032407462596893,0.6328048221766949,0.8816303014755249,-0.10238664597272873,0.2243231236934662,0.4023979902267456
160.0,0.19224328544056946,-1.7910549798845774,2.4019695117998174,-2.701414538936302,-2.402255130278036,-1.3478589532342495,0.5708190947771072,0.1997261941432953,0.648352425545454,0.8824131488800049,-0.11732178181409836,0.31044715642929077,0.333474725484848
161.0,0.2258675740140182,-1.7512683688529505,2.3289472554625674,-2.4705158379746557,-2.4929964218811658,-1.2527215824218583,0.602704256772995,0.2185615450143814,0.6483739875257015,0.8797519207000732,-0.11199849843978882,0.25628066062927246,0.3844648003578186
162.0,0.23262478639371595,-1.7312480180604553,2.26803870945504,-2.296365847190801,-2.5354615983295927,-1.2042851721460759,0.6265413835644722,0.22467711567878723,0.6581370532512665,0.8770719170570374,-0.10261725634336472,0.21605366468429565,0.41657572984695435
163.0,0.20775362347724521,-1.7694476261626806,2.3285129191169736,-2.5294479678086663,-2.4818390928218856,-1.29173980085107,0.6013023853302002,0.2075703740119934,0.6696995496749878,0.8764963746070862,-0.11862867325544357,0.27689364552497864,0.37551459670066833
164.0,0.2349955082438236,-1.6956287394357348,2.1804179525433756,-2.033004365108066,-2.5642542053962805,-1.1544322355928303,0.6589737497270107,0.2315066158771515,0.6642105579376221,0.8759651184082031,-0.07425212115049362,0.14306050539016724,0.4546486735343933
165.0,0.24445990561844474,-1.689998876251633,2.2057818189066327,-2.076099757171961,-2.5515403896489603,-1.1478965053726689,0.651657123118639,0.23757599294185638,0.6452586427330971,0.8788567781448364,-0.07614277303218842,0.14987844228744507,0.446485698223114
166.0,0.22082554142243,-1.5826637221135333,2.0041152798237416,-1.5435898604308511,-2.4968363137577807,-1.2018815764594675,0.7225953657180071,0.24182230234146118,0.6474843956530094,0.8772497773170471,0.034557193517684937,-0.06388793140649796,0.47450733184814453
167.0,0.21503801330286443,-1.53402685710858,1.9620397879494713,-1.456859752266859,-2.453485826737934,-1.2417832625260927,0.7451464310288429,0.24649086594581604,0.6291418913751841,0.8762831091880798,0.06453169137239456,-0.12254094332456589,0.4614623486995697
168.0,0.24222887218475597,-1.6090803676235599,2.07886041218641,-1.7078970492626675,-2.526574278991023,-1.1421772292018657,0.6987206253688782,0.249868243932724,0.6316236518323421,0.8789977431297302,-0.005676147993654013,0.01046687550842762,0.4766772389411926
169.0,0.2520641556667819,-1.6567557223441058,2.1683589570851702,-1.939872783871321,-2.5454937275647036,-1.1233060308411071,0.6661534085869789,0.24726644158363342,0.6299871485680342,0.8803837299346924,-0.05279669538140297,0.10096456110477448,0.4603728950023651
170.0,0.013896236287098228,-1.7704141532887407,2.1409757175325033,-1.9583730037827733,-1.6818174583607708,-1.5568164124056616,0.6675746440887451,0.1931997388601303,0.6666746512055397,0.9984235167503357,-0.0005137846455909312,0.00926678441464901,0.05535627156496048
171.0,0.021922642710058296,-1.7327212107427001,2.109054771185699,-1.9492404352799504,-1.7062158915404524,-1.5486713778976213,0.6942393318749964,0.1954338699579239,0.6666664034128189,0.9977080225944519,-0.0001723192835925147,0.0025425662752240896,0.06761842221021652
172.0,0.04671633272954716,-1.697817859269653,2.077890722421671,-1.9135267964148415,-1.819350768801951,-1.5226133348642965,0.7127045663073659,0.1965389847755432,0.6656151190400124,0.9921160340309143,0.0015867529436945915,-0.01262675505131483,0.12467518448829651
173.0,0.01611177254820627,-1.677569595090616,2.055985350351291,-1.9196574516364162,-1.7023405729675198,-1.5545502423862914,0.7369834072887897,0.19265981018543243,0.6665662154555321,0.9977289438247681,0.0009041954763233662,-0.013679703697562218,0.06594747304916382
174.0,0.005370595433791423,-1.6461435304020113,2.0238253030578455,-1.9000451846423716,-1.7011735204021872,-1.5653859288960272,0.7631783932447433,0.18504111468791962,0.6666106581687927,0.9975834488868713,0.0015575115103274584,-0.02381126396358013,0.0652526393532753
175.0,0.09735295542284411,-1.5646753388364647,1.9420752361117608,-1.6630825582633164,-2.054682453573337,-1.4637818193940741,0.780812531709671,0.20608636736869812,0.653877392411232,0.9611789584159851,0.029396673664450645,-0.11302527785301208,0.24999240040779114
176.0,-0.016180894533059115,-1.6091873463475952,1.9848941646671812,-1.8783447130258606,-1.6887533312580245,-1.5870504776196412,0.7961361557245255,0.16998203098773956,0.666561596095562,0.9976816773414612,0.0020449310541152954,-0.034964244812726974,0.05835076421499252
177.0,0.08546147392206384,-1.4850473292158282,1.8455319333461782,-1.4646553839514715,-2.0895083084735266,-1.4809568082628213,0.8239888846874237,0.19555123150348663,0.6467579752206802,0.9404948949813843,0.057234954088926315,-0.2007698118686676,0.2681138813495636
178.0,-0.04115743917025697,-1.5779981390623796,1.9474205484509177,-1.8392484730632437,-1.6962516497526305,-1.6120468099427303,0.8231733068823814,0.14794813096523285,0.6667960584163666,0.9967615604400635,0.003209764836356044,-0.05290060117840767,0.06047889590263367
179.0,-0.08077297951134987,-1.5492812253482144,1.917466033441222,-1.8356383231460853,-1.6604257537972813,-1.651402400274624,0.8533666729927063,0.11872172355651855,0.6665310263633728,0.9976629614830017,0.0022305771708488464,-0.0550348199903965,0.04043557122349739
180.0,-0.10684102898979739,-1.5343513385159728,1.896719760562056,-1.8056871360233215,-1.6595209591646232,-1.677064360961279,0.866377055644989,0.09548358619213104,0.666712649166584,0.9969882965087891,0.0025391278322786093,-0.06797902286052704,0.03723914176225662
181.0,-0.01811933564086186,-1.3858261714617015,1.7062208943296562,-1.2538759202765386,-1.9470772265882013,-1.5863882483201266,0.8952596038579941,0.1281006932258606,0.6439739838242531,0.9329723715782166,0.05741683021187782,-0.31071358919143677,0.17240417003631592
182.0,-0.03451680811876779,-1.2771527494511925,1.588881088686878,-0.9334633902000066,-1.9698894388196653,-1.5923651469278164,0.9246129393577576,0.10919835418462753,0.6256084591150284,0.8724244832992554,0.08492687344551086,-0.4526219964027405,0.16369573771953583
183.0,0.0432781009157165,-1.3259450667141055,1.6528329268342212,-1.0017325137396313,-2.1056081870618253,-1.5387174035737932,0.8888118267059326,0.1609613001346588,0.631282139569521,0.86863774061203,0.11931516975164413,-0.408480167388916,0.2537250518798828
184.0,0.07944398754173065,-1.358534792669712,1.6942352374955123,-1.0479792722388561,-2.1741422642696135,-1.5049672585192857,0.8657969832420349,0.18273644149303436,0.6352884769439697,0.8673504590988159,0.1295670121908188,-0.3767475187778473,0.298289954662323
185.0,0.14901253727015626,-1.4305952395617816,1.8029729451268834,-1.1944278699016437,-2.3095507020209274,-1.408225615410988,0.8145520240068436,0.22047239542007446,0.6327143609523773,0.8688361644744873,0.12613947689533234,-0.2847552001476288,0.38487279415130615
186.0,0.17159316483896425,-1.4786162690732352,1.8525530371087935,-1.263844957851854,-2.3728698286874472,-1.3558590897330007,0.7866068035364151,0.22774896025657654,0.6448299884796143,0.8704379200935364,0.11151128262281418,-0.23101569712162018,0.4201604425907135
187.0,0.12389060809862283,-1.4159961460698123,1.7584062200206019,-1.1236000018324122,-2.27330840890116,-1.4472465120650277,0.8288314193487167,0.20529653131961823,0.6472890377044678,0.8666881322860718,0.13248898088932037,-0.31918689608573914,0.3597472906112671
188.0,0.06204550818118026,-1.363084146652281,1.6697088960524806,-1.0030200364576212,-2.157237231543026,-1.5214271295957527,0.867210328578949,0.16970890760421753,0.6551711224019527,0.8664801120758057,0.1278740018606186,-0.39012500643730164,0.28401222825050354
189.0,0.015745722430349718,-1.3229222834101702,1.622348359009346,-0.9525955391609808,-2.068003186948064,-1.559834475859564,0.8947519063949585,0.14150862395763397,0.6480826586484909,0.8687519431114197,0.1110503152012825,-0.42628490924835205,0.22631621360778809
190.0,-0.03061860215169752,-1.2933180808998492,1.586464757409886,-0.9156329149243649,-1.9848385291587625,-1.590089143781126,0.9156827628612518,0.11094252020120621,0.6429742202162743,0.8711995482444763,0.0889173299074173,-0.45126163959503174,0.17166255414485931
191.0,-0.06821377709519133,-1.2873304049123593,1.5594603579654411,-0.8740681116310174,-1.9257996104744233,-1.6111887744376663,0.921844094991684,0.08472967147827148,0.6548121497035027,0.8720962405204773,0.07010543346405029,-0.4661913514137268,0.13114506006240845
192.0,-0.10956250516192916,-1.2711045931111176,1.5432631892329145,-0.8588706390343622,-1.8552170844026317,-1.632512582989668,0.9329426884651184,0.056027963757514954,0.6493437811732292,0.8738246560096741,0.04606832563877106,-0.4766286313533783,0.08445913344621658
193.0,-0.17967394690768929,-1.2658082463410452,1.5251860762190577,-0.8270649212331245,-1.7473903512044178,-1.6670625679568751,0.9370004534721375,0.006548152770847082,0.6556351818144321,0.8744286298751831,0.0059458171017467976,-0.48499950766563416,0.010719994083046913
194.0,-0.23513732374584018,-1.2626075352352246,1.528284122520815,-0.8275032582872891,-1.663704183087491,-1.6959414500125642,0.9376449286937714,-0.032663144171237946,0.6496982835233212,0.8743909001350403,-0.025656908750534058,-0.482305645942688,-0.046514417976140976
195.0,-0.15114473503767092,-1.2571913061670335,1.5354879338003575,-0.8550190086280451,-1.7869058319482836,-1.653317571590356,0.9418233633041382,0.026404015719890594,0.6403576284646988,0.8751224279403687,0.021414319053292274,-0.48186057806015015,0.038891229778528214
196.0,-0.21084326790218055,-1.251609676962843,1.5331681900458376,-0.8496333596306362,-1.698327321821506,-1.683778279987986,0.9446192383766174,-0.01668853498995304,0.6356687471270561,0.8755977749824524,-0.012214938178658485,-0.48237740993499756,-0.02217220887541771
197.0,-0.07572523396091153,-1.2685269165876525,1.5631435966482057,-0.8965248267832907,-1.9059054051664148,-1.6152867743928068,0.9327187985181808,0.079921193420887,0.6338135488331318,0.8736476302146912,0.06403256952762604,-0.4672306478023529,0.11973081529140472
198.0,-0.11434645524143863,-1.2543967527028819,1.5497524907626898,-0.8847348896607142,-1.8422680879319075,-1.6352557483439214,0.9424683898687363,0.05243370682001114,0.6283520366996527,0.8752051591873169,0.04195404425263405,-0.4757078289985657,0.07718686759471893
199.0,-0.1567460304743842,-1.5170506294135224,1.875747909761729,-1.7905394385173061,-1.6345844068529731,-1.726153412247082,0.8843010663986206,0.05377970263361931,0.6666755229234695,0.9970813989639282,0.0015213023871183395,-0.07348690181970596,0.020641259849071503
200.0,-0.18764774879930202,-1.512084443976212,1.8720430270027313,-1.7998187880356369,-1.6156684166588586,-1.7568556260193458,0.8913161605596542,0.028301723301410675,0.6665169447660446,0.997607409954071,0.0006753494963049889,-0.0684250146150589,0.009846309199929237
201.0,-0.1604675301431837,-1.3166445276932062,1.6110784662685076,-1.085055473265737,-1.7518493900114085,-1.6848708108797075,0.9363872557878494,0.023907314985990524,0.6392079442739487,0.9216383099555969,0.013004071079194546,-0.3865910768508911,0.031001878902316093
202.0,-0.21356766750462242,-1.5102555241089104,1.8660910679503462,-1.7772771265671752,-1.6078436603639914,-1.7819525713022801,0.8914173692464828,0.006498545408248901,0.6666795015335083,0.9970428347587585,0.00017978674441110343,-0.07681257277727127,0.0023336682934314013
203.0,-0.2595094827229415,-1.512166668480805,1.868568878693569,-1.7801621976953292,-1.5873427102295858,-1.8275033122418676,0.8902405351400375,-0.031033620238304138,0.6666192263364792,0.9972645044326782,-0.0007897379691712558,-0.07312241941690445,-0.010770672000944614
204.0,-0.26374549347498344,-1.3545144158233287,1.6495679413489972,-1.1718827796845246,-1.6192221850567514,-1.7740496199648375,0.9251994788646698,-0.049374520778656006,0.6459571532905102,0.9399461150169373,-0.02020150050520897,-0.33600538969039917,-0.056511957198381424
205.0,-0.2865393043456062,-1.5168753868665972,1.8738631095509117,-1.7820704444962503,-1.5757212850243874,-1.854406774326755,0.8857736885547638,-0.05223990976810455,0.6666073650121689,0.9973433017730713,-0.001281288219615817,-0.07054497301578522,-0.01811445876955986
206.0,-0.31387303342263967,-1.523597890554702,1.8806828023063353,-1.780640367616863,-1.5640867489274601,-1.8815881570475896,0.8787858635187149,-0.07284405082464218,0.6666291579604149,0.9972840547561646,-0.001783174928277731,-0.06896691024303436,-0.025785289704799652
207.0,-0.3176232711234137,-1.2729366343105744,1.5524707644757825,-0.8424506121114647,-1.540196633613868,-1.7460107818665442,0.9268028140068054,-0.08813720941543579,0.6422645151615143,0.8728401064872742,-0.06966176629066467,-0.46496981382369995,-0.13076886534690857
208.0,-0.3681508801236742,-1.285338257363054,1.5780568233303807,-0.8612645409927565,-1.4662561007587447,-1.7837167339712476,0.914927750825882,-0.12022892385721207,0.6362839415669441,0.8712617754936218,-0.09293489158153534,-0.4465236961841583,-0.18133553862571716
209.0,-0.42975189030566885,-1.3086890242888147,1.618114199552086,-0.8892204253040898,-1.3787257712088947,-1.8404688668614075,0.8941938579082489,-0.1563214808702469,0.630716485902667,0.8692284822463989,-0.11546006798744202,-0.4157315790653229,-0.2414085865020752
210.0,-0.3843594911783534,-1.395358038577346,1.7003506668023427,-1.2067580280307286,-1.4618239876548602,-1.8879029031251038,0.8931424170732498,-0.1263338327407837,0.6471293419599533,0.9420334696769714,-0.049578893929719925,-0.29019251465797424,-0.1609448343515396
211.0,-0.3808282613181702,-1.5498377440354207,1.91328744125828,-1.8109756291911432,-1.538781174916376,-1.9497213503550102,0.8547795712947845,-0.12039926648139954,0.6664193719625473,0.9979718923568726,-0.0019356468692421913,-0.05127350613474846,-0.03767484053969383
212.0,-0.43878133292499005,-1.4634612942547807,1.7804862974713322,-1.3493629751953766,-1.4121403646076234,-1.9721181892467274,0.8592154085636139,-0.15426123142242432,0.6536794789135456,0.9603814482688904,-0.0390717051923275,-0.2109493464231491,-0.17788036167621613
213.0,-0.43884188646864036,-1.5829465690194449,1.9459334322720794,-1.8071676038667333,-1.5126434550984353,-2.0085281163116124,0.8218441903591156,-0.15379999577999115,0.6665761917829514,0.997573733329773,-0.002392982365563512,-0.044948186725378036,-0.05310951918363571
214.0,-0.45970859624987886,-1.6051379140129447,1.96653281870891,-1.8065833349126414,-1.4996856744606641,-2.030126791569776,0.8027423843741417,-0.16090843081474304,0.6674842089414597,0.997397243976593,-0.002419650787487626,-0.04048147052526474,-0.05961624160408974
215.0,-0.4929132281886267,-1.6250984596781832,1.9893936416694389,-1.8219641710933563,-1.4909729179329936,-2.0643930467753586,0.7836876735091209,-0.1788199543952942,0.6665919944643974,0.9976063370704651,-0.001914813183248043,-0.030892081558704376,-0.06183558329939842
216.0,-0.5208366124278799,-1.6526321955122387,2.0179848981998565,-1.8382817669546425,-1.4850103404490946,-2.0932399395920047,0.7603216767311096,-0.189208522439003,0.6665038168430328,0.9978857040405273,-0.0012956327991560102,-0.021028105169534683,-0.061484068632125854
217.0,-0.6319235931064565,-1.4489309421626355,1.810108185248999,-1.0207456395163086,-1.0937223338561046,-2.195083917688793,0.786543220281601,-0.2388889193534851,0.6245203092694283,0.8721608519554138,-0.10729770362377167,-0.22127361595630646,-0.4229191839694977
218.0,-0.5458517793343857,-1.3806686152791314,1.7152535682705317,-0.9491998954934612,-1.2143978053019782,-2.0006521524093843,0.8373392224311829,-0.21044710278511047,0.6299461647868156,0.8676186203956604,-0.1320675164461136,-0.3262058198451996,-0.35126355290412903
219.0,-0.49643239860813193,-1.3590340334184243,1.6630522256061242,-0.8979671138310866,-1.2778067082331348,-1.9218601104716102,0.8583632111549377,-0.18568098545074463,0.6462135016918182,0.866334080696106,-0.13175615668296814,-0.3701486587524414,-0.3083757162094116
220.0,-0.4030097792787726,-1.312875730116598,1.5900322887579625,-0.8466071344885678,-1.4121181719877423,-1.8129389806704892,0.8963570594787598,-0.13714733719825745,0.6540882214903831,0.8686162829399109,-0.10818443447351456,-0.43178442120552063,-0.21763351559638977
221.0,-0.30867720752117656,-1.2833576272687932,1.540785722124076,-0.8155708030400806,-1.5531564854436983,-1.7389076730227453,0.9217979609966278,-0.08010534942150116,0.6605809815227985,0.8720384240150452,-0.0656784400343895,-0.46941277384757996,-0.12201227247714996
222.0,-0.3760720423312622,-1.3128513489893594,1.5666069107884728,-0.8156742753646357,-1.4495654241181826,-1.7882413037840172,0.8996558040380478,-0.11907816678285599,0.670433759689331,0.8687712550163269,-0.09842098504304886,-0.445833295583725,-0.19178764522075653
223.0,-0.4434208080247864,-1.3400262708103436,1.6127883623320232,-0.8483445637437487,-1.349405212030954,-1.8540774893528318,0.8770178854465485,-0.1565239578485489,0.6635705456137657,0.866333544254303,-0.12241509556770325,-0.4089289605617523,-0.25934162735939026
224.0,-0.5108297370792154,-1.3832682789334674,1.6686520603386004,-0.8822458235165827,-1.2511595514633966,-1.944336032523948,0.8445376455783844,-0.18732516467571259,0.6639504507184029,0.8653311133384705,-0.13413862884044647,-0.35736820101737976,-0.3248031437397003
225.0,-0.5697744513851757,-1.4317326406740234,1.7244004512635565,-0.9148161407292763,-1.1608777002047326,-2.0551067077032217,0.8110398948192596,-0.20785093307495117,0.6678177863359451,0.8662154674530029,-0.13008113205432892,-0.2954261600971222,-0.38140931725502014
226.0,-0.6264986603686412,-1.4763299609370417,1.7902164788657273,-0.9687980855504006,-1.0798553816679477,-2.1956025451832013,0.7790096998214722,-0.22589850425720215,0.6602417454123497,0.8699846267700195,-0.10817300528287888,-0.2199670970439911,-0.4278315305709839
227.0,-0.5535677233091686,-1.4044942316613176,1.7147200027493672,-0.9260608650665835,-1.1928709074769182,-2.0185589775508768,0.8259607255458832,-0.20724394917488098,0.6510792225599289,0.8665611147880554,-0.13232766091823578,-0.31588372588157654,-0.3630133867263794
228.0,-0.6171105437908747,-1.4517938428483876,1.7863790816183902,-0.9843978374828223,-1.1045780264053189,-2.1621388002850352,0.7903576344251633,-0.22929862141609192,0.6426870450377464,0.8702093958854675,-0.11387638002634048,-0.23824632167816162,-0.415940523147583
229.0,-0.6675231097335931,-1.5059625710195188,1.8448572327366763,-1.0224401259648626,-1.0268846994177023,-2.316082956350425,0.7560707181692123,-0.23835232853889465,0.6473400145769119,0.8738306760787964,-0.0813884288072586,-0.15702374279499054,-0.4529232084751129
230.0,-0.7303078427123036,-1.5739138267292616,1.9298366445904707,-1.0962451329629894,-0.9355061880666956,-2.5422993022340683,0.7137460093945265,-0.24642086029052734,0.6429994590580463,0.8780902624130249,-0.020506076514720917,-0.037783652544021606,-0.47656020522117615
231.0,-0.7188749021108294,-1.5417401959875634,1.91862832937933,-1.101650873346172,-0.9663187569285429,-2.4813610664539603,0.7268023006618023,-0.2523875832557678,0.6263248063623905,0.8782208561897278,-0.03832433745265007,-0.07140770554542542,-0.4713389277458191
232.0,-0.5630803141589179,-1.7034004904227362,2.0657580826322404,-1.8520274832626704,-1.4680852150136396,-2.137166208876003,0.7192938830703497,-0.1976477950811386,0.6665318086743355,0.9978621602058411,-0.0004403939819894731,-0.006760668009519577,-0.06500134617090225
233.0,-0.6264584926334215,-1.7232954641596119,2.0728197200179816,-1.737603578427555,-1.3028881956823235,-2.224219846897995,0.6953414119780064,-0.20468714833259583,0.6634882837533951,0.9869832396507263,0.001122410292737186,0.00689481059089303,-0.16067156195640564
234.0,-0.6055034745628228,-1.7879667844596974,2.139711278311672,-1.8795034961475725,-1.4650228161676373,-2.179976250033244,0.6588583588600159,-0.19181829690933228,0.6668398082256317,0.9983710646629333,0.0006978075834922493,0.012516340240836143,-0.0556609146296978
235.0,-0.8159593858925661,-1.740884985729611,2.120484708444546,-1.424718041896179,-0.8594706640986453,-2.7228615090311274,0.6377694420516491,-0.2376164048910141,0.634804729372263,0.9076018929481506,0.062211159616708755,0.145149365067482,-0.38899901509284973
236.0,-0.8708099285634948,-1.8021348393149204,2.181365704059882,-1.4128001553826697,-0.737759802684312,-2.926332760111418,0.603773683309555,-0.22759504616260529,0.6348780691623688,0.8817089796066284,0.10737287998199463,0.2427033632993698,-0.3900713622570038
237.0,-0.9020401850203179,-1.8908359698266262,2.272473663117903,-1.5843293314505948,-0.721712528064584,-2.8778394370842744,0.5691466629505157,-0.2092215120792389,0.6306961886584759,0.8926934003829956,0.10632692277431488,0.2867520749568939,-0.33100834488868713
238.0,-0.617694719726189,-1.8482058219389825,2.1863988300014863,-1.8910232472296273,-1.4652513138641396,-2.191691822981083,0.6213696822524071,-0.1749420017004013,0.6672953888773918,0.9985671639442444,0.0011242758482694626,0.02331244759261608,-0.04815731942653656
239.0,-0.6193292128937431,-1.8839659348304745,2.212087838612651,-1.8950480759146393,-1.4840753573753218,-2.1920162180152998,0.5991267114877701,-0.1638554334640503,0.6672033965587616,0.9990578889846802,0.0008605745970271528,0.023622578009963036,-0.0363958440721035
240.0,-0.6143891763428312,-1.9209937721508727,2.2363500553331894,-1.8933201362050838,-1.4968342072290113,-2.186286951134732,0.5779281482100487,-0.1477743536233902,0.6672383844852448,0.9993096590042114,0.0006828425684943795,0.02425496093928814,-0.02813326194882393
241.0,-0.7005903877987693,-1.9380952431120466,2.2642997933147724,-1.905235504386963,-1.2400328512634318,-2.2977676483830516,0.5756317898631096,-0.1569480448961258,0.6626738384366035,0.98625248670578,0.013687778264284134,0.11085077375173569,-0.12178178876638412
242.0,-0.7910633042555592,-2.002380576758144,2.334995021888589,-1.9375916402135938,-1.032572907901266,-2.427327901821469,0.5450350642204285,-0.15286698937416077,0.6543626710772514,0.9632017016410828,0.036086976528167725,0.20624594390392303,-0.16853199899196625
243.0,-0.9205764873800705,-1.9747460743440926,2.33438769830706,-1.6980968665246237,-0.6602976060603706,-2.8570435575682023,0.5454391241073608,-0.1838158667087555,0.6436876729130745,0.8864945769309998,0.1120854839682579,0.34297966957092285,-0.28970569372177124
244.0,-0.8898699019089119,-1.8708423010505713,2.2344216709091675,-1.5063929465844217,-0.6953515274083308,-2.9248097861576627,0.581992894411087,-0.2108401358127594,0.6445943266153336,0.8820374011993408,0.11595660448074341,0.289716899394989,-0.3530275523662567
245.0,-0.8515743768732289,-1.7855571252137767,2.144212674931896,-1.3620007615536913,-0.7381736113761235,-2.918051814179878,0.6173101961612701,-0.22659149765968323,0.6495304815471172,0.8789623975753784,0.10564474016427994,0.22961804270744324,-0.40440094470977783
246.0,-0.9138473429085603,-2.0482483446190924,2.384818731921398,-1.8659947697937802,-0.6375494121132153,-2.738717977673806,0.5303760766983032,-0.15554898977279663,0.6628930643200874,0.8868849873542786,0.10389638692140579,0.3787534236907959,-0.24328266084194183
247.0,-0.9032802628640182,-1.9689084234402867,2.3051172616247535,-1.6710055885595947,-0.6450731717683182,-2.854475621558359,0.5561068058013916,-0.1816542148590088,0.6630319654941559,0.8824703693389893,0.11636786162853241,0.34545397758483887,-0.2972644567489624
248.0,-0.8804798348367887,-1.8962257052778342,2.2281468032884484,-1.5171462966253741,-0.666924785711409,-2.913227153736956,0.5827952995896339,-0.19963425397872925,0.667253203690052,0.8786444664001465,0.12068004161119461,0.3077727258205414,-0.344523161649704
249.0,-0.8385957709461049,-1.7833514645938064,2.118047467462454,-1.3237640991005863,-0.7304213426776565,-2.917503440926863,0.6246707513928413,-0.22233664989471436,0.665992297232151,0.8759893774986267,0.10659877210855484,0.2264908105134964,-0.4122878313064575
250.0,-0.8015185459800995,-1.6940928734102756,2.0425740769261806,-1.217039187965943,-0.8024792537558045,-2.8282061500775795,0.6588575728237629,-0.2373504638671875,0.6553279124200344,0.8771601915359497,0.07115350663661957,0.13728594779968262,-0.45462068915367126
251.0,-0.759424831990974,-1.6335574829785,1.9716291302441051,-1.133785725050537,-0.8645633297991286,-2.6891151375870033,0.6896401839330792,-0.23948729038238525,0.659580409526825,0.878093421459198,0.02646053209900856,0.048889774829149246,-0.4752490222454071
252.0,-0.6757232448489274,-1.5327326797487135,1.8484468688353903,-1.0074543366105364,-1.0000657782778384,-2.3594777127488142,0.7451818324625492,-0.2329016923904419,0.6659097746014595,0.8737324476242065,-0.07057630270719528,-0.13335388898849487,-0.4624147415161133
253.0,-0.7906925378521957,-1.7027489310168273,2.022805097937583,-1.1887896912290608,-0.7882066057715759,-2.8295910738013568,0.6628039367496967,-0.22939851880073547,0.6751302629709244,0.8747917413711548,0.07374671846628189,0.1409710794687271,-0.45763301849365234
254.0,-0.8266608476082186,-1.7874827285037789,2.0969356605067597,-1.2972310684363735,-0.7174911433647515,-2.917186062806284,0.6302446201443672,-0.21613481640815735,0.6838314086198807,0.8732331991195679,0.10910749435424805,0.22898311913013458,-0.41608425974845886
255.0,-0.7228299321101198,-1.5995549646808274,1.9116263736284167,-1.0604995601665055,-0.9148677410425801,-2.5557789704351337,0.7108101844787598,-0.2334875613451004,0.6742717325687408,0.8771743774414062,-0.014222498051822186,-0.026031265035271645,-0.4792548418045044
256.0,-0.6304296216871851,-1.498715956292374,1.786010075031072,-0.9451164058557683,-1.0575244290909311,-2.220256498859014,0.7705494686961174,-0.21969833970069885,0.681338258087635,0.8692346811294556,-0.10362061113119125,-0.20594289898872375,-0.4373573362827301
257.0,-0.5786452074402357,-1.4566717941399878,1.7238204378681492,-0.89228720992133,-1.133006846398002,-2.0822279347149237,0.7994868159294128,-0.20403358340263367,0.6893732100725174,0.865226149559021,-0.1280362457036972,-0.2798992097377777,-0.3957863748073578
258.0,-0.724124173124031,-1.6237808742630535,1.909587648859527,-1.0520911575539755,-0.8888951298525746,-2.59306720675237,0.705196047667414,-0.22551308572292328,0.6937990784645081,0.8770368099212646,-0.0006575649022124708,-0.001200422877445817,-0.4804212749004364
259.0,-0.7859003939961005,-1.724850477782675,2.016860073863862,-1.187517377393803,-0.7704424285731076,-2.834919501580926,0.6606586538255215,-0.22025376558303833,0.6948557198047638,0.8748321533203125,0.08042822778224945,0.1558118462562561,-0.4515780210494995
260.0,-0.6130901426655108,-1.8817387132378534,2.1239339843068463,-1.8788882068697597,-1.1747514507050982,-2.212015455020703,0.6504655331373215,-0.13908207416534424,0.750638484954834,0.9797373414039612,0.02026183344423771,0.14153964817523956,-0.14025238156318665
261.0,-0.4896580533768811,-1.8855539455711026,2.1337087385621536,-2.019876171156338,-1.4124303131980103,-2.0503249671580184,0.6584380380809307,-0.09557625651359558,0.7594596296548843,0.9918678402900696,0.0029097972437739372,0.12513114511966705,-0.02306487411260605
262.0,-0.4897441804857434,-1.8054079482962382,2.0228681143284972,-1.7850690494924781,-1.4130281141772234,-2.0658571335315163,0.6971683255396783,-0.11638613045215607,0.7645773589611053,0.9968858361244202,0.0025244595017284155,0.03585327789187431,-0.07019156217575073
263.0,-0.6582337416127358,-1.778051818385353,2.009593976441071,-1.5346009149628332,-1.052464767865645,-2.341940617788601,0.6839500367641449,-0.17816440761089325,0.7412316501140594,0.9583597183227539,0.019902702420949936,0.0690125897526741,-0.27638354897499084
