Sungjin-Park-dev/vision_inspection/data/trajectory/2369/joint_trajectory_dp.csv
time,ur20-shoulder_pan_joint,ur20-shoulder_lift_joint,ur20-elbow_joint,ur20-wrist_1_joint,ur20-wrist_2_joint,ur20-wrist_3_joint,target-POS_X,target-POS_Y,target-POS_Z,target-ROT_X,target-ROT_Y,target-ROT_Z,target-ROT_W
0.0,-0.24271352589130402,-1.5168802738189697,1.877231240272522,-1.807202696800232,-1.5916898250579834,1.3299708366394043,0.889467716217041,-0.01647908240556717,0.6673290729522705,0.00029516388894990087,0.9980261325836182,0.00470393430441618,-0.06262444704771042
1.0,-0.24141792953014374,-1.4971258640289307,1.843559980392456,-1.7206001281738281,-1.6035466194152832,-0.1629190444946289,0.8964289426803589,-0.01891906186938286,0.6661673784255981,-0.6766273379325867,0.729573667049408,0.07294520735740662,-0.06765146553516388
2.0,-0.24623991549015045,-1.5407599210739136,1.9138308763504028,-1.8840619325637817,-1.5811140537261963,1.3250031471252441,0.8770948052406311,-0.014839406125247478,0.6687796115875244,6.901301094330847e-05,0.9995396733283997,0.002280108630657196,-0.030253484845161438
3.0,-0.24218466877937317,-1.540246605873108,1.9133081436157227,-1.884011149406433,-1.58087158203125,1.3290513753890991,0.8775819540023804,-0.011351180262863636,0.6687660217285156,6.901301094330847e-05,0.9995396733283997,0.002280108630657196,-0.030253484845161438
4.0,-0.23681078851222992,-1.5392968654632568,1.9123533964157104,-1.8839529752731323,-1.5805500745773315,1.3344157934188843,0.878430187702179,-0.006777025759220123,0.6687355637550354,6.901301094330847e-05,0.9995396733283997,0.002280108630657196,-0.030253484845161438
5.0,-0.23791725933551788,-1.5447816848754883,1.9176024198532104,-1.8835924863815308,-1.580594539642334,1.333313226699829,0.8738687038421631,-0.006651780568063259,0.6690129637718201,6.996074807830155e-05,0.9995377063751221,0.0023065954446792603,-0.030316723510622978
6.0,-0.2126673310995102,-1.2963238954544067,1.5896028280258179,-1.0397156476974487,-1.6718859672546387,-0.09307525306940079,0.944955587387085,-0.014344524592161179,0.6341888904571533,-0.6223755478858948,0.6711400747299194,0.29532474279403687,-0.2738666832447052
7.0,-0.21633467078208923,-1.2968858480453491,1.590064287185669,-1.0398712158203125,-1.6745778322219849,-0.09557893872261047,0.9444589614868164,-0.01813673973083496,0.6344177722930908,-0.6223755478858948,0.6711400747299194,0.29532474279403687,-0.2738666832447052
8.0,-0.22103647887706757,-1.2997318506240845,1.591231107711792,-1.0385303497314453,-1.6780281066894531,-0.09879092127084732,0.9423990845680237,-0.022678440436720848,0.6362863183021545,-0.6223755478858948,0.6711400747299194,0.29532474279403687,-0.2738666832447052
9.0,-0.22438746690750122,-1.2987638711929321,1.5912067890167236,-1.0397220849990845,-1.6804865598678589,-0.10108156502246857,0.942907452583313,-0.026357660070061684,0.6354307532310486,-0.6223755478858948,0.6711400747299194,0.29532474279403687,-0.2738666832447052
10.0,-0.22697031497955322,-1.2970163822174072,1.590894103050232,-1.0413517951965332,-1.6823810338974,-0.10284796357154846,0.9439548850059509,-0.029349472373723984,0.6340449452400208,-0.6223755478858948,0.6711400747299194,0.29532474279403687,-0.2738666832447052
11.0,-0.25969305634498596,-1.300523281097412,1.5947517156600952,-1.036138892173767,-1.596003770828247,-0.02309858426451683,0.9411795139312744,-0.046115145087242126,0.6340240240097046,-0.5702735781669617,0.7159116268157959,0.31507089734077454,-0.25097596645355225
12.0,-0.2612912654876709,-1.3010833263397217,1.5952202081680298,-1.036075234413147,-1.5971819162368774,-0.024178875610232353,0.9406362175941467,-0.04768216237425804,0.6342195868492126,-0.5702735781669617,0.7159116268157959,0.31507089734077454,-0.25097596645355225
13.0,-0.2668702006340027,-1.5481139421463013,1.920825719833374,-1.8828119039535522,-1.573306918144226,1.304404377937317,0.8707579970359802,-0.030083145946264267,0.6690493822097778,0.00020092856721021235,0.9995387196540833,0.006784582510590553,-0.029601803049445152
14.0,-0.26626962423324585,-1.5467379093170166,1.9195044040679932,-1.8828651905059814,-1.573270559310913,1.3050038814544678,0.8719071745872498,-0.0298629067838192,0.6689842939376831,0.00020092856721021235,0.9995387196540833,0.006784582510590553,-0.029601803049445152
15.0,-0.25665387511253357,-1.5434515476226807,1.9164866209030151,-1.884136438369751,-1.5817359685897827,1.3146071434020996,0.8746517896652222,-0.023483548313379288,0.6688880920410156,6.901301094330847e-05,0.9995396733283997,0.002280108630657196,-0.030253484845161438
16.0,-0.2470521628856659,-1.4996421337127686,1.845815658569336,-1.7205235958099365,-1.6046468019485474,-0.16844788193702698,0.8942651152610779,-0.02362915687263012,0.6665316820144653,-0.6766273379325867,0.729573667049408,0.07294520735740662,-0.06765146553516388
17.0,-0.2624788284301758,-1.516395092010498,1.8766930103302002,-1.805482268333435,-1.5754300355911255,1.3103290796279907,0.8897534012794495,-0.031668636947870255,0.6670793890953064,0.0008583607850596309,0.9980254173278809,0.013991204090416431,-0.06122889742255211
18.0,-0.26362016797065735,-1.5121442079544067,1.8728339672088623,-1.8058794736862183,-1.5755729675292969,1.3091967105865479,0.8931466341018677,-0.03363271430134773,0.6666059494018555,0.0008583607850596309,0.9980254173278809,0.013991204090416431,-0.06122889742255211
19.0,-0.2635456621646881,-1.501023292541504,1.84684157371521,-1.7173078060150146,-1.5782849788665771,-0.037057049572467804,0.8932311534881592,-0.03402172029018402,0.6664165258407593,-0.619870662689209,0.7783628106117249,0.07787887006998062,-0.062020983546972275
20.0,-0.26585134863853455,-1.5004173517227173,1.846437931060791,-1.7175275087356567,-1.578741431236267,-0.039317186921834946,0.8935895562171936,-0.03627375140786171,0.6662440299987793,-0.619870662689209,0.7783628106117249,0.07787887006998062,-0.062020983546972275
21.0,-0.2734133303165436,-1.5497788190841675,1.922507405281067,-1.8828463554382324,-1.5737037658691406,1.2978732585906982,0.8691430687904358,-0.03545107692480087,0.669072151184082,0.00020092856721021235,0.9995387196540833,0.006784582510590553,-0.029601803049445152
22.0,-0.2772391736507416,-1.549140214920044,1.9219555854797363,-1.8829448223114014,-1.5739357471466064,1.2940545082092285,0.8695002794265747,-0.03895527869462967,0.6690033078193665,0.00020092856721021235,0.9995387196540833,0.006784582510590553,-0.029601803049445152
23.0,-0.27759456634521484,-1.5445996522903442,1.9175989627838135,-1.8830032348632812,-1.5739210844039917,1.2937016487121582,0.8731833100318909,-0.04031539335846901,0.6687660813331604,0.0002023377746809274,0.9995368123054504,0.0068192738108336926,-0.02965771034359932
24.0,-0.2710062563419342,-1.5005064010620117,1.8468314409255981,-1.7182337045669556,-1.5797914266586304,-0.04459921270608902,0.8932719826698303,-0.04101479426026344,0.666092574596405,-0.6199713945388794,0.7783052921295166,0.07773265987634659,-0.06191917136311531
25.0,-0.27198347449302673,-1.516986608505249,1.8775196075439453,-1.8057667016983032,-1.5766204595565796,1.3008991479873657,0.8888225555419922,-0.04015013948082924,0.6669543981552124,0.0008583607850596309,0.9980254173278809,0.013991204090416431,-0.06122889742255211
26.0,-0.2758278250694275,-1.519425392150879,1.8798547983169556,-1.8056862354278564,-1.5771019458770752,1.297084927558899,0.8866509795188904,-0.043074868619441986,0.6671391725540161,0.0008583607850596309,0.9980254173278809,0.013991204090416431,-0.06122889742255211
27.0,-0.2786886692047119,-1.5191835165023804,1.8797085285186768,-1.8057613372802734,-1.5774508714675903,1.2942477464675903,0.8866825103759766,-0.045712586492300034,0.6670607924461365,0.0008592025842517614,0.9980241060256958,0.01400091964751482,-0.06124632805585861
28.0,-0.28008222579956055,-1.5056177377700806,1.851471185684204,-1.717490792274475,-1.5815578699111938,-0.05326717719435692,0.8886279463768005,-0.04818570986390114,0.6666826009750366,-0.619870662689209,0.7783628106117249,0.07787887006998062,-0.062020983546972275
29.0,-0.2830818295478821,-1.5443742275238037,1.917461633682251,-1.883109211921692,-1.5742545127868652,1.288224458694458,0.8731014728546143,-0.045204102993011475,0.668704092502594,0.0002023377746809274,0.9995368123054504,0.0068192738108336926,-0.02965771034359932
30.0,-0.2810501158237457,-1.5518484115600586,1.924582600593567,-1.8828758001327515,-1.5741667747497559,1.290250539779663,0.86711585521698,-0.041662029922008514,0.6691078543663025,0.00020092856721021235,0.9995387196540833,0.006784582510590553,-0.029601803049445152
31.0,-0.27385520935058594,-1.3031511306762695,1.598170518875122,-1.037221074104309,-1.6064425706863403,-0.03267383947968483,0.9378300905227661,-0.06038055196404457,0.6341058015823364,-0.5702735781669617,0.7159116268157959,0.31507089734077454,-0.25097596645355225
32.0,-0.27372393012046814,-1.3031749725341797,1.598152756690979,-1.037176489830017,-1.606345772743225,-0.03258503973484039,0.93783038854599,-0.060239795595407486,0.6341397762298584,-0.5702735781669617,0.7159116268157959,0.31507089734077454,-0.25097596645355225
33.0,-0.2637951970100403,-1.303422451019287,1.5962473154067993,-1.034443736076355,-1.5989381074905396,-0.025770563632249832,0.9387702941894531,-0.04984696954488754,0.6356767416000366,-0.5701799988746643,0.7158926725387573,0.3152177035808563,-0.25105831027030945
34.0,-0.2654734253883362,-1.3044065237045288,1.5968351364135742,-1.034080147743225,-1.6001756191253662,-0.026904668658971786,0.9379370212554932,-0.051416702568531036,0.6361803412437439,-0.5701799988746643,0.7158926725387573,0.3152177035808563,-0.25105831027030945
35.0,-0.2680431306362152,-1.3049252033233643,1.5974658727645874,-1.0342448949813843,-1.6020703315734863,-0.0286413561552763,0.9373033046722412,-0.053992860019207,0.6362254619598389,-0.5701799988746643,0.7158926725387573,0.3152177035808563,-0.25105831027030945
36.0,-0.2703135907649994,-1.3077595233917236,1.5986417531967163,-1.0326356887817383,-1.603744387626648,-0.03017600066959858,0.9351880550384521,-0.05583725869655609,0.6380268335342407,-0.5701799988746643,0.7158926725387573,0.3152177035808563,-0.25105831027030945
37.0,-0.2726021707057953,-1.3054802417755127,1.5985620021820068,-1.0352537631988525,-1.6055190563201904,-0.031826380640268326,0.9364622235298157,-0.05865415185689926,0.6359825730323792,-0.5702735781669617,0.7159116268157959,0.31507089734077454,-0.25097596645355225
38.0,-0.2752481698989868,-1.306081771850586,1.5992077589035034,-1.035361886024475,-1.607469081878662,-0.03361598774790764,0.9357527494430542,-0.061288680881261826,0.636094331741333,-0.5702735781669617,0.7159116268157959,0.31507089734077454,-0.25097596645355225
39.0,-0.27684155106544495,-1.3044734001159668,1.599068522453308,-1.036871075630188,-1.6086432933807373,-0.03469377011060715,0.9366063475608826,-0.06323844194412231,0.6347101926803589,-0.5702735781669617,0.7159116268157959,0.31507089734077454,-0.25097596645355225
40.0,-0.29595357179641724,-1.554349660873413,1.9271618127822876,-1.8827866315841675,-1.5660912990570068,1.2753312587738037,0.8646541833877563,-0.05274533852934837,0.6690688133239746,0.00031569183920510113,0.9995348453521729,0.011110298335552216,-0.028401127085089684
41.0,-0.29932159185409546,-1.5070815086364746,1.8538100719451904,-1.7185970544815063,-1.5561715364456177,0.07241637259721756,0.8873233199119568,-0.0611073337495327,0.6662004590034485,-0.5608506202697754,0.821908712387085,0.08224084973335266,-0.0561191625893116
42.0,-0.2968173325061798,-1.5203981399536133,1.8814042806625366,-1.806172251701355,-1.561205506324768,1.2760697603225708,0.8853118419647217,-0.05903608724474907,0.6667800545692444,0.0013443457428365946,0.9980154633522034,0.022875098511576653,-0.058652326464653015
43.0,-0.30081039667129517,-1.5259538888931274,1.886613130569458,-1.8057883977890015,-1.5617059469223022,1.2721080780029297,0.8805564045906067,-0.061251621693372726,0.6672385931015015,0.0013443457428365946,0.9980154633522034,0.022875098511576653,-0.058652326464653015
44.0,-0.3042590320110321,-1.5082899332046509,1.8551613092422485,-1.7186473608016968,-1.5571426153182983,0.06759107112884521,0.8859237432479858,-0.06530338525772095,0.6661546230316162,-0.5608433485031128,0.8219120502471924,0.08225126564502716,-0.05612531304359436
45.0,-0.3033456802368164,-1.5506569147109985,1.923828125,-1.8831140995025635,-1.566541314125061,1.267952799797058,0.867161214351654,-0.06012238934636116,0.6687619686126709,0.000315669720293954,0.9995348453521729,0.011109764687716961,-0.028400501236319542
46.0,-0.30869758129119873,-1.5099397897720337,1.8568458557128906,-1.718624472618103,-1.5580203533172607,0.06323978304862976,0.8842131495475769,-0.06892678141593933,0.6662095785140991,-0.5608433485031128,0.8219120502471924,0.08225126564502716,-0.05612531304359436
47.0,-0.3099130690097809,-1.5109339952468872,1.8577584028244019,-1.7185277938842773,-1.5582606792449951,0.062048207968473434,0.8833193182945251,-0.06978122889995575,0.6663148403167725,-0.5608433485031128,0.8219120502471924,0.08225126564502716,-0.05612531304359436
48.0,-0.31065478920936584,-1.5098403692245483,1.856895923614502,-1.7187498807907104,-1.5584074258804321,0.061321090906858444,0.8841001391410828,-0.07072754204273224,0.6660980582237244,-0.5608433485031128,0.8219120502471924,0.08225126564502716,-0.05612531304359436
49.0,-0.31172019243240356,-1.5287692546844482,1.8896281719207764,-1.8058971166610718,-1.5630738735198975,1.2612839937210083,0.8773992657661438,-0.07029113173484802,0.6671934723854065,0.0013443457428365946,0.9980154633522034,0.022875098511576653,-0.058652326464653015
50.0,-0.3125649690628052,-1.5286240577697754,1.8895344734191895,-1.8059419393539429,-1.563179850578308,1.2604458332061768,0.8774397969245911,-0.07108188420534134,0.6671521663665771,0.0013443457428365946,0.9980154633522034,0.022875098511576653,-0.058652326464653015
51.0,-0.3171098530292511,-1.5116747617721558,1.858859896659851,-1.718804955482483,-1.5596843957901,0.0549931563436985,0.882020115852356,-0.07611355930566788,0.6660926342010498,-0.5608433485031128,0.8219120502471924,0.08225126564502716,-0.05612531304359436
52.0,-0.3194728195667267,-1.5140427350997925,1.8609857559204102,-1.71853768825531,-1.5601519346237183,0.05267677083611488,0.8799329996109009,-0.07764339447021484,0.6663727760314941,-0.5608433485031128,0.8219120502471924,0.08225126564502716,-0.05612531304359436
53.0,-0.3174017667770386,-1.554213047027588,1.9274981021881104,-1.8831743001937866,-1.5673965215682983,1.2539225816726685,0.8632404208183289,-0.07146157324314117,0.6687324643135071,0.000315669720293954,0.9995348453521729,0.011109764687716961,-0.028400501236319542
54.0,-0.31683194637298584,-1.5582749843597412,1.9313139915466309,-1.8829302787780762,-1.567361831665039,1.2544914484024048,0.8600183725357056,-0.06989427655935287,0.668950617313385,0.000315669720293954,0.9995348453521729,0.011109764687716961,-0.028400501236319542
55.0,-0.3114793002605438,-1.5571964979171753,1.930186152458191,-1.8828999996185303,-1.5670361518859863,1.2598341703414917,0.8612958788871765,-0.06553196907043457,0.6689750552177429,0.000315669720293954,0.9995348453521729,0.011109764687716961,-0.028400501236319542
56.0,-0.3121378719806671,-1.5587996244430542,1.9317071437835693,-1.8828139305114746,-1.5670756101608276,1.2591768503189087,0.8599557876586914,-0.06568712741136551,0.6690478324890137,0.00031569183920510113,0.9995348453521729,0.011110298335552216,-0.028401127085089684
57.0,-0.3141053020954132,-1.5614080429077148,1.9341946840286255,-1.882685899734497,-1.5671952962875366,1.2572129964828491,0.8577102422714233,-0.06671134382486343,0.6691527366638184,0.00031569183920510113,0.9995348453521729,0.011110298335552216,-0.028401127085089684
58.0,-0.3186846375465393,-1.562883734703064,1.935671091079712,-1.8826707601547241,-1.5674740076065063,1.2526421546936035,0.856171727180481,-0.07027982175350189,0.669160783290863,0.00031569183920510113,0.9995348453521729,0.011110298335552216,-0.028401127085089684
59.0,-0.32261574268341064,-1.5617153644561768,1.9348841905593872,-1.8839267492294312,-1.5589935779571533,1.248630404472351,0.8572989702224731,-0.07273673266172409,0.6690341234207153,0.0004019471234641969,0.9995319843292236,0.015104313381016254,-0.026598960161209106
60.0,-0.3222790062427521,-1.5602823495864868,1.9335308074951172,-1.8840103149414062,-1.5589734315872192,1.2489665746688843,0.8584765791893005,-0.07282981276512146,0.6689686179161072,0.0004019471234641969,0.9995319843292236,0.015104313381016254,-0.026598960161209106
61.0,-0.32682380080223083,-1.5610054731369019,1.9343408346176147,-1.8840442895889282,-1.5592461824417114,1.2444297075271606,0.857502818107605,-0.07656021416187286,0.6689075231552124,0.0004019471234641969,0.9995319843292236,0.015104313381016254,-0.026598960161209106
62.0,-0.3251355290412903,-1.5588346719741821,1.9322539567947388,-1.8841477632522583,-1.5591448545455933,1.24611496925354,0.8593907952308655,-0.07568918168544769,0.6688333749771118,0.0004019471234641969,0.9995319843292236,0.015104313381016254,-0.026598960161209106
63.0,-0.3234330713748932,-1.556045413017273,1.929577112197876,-1.8842800855636597,-1.5590426921844482,1.2478145360946655,0.861777663230896,-0.074966661632061,0.6687281131744385,0.0004019471234641969,0.9995319843292236,0.015104313381016254,-0.026598960161209106
64.0,-0.33111080527305603,-1.518444538116455,1.8661329746246338,-1.7218571901321411,-1.5340008735656738,0.1826157569885254,0.8769855499267578,-0.08293089270591736,0.6664867401123047,-0.5001893639564514,0.8601419925689697,0.08630073815584183,-0.050185564905405045
65.0,-0.33313092589378357,-1.5202254056930542,1.8677904605865479,-1.7216613292694092,-1.5343955755233765,0.18063326179981232,0.8753635883331299,-0.08426406979560852,0.6666388511657715,-0.5001893639564514,0.8601419925689697,0.08630073815584183,-0.050185564905405045
66.0,-0.33660390973091125,-1.5200226306915283,1.8679391145706177,-1.7218899726867676,-1.5350745916366577,0.1772250533103943,0.8750916719436646,-0.08742371201515198,0.6663699746131897,-0.5001893639564514,0.8601419925689697,0.08630073815584183,-0.050185564905405045
67.0,-0.3351094424724579,-1.5185009241104126,1.8665452003479004,-1.722070336341858,-1.5347822904586792,0.17869164049625397,0.8764526844024658,-0.08649688959121704,0.6662231087684631,-0.5001893639564514,0.8601419925689697,0.08630073815584183,-0.050185564905405045
68.0,-0.33005058765411377,-1.5357918739318848,1.897230625152588,-1.808237910270691,-1.5473262071609497,1.242714285850525,0.8711796402931213,-0.08215448260307312,0.6673133969306946,0.001709375181235373,0.9980087876319885,0.031105052679777145,-0.054845474660396576
69.0,-0.32896411418914795,-1.5298187732696533,1.8918180465698242,-1.808823823928833,-1.547191858291626,1.2437926530838013,0.8760116696357727,-0.08280523121356964,0.6667398810386658,0.001709375181235373,0.9980087876319885,0.031105052679777145,-0.054845474660396576
70.0,-0.3333679437637329,-1.53299081325531,1.894922137260437,-1.8086539506912231,-1.547736644744873,1.2394214868545532,0.8730289936065674,-0.08584748953580856,0.6668776869773865,0.001709375181235373,0.9980087876319885,0.031105052679777145,-0.054845474660396576
71.0,-0.3371947407722473,-1.5318466424942017,1.8940939903259277,-1.8087677955627441,-1.5481520891189575,1.235626220703125,0.8734927773475647,-0.0895356833934784,0.666594922542572,0.0017133300425484776,0.9980048537254333,0.03115140274167061,-0.05489036440849304
72.0,-0.33366498351097107,-1.536072850227356,1.8976925611495972,-1.8083354234695435,-1.5477733612060547,1.2391266822814941,0.8705678582191467,-0.08526857197284698,0.667185366153717,0.001709375181235373,0.9980087876319885,0.031105052679777145,-0.054845474660396576
73.0,-0.343866229057312,-1.5211234092712402,1.869415521621704,-1.7216256856918335,-1.5363754034042358,0.1703437864780426,0.8732748031616211,-0.09357459843158722,0.6660728454589844,-0.500065803527832,0.8601905107498169,0.08648151904344559,-0.05027543753385544
74.0,-0.3408902585506439,-1.5389103889465332,1.9006342887878418,-1.8082777261734009,-1.5486681461334229,1.2319551706314087,0.8675269484519958,-0.09085071086883545,0.6671702265739441,0.001709375181235373,0.9980087876319885,0.031105052679777145,-0.054845474660396576
75.0,-0.34758150577545166,-1.538638710975647,1.9007482528686523,-1.8084030151367188,-1.5494407415390015,1.225317120552063,0.8669428825378418,-0.09679592400789261,0.6668611764907837,0.0017133300425484776,0.9980048537254333,0.03115140274167061,-0.05489036440849304
76.0,-0.3499735891819,-1.5405986309051514,1.9026209115982056,-1.8082654476165771,-1.5497379302978516,1.2229430675506592,0.8651197552680969,-0.09833821654319763,0.6669653654098511,0.0017133300425484776,0.9980048537254333,0.03115140274167061,-0.05489036440849304
77.0,-0.34807419776916504,-1.5436294078826904,1.9052180051803589,-1.807987928390503,-1.5495589971542358,1.2248250246047974,0.862990140914917,-0.09582554548978806,0.6673581004142761,0.001709375181235373,0.9980087876319885,0.031105052679777145,-0.054845474660396576
78.0,-0.3530975580215454,-1.5265272855758667,1.8746663331985474,-1.721169114112854,-1.5381877422332764,0.16128702461719513,0.8678932189941406,-0.1002785935997963,0.6663489937782288,-0.500065803527832,0.8601905107498169,0.08648151904344559,-0.05027543753385544
79.0,-0.35462021827697754,-1.545442819595337,1.907155156135559,-1.8078597784042358,-1.5503153800964355,1.2183314561843872,0.8607674837112427,-0.10101315379142761,0.6672773957252502,0.0017133300425484776,0.9980048537254333,0.03115140274167061,-0.05489036440849304
80.0,-0.36804234981536865,-1.5336893796920776,1.8831868171691895,-1.727525234222412,-1.5134379863739014,0.2856621742248535,0.8624793291091919,-0.10767622292041779,0.666469931602478,-0.4379345178604126,0.8933897018432617,0.09009793400764465,-0.04416549578309059
81.0,-0.37499791383743286,-1.53476881980896,1.8849153518676758,-1.7281743288040161,-1.514938473701477,0.2785821259021759,0.8606064319610596,-0.11348680406808853,0.666046679019928,-0.43806424736976624,0.8933494091033936,0.08990541845560074,-0.044086162000894547
82.0,-0.3716135323047638,-1.552315354347229,1.9151580333709717,-1.8120347261428833,-1.534960150718689,1.200896143913269,0.8544936180114746,-0.11135561764240265,0.6671268343925476,0.0019436805741861463,0.997990608215332,0.03868168219923973,-0.05014711990952492
83.0,-0.37412500381469727,-1.5492984056472778,1.9126849174499512,-1.8124698400497437,-1.535252332687378,1.1984020471572876,0.8564663529396057,-0.114435113966465,0.6666877269744873,0.0019444164354354143,0.9979898929595947,0.03869103640317917,-0.050153933465480804
84.0,-0.37496763467788696,-1.553571343421936,1.9164888858795166,-1.811990737915039,-1.5353671312332153,1.197564721107483,0.8530477285385132,-0.11386831849813461,0.6670764088630676,0.0019436805741861463,0.997990608215332,0.03868168219923973,-0.05014711990952492
85.0,-0.38267460465431213,-1.5389033555984497,1.889096975326538,-1.727805733680725,-1.5164107084274292,0.27103644609451294,0.8562377691268921,-0.1189369261264801,0.6660704612731934,-0.43806424736976624,0.8933494091033936,0.08990541845560074,-0.044086162000894547
86.0,-0.38300585746765137,-1.5516619682312012,1.915370225906372,-1.8124829530715942,-1.5363320112228394,1.1895816326141357,0.8533374071121216,-0.12137854099273682,0.6664611101150513,0.0019444164354354143,0.9979898929595947,0.03869103640317917,-0.050153933465480804
87.0,-0.38767486810684204,-1.5418171882629395,1.8919795751571655,-1.7275097370147705,-1.5173712968826294,0.2661221921443939,0.853213369846344,-0.12238895148038864,0.6661268472671509,-0.43806424736976624,0.8933494091033936,0.08990541845560074,-0.044086162000894547
88.0,-0.362377792596817,-1.5744972229003906,1.9483790397644043,-1.8859612941741943,-1.5528159141540527,1.2088038921356201,0.8437910676002502,-0.10197088122367859,0.6687922477722168,0.0004564790870063007,0.999528706073761,0.018803533166646957,-0.024264803156256676
89.0,-0.3496076166629791,-1.569413423538208,1.942818284034729,-1.8838610649108887,-1.5606142282485962,1.2216858863830566,0.8485983610153198,-0.09377110749483109,0.6688607335090637,0.00040204168180935085,0.9995319247245789,0.015106681734323502,-0.026601038873195648
90.0,-0.3780810534954071,-1.3337312936782837,1.6397244930267334,-1.0500664710998535,-1.4679006338119507,0.0942770466208458,0.9092944860458374,-0.12783443927764893,0.633524477481842,-0.45980289578437805,0.7908446788787842,0.34918415546417236,-0.20301824808120728
91.0,-0.37766233086586,-1.3350214958190918,1.6398756504058838,-1.0489567518234253,-1.4675925970077515,0.09456216543912888,0.9086016416549683,-0.12710677087306976,0.6345798373222351,-0.45980289578437805,0.7908446788787842,0.34918415546417236,-0.20301824808120728
92.0,-0.3725588917732239,-1.3351048231124878,1.6379362344741821,-1.047298550605774,-1.4638385772705078,0.09803863614797592,0.9099105596542358,-0.12211233377456665,0.6360424160957336,-0.45980289578437805,0.7908446788787842,0.34918415546417236,-0.20301824808120728
93.0,-0.37135908007621765,-1.3351316452026367,1.6374777555465698,-1.046900987625122,-1.462956190109253,0.0988563671708107,0.910210907459259,-0.12093541026115417,0.6363947987556458,-0.45980289578437805,0.7908446788787842,0.34918415546417236,-0.20301824808120728
94.0,-0.36905959248542786,-1.3359432220458984,1.6367266178131104,-1.0453158617019653,-1.4611910581588745,0.10045286267995834,0.9102808237075806,-0.11847218871116638,0.6376653909683228,-0.45975354313850403,0.7908271551132202,0.34926989674568176,-0.20305077731609344
95.0,-0.3396947979927063,-1.5647035837173462,1.9381641149520874,-1.884020447731018,-1.5600169897079468,1.231581211090088,0.8533468246459961,-0.0866212472319603,0.668824315071106,0.00040204168180935085,0.9995319247245789,0.015106681734323502,-0.026601038873195648
96.0,-0.337864488363266,-1.5663657188415527,1.9396612644195557,-1.8838752508163452,-1.5599068403244019,1.2334083318710327,0.852202296257019,-0.08458386361598969,0.6689469814300537,0.00040204168180935085,0.9995319247245789,0.015106681734323502,-0.026601038873195648
97.0,-0.36254996061325073,-1.3287498950958252,1.6324608325958252,-1.0489318370819092,-1.4564800262451172,0.10486499220132828,0.9165269136428833,-0.11385557055473328,0.6342160105705261,-0.45980289578437805,0.7908446788787842,0.34918415546417236,-0.20301824808120728
98.0,-0.3599953055381775,-1.3302509784698486,1.6317622661590576,-1.0467407703399658,-1.4545272588729858,0.10663678497076035,0.9162169098854065,-0.1109689474105835,0.6360787153244019,-0.45975354313850403,0.7908271551132202,0.34926989674568176,-0.20305077731609344
99.0,-0.35870790481567383,-1.3300817012786865,1.631203532218933,-1.0464537143707275,-1.4535810947418213,0.1075158640742302,0.9166544079780579,-0.10974520444869995,0.6363259553909302,-0.45975354313850403,0.7908271551132202,0.34926989674568176,-0.20305077731609344
100.0,-0.327603280544281,-1.3182709217071533,1.6159229278564453,-1.0387095212936401,-1.5371417999267578,0.030779337510466576,0.9239692091941833,-0.0962362214922905,0.6356223821640015,-0.5157738924026489,0.7558574080467224,0.3331381678581238,-0.2273232638835907
101.0,-0.32065650820732117,-1.31577730178833,1.613287091255188,-1.0387372970581055,-1.5320172309875488,0.03547239676117897,0.9269237518310547,-0.08974932134151459,0.6352000832557678,-0.5157738924026489,0.7558574080467224,0.3331381678581238,-0.2273232638835907
102.0,-0.3103681802749634,-1.315415620803833,1.6101329326629639,-1.036267876625061,-1.5244379043579102,0.042420729994773865,0.9291106462478638,-0.07940218597650528,0.6370993256568909,-0.5157809853553772,0.7558593153953552,0.33312660455703735,-0.22731786966323853
103.0,-0.3101029396057129,-1.2026784420013428,1.5082679986953735,-0.7040193676948547,-1.512579321861267,0.024487316608428955,0.9449265003204346,-0.08229826390743256,0.6147331595420837,-0.46942323446273804,0.6879673004150391,0.457192599773407,-0.3119579255580902
104.0,-0.21354621648788452,-1.1890023946762085,1.4855748414993286,-0.6987047791481018,-1.6981711387634277,-0.053974807262420654,0.956664502620697,-0.02183983474969864,0.616782546043396,-0.5665303468704224,0.6108590364456177,0.40552183985710144,-0.3760939836502075
105.0,-0.26508381962776184,-1.2027891874313354,1.4909083843231201,-0.6868128776550293,-1.6071704626083374,-0.015318178571760654,0.9472693800926208,-0.05469709262251854,0.6268582344055176,-0.5190041065216064,0.6516239643096924,0.432712584733963,-0.34464597702026367
106.0,-0.3151407539844513,-1.216783046722412,1.5061028003692627,-0.6876528859138489,-1.5172772407531738,0.022507864981889725,0.936710774898529,-0.08527951687574387,0.6303552985191345,-0.46944567561149597,0.6879566311836243,0.45717868208885193,-0.3119681477546692
107.0,-0.31394052505493164,-1.2230312824249268,1.5031477212905884,-0.6784620881080627,-1.5161163806915283,0.022996215149760246,0.9338597059249878,-0.08300843834877014,0.6386459469795227,-0.46942323446273804,0.6879673004150391,0.457192599773407,-0.3119579255580902
108.0,-0.32845306396484375,-1.2113627195358276,1.5146187543869019,-0.7013443112373352,-1.529547929763794,0.017339983955025673,0.9360939264297485,-0.09994439035654068,0.6189958453178406,-0.46944567561149597,0.6879566311836243,0.45717868208885193,-0.3119681477546692
109.0,-0.37194228172302246,-1.2235467433929443,1.5380592346191406,-0.7149866819381714,-1.436501383781433,0.056622765958309174,0.9260952472686768,-0.12334088981151581,0.6151151657104492,-0.4184384346008301,0.7197788953781128,0.4788788855075836,-0.2783929109573364
110.0,-0.4223138689994812,-1.2497153282165527,1.5691384077072144,-0.724997341632843,-1.3526791334152222,0.09264818578958511,0.9063342213630676,-0.15029647946357727,0.6196087002754211,-0.3664015531539917,0.7472276091575623,0.49781090021133423,-0.24410060048103333
111.0,-0.4351847171783447,-1.2518491744995117,1.5788373947143555,-0.7314698696136475,-1.3645087480545044,0.08746016025543213,0.8998771905899048,-0.1618490219116211,0.6148914694786072,-0.3664015531539917,0.7472276091575623,0.49781090021133423,-0.24410060048103333
112.0,-0.42357519268989563,-1.2429403066635132,1.5723528861999512,-0.7348768711090088,-1.3538382053375244,0.09213858097791672,0.9089500308036804,-0.15289628505706787,0.610840380191803,-0.3664015531539917,0.7472276091575623,0.49781090021133423,-0.24410060048103333
113.0,-0.4166293740272522,-1.2384663820266724,1.5680216550827026,-0.7356317639350891,-1.347448706626892,0.09495097398757935,0.913981020450592,-0.14729326963424683,0.6095308065414429,-0.36639830470085144,0.7472285628318787,0.4978127181529999,-0.2440989464521408
114.0,-0.41785380244255066,-1.3581346273422241,1.6665563583374023,-1.06046724319458,-1.3930857181549072,0.16387829184532166,0.8915880918502808,-0.14609980583190918,0.6375975608825684,-0.4025948643684387,0.8210390210151672,0.36340025067329407,-0.17819258570671082
115.0,-0.42387187480926514,-1.3608521223068237,1.6700284481048584,-1.0604931116104126,-1.39748215675354,0.15970461070537567,0.8879529237747192,-0.150959312915802,0.637485682964325,-0.4025948643684387,0.8210390210151672,0.36340025067329407,-0.17819258570671082
116.0,-0.4226386845111847,-1.358431339263916,1.6688337326049805,-1.0616010427474976,-1.396461009979248,0.16058282554149628,0.8898089528083801,-0.15044531226158142,0.6362163424491882,-0.4025276005268097,0.8210093975067139,0.3635234236717224,-0.1782296597957611
117.0,-0.4193839728832245,-1.3559420108795166,1.6667181253433228,-1.0623687505722046,-1.3940826654434204,0.16283933818340302,0.8924022912979126,-0.1480928361415863,0.635545015335083,-0.4025276005268097,0.8210093975067139,0.3635234236717224,-0.1782296597957611
118.0,-0.41698235273361206,-1.3559801578521729,1.6656451225280762,-1.0618176460266113,-1.3924493789672852,0.1644832044839859,0.8931949138641357,-0.1458725780248642,0.6363522410392761,-0.4025948643684387,0.8210390210151672,0.36340025067329407,-0.17819258570671082
119.0,-0.4123300611972809,-1.3538191318511963,1.662900686264038,-1.0618129968643188,-1.3890531063079834,0.1677149087190628,0.8960354924201965,-0.14210276305675507,0.6364210844039917,-0.4025948643684387,0.8210390210151672,0.36340025067329407,-0.17819258570671082
120.0,-0.41533365845680237,-1.353563904762268,1.6642249822616577,-1.0627520084381104,-1.3911242485046387,0.1656501591205597,0.8951859474182129,-0.14495238661766052,0.6352394819259644,-0.4025276005268097,0.8210093975067139,0.3635234236717224,-0.1782296597957611
121.0,-0.4141250550746918,-1.352007269859314,1.6632765531539917,-1.063510537147522,-1.3902416229248047,0.16648946702480316,0.8965361714363098,-0.14424078166484833,0.634543776512146,-0.4025276005268097,0.8210093975067139,0.3635234236717224,-0.1782296597957611
122.0,-0.4123998284339905,-1.3498892784118652,1.6619385480880737,-1.0645065307617188,-1.3889820575714111,0.1676880419254303,0.8983999490737915,-0.14319229125976562,0.6336280703544617,-0.4025276005268097,0.8210093975067139,0.3635234236717224,-0.1782296597957611
123.0,-0.41882210969924927,-1.3536860942840576,1.6659263372421265,-1.0639015436172485,-1.393672227859497,0.1632290929555893,0.8939684629440308,-0.14818336069583893,0.6341201066970825,-0.4025276005268097,0.8210093975067139,0.3635234236717224,-0.1782296597957611
124.0,-0.37313607335090637,-1.5822032690048218,1.9558171033859253,-1.8855034112930298,-1.5534483194351196,1.198062539100647,0.8364617228507996,-0.1087266355752945,0.6688937544822693,0.0004564790870063007,0.999528706073761,0.018803533166646957,-0.024264803156256676
125.0,-0.38430047035217285,-1.5894726514816284,1.963438868522644,-1.8883074522018433,-1.5460586547851562,1.1867473125457764,0.8300999402999878,-0.11476780474185944,0.6689524054527283,0.000474755244795233,0.9995251297950745,0.022039685398340225,-0.021530695259571075
126.0,-0.4275283217430115,-1.3596590757369995,1.6714118719100952,-1.0623700618743896,-1.4000357389450073,0.15719632804393768,0.8874422311782837,-0.1546531468629837,0.6354386806488037,-0.4025276005268097,0.8210093975067139,0.3635234236717224,-0.1782296597957611
127.0,-0.4548306167125702,-1.376153826713562,1.6940211057662964,-1.0831725597381592,-1.3183869123458862,0.23544874787330627,0.8791684508323669,-0.16329434514045715,0.635886013507843,-0.3443264961242676,0.8466654419898987,0.3758154511451721,-0.15283866226673126
128.0,-0.4630979001522064,-1.3826459646224976,1.7001625299453735,-1.0813641548156738,-1.3243533372879028,0.22954311966896057,0.8721143007278442,-0.1687210202217102,0.6370324492454529,-0.3443264961242676,0.8466654419898987,0.3758154511451721,-0.15283866226673126
129.0,-0.4630526900291443,-1.38312566280365,1.7002438306808472,-1.0809736251831055,-1.324320673942566,0.22957536578178406,0.8718440532684326,-0.16853737831115723,0.6373864412307739,-0.3443264961242676,0.8466654419898987,0.3758154511451721,-0.15283866226673126
130.0,-0.4686679542064667,-1.3860232830047607,1.7040045261383057,-1.0808683633804321,-1.3283777236938477,0.22557424008846283,0.8679580092430115,-0.17262977361679077,0.6371447443962097,-0.3443264961242676,0.8466654419898987,0.3758154511451721,-0.15283866226673126
131.0,-0.4687744975090027,-1.385851502418518,1.7040259838104248,-1.0810433626174927,-1.3284547328948975,0.22549840807914734,0.8680195212364197,-0.17277562618255615,0.6369817852973938,-0.3443264961242676,0.8466654419898987,0.3758154511451721,-0.15283866226673126
132.0,-0.5037699341773987,-1.4078351259231567,1.735560417175293,-1.1097108125686646,-1.2540174722671509,0.3000476658344269,0.854120671749115,-0.18640145659446716,0.6359689235687256,-0.2849026620388031,0.8681266903877258,0.3861674666404724,-0.12673282623291016
133.0,-0.5039194822311401,-1.4084675312042236,1.7357981204986572,-1.1092816591262817,-1.254123568534851,0.29993677139282227,0.8536855578422546,-0.18632236123085022,0.6363255381584167,-0.2849026620388031,0.8681266903877258,0.3861674666404724,-0.12673282623291016
134.0,-0.5119627714157104,-1.4140938520431519,1.7421116828918457,-1.1081312894821167,-1.2598358392715454,0.29398345947265625,0.846918523311615,-0.19119933247566223,0.6364156007766724,-0.2849026620388031,0.8681266903877258,0.3861674666404724,-0.12673282623291016
135.0,-0.5060685873031616,-1.4058061838150024,1.7365562915802002,-1.1122063398361206,-1.2556488513946533,0.2983439266681671,0.8543111085891724,-0.1889820694923401,0.6335381269454956,-0.2849026620388031,0.8681266903877258,0.3861674666404724,-0.12673282623291016
136.0,-0.40986138582229614,-1.6091991662979126,1.9829193353652954,-1.8910434246063232,-1.5396705865859985,1.1610163450241089,0.81220543384552,-0.12848949432373047,0.6691107153892517,0.00045668677194043994,0.9995215535163879,0.024918925017118454,-0.018318133428692818
137.0,-0.4032336473464966,-1.6044572591781616,1.9776228666305542,-1.8870388269424438,-1.5471221208572388,1.1678390502929688,0.8159628510475159,-0.1256004273891449,0.6690833568572998,0.00047495655599050224,0.9995249509811401,0.02204596996307373,-0.021533682942390442
138.0,-0.40011635422706604,-1.600169062614441,1.9736847877502441,-1.887462854385376,-1.5469448566436768,1.1709522008895874,0.8196892738342285,-0.12443865835666656,0.6689740419387817,0.00047495655599050224,0.9995249509811401,0.02204596996307373,-0.021533682942390442
139.0,-0.3992074728012085,-1.6012643575668335,1.9746288061141968,-1.8873437643051147,-1.5469025373458862,1.171859860420227,0.8189769387245178,-0.12333841621875763,0.669053316116333,0.000474755244795233,0.9995251297950745,0.022039685398340225,-0.021530695259571075
140.0,-0.3941119313240051,-1.5986912250518799,1.9721311330795288,-1.8875415325164795,-1.5466134548187256,1.1769486665725708,0.8216590285301208,-0.11997388303279877,0.6690863370895386,0.000474755244795233,0.9995251297950745,0.022039685398340225,-0.021530695259571075
141.0,-0.396774560213089,-1.5915940999984741,1.96585214138031,-1.8882851600646973,-1.546755075454712,1.1742894649505615,0.8267568945884705,-0.1244560033082962,0.6686685681343079,0.00047495655599050224,0.9995249509811401,0.02204596996307373,-0.021533682942390442
142.0,-0.41388052701950073,-1.5598199367523193,1.9112913608551025,-1.7353236675262451,-1.4957935810089111,0.3771808445453644,0.8376612663269043,-0.13578049838542938,0.6665790677070618,-0.37490391731262207,0.9216042757034302,0.09305792301893234,-0.03785548731684685
143.0,-0.392723947763443,-1.5910683870315552,1.965216875076294,-1.8882732391357422,-1.546525478363037,1.1783348321914673,0.8277280926704407,-0.12126404792070389,0.6687677502632141,0.00047495655599050224,0.9995249509811401,0.02204596996307373,-0.021533682942390442
144.0,-0.38980957865715027,-1.5886811017990112,1.962938666343689,-1.8884532451629639,-1.5463604927062988,1.1812453269958496,0.8299746513366699,-0.11960294097661972,0.6687442660331726,0.00047495655599050224,0.9995249509811401,0.02204596996307373,-0.021533682942390442
145.0,-0.4085773825645447,-1.5566859245300293,1.9081456661224365,-1.7357059717178345,-1.4948090314865112,0.38240668177604675,0.8409786820411682,-0.13230089843273163,0.6666149497032166,-0.37490391731262207,0.9216042757034302,0.09305792301893234,-0.03785548731684685
146.0,-0.40833696722984314,-1.5552407503128052,1.9069664478302002,-1.7359899282455444,-1.4947644472122192,0.38264361023902893,0.8420981764793396,-0.1325618475675583,0.6664173603057861,-0.37490391731262207,0.9216042757034302,0.09305792301893234,-0.03785548731684685
147.0,-0.4063788056373596,-1.5526515245437622,1.9046545028686523,-1.7364141941070557,-1.494401454925537,0.38457342982292175,0.8443892598152161,-0.13172674179077148,0.6662130355834961,-0.37490391731262207,0.9216042757034302,0.09305792301893234,-0.03785548731684685
148.0,-0.40398937463760376,-1.5514761209487915,1.903411626815796,-1.7365270853042603,-1.493958830833435,0.38692840933799744,0.8457062840461731,-0.1300642043352127,0.6662683486938477,-0.37490391731262207,0.9216042757034302,0.09305792301893234,-0.03785548731684685
149.0,-0.3977184295654297,-1.5629210472106934,1.927446961402893,-1.8180687427520752,-1.521295428276062,1.1742287874221802,0.8439816832542419,-0.12826400995254517,0.6667985320091248,0.0020243257749825716,0.99797523021698,0.04543859139084816,-0.044460590928792953
150.0,-0.3979649245738983,-1.5624518394470215,1.9270602464675903,-1.8181390762329102,-1.5213242769241333,1.1739836931228638,0.8442994952201843,-0.12862376868724823,0.6667371988296509,0.0020243257749825716,0.99797523021698,0.04543859139084816,-0.044460590928792953
151.0,-0.4023638665676117,-1.5631215572357178,1.9279975891113281,-1.8181891441345215,-1.5218373537063599,1.1696096658706665,0.843064546585083,-0.13214117288589478,0.6665251851081848,0.002024424262344837,0.9979751110076904,0.04544001817703247,-0.04446135461330414
152.0,-0.41243839263916016,-1.5587542057037354,1.9102689027786255,-1.7354735136032104,-1.4955257177352905,0.37860187888145447,0.8387225270271301,-0.13490639626979828,0.666555643081665,-0.37490391731262207,0.9216042757034302,0.09305792301893234,-0.03785548731684685
153.0,-0.41233915090560913,-1.5564926862716675,1.9083997011184692,-1.7355844974517822,-1.4953476190567017,0.37888291478157043,0.8403963446617126,-0.13551953434944153,0.6662275791168213,-0.37480124831199646,0.9216282367706299,0.09321234375238419,-0.037906941026449203
154.0,-0.4142190217971802,-1.5588994026184082,1.9106056690216064,-1.735533595085144,-1.495856523513794,0.3768472969532013,0.8382794857025146,-0.13636666536331177,0.6664053797721863,-0.37490391731262207,0.9216042757034302,0.09305792301893234,-0.03785548731684685
155.0,-0.42213743925094604,-1.5614240169525146,1.9135149717330933,-1.7350496053695679,-1.49717378616333,0.3692294955253601,0.8348712921142578,-0.1421884000301361,0.6660395264625549,-0.37480124831199646,0.9216282367706299,0.09321234375238419,-0.037906941026449203
156.0,-0.42275968194007874,-1.5622129440307617,1.9142122268676758,-1.7349128723144531,-1.497290015220642,0.3686165511608124,0.8341684937477112,-0.14245116710662842,0.666101336479187,-0.37480124831199646,0.9216282367706299,0.09321234375238419,-0.037906941026449203
157.0,-0.4297938048839569,-1.5802509784698486,1.9464839696884155,-1.8252625465393066,-1.5089504718780518,1.1414471864700317,0.8271081447601318,-0.14752238988876343,0.6665019989013672,0.001948785618878901,0.9979612231254578,0.051316164433956146,-0.03789863362908363
158.0,-0.4150978922843933,-1.6047306060791016,1.9791830778121948,-1.8916138410568237,-1.5399508476257324,1.1557848453521729,0.8148239254951477,-0.13424347341060638,0.6687273979187012,0.00045668677194043994,0.9995215535163879,0.024918925017118454,-0.018318133428692818
159.0,-0.442035973072052,-1.578498125076294,1.9319308996200562,-1.7456575632095337,-1.4753023386001587,0.4860040545463562,0.8212630152702332,-0.15002840757369995,0.6666064262390137,-0.3102197051048279,0.9452890157699585,0.09592503309249878,-0.03148014843463898
160.0,-0.4430312216281891,-1.578904628753662,1.9323862791061401,-1.745612621307373,-1.4754791259765625,0.48502016067504883,0.8207583427429199,-0.15070733428001404,0.6665555834770203,-0.3102197051048279,0.9452890157699585,0.09592503309249878,-0.03148014843463898
161.0,-0.4462031126022339,-1.58085036277771,1.934338092803955,-1.745321273803711,-1.4760432243347168,0.4818847179412842,0.8186749815940857,-0.15263999998569489,0.6664894819259644,-0.3102197051048279,0.9452890157699585,0.09592503309249878,-0.03148014843463898
162.0,-0.4415382742881775,-1.5911973714828491,1.9567925930023193,-1.823918104171753,-1.510272741317749,1.129754662513733,0.8167416453361511,-0.15339720249176025,0.6666829586029053,0.001948476186953485,0.9979615807533264,0.05131074786186218,-0.03789662569761276
163.0,-0.4493483603000641,-1.5988012552261353,1.963818073272705,-1.8228729963302612,-1.5111510753631592,1.12198007106781,0.8096206784248352,-0.1570771485567093,0.6668440699577332,0.001948476186953485,0.9979615807533264,0.05131074786186218,-0.03789662569761276
164.0,-0.4324128329753876,-1.6196728944778442,1.9931350946426392,-1.8901958465576172,-1.5409908294677734,1.138487696647644,0.8008016347885132,-0.14316517114639282,0.668796718120575,0.00045487546594813466,0.9995237588882446,0.024849876761436462,-0.018296219408512115
165.0,-0.42519253492355347,-1.611942172050476,1.9860427379608154,-1.8910504579544067,-1.540601372718811,1.1457008123397827,0.8077810406684875,-0.14001527428627014,0.6686978936195374,0.00045487546594813466,0.9995237588882446,0.024849876761436462,-0.018296219408512115
166.0,-0.42476147413253784,-1.6154600381851196,1.9891183376312256,-1.8906211853027344,-1.5405782461166382,1.1461313962936401,0.8051915764808655,-0.13846465945243835,0.6688699722290039,0.00045487546594813466,0.9995237588882446,0.024849876761436462,-0.018296219408512115
167.0,-0.5170137882232666,-1.4127161502838135,1.744894027709961,-1.1108946800231934,-1.2632725238800049,0.2902466952800751,0.8454949259757996,-0.19580155611038208,0.6332379579544067,-0.2848392426967621,0.8680866956710815,0.3862975239753723,-0.12675312161445618
168.0,-0.5176228880882263,-1.4131752252578735,1.7453715801239014,-1.1107772588729858,-1.263706088066101,0.2897978723049164,0.8449624180793762,-0.19615468382835388,0.6332723498344421,-0.2848392426967621,0.8680866956710815,0.3862975239753723,-0.12675312161445618
169.0,-0.5533156991004944,-1.4406187534332275,1.7822797298431396,-1.14480459690094,-1.1908671855926514,0.3668605387210846,0.8278888463973999,-0.20785686373710632,0.6331197619438171,-0.2240161895751953,0.8853999972343445,0.3948461711406708,-0.09990055114030838
170.0,-0.5578268766403198,-1.446732521057129,1.786742925643921,-1.1418644189834595,-1.1940020322799683,0.3633696436882019,0.8222715854644775,-0.20920486748218536,0.6347737908363342,-0.2240161895751953,0.8853999972343445,0.3948461711406708,-0.09990055114030838
171.0,-0.5618155598640442,-1.4490513801574707,1.7900149822235107,-1.141892433166504,-1.1969143152236938,0.3603097200393677,0.819068193435669,-0.21148988604545593,0.6342322826385498,-0.2240639626979828,0.8854353427886963,0.39474210143089294,-0.09989151358604431
172.0,-0.5603606700897217,-1.4459826946258545,1.7883591651916504,-1.143715739250183,-1.195901870727539,0.36143234372138977,0.8214918375015259,-0.21145454049110413,0.6329840421676636,-0.2240639626979828,0.8854353427886963,0.39474210143089294,-0.09989151358604431
173.0,-0.45219913125038147,-1.634824514389038,2.0081634521484375,-1.893747091293335,-1.5345847606658936,1.1184900999069214,0.7870824337005615,-0.15267039835453033,0.6687310338020325,0.0004025519883725792,0.9995188117027283,0.02728613279759884,-0.01474588830024004
174.0,-0.4726751446723938,-1.6013224124908447,1.9567941427230835,-1.758355975151062,-1.4563223123550415,0.5929633975028992,0.8013768196105957,-0.16422446072101593,0.6665298938751221,-0.2439689338207245,0.9644794464111328,0.0981917604804039,-0.024837998673319817
175.0,-0.4714566767215729,-1.5977907180786133,1.9539071321487427,-1.759138822555542,-1.4561188220977783,0.5941727161407471,0.8041782379150391,-0.16453930735588074,0.6661988496780396,-0.2439689338207245,0.9644794464111328,0.0981917604804039,-0.024837998673319817
176.0,-0.45995932817459106,-1.6098684072494507,1.9759223461151123,-1.8320707082748413,-1.4970282316207886,1.1104151010513306,0.8013477325439453,-0.15998241305351257,0.6671186089515686,0.0017205075128003955,0.9979491829872131,0.056234292685985565,-0.03053259663283825
177.0,-0.46423524618148804,-1.6060124635696411,1.9731533527374268,-1.8328458070755005,-1.4974777698516846,1.1061512231826782,0.8032937049865723,-0.16480542719364166,0.6664531230926514,0.0017204622272402048,0.9979492425918579,0.0562332458794117,-0.030532361939549446
178.0,-0.47175082564353943,-1.6204218864440918,1.9856923818588257,-1.830428123474121,-1.498266577720642,1.0986573696136475,0.7912742495536804,-0.1654856652021408,0.6671122312545776,0.0017205075128003955,0.9979491829872131,0.056234292685985565,-0.03053259663283825
179.0,-0.4833798110485077,-1.608839988708496,1.9641565084457397,-1.7572176456451416,-1.4583052396774292,0.5821913480758667,0.7935722470283508,-0.1699868142604828,0.6662505269050598,-0.24405883252620697,0.9644716382026672,0.09805148839950562,-0.02481185458600521
180.0,-0.4864460825920105,-1.610161304473877,1.9656082391738892,-1.757007360458374,-1.458821177482605,0.5791496634483337,0.7919200658798218,-0.17191269993782043,0.6660639047622681,-0.24405883252620697,0.9644716382026672,0.09805148839950562,-0.02481185458600521
181.0,-0.48165175318717957,-1.6273112297058105,1.9921894073486328,-1.829326868057251,-1.499315619468689,1.0887864828109741,0.7842492461204529,-0.1706986129283905,0.6669520139694214,0.0017204622272402048,0.9979492425918579,0.0562332458794117,-0.030532361939549446
182.0,-0.48462212085723877,-1.6260063648223877,1.9914231300354004,-1.8296544551849365,-1.4996312856674194,1.0858254432678223,0.7845538258552551,-0.17351140081882477,0.6666147708892822,0.0017204622272402048,0.9979492425918579,0.0562332458794117,-0.030532361939549446
183.0,-0.495892733335495,-1.6413699388504028,2.007270574569702,-1.8398423194885254,-1.4863598346710205,1.0735175609588623,0.7732422947883606,-0.17498697340488434,0.6669977307319641,0.0013515327591449022,0.9979388117790222,0.06010684743523598,-0.022439155727624893
184.0,-0.5042256116867065,-1.6257171630859375,1.9835565090179443,-1.7737512588500977,-1.4388130903244019,0.7003359198570251,0.7802339792251587,-0.17777210474014282,0.6660706400871277,-0.17613837122917175,0.9791290163993835,0.09979747980833054,-0.01795285940170288
185.0,-0.48945653438568115,-1.6139321327209473,1.968877911567688,-1.7561732530593872,-1.4593287706375122,0.5761637091636658,0.7885544896125793,-0.17286890745162964,0.6662200093269348,-0.24405883252620697,0.9644716382026672,0.09805148839950562,-0.02481185458600521
186.0,-0.4870460629463196,-1.6134792566299438,1.9681326150894165,-1.7559260129928589,-1.4587355852127075,0.5787051916122437,0.7894301414489746,-0.17110899090766907,0.6664525270462036,-0.2439689338207245,0.9644794464111328,0.0981917604804039,-0.024837998673319817
187.0,-0.45941781997680664,-1.6412701606750488,2.0140039920806885,-1.8928823471069336,-1.5349491834640503,1.1112759113311768,0.7810723185539246,-0.15599282085895538,0.6687268018722534,0.0004025519883725792,0.9995188117027283,0.02728613279759884,-0.01474588830024004
188.0,-0.45400071144104004,-1.6395515203475952,2.0122883319854736,-1.8930798768997192,-1.5346754789352417,1.116689682006836,0.7832803726196289,-0.15238314867019653,0.6688589453697205,0.0004025519883725792,0.9995188117027283,0.02728613279759884,-0.01474588830024004
189.0,-0.4544174373149872,-1.642151951789856,2.0145184993743896,-1.8926944732666016,-1.5346965789794922,1.1162731647491455,0.7812922596931458,-0.15177299082279205,0.6689509749412537,0.0004025519883725792,0.9995188117027283,0.02728613279759884,-0.01474588830024004
190.0,-0.4726524353027344,-1.65339195728302,2.0260865688323975,-1.8976119756698608,-1.528761625289917,1.0978124141693115,0.7707951664924622,-0.1610802859067917,0.6687149405479431,0.00031637083156965673,0.9995161890983582,0.02914857491850853,-0.01084848027676344
191.0,-0.470064640045166,-1.6613245010375977,2.0325820446014404,-1.8962852954864502,-1.5286459922790527,1.1003998517990112,0.7654993534088135,-0.15616410970687866,0.6691169738769531,0.000316351477522403,0.9995162487030029,0.029146946966648102,-0.010848424397408962
192.0,-0.5744004845619202,-1.4593063592910767,1.8005945682525635,-1.138723373413086,-1.205689787864685,0.35063621401786804,0.8073040843009949,-0.21743559837341309,0.6346390843391418,-0.2240639626979828,0.8854353427886963,0.39474210143089294,-0.09989151358604431
193.0,-0.5725275278091431,-1.4558526277542114,1.798651099205017,-1.1407470703125,-1.2043818235397339,0.35207170248031616,0.8101229667663574,-0.21725428104400635,0.6333245038986206,-0.2240639626979828,0.8854353427886963,0.39474210143089294,-0.09989151358604431
194.0,-0.5671136379241943,-1.4519110918045044,1.7942067384719849,-1.141741156578064,-1.200604796409607,0.3562292754650116,0.8149232864379883,-0.2145363986492157,0.6334441304206848,-0.2240639626979828,0.8854353427886963,0.39474210143089294,-0.09989151358604431
195.0,-0.5656113028526306,-1.4521278142929077,1.7932394742965698,-1.1409759521484375,-1.1995577812194824,0.35738515853881836,0.8155230283737183,-0.21331018209457397,0.6343269348144531,-0.2240639626979828,0.8854353427886963,0.39474210143089294,-0.09989151358604431
196.0,-0.563164234161377,-1.4506231546401978,1.7912662029266357,-1.1411926746368408,-1.1978532075881958,0.359269917011261,0.8175392150878906,-0.21196907758712769,0.6345725059509277,-0.2240639626979828,0.8854353427886963,0.39474210143089294,-0.09989151358604431
197.0,-0.5626190900802612,-1.4516570568084717,1.791066288948059,-1.1399080753326416,-1.1973367929458618,0.3596707880496979,0.8172072768211365,-0.2111535668373108,0.6355466842651367,-0.2240161895751953,0.8853999972343445,0.3948461711406708,-0.09990055114030838
198.0,-0.5651818513870239,-1.4544551372528076,1.7933858633041382,-1.1387109756469727,-1.1991220712661743,0.3576967120170593,0.8144123554229736,-0.2121233493089676,0.6360767483711243,-0.2240161895751953,0.8853999972343445,0.3948461711406708,-0.09990055114030838
199.0,-0.5681387782096863,-1.4562737941741943,1.7958003282546997,-1.1386871337890625,-1.2013195753097534,0.3554410934448242,0.8119931221008301,-0.21376389265060425,0.6357512474060059,-0.2240639626979828,0.8854353427886963,0.39474210143089294,-0.09989151358604431
200.0,-0.6017261743545532,-1.4880902767181396,1.8359260559082031,-1.1789108514785767,-1.1279665231704712,0.4389893412590027,0.7941746711730957,-0.22130908071994781,0.6366036534309387,-0.16165849566459656,0.898649275302887,0.40135201811790466,-0.07219942659139633
201.0,-0.5709540247917175,-1.4605114459991455,1.7984893321990967,-1.1361552476882935,-1.2031477689743042,0.35326045751571655,0.8082704544067383,-0.21435923874378204,0.6371389627456665,-0.2240161895751953,0.8853999972343445,0.3948461711406708,-0.09990055114030838
202.0,-0.5697667002677917,-1.4596140384674072,1.797516942024231,-1.1364082098007202,-1.2023191452026367,0.35417187213897705,0.8093376159667969,-0.21377868950366974,0.6371424794197083,-0.2240161895751953,0.8853999972343445,0.3948461711406708,-0.09990055114030838
203.0,-0.562865674495697,-1.4548771381378174,1.7919057607650757,-1.137458086013794,-1.197508454322815,0.35948076844215393,0.8152793049812317,-0.21020063757896423,0.6375007033348083,-0.2240161895751953,0.8853999972343445,0.3948461711406708,-0.09990055114030838
204.0,-0.5202246904373169,-1.420894980430603,1.748679280281067,-1.1060506105422974,-1.2657140493392944,0.28789106011390686,0.8393835425376892,-0.19579100608825684,0.6372652053833008,-0.2849026620388031,0.8681266903877258,0.3861674666404724,-0.12673282623291016
205.0,-0.5163135528564453,-1.4178177118301392,1.7456190586090088,-1.1069369316101074,-1.2629300355911255,0.29077231884002686,0.842866063117981,-0.1935814917087555,0.6369505524635315,-0.2849026620388031,0.8681266903877258,0.3861674666404724,-0.12673282623291016
206.0,-0.4862218499183655,-1.285365104675293,1.6180616617202759,-0.7447012066841125,-1.2833746671676636,0.12325768917798996,0.8743935823440552,-0.18533259630203247,0.6202114224433899,-0.3133852779865265,0.7705839276313782,0.5140817761421204,-0.20906955003738403
207.0,-0.4856776297092438,-1.287151575088501,1.616945505142212,-0.7418630719184875,-1.2828760147094727,0.12348497658967972,0.8738594055175781,-0.18443813920021057,0.6226480007171631,-0.3133852779865265,0.7705839276313782,0.5140817761421204,-0.20906955003738403
208.0,-0.4849839508533478,-1.28868567943573,1.6157646179199219,-0.7392303943634033,-1.282240390777588,0.12377478182315826,0.8735096454620361,-0.18347400426864624,0.6248950958251953,-0.3133852779865265,0.7705839276313782,0.5140817761421204,-0.20906955003738403
209.0,-0.5774039030075073,-1.3483952283859253,1.7073848247528076,-0.7986070513725281,-1.113797903060913,0.2046242356300354,0.8296523094177246,-0.21933898329734802,0.6179734468460083,-0.20389701426029205,0.8058447241783142,0.5389302968978882,-0.13636158406734467
210.0,-0.5783858895301819,-1.348044753074646,1.7086378335952759,-0.8000054359436035,-1.1146866083145142,0.2041587084531784,0.8291908502578735,-0.22014015913009644,0.6167991757392883,-0.20389701426029205,0.8058447241783142,0.5389302968978882,-0.13636158406734467
211.0,-0.6316986083984375,-1.3961472511291504,1.7666387557983398,-0.829133152961731,-1.036691665649414,0.24625617265701294,0.7949484586715698,-0.23528435826301575,0.6197077631950378,-0.14713327586650848,0.8178547620773315,0.5475067496299744,-0.09849729388952255
212.0,-0.6289359927177429,-1.392076015472412,1.7643619775772095,-0.8316537141799927,-1.034232497215271,0.24767234921455383,0.798456072807312,-0.23476485908031464,0.6179231405258179,-0.1471410095691681,0.8178545832633972,0.5475041270256042,-0.09850198775529861
213.0,-0.6349855661392212,-1.390366554260254,1.7723599672317505,-0.8397780656814575,-1.0396394729614258,0.2445683777332306,0.7951018214225769,-0.23906874656677246,0.6109721660614014,-0.14713327586650848,0.8178547620773315,0.5475067496299744,-0.09849729388952255
214.0,-0.6484326720237732,-1.401682734489441,1.7854903936386108,-0.8381609320640564,-1.0517122745513916,0.23772379755973816,0.7815716862678528,-0.24399900436401367,0.611201286315918,-0.14713327586650848,0.8178547620773315,0.5475067496299744,-0.09849729388952255
215.0,-0.6131225228309631,-1.4994165897369385,1.84657883644104,-1.174291968345642,-1.1356652975082397,0.4297063946723938,0.7821992635726929,-0.2250450700521469,0.6373531222343445,-0.16165849566459656,0.898649275302887,0.40135201811790466,-0.07219942659139633
216.0,-0.650999903678894,-1.5353130102157593,1.8941246271133423,-1.224307656288147,-1.0666096210479736,0.5161190629005432,0.7608664035797119,-0.23323051631450653,0.6357301473617554,-0.0977863296866417,0.9076198935508728,0.40589603781700134,-0.043730951845645905
217.0,-0.6573219895362854,-1.5424792766571045,1.9004594087600708,-1.2208360433578491,-1.0707142353057861,0.510633647441864,0.7537302374839783,-0.23437927663326263,0.6361746788024902,-0.0977863296866417,0.9076198935508728,0.40589603781700134,-0.043730951845645905
218.0,-0.6596762537956238,-1.5465621948242188,1.9030729532241821,-1.2183916568756104,-1.0722460746765137,0.5085972547531128,0.7503476738929749,-0.23422180116176605,0.6371522545814514,-0.0977863296866417,0.9076198935508728,0.40589603781700134,-0.043730951845645905
219.0,-0.6633714437484741,-1.547852873802185,1.9060860872268677,-1.2185211181640625,-1.0745939016342163,0.5053935647010803,0.7477105259895325,-0.2360164225101471,0.6358199119567871,-0.0977710708975792,0.9076043367385864,0.40593475103378296,-0.04372904449701309
220.0,-0.6681796908378601,-1.555039405822754,1.9110817909240723,-1.2144376039505005,-1.0777931213378906,0.5012699961662292,0.741446852684021,-0.23612096905708313,0.6371973752975464,-0.0977863296866417,0.9076198935508728,0.40589603781700134,-0.043730951845645905
221.0,-0.6668076515197754,-1.5516135692596436,1.909388780593872,-1.2166576385498047,-1.0768369436264038,0.5024352073669434,0.7439391016960144,-0.23664522171020508,0.6360310912132263,-0.0977710708975792,0.9076043367385864,0.40593475103378296,-0.04372904449701309
222.0,-0.6976847648620605,-1.5867245197296143,1.954963207244873,-1.277329921722412,-1.0052573680877686,0.6026517748832703,0.7276886105537415,-0.23986369371414185,0.6352143287658691,-0.032631855458021164,0.9121341705322266,0.4083298444747925,-0.014608114026486874
223.0,-0.6702951788902283,-1.5537183284759521,1.912378191947937,-1.216125249862671,-1.0791171789169312,0.49943995475769043,0.7410029172897339,-0.23796409368515015,0.6352893710136414,-0.0977710708975792,0.9076043367385864,0.40593475103378296,-0.04372904449701309
224.0,-0.6583171486854553,-1.539776086807251,1.9006266593933105,-1.2232227325439453,-1.0713014602661133,0.5097581148147583,0.7546070218086243,-0.2360886037349701,0.6340986490249634,-0.0977710708975792,0.9076043367385864,0.40593475103378296,-0.04372904449701309
225.0,-0.6596183180809021,-1.5394290685653687,1.9015350341796875,-1.2239396572113037,-1.0721482038497925,0.5086330771446228,0.7540894746780396,-0.2370527684688568,0.6331684589385986,-0.0977710708975792,0.9076043367385864,0.40593475103378296,-0.04372904449701309
226.0,-0.5003600716590881,-1.6913961172103882,2.0600008964538574,-1.8984681367874146,-1.523759126663208,1.069879412651062,0.7394598126411438,-0.16696232557296753,0.6689589619636536,0.00020297257287893444,0.9995141625404358,0.030446289107203484,-0.0066633387468755245
227.0,-0.4969460368156433,-1.6890672445297241,2.0579612255096436,-1.8989181518554688,-1.5236196517944336,1.0732944011688232,0.741743803024292,-0.16534428298473358,0.6690272092819214,0.00020297257287893444,0.9995141625404358,0.030446289107203484,-0.0066633387468755245
228.0,-0.4998841881752014,-1.686318039894104,2.0559029579162598,-1.8994706869125366,-1.5237396955490112,1.0703554153442383,0.7431325912475586,-0.16856952011585236,0.6688119769096375,0.00020297257287893444,0.9995141625404358,0.030446289107203484,-0.0066633387468755245
229.0,-0.49276190996170044,-1.6821202039718628,2.052142381668091,-1.900244116783142,-1.5234495401382446,1.0774797201156616,0.7474491596221924,-0.16490498185157776,0.6689779162406921,0.00020297257287893444,0.9995141625404358,0.030446289107203484,-0.0066633387468755245
230.0,-0.4870973229408264,-1.6771540641784668,2.0464065074920654,-1.893567681312561,-1.529428482055664,1.083370327949524,0.7510378956794739,-0.1631236970424652,0.6690245866775513,0.00031637083156965673,0.9995161890983582,0.02914857491850853,-0.01084848027676344
231.0,-0.48734918236732483,-1.6770340204238892,2.0463216304779053,-1.893592357635498,-1.52944016456604,1.0831185579299927,0.7510771751403809,-0.16335751116275787,0.6690101027488708,0.00031637083156965673,0.9995161890983582,0.02914857491850853,-0.01084848027676344
232.0,-0.5351587533950806,-1.6608866453170776,2.018439292907715,-1.78857421875,-1.4222707748413086,0.8106387853622437,0.7520198822021484,-0.1856338530778885,0.666465163230896,-0.10653125494718552,0.9891025424003601,0.10103970766067505,-0.010882476344704628
233.0,-0.5352905988693237,-1.6566193103790283,2.0153615474700928,-1.7897441387176514,-1.4222891330718994,0.8105067610740662,0.7548813223838806,-0.18744780123233795,0.665973424911499,-0.10653125494718552,0.9891025424003601,0.10103970766067505,-0.010882476344704628
234.0,-0.5241519212722778,-1.6474138498306274,2.0026440620422363,-1.7685202360153198,-1.4418716430664062,0.6805124878883362,0.7603133916854858,-0.18444478511810303,0.666212260723114,-0.1761208325624466,0.9791292548179626,0.09982539713382721,-0.017956089228391647
235.0,-0.5214396119117737,-1.6458470821380615,2.0010900497436523,-1.7688807249069214,-1.4414466619491577,0.6832137703895569,0.7620624303817749,-0.18302592635154724,0.6663607358932495,-0.1761208325624466,0.9791292548179626,0.09982539713382721,-0.017956089228391647
236.0,-0.48214849829673767,-1.6686962842941284,2.0392675399780273,-1.8950916528701782,-1.5291990041732788,1.088318109512329,0.7579997181892395,-0.16259080171585083,0.6689045429229736,0.00031637083156965673,0.9995161890983582,0.02914857491850853,-0.01084848027676344
237.0,-0.5167775750160217,-1.6402469873428345,1.996291160583496,-1.7702826261520386,-1.440718412399292,0.6878575682640076,0.7670655846595764,-0.181706041097641,0.6662563681602478,-0.1761208325624466,0.9791292548179626,0.09982539713382721,-0.017956089228391647
238.0,-0.5113420486450195,-1.6355754137039185,1.9920146465301514,-1.7714216709136963,-1.4399142265319824,0.6932439804077148,0.7716347575187683,-0.1794089674949646,0.6663718819618225,-0.17613837122917175,0.9791290163993835,0.09979747980833054,-0.01795285940170288
239.0,-0.5013221502304077,-1.648598551750183,2.013540506362915,-1.8384275436401367,-1.4868861436843872,1.0680946111679077,0.7669437527656555,-0.17635005712509155,0.6671161651611328,0.0013515327591449022,0.9979388117790222,0.06010684743523598,-0.022439155727624893
240.0,-0.5151695609092712,-1.65691339969635,2.0214579105377197,-1.837051510810852,-1.488490343093872,1.054276704788208,0.7580351829528809,-0.18361690640449524,0.6666390299797058,0.0013474011793732643,0.997948169708252,0.05995596945285797,-0.022427063435316086
241.0,-0.5265993475914001,-1.6730878353118896,2.0380046367645264,-1.848777413368225,-1.4762206077575684,1.0418061017990112,0.7464112639427185,-0.1845788061618805,0.6668801307678223,0.0008611316443420947,0.9979403614997864,0.06265944242477417,-0.013714740052819252
242.0,-0.5212903618812561,-1.6717809438705444,2.0364394187927246,-1.8490220308303833,-1.4757609367370605,1.0471190214157104,0.7485193014144897,-0.18118597567081451,0.6672500967979431,0.0008611316443420947,0.9979403614997864,0.06265944242477417,-0.013714740052819252
243.0,-0.5395350456237793,-1.6647261381149292,2.0219357013702393,-1.7875840663909912,-1.422881841659546,0.8062573075294495,0.7483020424842834,-0.18729639053344727,0.666293203830719,-0.10653125494718552,0.9891025424003601,0.10103970766067505,-0.010882476344704628
244.0,-0.5418279767036438,-1.6673128604888916,2.0241692066192627,-1.7868930101394653,-1.4232032299041748,0.803961992263794,0.7459695935249329,-0.18792466819286346,0.666269063949585,-0.10653125494718552,0.9891025424003601,0.10103970766067505,-0.010882476344704628
245.0,-0.5278729200363159,-1.6771454811096191,2.0412466526031494,-1.8478416204452515,-1.4763312339782715,1.0405317544937134,0.7433274388313293,-0.1838882565498352,0.6670520305633545,0.0008611316443420947,0.9979403614997864,0.06265944242477417,-0.013714740052819252
246.0,-0.5316867828369141,-1.6817817687988281,2.045171022415161,-1.846770167350769,-1.476663589477539,1.0367153882980347,0.7392774224281311,-0.18481463193893433,0.6670464873313904,0.0008611316443420947,0.9979403614997864,0.06265944242477417,-0.013714740052819252
247.0,-0.5305718779563904,-1.68382728099823,2.046602725982666,-1.8462613821029663,-1.4765663146972656,1.0378309488296509,0.738131582736969,-0.1831800788640976,0.6672841906547546,0.0008611316443420947,0.9979403614997864,0.06265944242477417,-0.013714740052819252
248.0,-0.515382707118988,-1.7023451328277588,2.069422960281372,-1.896185040473938,-1.5242557525634766,1.0548498630523682,0.7289260029792786,-0.17364081740379333,0.6686912775039673,0.00020321141346357763,0.9995121955871582,0.03051331825554371,-0.00665651261806488
249.0,-0.5653636455535889,-1.6928577423095703,2.0508856773376465,-1.8065593242645264,-1.407392144203186,0.923884391784668,0.7266255617141724,-0.19323773682117462,0.6659933924674988,-0.03556915745139122,0.9941788911819458,0.10163642466068268,-0.0036362893879413605
250.0,-0.5648317933082581,-1.6937626600265503,2.051433801651001,-1.806289792060852,-1.4073272943496704,0.9244194030761719,0.726169228553772,-0.19248531758785248,0.666155219078064,-0.03556915745139122,0.9941788911819458,0.10163642466068268,-0.0036362893879413605
251.0,-0.5194898247718811,-1.710784673690796,2.077850103378296,-1.9029419422149658,-1.5188846588134766,1.050540804862976,0.7233055830001831,-0.17287667095661163,0.6687933802604675,7.042141805868596e-05,0.9995110034942627,0.031190890818834305,-0.0022566518746316433
252.0,-0.5685884952545166,-1.701045036315918,2.057164192199707,-1.8041235208511353,-1.407786250114441,0.9206406474113464,0.7203994989395142,-0.19207344949245453,0.6663252711296082,-0.03556915745139122,0.9941788911819458,0.10163642466068268,-0.0036362893879413605
253.0,-0.5459453463554382,-1.7022241353988647,2.065140724182129,-1.8589255809783936,-1.4659634828567505,1.0215200185775757,0.7243778109550476,-0.18600867688655853,0.6672492027282715,0.00029663374880328774,0.9979304671287537,0.06413757055997849,-0.0046153892762959
254.0,-0.5513648390769958,-1.6982656717300415,2.062755584716797,-1.859931230545044,-1.4663699865341187,1.0160859823226929,0.7257810831069946,-0.191494420170784,0.6665281057357788,0.00029663374880328774,0.9979304671287537,0.06413757055997849,-0.0046153892762959
255.0,-0.5537225604057312,-1.7025381326675415,2.066206693649292,-1.8588638305664062,-1.4665477275848389,1.0137221813201904,0.7223535180091858,-0.191398486495018,0.6665722131729126,0.00029663374880328774,0.9979304671287537,0.06413757055997849,-0.0046153892762959
256.0,-0.5509209036827087,-1.7074300050735474,2.0695443153381348,-1.8576022386550903,-1.4663366079330444,1.0165311098098755,0.7197272181510925,-0.18739467859268188,0.6671133041381836,0.00029663374880328774,0.9979304671287537,0.06413757055997849,-0.0046153892762959
257.0,-0.5760411024093628,-1.7082170248031616,2.0633604526519775,-1.8019486665725708,-1.408726453781128,0.9131330251693726,0.7137653827667236,-0.19424137473106384,0.6659764647483826,-0.03557684272527695,0.9941799640655518,0.1016232967376709,-0.0036366009153425694
258.0,-0.5741066932678223,-1.7094908952713013,2.063910484313965,-1.8015254735946655,-1.4084646701812744,0.9150909781455994,0.7134457230567932,-0.1923639327287674,0.6663681268692017,-0.03556915745139122,0.9941788911819458,0.10163642466068268,-0.0036362893879413605
259.0,-0.5779634714126587,-1.711936354637146,2.0662198066711426,-1.8007771968841553,-1.4089643955230713,0.911200225353241,0.7108485698699951,-0.1939982771873474,0.6660696268081665,-0.03557684272527695,0.9941799640655518,0.1016232967376709,-0.0036366009153425694
260.0,-0.5784416198730469,-1.713756799697876,2.0675368309020996,-1.8001961708068848,-1.4090237617492676,0.9107194542884827,0.709545373916626,-0.1935586780309677,0.6661794781684875,-0.03557684272527695,0.9941799640655518,0.1016232967376709,-0.0036366009153425694
261.0,-0.5748476982116699,-1.711695909500122,2.065540075302124,-1.800829291343689,-1.4085561037063599,0.9143458604812622,0.7118203043937683,-0.19194859266281128,0.6664776802062988,-0.03556915745139122,0.9941788911819458,0.10163642466068268,-0.0036362893879413605
262.0,-0.575198769569397,-1.712568998336792,2.066192865371704,-1.8005521297454834,-1.4085994958877563,0.9139928221702576,0.7111624479293823,-0.1918235719203949,0.666513204574585,-0.03556915745139122,0.9941788911819458,0.10163642466068268,-0.0036362893879413605
263.0,-0.5326458215713501,-1.7335412502288818,2.095998525619507,-1.8976151943206787,-1.5192238092422485,1.0373713970184326,0.7051700353622437,-0.1731250286102295,0.6688594222068787,7.008970715105534e-05,0.9995090365409851,0.03125426918268204,-0.0022414636332541704
264.0,-0.5238056182861328,-1.7295007705688477,2.092499256134033,-1.898651123046875,-1.519035816192627,1.0462217330932617,0.709611713886261,-0.1685485541820526,0.6691256165504456,7.042141805868596e-05,0.9995110034942627,0.031190890818834305,-0.0022566518746316433
265.0,-0.7130914926528931,-1.6010017395019531,1.9699381589889526,-1.2704756259918213,-1.0148265361785889,0.5883556604385376,0.7121289372444153,-0.24251237511634827,0.6335014700889587,-0.032643742859363556,0.9121485352516174,0.4082963466644287,-0.014612006954848766
266.0,-0.7087539434432983,-1.6033092737197876,1.9670764207839966,-1.267369031906128,-1.0120829343795776,0.5923527479171753,0.7133439183235168,-0.23909348249435425,0.6372222900390625,-0.032631855458021164,0.9121341705322266,0.4083298444747925,-0.014608114026486874
267.0,-0.7467263340950012,-1.6490092277526855,2.0233209133148193,-1.334537148475647,-0.9493978023529053,0.6939213275909424,0.6888874173164368,-0.2412952184677124,0.6351078152656555,0.032643742859363556,0.9121485352516174,0.4082963466644287,0.014612006954848766
268.0,-0.7471191883087158,-1.649359107017517,2.0237064361572266,-1.334342360496521,-0.9496230483055115,0.6935255527496338,0.6885045170783997,-0.24133750796318054,0.6350299715995789,0.032643742859363556,0.9121485352516174,0.4082963466644287,0.014612006954848766
269.0,-0.749557614326477,-1.6516478061676025,2.0261166095733643,-1.33303701877594,-0.9510229825973511,0.6910715699195862,0.6860753893852234,-0.24154448509216309,0.6346043944358826,0.032643742859363556,0.9121485352516174,0.4082963466644287,0.014612006954848766
270.0,-0.5370519161224365,-1.7459062337875366,2.1072590351104736,-1.903983473777771,-1.5147943496704102,1.0328152179718018,0.6969891786575317,-0.1710231900215149,0.6690099835395813,-7.009241380728781e-05,0.9995090365409851,0.03125426918268204,0.0022415502462536097
271.0,-0.5382428765296936,-1.7440470457077026,2.105929136276245,-1.9044458866119385,-1.5148279666900635,1.0316228866577148,0.6980112791061401,-0.17259135842323303,0.6689164042472839,-7.009241380728781e-05,0.9995090365409851,0.03125426918268204,0.0022415502462536097
272.0,-0.5913811922073364,-1.7360867261886597,2.090139389038086,-1.8225823640823364,-1.3942859172821045,1.0418980121612549,0.6955251097679138,-0.19232964515686035,0.6665382385253906,0.03557684272527695,0.9941799640655518,0.1016232967376709,0.003636601148173213
273.0,-0.5703685879707336,-1.7371551990509033,2.0965960025787354,-1.8683120012283325,-1.457757830619812,0.9963294863700867,0.697772204875946,-0.1881331354379654,0.667198896408081,-0.00029610542696900666,0.9979262948036194,0.06420359015464783,0.004602411761879921
274.0,-0.5791864395141602,-1.7402914762496948,2.099776029586792,-1.8673593997955322,-1.4583078622817993,0.9874725937843323,0.693663477897644,-0.19279487431049347,0.6665586233139038,-0.00029610542696900666,0.9979262948036194,0.06420359015464783,0.004602411761879921
275.0,-0.5468950867652893,-1.7540864944458008,2.113832950592041,-1.9018267393112183,-1.5150742530822754,1.0229606628417969,0.6896013617515564,-0.1744733303785324,0.6687608361244202,-7.009241380728781e-05,0.9995090365409851,0.03125426918268204,0.0022415502462536097
276.0,-0.5508012175559998,-1.762608528137207,2.120264768600464,-1.8995190858840942,-1.5151867866516113,1.019050121307373,0.683181881904602,-0.17366497218608856,0.668782651424408,-7.009241380728781e-05,0.9995090365409851,0.03125426918268204,0.0022415502462536097
277.0,-0.5808023810386658,-1.747953176498413,2.105388641357422,-1.8651280403137207,-1.4584096670150757,0.9858496189117432,0.688316822052002,-0.19063016772270203,0.6667890548706055,-0.00029610542696900666,0.9979262948036194,0.06420359015464783,0.004602411761879921
278.0,-0.5884791612625122,-1.754373550415039,2.1106882095336914,-1.8631443977355957,-1.4588971138000488,0.9781398773193359,0.6823827624320984,-0.19302846491336823,0.6664243936538696,-0.00029610542696900666,0.9979262948036194,0.06420359015464783,0.004602411761879921
279.0,-0.5950573086738586,-1.766078233718872,2.1194372177124023,-1.859452486038208,-1.4593199491500854,0.9715341925621033,0.6733759641647339,-0.19236411154270172,0.6664271354675293,-0.00029610542696900666,0.9979262948036194,0.06420359015464783,0.004602411761879921
280.0,-0.5896950960159302,-1.7623764276504517,2.116377353668213,-1.8607902526855469,-1.459070086479187,0.9769262075424194,0.6769816279411316,-0.19043336808681488,0.6667097806930542,-0.00029663374880328774,0.9979304671287537,0.06413757055997849,0.0046153892762959
281.0,-0.6063482165336609,-1.7596601247787476,2.1081855297088623,-1.814398169517517,-1.395816445350647,1.0267635583877563,0.6767693161964417,-0.19204378128051758,0.6663202047348022,0.03557053208351135,0.9941790699958801,0.10163406282663345,0.00363634480163455
282.0,-0.6068260073661804,-1.7624377012252808,2.1100547313690186,-1.8134057521820068,-1.3958665132522583,1.0262809991836548,0.6749155521392822,-0.19115325808525085,0.666476309299469,0.03557053208351135,0.9941790699958801,0.10163406282663345,0.00363634480163455
283.0,-0.6087275743484497,-1.766497015953064,2.1129612922668457,-1.81191885471344,-1.3960660696029663,1.0243606567382812,0.6719045639038086,-0.19062873721122742,0.6665399670600891,0.03557053208351135,0.9941790699958801,0.10163406282663345,0.00363634480163455
284.0,-0.5585399866104126,-1.774943232536316,2.1295371055603027,-1.8961198329925537,-1.5155032873153687,1.0113059282302856,0.6735655069351196,-0.17384740710258484,0.6687279939651489,-7.042268407531083e-05,0.9995110034942627,0.031191175803542137,0.002256672130897641
285.0,-0.5519541501998901,-1.7732772827148438,2.1280250549316406,-1.8966387510299683,-1.51531183719635,1.0178991556167603,0.6759251356124878,-0.17012999951839447,0.6689708828926086,-7.042268407531083e-05,0.9995110034942627,0.031191175803542137,0.002256672130897641
286.0,-0.5602186322212219,-1.7796173095703125,2.134840726852417,-1.904829502105713,-1.5120216608047485,1.0095480680465698,0.6711643934249878,-0.17302224040031433,0.6687579154968262,-0.0002032222255365923,0.999512255191803,0.030514130368828773,0.006656689569354057
287.0,-0.5645068287849426,-1.787285566329956,2.1404941082000732,-1.9025624990463257,-1.512113094329834,1.0052534341812134,0.6653467416763306,-0.17270512878894806,0.6686998009681702,-0.0002032222255365923,0.999512255191803,0.030514130368828773,0.006656689569354057
288.0,-0.621109664440155,-1.78816556930542,2.1348631381988525,-1.8360651731491089,-1.384058952331543,1.1566439867019653,0.6588925123214722,-0.18910706043243408,0.66633540391922,0.10653353482484818,0.9891058802604675,0.10100498050451279,0.010878932662308216
289.0,-0.6231789588928223,-1.7943159341812134,2.1390950679779053,-1.8337538242340088,-1.384222149848938,1.1545406579971313,0.6546165347099304,-0.18770961463451385,0.6664292812347412,0.10653159022331238,0.989105761051178,0.10100816190242767,0.010879077017307281
290.0,-0.5702831745147705,-1.7993788719177246,2.1492114067077637,-1.8988476991653442,-1.5122379064559937,0.9994685649871826,0.6564374566078186,-0.17150115966796875,0.6686546802520752,-0.0002032222255365923,0.999512255191803,0.030514130368828773,0.006656689569354057
291.0,-0.6265447735786438,-1.796087622642517,2.1407370567321777,-1.832994818687439,-1.384503722190857,1.151131510734558,0.6526914834976196,-0.18903115391731262,0.6660782098770142,0.10653353482484818,0.9891058802604675,0.10100498050451279,0.010878932662308216
292.0,-0.6018751859664917,-1.7986644506454468,2.146026372909546,-1.8693846464157104,-1.4518320560455322,0.9642861485481262,0.6534329652786255,-0.18277111649513245,0.6671606302261353,-0.0008631352102383971,0.9979352951049805,0.06273633241653442,0.01372973620891571
293.0,-0.6041787266731262,-1.804348111152649,2.1499946117401123,-1.867394208908081,-1.4519447088241577,0.9619689583778381,0.6493881940841675,-0.1817965805530548,0.6671724319458008,-0.0008631352102383971,0.9979352951049805,0.06273633241653442,0.01372973620891571
294.0,-0.6084794998168945,-1.8098342418670654,2.153986930847168,-1.8653877973556519,-1.452156662940979,0.9576429724693298,0.6450434923171997,-0.18214941024780273,0.6670082807540894,-0.0008631352102383971,0.9979352951049805,0.06273633241653442,0.01372973620891571
295.0,-0.6313919425010681,-1.806894302368164,2.1482107639312744,-1.8287490606307983,-1.3848997354507446,1.1462117433547974,0.6449494361877441,-0.1872812658548355,0.6660907864570618,0.10653159022331238,0.989105761051178,0.10100816190242767,0.010879077017307281
296.0,-0.6269307136535645,-1.8031883239746094,2.145233631134033,-1.8303148746490479,-1.3845300674438477,1.1507357358932495,0.6482958197593689,-0.1861565113067627,0.6664646863937378,0.10653159022331238,0.989105761051178,0.10100816190242767,0.010879077017307281
297.0,-0.5647539496421814,-1.8075766563415527,2.154590368270874,-1.8964378833770752,-1.5122257471084595,1.0050101280212402,0.6522151827812195,-0.1645970642566681,0.6690198183059692,-0.0002029801398748532,0.9995142221450806,0.030446205288171768,0.0066636065021157265
298.0,-0.5617941617965698,-1.8011486530303955,2.150045871734619,-1.8984949588775635,-1.512162685394287,1.00797438621521,0.6568936705589294,-0.16529449820518494,0.6690396666526794,-0.0002029801398748532,0.9995142221450806,0.030446205288171768,0.0066636065021157265
299.0,-0.5645719170570374,-1.797865390777588,2.14789080619812,-1.8993756771087646,-1.5121145248413086,1.0051883459091187,0.6584939360618591,-0.16841566562652588,0.6688706874847412,-0.0002032222255365923,0.999512255191803,0.030514130368828773,0.006656689569354057
300.0,-0.5608646869659424,-1.7981078624725342,2.1479005813598633,-1.8994451761245728,-1.5121430158615112,1.0089051723480225,0.6590284705162048,-0.16592496633529663,0.669029712677002,-0.0002029801398748532,0.9995142221450806,0.030446205288171768,0.0066636065021157265
301.0,-0.5571256279945374,-1.7901278734207153,2.1421544551849365,-1.9018986225128174,-1.5120644569396973,1.0126498937606812,0.6648986339569092,-0.16671857237815857,0.6690595746040344,-0.0002029801398748532,0.9995142221450806,0.030446205288171768,0.0066636065021157265
302.0,-0.7897663712501526,-1.7089018821716309,2.0893146991729736,-1.4047698974609375,-0.8950620293617249,0.799382746219635,0.6558563113212585,-0.23901857435703278,0.6338827610015869,0.0977756530046463,0.9076090455055237,0.4059230387210846,0.04372961446642876
303.0,-0.7593914866447449,-1.666016936302185,2.0367045402526855,-1.323485255241394,-0.9566696286201477,0.681167721748352,0.6739310026168823,-0.24001704156398773,0.6353384256362915,0.03263326361775398,0.9121357798576355,0.40832585096359253,0.014608575962483883
304.0,-0.7527098655700684,-1.6606922149658203,2.0304946899414062,-1.3264609575271606,-0.9528087973594666,0.6878492832183838,0.6800520420074463,-0.23908795416355133,0.6368657946586609,0.03263326361775398,0.9121357798576355,0.40832585096359253,0.014608575962483883
305.0,-0.7946668863296509,-1.7201918363571167,2.0956954956054688,-1.3965164422988892,-0.8976155519485474,0.7940276265144348,0.6481099128723145,-0.235978901386261,0.6353587508201599,0.0977756530046463,0.9076090455055237,0.4059230387210846,0.04372961446642876
306.0,-0.8021602034568787,-1.730940341949463,2.103694438934326,-1.388767123222351,-0.9015775918960571,0.7859364151954651,0.639337956905365,-0.23429368436336517,0.63511061668396,0.0977863296866417,0.9076198935508728,0.40589603781700134,0.043730951845645905
307.0,-0.8054079413414001,-1.7335288524627686,2.106649398803711,-1.3869553804397583,-0.9032913446426392,0.782421350479126,0.6364887952804565,-0.23449839651584625,0.6342085003852844,0.0977863296866417,0.9076198935508728,0.40589603781700134,0.043730951845645905
308.0,-0.8042324185371399,-1.7336723804473877,2.1058075428009033,-1.3867570161819458,-0.9026703834533691,0.7836925387382507,0.6370387673377991,-0.23392683267593384,0.6349638104438782,0.0977863296866417,0.9076198935508728,0.40589603781700134,0.043730951845645905
309.0,-0.8865041136741638,-1.7047237157821655,2.123260736465454,-1.102065086364746,-0.6477503776550293,0.5760433077812195,0.6171659231185913,-0.24390088021755219,0.6121083498001099,0.1471099704504013,0.817857027053833,0.547512412071228,0.0984824150800705
310.0,-0.8341153860092163,-1.7944519519805908,2.1648662090301514,-1.466719150543213,-0.8483130931854248,0.9103905558586121,0.6120405197143555,-0.22372984886169434,0.6372947692871094,0.1616276204586029,0.898622453212738,0.4014240503311157,0.07220073789358139
311.0,-0.8358395099639893,-1.7954468727111816,2.166339635848999,-1.4658474922180176,-0.8491018414497375,0.9083476066589355,0.6107568144798279,-0.22392849624156952,0.6365876793861389,0.1616276204586029,0.898622453212738,0.4014240503311157,0.07220073789358139
312.0,-0.8301318883895874,-1.7833646535873413,2.1593410968780518,-1.4756487607955933,-0.8466337323188782,0.9153295755386353,0.61882084608078,-0.2274484634399414,0.6360415816307068,0.16167013347148895,0.898659348487854,0.40132468938827515,0.07219890505075455
313.0,-0.8310202360153198,-1.7843674421310425,2.16023850440979,-1.474843978881836,-0.8470372557640076,0.914273202419281,0.617938220500946,-0.22732187807559967,0.6358307600021362,0.16167013347148895,0.898659348487854,0.40132468938827515,0.07219890505075455
314.0,-0.829685389995575,-1.7788203954696655,2.157869815826416,-1.4790740013122559,-0.8464311957359314,0.9158607721328735,0.6210165619850159,-0.22942595183849335,0.6348274350166321,0.16167013347148895,0.898659348487854,0.40132468938827515,0.07219890505075455
315.0,-0.8306434154510498,-1.7783092260360718,2.1584432125091553,-1.4794033765792847,-0.8468660116195679,0.9147211909294128,0.6207497715950012,-0.2300441861152649,0.634077250957489,0.16167013347148895,0.898659348487854,0.40132468938827515,0.07219890505075455
316.0,-0.8314889669418335,-1.778159499168396,2.1590254306793213,-1.4794700145721436,-0.8472503423690796,0.9137160778045654,0.6203831434249878,-0.2304464429616928,0.6335140466690063,0.16167013347148895,0.898659348487854,0.40132468938827515,0.07219890505075455
317.0,-0.6384848356246948,-1.8239984512329102,2.1661388874053955,-1.8555790185928345,-1.3758108615875244,1.2826812267303467,0.6361823678016663,-0.18462729454040527,0.6660742163658142,0.17613965272903442,0.9791290163993835,0.09979542344808578,0.01795262098312378
318.0,-0.575768232345581,-1.8306405544281006,2.172595262527466,-1.899170160293579,-1.5100809335708618,0.9939826130867004,0.6364477872848511,-0.16234411299228668,0.6688433885574341,-0.00031637083156965673,0.9995161890983582,0.02914857491850853,0.01084848027676344
319.0,-0.6423494815826416,-1.8365323543548584,2.174429178237915,-1.850574016571045,-1.376033902168274,1.278748631477356,0.6278102993965149,-0.1814000904560089,0.6660963296890259,0.17613965272903442,0.9791290163993835,0.09979542344808578,0.01795262098312378
320.0,-0.6444272398948669,-1.850659728050232,2.183209180831909,-1.844815969467163,-1.376151204109192,1.2766315937042236,0.619018018245697,-0.17640362679958344,0.6664298176765442,0.17613837122917175,0.9791290163993835,0.09979747980833054,0.01795285940170288
321.0,-0.6293870806694031,-1.8627885580062866,2.197596788406372,-1.8884460926055908,-1.4438904523849487,0.936871349811554,0.6122219562530518,-0.17300470173358917,0.6666015982627869,-0.0017202846938744187,0.997949481010437,0.0562291219830513,0.03053145855665207
322.0,-0.6246657371520996,-1.8614418506622314,2.196352005004883,-1.889150619506836,-1.4438108205795288,0.9416303634643555,0.6139973402023315,-0.1707932949066162,0.6669607758522034,-0.0017202846938744187,0.997949481010437,0.0562291219830513,0.03053145855665207
323.0,-0.5852614641189575,-1.856318473815918,2.191673517227173,-1.9005959033966064,-1.5090018510818481,0.9845569133758545,0.6195737719535828,-0.15803691744804382,0.6686951518058777,-0.00040292649646289647,0.9995188117027283,0.027277294546365738,0.014764389023184776
324.0,-0.5847606062889099,-1.8563323020935059,2.1916615962982178,-1.9006010293960571,-1.508998990058899,0.9850587844848633,0.6196527481079102,-0.1577259749174118,0.6687144637107849,-0.00040292649646289647,0.9995188117027283,0.027277294546365738,0.014764389023184776
325.0,-0.8465648889541626,-1.8045592308044434,2.176030158996582,-1.458094835281372,-0.8540547490119934,0.8957023024559021,0.6015915870666504,-0.2237274944782257,0.6332334280014038,0.1616276204586029,0.898622453212738,0.4014240503311157,0.07220073789358139
326.0,-0.8423929810523987,-1.8049858808517456,2.173173427581787,-1.4580377340316772,-0.8521187901496887,0.9006079435348511,0.603465735912323,-0.22193829715251923,0.6358341574668884,0.1616276204586029,0.898622453212738,0.4014240503311157,0.07220073789358139
327.0,-0.8636926412582397,-1.8485175371170044,2.224498748779297,-1.5658495426177979,-0.8036332726478577,1.0474647283554077,0.5902655124664307,-0.2165037989616394,0.6353617906570435,0.2240392118692398,0.8854080438613892,0.39481499791145325,0.09990201145410538
328.0,-0.866241455078125,-1.8551383018493652,2.2280402183532715,-1.560491919517517,-0.8045836091041565,1.0441808700561523,0.5863470435142517,-0.21421268582344055,0.6355306506156921,0.2240392118692398,0.8854080438613892,0.39481499791145325,0.09990201145410538
329.0,-0.8696008324623108,-1.8583338260650635,2.231163740158081,-1.5574272871017456,-0.8058443069458008,1.039862036705017,0.583477258682251,-0.21385592222213745,0.6343606114387512,0.2240392118692398,0.8854080438613892,0.39481499791145325,0.09990201145410538
330.0,-0.8706314563751221,-1.867397427558899,2.2341973781585693,-1.5505245923995972,-0.806263267993927,1.0385791063308716,0.5793206095695496,-0.20985820889472961,0.6360743641853333,0.22404806315898895,0.8854144811630249,0.39479562640190125,0.09990032762289047
331.0,-0.8734952807426453,-1.8687958717346191,2.2364578247070312,-1.548846960067749,-0.8073476552963257,1.034908413887024,0.5774449706077576,-0.21018582582473755,0.6347606182098389,0.22404806315898895,0.8854144811630249,0.39479562640190125,0.09990032762289047
332.0,-0.8762534260749817,-1.871248483657837,2.2388851642608643,-1.5463403463363647,-0.8083683252334595,1.03134024143219,0.5752002000808716,-0.2099592685699463,0.6337939500808716,0.2240392118692398,0.8854080438613892,0.39481499791145325,0.09990201145410538
333.0,-0.8765360713005066,-1.8699750900268555,2.238760471343994,-1.5472397804260254,-0.8084763288497925,1.030979037284851,0.5755807161331177,-0.21066910028457642,0.6333004236221313,0.2240392118692398,0.8854080438613892,0.39481499791145325,0.09990201145410538
334.0,-0.5757442712783813,-1.8638052940368652,2.1960508823394775,-1.8980717658996582,-1.5089433193206787,0.9940919280052185,0.6165651082992554,-0.14921151101589203,0.6690884828567505,-0.0004030138370580971,0.9995186924934387,0.02728177420794964,0.014765162020921707
335.0,-0.5792165994644165,-1.8643457889556885,2.1965348720550537,-1.897800326347351,-1.5089609622955322,0.9906129837036133,0.6156519055366516,-0.1510988026857376,0.6689583659172058,-0.0004030138370580971,0.9995186924934387,0.02728177420794964,0.014765162020921707
336.0,-0.5817857384681702,-1.868064045906067,2.198983669281006,-1.8963754177093506,-1.5089828968048096,0.9880392551422119,0.6129294633865356,-0.15115007758140564,0.6688751578330994,-0.00040292649646289647,0.9995188117027283,0.027277294546365738,0.014764389023184776
337.0,-0.5843225717544556,-1.864323377609253,2.196730852127075,-1.8977062702178955,-1.508996605873108,0.9854975938796997,0.6148011088371277,-0.15419979393482208,0.6687637567520142,-0.00040292649646289647,0.9995188117027283,0.027277294546365738,0.014764389023184776
338.0,-0.6234479546546936,-1.870337724685669,2.2017478942871094,-1.885801911354065,-1.4437810182571411,0.942857027053833,0.6089472770690918,-0.16625897586345673,0.6671650409698486,-0.0017205090261995792,0.9979491233825684,0.056234315037727356,0.030532609671354294
339.0,-0.6527324318885803,-1.8804502487182617,2.2085282802581787,-1.8667539358139038,-1.3706932067871094,1.4105321168899536,0.6026813387870789,-0.1691456139087677,0.6662388443946838,0.24405883252620697,0.9644716382026672,0.09805148839950562,0.02481185458600521
340.0,-0.6261333227157593,-1.8809702396392822,2.208430051803589,-1.881508708000183,-1.4438254833221436,0.940150260925293,0.602121889591217,-0.16329027712345123,0.6670832633972168,-0.0017205090261995792,0.9979491233825684,0.056234315037727356,0.030532609671354294
341.0,-0.6345446705818176,-1.8857439756393433,2.2119839191436768,-1.8792201280593872,-1.4439805746078491,0.9316727519035339,0.5976553559303284,-0.16611750423908234,0.6664894819259644,-0.0017202846938744187,0.997949481010437,0.0562291219830513,0.03053145855665207
342.0,-0.6254743337631226,-1.8861925601959229,2.2114992141723633,-1.8794394731521606,-1.4438145160675049,0.9408144354820251,0.5991764068603516,-0.16068656742572784,0.6671978235244751,-0.0017205090261995792,0.9979491233825684,0.056234315037727356,0.030532609671354294
343.0,-0.6289025545120239,-1.8902487754821777,2.2141857147216797,-1.8776323795318604,-1.443872332572937,0.9373589158058167,0.5961329340934753,-0.1609400063753128,0.6669827103614807,-0.0017205090261995792,0.9979491233825684,0.056234315037727356,0.030532609671354294
344.0,-0.657219648361206,-1.8969310522079468,2.2186124324798584,-1.8594574928283691,-1.3708703517913818,1.4059776067733765,0.592282772064209,-0.16444836556911469,0.6660715341567993,0.24406898021697998,0.9644708633422852,0.09803573787212372,0.024808920919895172
345.0,-0.6534640192985535,-1.8894258737564087,2.213837146759033,-1.8629484176635742,-1.3707478046417236,1.4098076820373535,0.5973725914955139,-0.16562694311141968,0.6663559079170227,0.24406898021697998,0.9644708633422852,0.09803573787212372,0.024808920919895172
346.0,-0.6520073413848877,-1.8890835046768188,2.2134485244750977,-1.8631972074508667,-1.3707010746002197,1.4112931489944458,0.5978855490684509,-0.16495560109615326,0.6665273308753967,0.24406898021697998,0.9644708633422852,0.09803573787212372,0.024808920919895172
347.0,-0.5835079550743103,-1.8777598142623901,2.2050862312316895,-1.892672061920166,-1.508983850479126,0.9863134622573853,0.6067011952400208,-0.1482662409543991,0.6688486933708191,-0.0004030138370580971,0.9995186924934387,0.02728177420794964,0.014765162020921707
348.0,-0.5778128504753113,-1.8775718212127686,2.204742431640625,-1.8928687572479248,-1.5089538097381592,0.9920194149017334,0.607744038105011,-0.1449389010667801,0.6690613627433777,-0.0004030138370580971,0.9995186924934387,0.02728177420794964,0.014765162020921707
349.0,-0.5789759755134583,-1.8824355602264404,2.207777738571167,-1.8909683227539062,-1.5089597702026367,0.9908540844917297,0.6045798659324646,-0.14368879795074463,0.6690361499786377,-0.0004030138370580971,0.9995186924934387,0.02728177420794964,0.014765162020921707
350.0,-0.5836430788040161,-1.8876824378967285,2.213146448135376,-1.8993489742279053,-1.5090187788009644,0.9863351583480835,0.6013471484184265,-0.14483213424682617,0.6688677072525024,-0.0004565630224533379,0.9995217323303223,0.024913225322961807,0.018317362293601036
351.0,-0.58016037940979,-1.8904310464859009,2.214702606201172,-1.898371934890747,-1.5090298652648926,0.9898244738578796,0.600224494934082,-0.14167499542236328,0.6689841747283936,-0.0004565630224533379,0.9995217323303223,0.024913225322961807,0.018317362293601036
352.0,-0.6546105146408081,-1.9115055799484253,2.2331936359405518,-1.8882572650909424,-1.3685365915298462,1.549756646156311,0.5870275497436523,-0.15809649229049683,0.6665318608283997,0.3101240396499634,0.9453181028366089,0.09594795852899551,0.03147698938846588
353.0,-0.5854554772377014,-1.895530104637146,2.2179975509643555,-1.896240472793579,-1.509013295173645,0.9845193028450012,0.5962986946105957,-0.14274832606315613,0.6687866449356079,-0.0004565630224533379,0.9995217323303223,0.024913225322961807,0.018317362293601036
354.0,-0.5825840830802917,-1.902799129486084,2.222263813018799,-1.8934153318405151,-1.5090219974517822,0.9873961806297302,0.5923518538475037,-0.13816829025745392,0.6688705086708069,-0.0004565630224533379,0.9995217323303223,0.024913225322961807,0.018317362293601036
355.0,-0.5754316449165344,-1.89788019657135,2.2190537452697754,-1.8955636024475098,-1.5090360641479492,0.9945619106292725,0.596417248249054,-0.13593646883964539,0.6691310405731201,-0.00045669375685974956,0.9995215535163879,0.02491820603609085,0.018318945541977882
356.0,-0.9025393724441528,-1.9390997886657715,2.3024613857269287,-1.6479980945587158,-0.772412121295929,1.181004524230957,0.5501042008399963,-0.19409380853176117,0.6332331895828247,0.28486040234565735,0.8680999875068665,0.3862541913986206,0.12674635648727417
357.0,-0.9022592902183533,-1.9412471055984497,2.3028876781463623,-1.6465529203414917,-0.7723330855369568,1.181389570236206,0.5493978261947632,-0.1929629147052765,0.6337796449661255,0.28486040234565735,0.8680999875068665,0.3862541913986206,0.12674635648727417
358.0,-0.5750091671943665,-1.902706503868103,2.2219369411468506,-1.893646478652954,-1.5090376138687134,0.9949851632118225,0.5935484766960144,-0.13378845155239105,0.6691330671310425,-0.00045669375685974956,0.9995215535163879,0.02491820603609085,0.018318945541977882
359.0,-0.5749742388725281,-1.9035699367523193,2.2224512100219727,-1.8932996988296509,-1.509037733078003,0.9950201511383057,0.5930299162864685,-0.133428692817688,0.6691319942474365,-0.00045669375685974956,0.9995215535163879,0.02491820603609085,0.018318945541977882
360.0,-0.5796496272087097,-1.9064767360687256,2.2243475914001465,-1.8919999599456787,-1.509021520614624,0.9903358817100525,0.5905763506889343,-0.1350032389163971,0.6689634323120117,-0.00045669375685974956,0.9995215535163879,0.02491820603609085,0.018318945541977882
361.0,-0.5812807083129883,-1.9071630239486694,2.2248122692108154,-1.8916776180267334,-1.5090161561965942,0.9887017011642456,0.5899182558059692,-0.13567815721035004,0.6689056158065796,-0.00045669375685974956,0.9995215535163879,0.02491820603609085,0.018318945541977882
362.0,-0.5813902616500854,-1.9086707830429077,2.2257080078125,-1.8910588026046753,-1.5090157985687256,0.9885919094085693,0.5889938473701477,-0.13514505326747894,0.668898344039917,-0.00045669375685974956,0.9995215535163879,0.02491820603609085,0.018318945541977882
363.0,-0.6559287905693054,-1.9242171049118042,2.240618944168091,-1.8827005624771118,-1.3685423135757446,1.5484110116958618,0.5795774459838867,-0.15329845249652863,0.666419506072998,0.3101240396499634,0.9453181028366089,0.09594795852899551,0.03147698938846588
364.0,-0.6585847735404968,-1.9238135814666748,2.2407147884368896,-1.8827027082443237,-1.3688583374023438,1.5458979606628418,0.5792477130889893,-0.15495914220809937,0.666105329990387,0.3102198839187622,0.9453027844429016,0.09580104053020477,0.03143901377916336
365.0,-0.6300632357597351,-1.9088655710220337,2.2293877601623535,-1.8918488025665283,-1.443134069442749,0.936862051486969,0.5865764021873474,-0.15465973317623138,0.6669623255729675,-0.001948478166013956,0.9979615807533264,0.05131078511476517,0.037896640598773956
366.0,-0.6297464966773987,-1.9122893810272217,2.231368064880371,-1.8904457092285156,-1.4431341886520386,0.9371814131736755,0.5846487879753113,-0.15303359925746918,0.6669838428497314,-0.001948478166013956,0.9979615807533264,0.05131078511476517,0.037896640598773956
367.0,-0.6557980179786682,-1.9300130605697632,2.2438573837280273,-1.8801699876785278,-1.3685417175292969,1.5485445261001587,0.5763475298881531,-0.15072205662727356,0.6664528250694275,0.3101240396499634,0.9453181028366089,0.09594795852899551,0.03147698938846588
368.0,-0.5870183110237122,-1.9193154573440552,2.2321276664733887,-1.8864855766296387,-1.5089986324310303,0.9829531311988831,0.581780731678009,-0.13416828215122223,0.6686826348304749,-0.00045669375685974956,0.9995215535163879,0.02491820603609085,0.018318945541977882
369.0,-0.5869290232658386,-1.9204691648483276,2.2327911853790283,-1.8860008716583252,-1.5089988708496094,0.9830425977706909,0.5811067819595337,-0.13366016745567322,0.6686832904815674,-0.00045669375685974956,0.9995215535163879,0.02491820603609085,0.018318945541977882
370.0,-0.6569474935531616,-1.950252890586853,2.261741876602173,-1.9058414697647095,-1.3705220222473145,1.6886783838272095,0.5668473839759827,-0.14456968009471893,0.6662314534187317,0.37478721141815186,0.9216315150260925,0.09323333948850632,0.03791392594575882
371.0,-0.6275553107261658,-1.930479884147644,2.241637945175171,-1.882806420326233,-1.4431352615356445,0.9393905401229858,0.5745450854301453,-0.14418111741542816,0.667130708694458,-0.0019484937656670809,0.9979615211486816,0.051311053335666656,0.03789674490690231
372.0,-0.6297519207000732,-1.9468202590942383,2.255101203918457,-1.8973060846328735,-1.444879412651062,0.9381371736526489,0.5660926699638367,-0.13984541594982147,0.6668215990066528,-0.0020241171587258577,0.9979754090309143,0.04542393609881401,0.044470369815826416
373.0,-0.6529039740562439,-1.9593656063079834,2.2664215564727783,-1.9022282361984253,-1.3705358505249023,1.6927515268325806,0.5625178813934326,-0.1385243833065033,0.6664988994598389,0.3747614026069641,0.9216375350952148,0.09327233582735062,0.037926916033029556
374.0,-0.5830331444740295,-1.9361969232559204,2.243687391281128,-1.8899049758911133,-1.5102568864822388,0.9871647357940674,0.5729257464408875,-0.1258912831544876,0.668681263923645,-0.00047490745782852173,0.9995249509811401,0.022061560302972794,0.021516242995858192
375.0,-0.5736837983131409,-1.9279521703720093,2.2386789321899414,-1.8937273025512695,-1.510519027709961,0.9965345859527588,0.5791119337081909,-0.12383051961660385,0.6690387725830078,-0.00047270875074900687,0.9995271563529968,0.021992851048707962,0.021483581513166428
376.0,-0.9209160208702087,-2.008331775665283,2.364870309829712,-1.7653493881225586,-0.7474210262298584,1.3515690565109253,0.5272210240364075,-0.17448583245277405,0.6335544586181641,0.3443440794944763,0.8466715216636658,0.3757875859737396,0.15283402800559998
377.0,-0.578852653503418,-1.9395785331726074,2.245476722717285,-1.8885661363601685,-1.5103060007095337,0.9913525581359863,0.5714908838272095,-0.12222573161125183,0.6687815189361572,-0.00047490745782852173,0.9995249509811401,0.022061560302972794,0.021516242995858192
