Sungjin-Park-dev/vision_inspection/data/output/1000/joint_trajectory_dp_20251102_024109.csv
time,ur20-shoulder_pan_joint,ur20-shoulder_lift_joint,ur20-elbow_joint,ur20-wrist_1_joint,ur20-wrist_2_joint,ur20-wrist_3_joint,target-POS_X,target-POS_Y,target-POS_Z,target-ROT_X,target-ROT_Y,target-ROT_Z,target-ROT_W
0.0,-0.1262811133812082,-2.009574608892784,2.5064368434596216,-2.6924691201046094,-1.776890512133187,-1.6772488717518301,0.5093526542186737,0.10611851513385773,0.6399760767817497,0.9461892247200012,-0.040997982025146484,0.2922854721546173,0.13271905481815338
1.0,-0.1717095647397065,-2.0249763849383076,2.5445006455769192,-2.7950267364892367,-1.727499950314429,-1.70612935338657,0.497710257768631,0.09324850142002106,0.6362260542809963,0.9350377917289734,-0.04402518272399902,0.32876816391944885,0.12521043419837952
2.0,-0.25113843553016996,-2.0270303762434327,2.3530334968567947,-2.0917073973818505,-1.5865438225273354,-1.8175864488056477,0.5304761379957199,0.06890484690666199,0.656253021210432,0.9952202439308167,-0.0029298763256520033,0.092366062104702,0.031568653881549835
3.0,-0.2681437746485128,-2.009360212215628,2.304277696122428,-1.9100433682419045,-1.5739432624507508,-1.8387001406464396,0.5325386673212051,0.06162476912140846,0.6578295417129993,0.9997532367706299,-0.00015481730224564672,0.0209550429135561,0.007386246230453253
4.0,-0.29182328774191924,-2.0244774544711963,2.3115235838687496,-1.9016626347695091,-1.5706424518022204,-1.8623545312160081,0.524240717291832,0.05241638049483299,0.6576165072619915,0.999760091304779,-0.00013082035002298653,0.02100502885878086,0.006226554978638887
5.0,-0.30215417393852295,-2.0294794336491564,2.3336022512087995,-1.9976262321751173,-1.5603392490901293,-1.870715760104841,0.528650313615799,0.04744860157370567,0.6573534682393074,0.9981045722961426,-0.000794661755207926,0.060104284435510635,0.01319632213562727
6.0,-0.3175855617636545,-2.0097617682074227,2.2983514575313717,-1.8791551510307554,-1.568285991636112,-1.888320013177025,0.5326892733573914,0.03688709810376167,0.6580666191875935,0.9999504685401917,-1.8528166037867777e-05,0.009782097302377224,0.0018939956789836287
7.0,-0.35252129706429225,-2.040732663483448,2.338076050444652,-1.9882608613028079,-1.5439851839279286,-1.9207158480888582,0.5241431444883347,0.025751696899533272,0.6573175489902496,0.9981074929237366,-0.0004937903140671551,0.06095879152417183,0.008085066452622414
8.0,-0.39184690669669564,-2.0662053524276933,2.3738476389701675,-2.083340776364307,-1.501086325297593,-1.954049215200733,0.5170785337686539,0.015448220074176788,0.6557137556374073,0.9941584467887878,-0.0007079267525114119,0.107730433344841,0.006532891653478146
9.0,-0.38162740634136005,-2.017951123975292,2.302961210768402,-1.8787134602803839,-1.561880665663076,-1.9523184611428022,0.5295313000679016,0.00556175597012043,0.6580579355359077,0.9999244809150696,-1.5734018461444066e-06,0.01228934433311224,0.00012802009587176144
10.0,-0.39626611725647287,-2.0398484804069805,2.3167333808970554,-1.8843221003037447,-1.5565801997655022,-1.9667818487787754,0.5176624804735184,0.0036725089885294437,0.6576584614813328,0.9998069405555725,-1.0055652637674939e-05,0.01964252069592476,0.00051183404866606
11.0,-0.42361149098723344,-2.0394932065531566,2.3161643903635745,-1.882290680894285,-1.5529629952374915,-1.9941353044383974,0.517840251326561,-0.0099927494302392,0.6576561965048313,0.9998087286949158,1.901899122458417e-05,0.01953565515577793,-0.0009733665501698852
12.0,-0.4393144962253087,-2.0293367836134135,2.3103503507519014,-1.8824990999197446,-1.5521029463706277,-2.0098930675717717,0.5234173089265823,-0.02070087008178234,0.6578525193035603,0.9998387098312378,3.4551801945781335e-05,0.01786097325384617,-0.001934173982590437
13.0,-0.4654479191284011,-2.0335601448836726,2.3126506623144176,-1.8810972799133863,-1.547539031871283,-2.0360111819655273,0.5205147564411163,-0.032486692070961,0.6576811522245407,0.9998106956481934,6.495333218481392e-05,0.019161691889166832,-0.00338910729624331
14.0,-0.46199363400829935,-2.0174733972937613,2.3065324034871684,-1.8982792536904145,-1.5447527048573633,-2.0324319936185327,0.5311038792133331,-0.03542671725153923,0.6579963862895966,0.9997308254241943,7.122393435565755e-05,0.022997844964265823,-0.003096149768680334
15.0,-0.4847941096504913,-2.0213381317175436,2.3065865511956773,-1.8859995941191636,-1.5441160308931567,-2.0553786539758394,0.5271294862031937,-0.04581962525844574,0.6578241921961308,0.9997988939285278,9.392711945110932e-05,0.019465379416942596,-0.004824371542781591
16.0,-0.4944539751624105,-2.003900571899274,2.295747796593255,-1.88293397936649,-1.5506662281631514,-2.0651569784427473,0.5356612950563431,-0.05690888315439224,0.6580413803458214,0.9998978972434998,5.545036765397526e-05,0.0137053607031703,-0.004045475739985704
17.0,-0.524285350338065,-2.01570738062392,2.304201827558042,-1.8886507044138678,-1.5349038471256238,-2.094910004964759,0.5287508219480515,-0.06717561930418015,0.6576037257909775,0.9997312426567078,0.00017761968774721026,0.021687312051653862,-0.008187826722860336
18.0,-0.5174161228192646,-1.9920961185115322,2.2899564339988583,-1.8889361685208377,-1.5465065229873853,-2.088130342251243,0.5414711683988571,-0.07258503139019012,0.6580771394073963,0.9998748898506165,8.210219675675035e-05,0.014818292111158371,-0.005539904814213514
19.0,-0.6286473987862543,-2.0469832443106,2.36298921201825,-2.0426401332830086,-1.3059501887698277,-2.1961897805911157,0.5285394489765167,-0.08582663536071777,0.6535510011017323,0.9882526993751526,0.008669876493513584,0.13971669971942902,-0.06132430583238602
20.0,-0.5560774153415377,-1.9831163901675701,2.292103476973312,-1.9252140096679142,-1.5032284784970718,-2.1265796421521084,0.5489054322242737,-0.09222152829170227,0.657911192625761,0.9991716742515564,0.0006202716031111777,0.03710285574197769,-0.016703777015209198
21.0,-0.5700647109652778,-1.978149312600934,2.284837333309019,-1.902272262422782,-1.5182439708340454,-2.1409695630503927,0.5474735200405121,-0.10258043557405472,0.657676950097084,0.9995781183242798,0.0003798574034590274,0.02460920251905918,-0.015429072082042694
22.0,-0.5563818289865516,-1.957202496893529,2.271548188883441,-1.9035007716161778,-1.5342593959417838,-2.1272148500932446,0.5593943744897842,-0.10456003993749619,0.6581877022981644,0.9997910261154175,0.00018603086937218904,0.017440596595406532,-0.010664312168955803
23.0,-0.5850979149590448,-1.957291907902657,2.277866384948698,-1.931068697974105,-1.4811105167100609,-2.1562982930869206,0.5620830953121185,-0.11468473076820374,0.6578566394746304,0.9987978339195251,0.0010915087768808007,0.04128756374120712,-0.026404965668916702
24.0,-0.5832559962141473,-1.940923662296202,2.2633838488156304,-1.9118415809654965,-1.509772772859871,-2.1544851651362493,0.5678260922431946,-0.12258324772119522,0.6579750180244446,0.9994913339614868,0.0004998001968488097,0.024557776749134064,-0.02034165896475315
25.0,-0.5907026112887444,-1.9574218531194671,2.2731222196095615,-1.905717325632046,-1.509965814604412,-2.1619069550938805,0.5572680681943893,-0.12038672715425491,0.6575000025331974,0.999491274356842,0.0004961611703038216,0.024918312206864357,-0.019901376217603683
26.0,-0.789214340313692,-2.0434521823235525,2.3936088217397837,-2.0418967959569745,-1.003316839000218,-2.4041932937527646,0.5297123193740845,-0.13068127632141113,0.6438705921173096,0.9576529860496521,0.038082048296928406,0.2425922304391861,-0.15033204853534698
27.0,-0.9241742087928648,-2.037416387296084,2.4300182936925956,-1.9110173124050454,-0.663205988381168,-2.7405123045049127,0.5223111212253571,-0.15647777915000916,0.6241465508937836,0.8931247591972351,0.09863684326410294,0.3676888048648834,-0.23959118127822876
28.0,-0.9187493674504406,-2.0066838295816436,2.3960804748124134,-1.8348782735019291,-0.6613413416539403,-2.7844216005675206,0.5335038900375366,-0.16690963506698608,0.6271280385553837,0.8909304141998291,0.1045132651925087,0.3565240502357483,-0.2611718475818634
29.0,-0.9124282969281206,-1.9654542800692216,2.35422800354768,-1.7386309007269936,-0.6655251550061075,-2.8384012956137346,0.5471013486385345,-0.18041285872459412,0.6279498599469662,0.8882758021354675,0.11044231057167053,0.3395439684391022,-0.28892648220062256
30.0,-0.8997086049892205,-1.9192395327225962,2.3069176325475653,-1.6434761186761542,-0.6763122861889644,-2.8791925657918047,0.5637201964855194,-0.19319917261600494,0.6298396736383438,0.8857214450836182,0.11427831649780273,0.31780409812927246,-0.31849414110183716
31.0,-0.8893293916448188,-1.885620895360894,2.2728866391338154,-1.5775883427006754,-0.6882387174857689,-2.9004306048873745,0.5758078098297119,-0.2016480714082718,0.6305769048631191,0.8841001391410828,0.11508581787347794,0.2994447946548462,-0.3397867679595947
32.0,-0.8768332114233868,-1.861329911526291,2.2423918276419785,-1.5275923120656771,-0.6952240328394019,-2.9079954770323093,0.5871295630931854,-0.20614513754844666,0.6355150640010834,0.8824026584625244,0.1151033341884613,0.2853536009788513,-0.3559355139732361
33.0,-0.8591385312476529,-1.8133990923637366,2.194866030917691,-1.4441028234878073,-0.7202019604614601,-2.913226243884249,0.6050550043582916,-0.21622303128242493,0.6353568956255913,0.8808717727661133,0.11029075086116791,0.25234439969062805,-0.3849976658821106
34.0,-0.8411495261313556,-1.7733330320467702,2.1541759029958216,-1.3811078215197679,-0.7438987685728367,-2.8991192041686413,0.6215807944536209,-0.22321009635925293,0.6358486153185368,0.8800609707832336,0.10221181064844131,0.22049689292907715,-0.4079541862010956
35.0,-0.8181584031217561,-1.730362773580852,2.10627439445174,-1.3103602729002963,-0.7729945320817081,-2.86468680368171,0.6408454105257988,-0.2286449670791626,0.6385064721107483,0.8792237043380737,0.08814683556556702,0.17917543649673462,-0.4325413703918457
36.0,-0.775507894817771,-1.654404996610214,2.0264139615713725,-1.2048694960121469,-0.8367452175477779,-2.748698677122315,0.6755465865135193,-0.23607486486434937,0.6384842097759247,0.8788828253746033,0.04717281088232994,0.08891163766384125,-0.4662986397743225
37.0,-0.7285716334317789,-1.5788825904600974,1.9510063397429682,-1.1213266207948012,-0.9250339152294855,-2.553296858352228,0.7105650184676051,-0.24022550880908966,0.6327491663396358,0.878473699092865,-0.015600666403770447,-0.02875109389424324,-0.47666963934898376
38.0,-0.6890265618705153,-1.5326474929424239,1.894921452741924,-1.0696072990660581,-0.9851637186675826,-2.403046765098179,0.7378012873232365,-0.23682641983032227,0.6347793638706207,0.8759964108467102,-0.058254893869161606,-0.10948513448238373,-0.4661005139350891
39.0,-0.6640056968559408,-1.5107712472006105,1.861704698787625,-1.0388061811093505,-1.019748825523484,-2.318826445472281,0.7529436647891998,-0.23139820992946625,0.6397008635103703,0.8741411566734314,-0.07959336042404175,-0.1532757729291916,-0.45392587780952454
40.0,-0.6410968465643221,-1.4838830103533607,1.833407785903445,-1.0190841942615203,-1.055993635349193,-2.24272320843513,0.7691564708948135,-0.22839072346687317,0.6372428834438324,0.8721269369125366,-0.09743845462799072,-0.19375526905059814,-0.4385877847671509
41.0,-0.6095581370850292,-1.4490689576647202,1.7992835407643977,-1.0002879356210932,-1.1075089111484926,-2.1499924964787267,0.7905247658491135,-0.2227393388748169,0.6315509788691998,0.8703142404556274,-0.11521989852190018,-0.24306945502758026,-0.4125467538833618
42.0,-0.573154905042457,-1.4158939345698214,1.7603041636504055,-0.9746335366190835,-1.1630965110449873,-2.0618642104789084,0.8129354566335678,-0.2126452624797821,0.6297620851546526,0.8684815168380737,-0.12747736275196075,-0.2908450663089752,-0.3806553781032562
43.0,-0.5241141058369919,-1.3793921059747536,1.710953588322267,-0.939566654378232,-1.2348123440302137,-1.9677497011961107,0.8398108780384064,-0.19451840221881866,0.63138747215271,0.8671874403953552,-0.13278496265411377,-0.3430742621421814,-0.33563998341560364
44.0,-0.49907337176518585,-1.3647325156662846,1.6863386732765786,-0.9192826794422734,-1.2693674862002216,-1.9283007111357937,0.8517633080482483,-0.18320053815841675,0.6351300626993179,0.866772472858429,-0.13183870911598206,-0.3654119670391083,-0.3127269446849823
45.0,-0.4745140801680323,-1.3482802433563252,1.6665383070527906,-0.9086530451057263,-1.3069742744273278,-1.8938515200375479,0.8638832271099091,-0.17253956198692322,0.633769266307354,0.8673822283744812,-0.12791435420513153,-0.38503339886665344,-0.28815847635269165
46.0,-0.4397989766908338,-1.324437655426096,1.6410257340141305,-0.897803893213313,-1.3586431256652327,-1.851877385855931,0.8812762498855591,-0.15662464499473572,0.6294504106044769,0.8683817386627197,-0.11949338763952255,-0.4089735150337219,-0.2537226974964142
47.0,-0.46496886556379213,-1.333832795848305,1.663473627703138,-0.9194746612131672,-1.3235281615155212,-1.8819783538344614,0.8722741305828094,-0.17045357823371887,0.6227307301014662,0.8683242797851562,-0.12516212463378906,-0.3915311098098755,-0.27758029103279114
48.0,-0.49861901076683635,-1.3558045375367718,1.690039613130567,-0.93328294788865,-1.2740477252176374,-1.9271493039686194,0.8556271642446518,-0.18565791845321655,0.6246456615626812,0.8674332499504089,-0.1310165524482727,-0.36609405279159546,-0.3104342222213745
49.0,-0.5501607613670416,-1.3921174968850933,1.7384250377042851,-0.9655771092685135,-1.1992871649562296,-2.013726788592936,0.8282859623432159,-0.20650556683540344,0.624065525829792,0.8678624629974365,-0.13128730654716492,-0.3175637722015381,-0.35879194736480713
50.0,-0.590198419670088,-1.4230182275223995,1.7807630360615043,-0.9967254547187094,-1.1420553164418321,-2.0981482851277193,0.8054478764533997,-0.2203892469406128,0.6221782304346561,0.8695308566093445,-0.12294627726078033,-0.271430104970932,-0.39386042952537537
51.0,-0.5582304702207287,-1.429071070343402,1.77840612338434,-1.078437160062736,-1.205813259993017,-2.067309149285008,0.81850166618824,-0.209237739443779,0.6254177689552307,0.8948718309402466,-0.1017996072769165,-0.2638022303581238,-0.34532541036605835
52.0,-0.4842852738217001,-1.5924442043705547,1.9541025432816006,-1.709892119654538,-1.443791325265278,-2.054279058602572,0.7969590425491333,-0.1700557917356491,0.655820868909359,0.9918085932731628,-0.007445303723216057,-0.06876404583454132,-0.10738629102706909
53.0,-0.4632253842543673,-1.5997151841536588,1.9746287829225206,-1.8102394455354716,-1.4934179112678738,-2.033636552625647,0.8020897731184959,-0.16261160373687744,0.6571520492434502,0.9969598054885864,-0.0028099524788558483,-0.04327407851815224,-0.06473644077777863
54.0,-0.45376740990980674,-1.5910578528433394,1.9716208618828046,-1.8389006887060206,-1.5113346430299008,-2.024050032508062,0.8112692311406136,-0.16183121502399445,0.65652110055089,0.9979778528213501,-0.001926950877532363,-0.037493109703063965,-0.05129086598753929
55.0,-0.43701033103676995,-1.578934039962036,1.9562751676829602,-1.8202636845069387,-1.5125203180654163,-2.006650636888558,0.8216405957937241,-0.15204750001430511,0.6566867604851723,0.9975318908691406,-0.0024380439426749945,-0.04558975249528885,-0.053345900028944016
56.0,-0.4277124748269525,-1.5684262809692073,1.934571946923006,-1.7535753780487515,-1.4987740635606066,-1.9953862554346304,0.825928121805191,-0.14340171217918396,0.6570421569049358,0.9951480627059937,-0.0048499880358576775,-0.0684923380613327,-0.07046709209680557
57.0,-0.43244241148341,-1.5056612312034916,1.8450707057927567,-1.502020030019156,-1.435359645397024,-1.9840648029540793,0.8454368114471436,-0.14591166377067566,0.6503062918782234,0.9768245220184326,-0.02308029867708683,-0.1572118103504181,-0.14340782165527344
58.0,-0.43131295666504754,-1.4135171599014305,1.7364921272663711,-1.2093901507612759,-1.3980076035437243,-1.9351045525728172,0.870339423418045,-0.15007264912128448,0.637897539883852,0.9370120763778687,-0.06037383899092674,-0.27670544385910034,-0.20444491505622864
59.0,-0.38895299074818357,-1.5319483270836423,1.887195368292246,-1.6788405867491614,-1.512076876053446,-1.9516643459229854,0.8508495688438416,-0.12169351428747177,0.6558606550097466,0.9919207692146301,-0.007629023399204016,-0.10327883064746857,-0.07327142357826233
60.0,-0.380505228049938,-1.5464731865072365,1.9193599472267668,-1.7973253058131455,-1.5336976624700573,-1.9485876178786596,0.8517725914716721,-0.11806050688028336,0.6567987725138664,0.9971492886543274,-0.002709232037886977,-0.061062514781951904,-0.04424168914556503
61.0,-0.3678517276654154,-1.5404110832650657,1.9152504964635213,-1.80927167073024,-1.541218074770002,-1.936192531871542,0.8587983250617981,-0.11067457497119904,0.6566519252955914,0.9975654482841492,-0.0022323059383779764,-0.05830569937825203,-0.03819302096962929
62.0,-0.35282680549524104,-1.534252816910252,1.9079994478828097,-1.8044550278213412,-1.5476575864439048,-1.920912438837364,0.8646588623523712,-0.10039910674095154,0.6566811464726925,0.997479259967804,-0.0021616127341985703,-0.06173058599233627,-0.034928616136312485
63.0,-0.338215809228516,-1.5286445611441446,1.9011434528535467,-1.7987767609299217,-1.5532260682590675,-1.9060699333662976,0.8698829710483551,-0.09001993387937546,0.656718622893095,0.9973500370979309,-0.002101452322676778,-0.06524372100830078,-0.03212391957640648
64.0,-0.34541013709664403,-1.5245256234885607,1.884596402480531,-1.7228363725955702,-1.544948047666399,-1.9100284520033008,0.8652956038713455,-0.09350906312465668,0.6568033248186111,0.9945033192634583,-0.004413889721035957,-0.09348069876432419,-0.0469575859606266
65.0,-0.3313068081598041,-1.4945619729175388,1.8395920433037491,-1.6124391704965395,-1.5428352205670381,-1.8889583450013325,0.877509593963623,-0.0847293958067894,0.6545446887612343,0.9883848428726196,-0.008608757518231869,-0.13879148662090302,-0.061306100338697433
66.0,-0.30478935191744755,-1.5125850892242199,1.8720326301981522,-1.7240302043325528,-1.5684007243130482,-1.8695534086589263,0.8775592148303986,-0.06497369706630707,0.6568665616214275,0.9946836829185486,-0.0031233879271894693,-0.0979190245270729,-0.03172808513045311
67.0,-0.29989181766659045,-1.5171213163630999,1.8888290236417618,-1.7975876788529472,-1.5697781454886914,-1.8677399593912183,0.8815478533506393,-0.06203573942184448,0.6567026078701019,0.9973747730255127,-0.0015070830704644322,-0.06904585659503937,-0.021769976243376732
68.0,-0.28696603665986,-1.51416316916188,1.8837163327265074,-1.7863609508272207,-1.5755488436902452,-1.8544923076541828,0.8834775984287262,-0.05191915109753609,0.6568064354360104,0.9970336556434631,-0.0014474011259153485,-0.0744749903678894,-0.019377080723643303
69.0,-0.2703315443788034,-1.511329804537915,1.8800433304096373,-1.7825027147697998,-1.5838324475694316,-1.83783743203025,0.8859266042709351,-0.03901592642068863,0.6568436585366726,0.9968985319137573,-0.0011289471294730902,-0.07733254879713058,-0.014553322456777096
70.0,-0.251521922625253,-1.507222617365689,1.8694449075914379,-1.7459245859409407,-1.600247456641902,-1.817876260171036,0.885718896985054,-0.024758893996477127,0.6571694165468216,0.9955203533172607,-0.0008355688187293708,-0.09413021057844162,-0.008836968801915646
71.0,-0.2586319281732443,-1.4341296460150057,1.7585447840240416,-1.4355302086493313,-1.6110409194855289,-1.8027172330160601,0.902960017323494,-0.03739111125469208,0.6491398140788078,0.9734799861907959,-0.008417689241468906,-0.22571632266044617,-0.036304209381341934
72.0,-0.27581014893033884,-1.4467262025323584,1.774883265525783,-1.4702467738669378,-1.5917921697839374,-1.8221958583985771,0.8979456275701523,-0.048611123114824295,0.6502889357507229,0.9770147800445557,-0.009692160412669182,-0.2080291360616684,-0.04551950469613075
73.0,-0.226649792800929,-1.373195525227791,1.683021740215862,-1.2449082317584177,-1.6660947489376927,-1.752760193536449,0.9190548807382584,-0.020737407729029655,0.6411716379225254,0.9489248991012573,-0.006315344013273716,-0.3148640990257263,-0.019032934680581093
74.0,-0.21281236324362524,-1.4296630992064292,1.7543844246826863,-1.4379392525581158,-1.659551995596102,-1.76143415380752,0.9064423888921738,-0.004221642855554819,0.6489848978817463,0.973034679889679,-0.0007265989552251995,-0.23063775897026062,-0.0030654394067823887
75.0,-0.21566047309010827,-1.5028654044454968,1.8634608883271109,-1.7350269378028216,-1.6170708325021663,-1.7822500539896484,0.8879251480102539,0.003944306634366512,0.6569505743682384,0.9949201941490173,0.000175135864992626,-0.10065191984176636,0.0017311761621385813
76.0,-0.2062575414482959,-1.5167675150140698,1.887701229641263,-1.8002845933127176,-1.611087192859936,-1.7749763462647683,0.8832931220531464,0.014188692905008793,0.6578064858913422,0.9972987174987793,0.00038750481326133013,-0.07326168566942215,0.005275036208331585
77.0,-0.17516595305781843,-1.4413001878214862,1.771740457892244,-1.4835656043173762,-1.6944586011809486,-1.730981075300599,0.9022689163684845,0.02511197328567505,0.6500728391110897,0.9764721393585205,0.005496574100106955,-0.21411101520061493,0.025067608803510666
78.0,-0.15834128338526793,-1.4399906708606547,1.7705855126399952,-1.4776466247225768,-1.7141224606915315,-1.7154615654126542,0.9012492299079895,0.03731786459684372,0.6496845781803131,0.9752097725868225,0.008388920687139034,-0.21791309118270874,0.03754229471087456
79.0,-0.16756348201276444,-1.5032317687755603,1.8631299671631347,-1.7254983944936437,-1.647398873545088,-1.7349554854760014,0.8842615634202957,0.04230678454041481,0.656621653586626,0.9940171241760254,0.0022298144176602364,-0.1072273701429367,0.020670780912041664
80.0,-0.16299018391449757,-1.5136322049667246,1.8867132079069378,-1.8055264367493296,-1.6310924673979232,-1.7323276823340352,0.8840090930461884,0.048902373760938644,0.6567739211022854,0.9971562623977661,0.0013561899540945888,-0.07303939759731293,0.018515121191740036
81.0,-0.14638397991431581,-1.507810182565077,1.869899972156807,-1.7360407217578182,-1.6641006974410484,-1.7146284063491286,0.879889115691185,0.05891191586852074,0.6566464118659496,0.9940828084945679,0.0033141649328172207,-0.10383615642786026,0.031728386878967285
82.0,-0.14714774136207848,-1.5177548700164003,1.8943926077640005,-1.8239535509552556,-1.6330949279947051,-1.7169553567440496,0.8811839073896408,0.06287622451782227,0.6566261909902096,0.9976113438606262,0.0014284593053162098,-0.06555148959159851,0.021739352494478226
83.0,-0.13215636911199516,-1.5224546736292888,1.9019295047400877,-1.8380606729376876,-1.6355702690087408,-1.7022784604324166,0.8772453516721725,0.07607939094305038,0.6565129645168781,0.9979034662246704,0.0014793974114581943,-0.0598096027970314,0.024683257564902306
84.0,-0.12282437692715618,-1.5091301231354406,1.8702428356940473,-1.7229873620918237,-1.6859847995710455,-1.6914159364676826,0.8748527467250824,0.07665993273258209,0.6562164984643459,0.9929059743881226,0.004907527472823858,-0.11027909070253372,0.04418528825044632
85.0,-0.07644911008347974,-1.4379896458404244,1.7726046317020419,-1.4456994676819541,-1.824102004672478,-1.6409712337154876,0.8887428343296051,0.09473082423210144,0.6468524448573589,0.9659857749938965,0.02574888803064823,-0.2344139814376831,0.10610740631818771
86.0,-0.0541966394378919,-1.2795461378532327,1.6010149710202417,-0.9473916555126373,-1.943835185576828,-1.6043356809693998,0.9222683012485504,0.09494586288928986,0.6184777617454529,0.8758425712585449,0.07534369826316833,-0.4539760947227478,0.1453583538532257
87.0,-0.08310247241810255,-1.2687761420531158,1.5814645704507926,-0.9143380049096378,-1.8987330738861317,-1.6194197795030565,0.9288904964923859,0.07445411384105682,0.6211150921881199,0.8741863369941711,0.06097899749875069,-0.4680928587913513,0.11388125270605087
88.0,-0.10361106184209884,-1.261430643597462,1.5740438735460578,-0.9073614389972741,-1.8644456935640061,-1.630049293182509,0.9339644312858582,0.060064397752285004,0.6185691244900227,0.8750640749931335,0.049201905727386475,-0.4728105664253235,0.09106146544218063
89.0,-0.1314168864017603,-1.2575254289340527,1.5639779831751226,-0.8916978587525257,-1.8207945950581326,-1.6439620953307637,0.9371405243873596,0.04037204384803772,0.6211390681564808,0.8754962086677551,0.03349834680557251,-0.47814464569091797,0.06133641302585602
90.0,-0.16478810278856654,-1.2556072867813388,1.5568760587824282,-0.8785177039076231,-1.7691985274696749,-1.6605985893874144,0.9387443661689758,0.016820115968585014,0.6235663127154112,0.8759571313858032,0.014376522041857243,-0.481464684009552,0.026156052947044373
91.0,-0.18288966529722964,-1.251324128260097,1.5558088634654217,-0.8784523046733734,-1.7410101254356423,-1.6697208962623191,0.9410794973373413,0.0037696976214647293,0.6198765262961388,0.8760970234870911,0.0038682795129716396,-0.48206833004951477,0.007030098233371973
92.0,-0.2048095938834615,-1.2515926535867505,1.5554118547785767,-0.8749283906523184,-1.7080682479596128,-1.6810294534372208,0.9406381696462631,-0.011666107922792435,0.6201098263263702,0.8761661052703857,-0.008555883541703224,-0.4816820025444031,-0.015562912449240685
93.0,-0.2608074500185287,-1.256751799335866,1.5609514172467702,-0.8706012740868821,-1.6241106593208197,-1.711570576113067,0.9356822222471237,-0.05019576847553253,0.6207711435854435,0.8754075169563293,-0.039749033749103546,-0.476173996925354,-0.07307540625333786
94.0,-0.2918496572005094,-1.2617757308824205,1.5676555883738232,-0.8707207342698376,-1.5775239099995997,-1.7299812027714851,0.9309416115283966,-0.0708901584148407,0.6208849847316742,0.8743268847465515,-0.05645636469125748,-0.47048720717430115,-0.10491533577442169
95.0,-0.3176881978834449,-1.302590037454812,1.6109640983528448,-0.9832654507437109,-1.5427998426961564,-1.7749359168315815,0.9208709001541138,-0.08667135238647461,0.6255657784640789,0.8994513750076294,-0.05719318240880966,-0.41516613960266113,-0.12390819191932678
96.0,-0.3554359080850193,-1.2862376068057357,1.601603920219934,-0.9093420880489965,-1.4850444858958853,-1.7817850506028383,0.9150175750255585,-0.11115789413452148,0.6195644550025463,0.8785169720649719,-0.0837249606847763,-0.439538836479187,-0.1673431247472763
97.0,-0.3722414759860062,-1.3951619466236422,1.7109296993183025,-1.21623355190231,-1.4785687324997694,-1.8753345374500092,0.8911784887313843,-0.11692240089178085,0.639381293207407,0.942298412322998,-0.0470818355679512,-0.2954908311367035,-0.15014050900936127
98.0,-0.37188759167544677,-1.531646698199702,1.8907116341758259,-1.7109692899961217,-1.5246210938800189,-1.9362423142380936,0.8563383966684341,-0.11061032861471176,0.6565257199108601,0.99373859167099,-0.0057222419418394566,-0.09359168261289597,-0.06075766310095787
99.0,-0.40282616931026216,-1.5578008551412648,1.931899918597997,-1.802700369431511,-1.5239211121911702,-1.9713884269876136,0.8409187942743301,-0.13199171423912048,0.6567850895226002,0.9971972107887268,-0.0027787047438323498,-0.056224726140499115,-0.04928288608789444
100.0,-0.4197480637801993,-1.5681417469063186,1.9465337216277592,-1.8260595186160886,-1.5226824283266605,-1.9891323472528522,0.8324812054634094,-0.14327801764011383,0.6565762273967266,0.9978154301643372,-0.002184442011639476,-0.04641706869006157,-0.046958375722169876
101.0,-0.47928443168414564,-1.4188643844650017,1.7492118314519882,-1.1642052341681013,-1.3290434110889355,-1.9800405525149107,0.8524598181247711,-0.1748703420162201,0.6340062543749809,0.9239843487739563,-0.07583019882440567,-0.27450335025787354,-0.2552461326122284
102.0,-0.48493313735246285,-1.4816163769626582,1.816119587791324,-1.3427175211050968,-1.3504236275789363,-2.024332077653666,0.834454670548439,-0.17435330152511597,0.6433132290840149,0.9542750716209412,-0.04551132023334503,-0.19831907749176025,-0.2189921736717224
103.0,-0.4889008084756033,-1.5422811634248155,1.8884154070221668,-1.5294397893905538,-1.379875341746013,-2.051832902381782,0.8146993890404701,-0.17256368696689606,0.6502694338560104,0.9767426252365112,-0.0221924539655447,-0.1259557455778122,-0.1720946729183197
104.0,-0.512379784091051,-1.5931523353552919,1.9500295065701916,-1.6505997675692803,-1.3929469223597502,-2.0853408087832888,0.7875722497701645,-0.1810639649629593,0.653864111751318,0.9865185618400574,-0.011196053586900234,-0.07660755515098572,-0.1441778689622879
105.0,-0.5742526912089262,-1.5316686576035912,1.879806069525926,-1.3455914325364557,-1.2305427506974542,-2.1530424809054978,0.7866958752274513,-0.2082485407590866,0.6404400281608105,0.9455267190933228,-0.044094815850257874,-0.14461125433444977,-0.2883096933364868
106.0,-0.5098992578630602,-1.6341452604976427,2.0043353183701162,-1.7871944267769124,-1.453127508256685,-2.0829328995822096,0.7691474929451942,-0.1790781170129776,0.6571055985987186,0.9953242540359497,-0.0034036363940685987,-0.03821798413991928,-0.08864209055900574
107.0,-0.4988533813088634,-1.627971286741259,2.006766441988359,-1.8368587655441015,-1.4866717743933509,-2.0706402397860235,0.7774528563022614,-0.17990818619728088,0.6567185707390308,0.9975298047065735,-0.001874898443929851,-0.029310019686818123,-0.0638098269701004
108.0,-0.48114712769279977,-1.6126693362315139,1.991064752681292,-1.8305858890414437,-1.4945336542788803,-2.0521863985069873,0.7908293679356575,-0.17286311089992523,0.656720582395792,0.9975167512893677,-0.002138255862519145,-0.03488176688551903,-0.06114787980914116
109.0,-0.5149164322138268,-1.6441569015077058,2.024428683232614,-1.850910654646014,-1.486007124644242,-2.08716915710279,0.7639085054397583,-0.18628333508968353,0.6566042378544807,0.997850239276886,-0.0013949063140898943,-0.02263776771724224,-0.061486076563596725
110.0,-0.5297687538342583,-1.6592340503077891,2.0368614900399318,-1.842857520677002,-1.470639359812642,-2.1030374520580524,0.7509174570441246,-0.18893389403820038,0.6567902788519859,0.997357964515686,-0.0014080486726015806,-0.020122801885008812,-0.06978793442249298
111.0,-0.5414748725314277,-1.6733904235058041,2.0520369882212957,-1.8561988332276824,-1.4731753530862908,-2.1148887071544853,0.7395863085985184,-0.19271160662174225,0.6566633395850658,0.9977258443832397,-0.0009681363007985055,-0.014684977009892464,-0.06577705591917038
112.0,-0.5406359452288116,-1.6871146803598727,2.0630898774153863,-1.8580926306725802,-1.4689527107796874,-2.1143960903987264,0.7312741279602051,-0.1862482726573944,0.6579058915376663,0.9977244734764099,-0.0007775910198688507,-0.011684291996061802,-0.06639868766069412
113.0,-0.6208950631957506,-1.6512114507286082,2.010966464930588,-1.591133583319801,-1.2320967867491235,-2.23357135958427,0.7279579658061266,-0.2105240821838379,0.6487112641334534,0.9719170928001404,-0.008117211982607841,-0.033899109810590744,-0.23272757232189178
114.0,-0.6333390960211654,-1.6833787482455695,2.0454333016066584,-1.6462003422580616,-1.233948025066759,-2.2484099036419067,0.7103531360626221,-0.2089393138885498,0.6500130891799927,0.9760326743125916,-0.002338958904147148,-0.010502954013645649,-0.21735793352127075
115.0,-0.6426409639187364,-1.7066053590253565,2.069869367397895,-1.6842839486833177,-1.2358642289535398,-2.258202385047529,0.6974293012171984,-0.20768900215625763,0.6508552506566048,0.9785504937171936,0.0011380637297406793,0.00540784141048789,-0.20593297481536865
116.0,-0.5758898304002952,-1.7426623098694014,2.1143634386499226,-1.8801274565230934,-1.4584510306583587,-2.1507833373030594,0.69000025652349,-0.18774448335170746,0.6579776965081692,0.997938871383667,0.0002938385878223926,0.004581137094646692,-0.06400878727436066
117.0,-0.5867533497566566,-1.7405672097975,2.114778881303678,-1.883834874697773,-1.46602102699635,-2.1612023248109957,0.688359934836626,-0.19691596925258636,0.6566336825489998,0.9981622695922852,0.00022159612854011357,0.0036567882634699345,-0.06048719584941864
118.0,-0.5937206997064511,-1.7550221678986506,2.126607210310516,-1.8844197338464832,-1.458652693960077,-2.168712996607993,0.6784540973603725,-0.1945948600769043,0.6568264588713646,0.9980104565620422,0.00046988663962110877,0.0074909948743879795,-0.06260207295417786
119.0,-0.6003830838348412,-1.770731458048108,2.138459254102759,-1.8805701414115372,-1.441842207317511,-2.176698005938546,0.6684835329651833,-0.19006101787090302,0.6571748740971088,0.9975045919418335,0.0008856175700202584,0.012721561826765537,-0.06944175809621811
120.0,-0.6512682647616105,-1.755924805073597,2.1195375447602647,-1.7703166502594843,-1.2650347710518774,-2.258094224794315,0.6713377255946398,-0.20056772232055664,0.6532168164849281,0.985076904296875,0.005265402607619762,0.030639732256531715,-0.16928432881832123
121.0,-0.6765121368606442,-1.7748066089548187,2.1380734722500767,-1.7586242604544478,-1.2129101852158746,-2.2984773194356123,0.6572748050093651,-0.20064374804496765,0.6513856984674931,0.9803270697593689,0.00948833953589201,0.04868822172284126,-0.19104571640491486
122.0,-0.6483116419716561,-1.813061608946262,2.1725166083601573,-1.855486341256697,-1.3257278113940296,-2.239331263332312,0.6405786797404289,-0.18613781034946442,0.6556260995566845,0.9918041825294495,0.005460761487483978,0.04539592191576958,-0.11930600553750992
123.0,-0.7478516625844869,-1.8254749954617855,2.1925265503824476,-1.74479177692943,-1.0641193664408977,-2.4281163362838156,0.6227033957839012,-0.20132414996623993,0.6460198611021042,0.963452935218811,0.028594333678483963,0.11457723379135132,-0.24044302105903625
124.0,-0.6001379280301965,-1.8274887807124895,2.1858382975083015,-1.9114608374084914,-1.4713247096151756,-2.173737247347544,0.6339317858219147,-0.17169642448425293,0.658149965107441,0.9987240433692932,0.0009601077763363719,0.02085217647254467,-0.04598477482795715
125.0,-0.612315948659553,-1.8172958273283037,2.1781235163601758,-1.90367829704804,-1.4663797525377917,-2.18646966409792,0.6373562142252922,-0.18238277733325958,0.657126422971487,0.9985398054122925,0.0009471067460253835,0.018657704815268517,-0.050688110291957855
126.0,-0.6157164155595624,-1.8313190338349452,2.1890813139098153,-1.906951274573953,-1.4748165785584182,-2.1892746876058857,0.6278847232460976,-0.17987631261348724,0.6570409536361694,0.9987902045249939,0.000861055392306298,0.01895730011165142,-0.0453658364713192
127.0,-0.6158940070221335,-1.8485368614822097,2.2016521486235114,-1.908582271081446,-1.4673947666660152,-2.1896945877017973,0.6185979172587395,-0.1720418930053711,0.657365333288908,0.9986340403556824,0.0011039836099371314,0.023674821481108665,-0.04656742885708809
128.0,-0.6261122391809474,-1.8631518064852677,2.2143019235089625,-1.9139921202710226,-1.4135325280246096,-2.2032360766637393,0.6131750196218491,-0.16555845737457275,0.6574084162712097,0.9968982338905334,0.002841559238731861,0.04302610456943512,-0.06583782285451889
129.0,-0.6169115577368097,-1.8687311350649967,2.2164155576157194,-1.9115082730388504,-1.4798349613730262,-2.189865783552798,0.6058681607246399,-0.16610917448997498,0.6572714000940323,0.9989595413208008,0.0009193309815600514,0.023503703996539116,-0.039073605090379715
130.0,-0.5995037349280133,-1.8766519386106244,2.2221088495754078,-1.9189818924269677,-1.4882923519933735,-2.1718146468626967,0.6042410507798195,-0.15408706665039062,0.6581971682608128,0.9991480112075806,0.0008129171910695732,0.024419749155640602,-0.03326097130775452
131.0,-0.6344007242900753,-1.9072686036686022,2.2485416195120402,-1.9297250578512601,-1.3949289264741451,-2.2114546110126994,0.5894218534231186,-0.1506662666797638,0.656993318349123,0.9960902333259583,0.0038918114732950926,0.05933602154254913,-0.06533291190862656
132.0,-0.6980667121907098,-1.939598913399788,2.281978430412435,-1.9299977542746802,-1.2312824868561436,-2.2953978232350023,0.5738976299762726,-0.15204474329948425,0.6529009379446507,0.9854854345321655,0.014496671967208385,0.11656909435987473,-0.12255614250898361
133.0,-0.5858775909342164,-1.9193365743531234,2.2503569781664594,-1.917760656370895,-1.5076120791682024,-2.157227443836078,0.5801996812224388,-0.1320977658033371,0.6582036353647709,0.9994691610336304,0.0005284285871312022,0.02410993166267872,-0.02190582826733589
134.0,-0.6089026111057276,-1.9266752778352643,2.254639547887849,-1.9091546118499878,-1.500063451576585,-2.1806076644518733,0.5726978033781052,-0.14100083708763123,0.6573112085461617,0.9993610382080078,0.0006378455436788499,0.024496085941791534,-0.02602202817797661
135.0,-0.6132545872520866,-1.9102478811658508,2.2443053374355646,-1.9108415867504795,-1.4944702423771665,-2.1852636200838984,0.5817309841513634,-0.14923237264156342,0.6572925597429276,0.9992671608924866,0.0007201433181762695,0.024423057213425636,-0.0294645968824625
136.0,-0.6134648127319494,-1.894339981405577,2.2340538351195303,-1.9129417752581026,-1.4868977971910067,-2.1858515253809663,0.5914121642708778,-0.15476876497268677,0.6573899909853935,0.9991191625595093,0.0008454920607618988,0.0251631923019886,-0.033570755273103714
137.0,-0.8670994699365064,-1.9088228285791375,2.2931214630866332,-1.7084895064003478,-0.7908136969139989,-2.7228209541368122,0.5707635581493378,-0.19421903789043427,0.6310595832765102,0.9152303338050842,0.08403824269771576,0.258872389793396,-0.29711297154426575
138.0,-0.8840606109836331,-1.8508992057672182,2.2506805384190507,-1.5303078250814195,-0.7100630165489524,-2.9121638281342905,0.5845989361405373,-0.21146619319915771,0.6221986748278141,0.8844476342201233,0.1122959777712822,0.2774011194705963,-0.35803720355033875
139.0,-0.8699732299815125,-1.8129747835622407,2.2131490357637054,-1.466733793661508,-0.7286239165579619,-2.9156015403527853,0.5990163087844849,-0.21976260840892792,0.6223417408764362,0.882983386516571,0.10875564068555832,0.2523176670074463,-0.38058942556381226
140.0,-0.836629402004328,-1.7375392308995343,2.1390045290519653,-1.354545910663342,-0.7758901267739,-2.879580836091023,0.6295957639813423,-0.23324371874332428,0.6212353557348251,0.8815740346908569,0.09105946868658066,0.19004926085472107,-0.4223939776420593
141.0,-0.8059028183318824,-1.6820092089493661,2.0805492885430885,-1.2766004093099674,-0.8175365543246846,-2.811911547321128,0.6550682820379734,-0.23980972170829773,0.6218375004827976,0.8810122609138489,0.06692430377006531,0.13114120066165924,-0.4496004283428192
142.0,-0.7868405036282229,-1.6568126751759968,2.046127087392207,-1.2318432979574307,-0.8375404409275514,-2.7647166604263886,0.6692653726786375,-0.24027147889137268,0.6269427239894867,0.8801301121711731,0.05130092427134514,0.09779192507266998,-0.46170979738235474
143.0,-0.764353851820465,-1.6211260364844076,2.008305434605321,-1.1877979237166638,-0.8712953621352967,-2.6881464374813753,0.6868173405528069,-0.2424149364233017,0.6264073010534048,0.8797318935394287,0.02615385130047798,0.04872141778469086,-0.47224360704421997
144.0,-0.7180154432403185,-1.5547431828937261,1.9388681047385379,-1.1194340296489034,-0.9497263434958323,-2.501633145301181,0.7209204155951738,-0.24365442991256714,0.6227917708456516,0.8785340785980225,-0.0308340173214674,-0.05724172294139862,-0.4732341170310974
145.0,-0.6806566617343971,-1.5161414004311402,1.8868812237560768,-1.070733989084279,-1.0038878643552627,-2.3665398330705485,0.7454575709998608,-0.23837551474571228,0.6273090112954378,0.8758623600006104,-0.06769885122776031,-0.12887996435165405,-0.46007826924324036
146.0,-0.6594812723367774,-1.491833050347493,1.860633591322022,-1.0522317452615328,-1.0365555353821956,-2.294018795349892,0.7603234276175499,-0.23571479320526123,0.6255400404334068,0.8743140697479248,-0.08549077808856964,-0.16697581112384796,-0.44764444231987
147.0,-0.6377142486546307,-1.4708696063998723,1.83330472538806,-1.0297717587462936,-1.0690788409867442,-2.2259579418961835,0.7742217108607292,-0.23116707801818848,0.626785296946764,0.8724448084831238,-0.10075359046459198,-0.20301494002342224,-0.43298259377479553
148.0,-0.6780877138270984,-1.5202996349599782,1.8988841116142694,-1.1236893077043257,-1.0220883599707435,-2.357827186774791,0.7465265169739723,-0.23988887667655945,0.6215172633528709,0.8863357305526733,-0.06053347513079643,-0.12117046117782593,-0.44278934597969055
149.0,-0.5620431838178834,-1.640796046952184,2.0011373943576594,-1.6809992774418459,-1.3540704171746576,-2.1450777404827126,0.7498205900192261,-0.1954835057258606,0.6538204960525036,0.9864334464073181,-0.007455198094248772,-0.04678861424326897,-0.1571761965751648
150.0,-0.6023259142581147,-1.5479289250096868,1.900919728423463,-1.3423534262948773,-1.1888967997247977,-2.2012917177149163,0.771036222577095,-0.2164190411567688,0.6390122622251511,0.9412986636161804,-0.04114822670817375,-0.12451829016208649,-0.31106090545654297
151.0,-0.5556590251057844,-1.6904549569559904,2.0684676197436813,-1.8631969381891287,-1.468339938458033,-2.1296252642383227,0.7259850930422544,-0.19560657441616058,0.6566418372094631,0.9977756142616272,-0.0006098086014389992,-0.009216083213686943,-0.06602068990468979
152.0,-0.5689623859049859,-1.7095134103778087,2.0854330928373863,-1.8654985255169099,-1.4613793957059409,-2.1435835053898775,0.7112655183300376,-0.19627124071121216,0.6566981002688408,0.9976831078529358,-0.00031195615883916616,-0.00458524189889431,-0.06787720322608948
153.0,-0.7082722276574727,-1.7096865065983293,2.079118315803766,-1.5736201681264148,-1.076043851400877,-2.398742162449175,0.6798549331724644,-0.22119823098182678,0.6430014446377754,0.9542779922485352,0.012456121854484081,0.040164507925510406,-0.29594793915748596
154.0,-0.608047613395417,-1.7950698689026554,2.1607187730446142,-1.8996039595442609,-1.469644940104615,-2.182154091734618,0.6509498953819275,-0.189194917678833,0.6568867824971676,0.998552143573761,0.0007214922807179391,0.013862177729606628,-0.05197219178080559
155.0,-0.8527998115736082,-1.7847578816786218,2.177343826318861,-1.4136318829883927,-0.7421140965746451,-2.905326652044283,0.6130533739924431,-0.22341635823249817,0.6277110930532217,0.8816505074501038,0.1040421724319458,0.23009826242923737,-0.3986507058143616
156.0,-0.8063899675946872,-1.6972984118769054,2.082517138902321,-1.2784071531760919,-0.8012916240621182,-2.828160774604315,0.6524882689118385,-0.23493841290473938,0.6313818395137787,0.8799606561660767,0.07386843860149384,0.14572001993656158,-0.4460699260234833
157.0,-0.8459292090029635,-1.8019222124269478,2.169280269047305,-1.4086870284280664,-0.7204616470737388,-2.9086423324766217,0.6143334060907364,-0.21556249260902405,0.6453488394618034,0.8790507316589355,0.10940457135438919,0.2434786558151245,-0.3949922025203705
158.0,-0.8694800105608568,-1.8630169998040802,2.2302790617498007,-1.5148722083015687,-0.6869916786440746,-2.9067936927920903,0.5910884588956833,-0.2034790813922882,0.6454627886414528,0.8806064128875732,0.11690118163824081,0.28750288486480713,-0.3580622971057892
159.0,-0.8805213599910322,-1.8991624955753497,2.264379278681219,-1.5800380650524963,-0.6703836745309039,-2.8909502401032365,0.578400045633316,-0.19486567378044128,0.6466160044074059,0.8816102147102356,0.11803232878446579,0.30949026346206665,-0.3362254202365875
160.0,-0.8924492020566336,-1.9431398035290277,2.309749329407261,-1.6754130718316842,-0.6557790752661772,-2.8535639748392594,0.5630741268396378,-0.18345879018306732,0.6458917446434498,0.8837730884552002,0.11588595807552338,0.3333486318588257,-0.30723655223846436
161.0,-0.8998999691724188,-1.9785526316218265,2.34422838636903,-1.7516575419884433,-0.6473170704388045,-2.8158173666993513,0.5511247217655182,-0.17306217551231384,0.6463188268244267,0.8852781653404236,0.11256945133209229,0.3501679599285126,-0.28459280729293823
162.0,-0.9011393943638005,-2.0403830900970683,2.4036383878129173,-1.9179493473589588,-0.6418280582443456,-2.709530147609544,0.5331150144338608,-0.15044847130775452,0.6511458046734333,0.8881500959396362,0.10237676650285721,0.3779168128967285,-0.24059773981571198
163.0,-0.8946909698789333,-2.0840449892095156,2.452703920813588,-2.071046943642975,-0.6551554691294185,-2.602640453201355,0.5192616283893585,-0.13052859902381897,0.6523395217955112,0.890981912612915,0.09032531827688217,0.3957856297492981,-0.2033379226922989
164.0,-0.8854620873720376,-2.1086344990474974,2.4813942070408244,-2.1699597139512354,-0.6718595697304395,-2.529206755345995,0.5110615193843842,-0.11676200479269028,0.6533850878477097,0.8925285339355469,0.08168107271194458,0.40545138716697693,-0.1798062026500702
165.0,-0.8660256823046318,-2.1272295836420065,2.505861318144671,-2.282582886354258,-0.6984669297447059,-2.44074844611354,0.5053833425045013,-0.10158611834049225,0.6572280004620552,0.8936933279037476,0.0718030035495758,0.41503122448921204,-0.15461456775665283
166.0,-0.851636655013392,-2.141719523153515,2.5291234893981414,-2.364136626532506,-0.7280773657977758,-2.3792007594434637,0.4985905885696411,-0.08947419375181198,0.6548679396510124,0.8953750133514404,0.0631071999669075,0.41976308822631836,-0.13461071252822876
167.0,-0.8089241852082089,-2.152901061599271,2.5537615824012323,-2.5056671573981166,-0.7908029017911962,-2.2639838912019408,0.49313846230506897,-0.06851242482662201,0.6586481556296349,0.8964447379112244,0.04854406788945198,0.42862918972969055,-0.1015261560678482
168.0,-0.8354992573343251,-2.1423384718433796,2.5276964721465527,-2.4065079435126497,-0.7391556810897877,-2.3394164008619014,0.5003796517848969,-0.08357660472393036,0.6631472259759903,0.8942081928253174,0.06032866984605789,0.4250200390815735,-0.1269267052412033
169.0,-0.8748820829826998,-2.1101764922826205,2.4762911185498195,-2.1942747379672665,-0.6700955222914786,-2.5027510191627877,0.5138461589813232,-0.11297354102134705,0.6629254147410393,0.8908936381340027,0.08131079375743866,0.4105696678161621,-0.17643599212169647
170.0,-0.886584268007869,-2.0800108211447297,2.437887138554103,-2.061944964431653,-0.6460503043439753,-2.5993410177836074,0.5246264636516571,-0.1302695870399475,0.6627796217799187,0.8886550664901733,0.0929606631398201,0.3982834219932556,-0.20741504430770874
171.0,-0.8919276668344541,-2.0488438907602253,2.401309810104801,-1.9453233576390558,-0.6344175689100651,-2.6810858330641683,0.5348519384860992,-0.14490965008735657,0.6621898673474789,0.8864769339561462,0.10218027979135513,0.3852877914905548,-0.235098198056221
172.0,-0.8869079338122716,-2.019567917032229,2.3623150672662163,-1.8511603957319458,-0.626506492697759,-2.736975734652744,0.5469074696302414,-0.15498994290828705,0.667822889983654,0.8834716081619263,0.10984936356544495,0.374515563249588,-0.259131520986557
173.0,-0.8777617588642123,-1.9800576950073934,2.312225148165349,-1.7344962143441034,-0.6244472337141045,-2.800904761304054,0.5625583976507187,-0.16685712337493896,0.673843614757061,0.8799610733985901,0.11770574003458023,0.357774555683136,-0.2895020544528961
174.0,-0.8693396069789893,-1.9419199103505762,2.268937599779872,-1.6328610620062434,-0.631901336679916,-2.8518813834161914,0.5760578364133835,-0.1775006353855133,0.6758658364415169,0.8775521516799927,0.12221501022577286,0.3384605050086975,-0.31687605381011963
175.0,-0.8475087739279114,-1.8615629937949347,2.1886657415985025,-1.4606098948214523,-0.667477374703531,-2.909697936059775,0.6034221202135086,-0.1966610848903656,0.6739986687898636,0.8749536275863647,0.12180370092391968,0.28869134187698364,-0.3691575825214386
176.0,-0.8253178092925061,-1.8034725520157486,2.129917873883184,-1.3543796654776228,-0.7030546218305037,-2.9090308092365866,0.6251056119799614,-0.20726653933525085,0.6736805066466331,0.8741265535354614,0.11270390450954437,0.24324887990951538,-0.40500691533088684
177.0,-0.8112577736352324,-1.7631742018960714,2.0974038479760453,-1.3016540226472537,-0.7339836103610434,-2.8864889723549934,0.6392985135316849,-0.21496222913265228,0.667858436703682,0.8749939799308777,0.10082067549228668,0.2071870118379593,-0.42578673362731934
178.0,-0.8347743977513488,-1.8131178549710378,2.1510337801928765,-1.3876383663432055,-0.7013661648077263,-2.91037534027013,0.6184933558106422,-0.20781280100345612,0.6658838838338852,0.8757058382034302,0.11380825936794281,0.25163060426712036,-0.3960668742656708
179.0,-0.8528650812850923,-1.857132356806955,2.196113641887434,-1.4658192583669984,-0.6758102701736758,-2.9118112106501717,0.601343035697937,-0.19994217157363892,0.6653070822358131,0.8763712644577026,0.12007668614387512,0.28501006960868835,-0.36922121047973633
180.0,-0.8653583670546363,-1.887839184052906,2.2336395470388233,-1.5373956047606663,-0.6643698408998624,-2.895197804494064,0.5888859331607819,-0.1941089779138565,0.6609997525811195,0.8785535097122192,0.12052042782306671,0.3045949637889862,-0.3476211428642273
181.0,-0.8822085423693238,-1.9477665386514749,2.2952659972172933,-1.6668073575406468,-0.6428481079483963,-2.8467181726764568,0.5677178502082825,-0.17918021976947784,0.6603859961032867,0.881061851978302,0.11849027872085571,0.3384150266647339,-0.3084888756275177
182.0,-0.894310517082215,-1.9908222709217775,2.344869588655619,-1.77361688982547,-0.6370488312804985,-2.7955247295794834,0.5512380301952362,-0.1674102544784546,0.656002689152956,0.8838958740234375,0.11290045827627182,0.35841095447540283,-0.27842968702316284
183.0,-0.8598649808904585,-1.8531633168364905,2.207782691974699,-1.478407234318425,-0.6857328581894653,-2.911992595534941,0.5981684625148773,-0.20357921719551086,0.6541654765605927,0.8784199357032776,0.11785110086202621,0.2814892530441284,-0.3677680492401123
184.0,-0.8442062533044643,-1.815335259158992,2.169688372663227,-1.4144082383003778,-0.7064855206702073,-2.9106269330019066,0.613130159676075,-0.210608571767807,0.654554832726717,0.8777263164520264,0.11294424533843994,0.25400519371032715,-0.39028382301330566
185.0,-0.8215561856808529,-1.7553753107620909,2.1146670287107376,-1.322953880549321,-0.7487925513098196,-2.8851964510560513,0.6350866034626961,-0.2216883897781372,0.6502870731055737,0.8775115609169006,0.09757455438375473,0.202015683054924,-0.42384234070777893
186.0,-0.7979493455801299,-1.7075012353220325,2.066644547122734,-1.254028701783862,-0.786054352617034,-2.8338643115051196,0.6553255692124367,-0.2279217690229416,0.6493066623806953,0.8774900436401367,0.07753980904817581,0.15177831053733826,-0.44828805327415466
187.0,-0.7767996522716661,-1.6733660543292252,2.0278088546710817,-1.2028829374647787,-0.8155129435952729,-2.7756602151051295,0.6717432923614979,-0.2301313281059265,0.6512545645236969,0.8773988485336304,0.05736976116895676,0.10853233933448792,-0.4637894928455353
188.0,-0.7618022571257451,-1.6430432363619174,2.0024917978871843,-1.1741514706005356,-0.8459094897538262,-2.7159212993714417,0.6844303691759706,-0.2336994856595993,0.6463994979858398,0.8780252933502197,0.03706364333629608,0.06892132759094238,-0.47217342257499695
189.0,-0.7339141546431447,-1.6020753193746564,1.9560852538244324,-1.118919848698709,-0.9007620328751513,-2.595398770877489,0.7034593652933836,-0.2347850203514099,0.6465918645262718,0.8782806396484375,-0.0017401515506207943,-0.0031964865047484636,-0.47813165187835693
190.0,-0.7018032013036265,-1.5568324941069989,1.9102969875484916,-1.076024815579931,-0.9576167971757549,-2.4607115606236993,0.7265358418226242,-0.23472335934638977,0.643032606691122,0.8767258524894714,-0.042045652866363525,-0.07797259092330933,-0.4727623760700226
191.0,-0.6760124726400522,-1.5314833563966264,1.8741590952571554,-1.0408999595941517,-0.9953717322355757,-2.366986812607387,0.7426543049514294,-0.23036381602287292,0.6475440561771393,0.8747056722640991,-0.06750322133302689,-0.12762434780597687,-0.462650328874588
192.0,-0.6388464187753645,-1.4930517208582836,1.8262737805520681,-1.0015937396967107,-1.0503931131415565,-2.243505160431196,0.7670566216111183,-0.22378379106521606,0.649359755218029,0.8714008927345276,-0.09744749218225479,-0.19279393553733826,-0.4404485821723938
193.0,-0.5961812876724059,-1.455595080049992,1.77579766227801,-0.9609346316880184,-1.114530565516453,-2.1231980308486142,0.792274571955204,-0.2125319540500641,0.6527151465415955,0.8682204484939575,-0.12045392394065857,-0.2569425106048584,-0.4070192575454712
194.0,-0.5635530911411983,-1.4291531243178466,1.7403355892195569,-0.9340288786678803,-1.165230271343237,-2.04602745293501,0.8103999644517899,-0.20231890678405762,0.6544547975063324,0.8666219711303711,-0.13030803203582764,-0.2991710901260376,-0.37746891379356384
195.0,-0.5392871331367834,-1.4119887097205386,1.7136180722988028,-0.9117683364059209,-1.1983860059168223,-1.9981285689164527,0.8233185559511185,-0.19304880499839783,0.658065527677536,0.8653619289398193,-0.13416920602321625,-0.3257758915424347,-0.35639509558677673
196.0,-0.4960709881546728,-1.3795635073638122,1.674659471096673,-0.8883827226776368,-1.265514547736741,-1.9247412608794108,0.8460146933794022,-0.1765904426574707,0.6563017964363098,0.865381121635437,-0.13317199051380157,-0.3674284517765045,-0.31365159153938293
197.0,-0.4713483161427749,-1.361355975381764,1.6556266905655819,-0.8802385664393158,-1.305603756019465,-1.8896608040214002,0.8585965484380722,-0.166604146361351,0.6530384384095669,0.8661609292030334,-0.12885011732578278,-0.38765949010849,-0.28789421916007996
198.0,-0.44590906378028233,-1.347946632913607,1.6342544008762248,-0.8641692075306371,-1.341560691490897,-1.858355766516257,0.8693231344223022,-0.15390726923942566,0.6556763909757137,0.8664564490318298,-0.12339199334383011,-0.40567347407341003,-0.263546347618103
199.0,-0.4112926902906255,-1.33138584038148,1.6096700775364607,-0.848204186397577,-1.395224537525499,-1.821105951797663,0.882264107465744,-0.13612477481365204,0.6574388556182384,0.8677818179130554,-0.112203449010849,-0.4270641505718231,-0.2279941290616989
200.0,-0.3732597002938082,-1.3154492974104883,1.5861204810078156,-0.8337903068612691,-1.4525717568658778,-1.7865312327803253,0.895025372505188,-0.11509905755519867,0.6590141505002975,0.8692519664764404,-0.09721724689006805,-0.4461817443370819,-0.18939878046512604
201.0,-0.39372237533496945,-1.3273097862995729,1.5950105441118494,-0.8323174950931599,-1.418834974640435,-1.8041158454253419,0.8866903781890869,-0.1253967434167862,0.6639330461621284,0.8678293228149414,-0.10646647959947586,-0.4367992579936981,-0.2115267813205719
202.0,-0.41467373408808716,-1.3416251151105092,1.6063535532765538,-0.8330926673640977,-1.386488679067079,-1.8241610082640791,0.8767786920070648,-0.1354481279850006,0.6691994667053223,0.866876482963562,-0.11443030834197998,-0.42555224895477295,-0.23310168087482452
203.0,-0.4424833102710739,-1.3542972632060948,1.6263602238377983,-0.8467694406932755,-1.3431456076825106,-1.8541729955600885,0.8668438494205475,-0.14976973831653595,0.6669410169124603,0.8657609224319458,-0.12345003336668015,-0.40827733278274536,-0.26177847385406494
204.0,-0.48784649897682736,-1.381867763313069,1.662450201436396,-0.8689638778621164,-1.2731845123085443,-1.9130569654574416,0.846651166677475,-0.1704881191253662,0.6667870953679085,0.8646242022514343,-0.13316726684570312,-0.3741571009159088,-0.30773067474365234
205.0,-0.5126673108475812,-1.3980061727768054,1.68618749473167,-0.8869609364585291,-1.2377241733472106,-1.9513444114890668,0.8345973193645477,-0.18122290074825287,0.6645858585834503,0.8649581670761108,-0.13482128083705902,-0.352151483297348,-0.3311494290828705
206.0,-0.5410618569358816,-1.4214323108110158,1.7113305642336192,-0.9000346192945837,-1.191018450444369,-2.003087903460334,0.8190528601408005,-0.19091960787773132,0.6677314266562462,0.8648731708526611,-0.13442778587341309,-0.3227928876876831,-0.36017829179763794
207.0,-0.5710977373385855,-1.4439080580898183,1.7439026989989643,-0.9261919084906951,-1.1465530687310024,-2.0660976456114444,0.8031255453824997,-0.20161408185958862,0.6645396873354912,0.8663105964660645,-0.12869571149349213,-0.2877046763896942,-0.38751694560050964
208.0,-0.6066943476761988,-1.4746296495948328,1.7838390465463534,-0.9562544055738413,-1.093048723840845,-2.1545000498392968,0.7823869735002518,-0.2119656354188919,0.6628671437501907,0.8685290813446045,-0.1154308095574379,-0.23975902795791626,-0.41814908385276794
209.0,-0.6469021626184244,-1.5160517671844609,1.831176798164215,-0.9910474790787606,-1.027435009364308,-2.279406263707514,0.7570072561502457,-0.21991953253746033,0.6642543226480484,0.8716592788696289,-0.08925630897283554,-0.17296545207500458,-0.4498071074485779
210.0,-0.6673371641529693,-1.5325010524432443,1.859455699360328,-1.0193807665769423,-1.000243061710788,-2.34534908125662,0.7453210353851318,-0.22526514530181885,0.6581222601234913,0.873681902885437,-0.07295267283916473,-0.13835881650447845,-0.46066761016845703
211.0,-0.691965645629143,-1.5614576054284737,1.8916004197431737,-1.045863754841176,-0.9591505299649882,-2.4398033626402453,0.7288546171039343,-0.2278534471988678,0.6589324735105038,0.8754040598869324,-0.04763266444206238,-0.08817682415246964,-0.4728887379169464
212.0,-0.7119943238386788,-1.5933668497792202,1.919477883783762,-1.070086102434081,-0.9203888119975131,-2.528298759453274,0.7135010529309511,-0.22684049606323242,0.6642621159553528,0.8769440650939941,-0.021135814487934113,-0.03873039782047272,-0.4785628020763397
213.0,-0.7589942172154265,-1.657993758851722,1.996426278740964,-1.1624697132058153,-0.8326556647559533,-2.727252692994755,0.6825910117477179,-0.22731447219848633,0.6611174531280994,0.8772894144058228,0.042446646839380264,0.07897556573152542,-0.47151291370391846
214.0,-0.7953374818802557,-1.7177056654153768,2.0618886127265093,-1.2463211612338525,-0.7738046127174079,-2.8427892995097994,0.6549212709069252,-0.2232932597398758,0.6597630903124809,0.8760652542114258,0.0818047747015953,0.16018767654895782,-0.44738972187042236
215.0,-0.8277723649780454,-1.782669947472423,2.1297129375603308,-1.3474252857301965,-0.7250551593699204,-2.902602369977912,0.6273506879806519,-0.2150861620903015,0.6590338535606861,0.8762257695198059,0.10639140754938126,0.22629982233047485,-0.41194409132003784
216.0,-0.7380543640863985,-1.6193701199379016,1.960977290008593,-1.1213429711623872,-0.8810997298183698,-2.628974763619314,0.6985082335304469,-0.23089268803596497,0.6561981961131096,0.8781227469444275,0.009829027578234673,0.018056923523545265,-0.47799351811408997
217.0,-0.7080117418212071,-1.574148565266667,1.9165590237732746,-1.074138077357499,-0.9403933872082336,-2.494366980844656,0.7195048965513706,-0.2316264510154724,0.6518249809741974,0.8768306374549866,-0.03214222565293312,-0.05920148640871048,-0.4760570824146271
218.0,-0.5985667228281135,-1.4490493707663856,1.7823255107284528,-0.9758832331376417,-1.1169447815349685,-2.1256980373989105,0.7938973382115364,-0.21628038585186005,0.642898216843605,0.868895411491394,-0.11970267444849014,-0.255886971950531,-0.406465083360672
219.0,-0.5738521995238747,-1.4244368737371702,1.7573672766053658,-0.9624329479545619,-1.1577903236065776,-2.065079322078551,0.8095075190067291,-0.21019819378852844,0.6389644369482994,0.8679506778717041,-0.1276002675294876,-0.2889980375766754,-0.38322311639785767
220.0,-0.5413922318230089,-1.3961356672817797,1.7245192605247008,-0.9419292446945723,-1.2060408397949152,-1.9988445381225086,0.8290383368730545,-0.19975212216377258,0.6369275487959385,0.8667750358581543,-0.13283978402614594,-0.3257330656051636,-0.35348641872406006
221.0,-0.48117737642916136,-1.3596401032144114,1.667806096503969,-0.8986709751733151,-1.2939349733387366,-1.902730148491927,0.8575599938631058,-0.17341361939907074,0.6431675478816032,0.8665497899055481,-0.1299239993095398,-0.38010334968566895,-0.29619744420051575
222.0,-0.505921985318866,-1.3794374019924864,1.6876348593810515,-0.9068098542543322,-1.2549162886326195,-1.939354977785957,0.843961089849472,-0.18298453092575073,0.6472743526101112,0.8660591840744019,-0.1332288384437561,-0.35907045006752014,-0.32134097814559937
223.0,-0.540100614855578,-1.4030400065697783,1.7193641211425974,-0.9281674866304621,-1.2031382570967526,-1.9978553623777238,0.8266699016094208,-0.19661927223205566,0.6464135013520718,0.8661310076713562,-0.13346770405769348,-0.32613006234169006,-0.3544613718986511
224.0,-0.42652034982591264,-1.32690690677811,1.6270781950747633,-0.8765016985212102,-1.376432537911163,-1.8371636160896063,0.8822087198495865,-0.1473759412765503,0.6412546560168266,0.8682534694671631,-0.11610688269138336,-0.41758131980895996,-0.24141457676887512
225.0,-0.38142826146680864,-1.3058813952738193,1.5984523445552494,-0.8604381481722091,-1.443136854539687,-1.7943426866631054,0.8989683985710144,-0.12282000482082367,0.6414504870772362,0.869950532913208,-0.09957628697156906,-0.4412885904312134,-0.1963033676147461
226.0,-0.40350729714549327,-1.3192205537548167,1.6096287336048027,-0.8610076927524126,-1.408296090736858,-1.814181608422901,0.8894646763801575,-0.13404686748981476,0.646198645234108,0.868726372718811,-0.10874269157648087,-0.4305104911327362,-0.21943165361881256
227.0,-0.36384223004127675,-1.3053210140846414,1.5853536272687028,-0.8439085977692602,-1.4686161717310617,-1.7792933206959762,0.9012826681137085,-0.11128328740596771,0.6500223912298679,0.8702263236045837,-0.09244167804718018,-0.44960805773735046,-0.17892292141914368
228.0,-0.3364336331194934,-1.2958345742547754,1.571423513560931,-0.8359157475632422,-1.5091146399419664,-1.7582619844589789,0.9090805351734161,-0.09491802752017975,0.6508413404226303,0.8711090087890625,-0.07997042685747147,-0.46029168367385864,-0.15134523808956146
229.0,-0.2899363755174727,-1.281169725691706,1.5556638608220688,-0.8331882524310605,-1.5805009689348024,-1.7272724228390772,0.920632392168045,-0.06647258251905441,0.6480112299323082,0.8728653788566589,-0.05597574636340141,-0.4736362397670746,-0.10315784066915512
230.0,-0.309388342306594,-1.282230298231149,1.5651033704906945,-0.8441008422440842,-1.551608872266858,-1.740204235424184,0.918628603219986,-0.07951538264751434,0.6422961205244064,0.8727712035179138,-0.06583640724420547,-0.46781355142593384,-0.12282697856426239
231.0,-0.3343887135028541,-1.2883096964684946,1.574993071358811,-0.8491815705075546,-1.5136515606786374,-1.7573657243126048,0.913226842880249,-0.09517242014408112,0.6411685533821583,0.8718199729919434,-0.0783916562795639,-0.4601345360279083,-0.14852920174598694
232.0,-3.0201048878740857,-1.8666731800279404,-1.5584530279799715,-2.2743384723077047,1.8376497156436014,-1.5030340816518764,0.9272350370883942,-0.04829663038253784,0.6420371159911156,0.8742127418518066,-0.0395561046898365,-0.4785025715827942,-0.0722680538892746
233.0,-2.9800384809915044,-1.8697628913327629,-1.54804055440607,-2.2928836852868133,1.7730648848767747,-1.4833564201166387,0.9296525716781616,-0.020735561847686768,0.6455525681376457,0.8746947646141052,-0.01593301072716713,-0.4835541546344757,-0.028821010142564774
234.0,-2.9213715354924976,-1.8694182443882725,-1.5449764992282404,-2.3055859849714797,1.6864024128041675,-1.4536062581861702,0.9288313388824463,0.020184729248285294,0.6472894363105297,0.8745700120925903,0.0171677116304636,-0.4835996925830841,0.031047090888023376
235.0,-2.893271480192873,-1.8672170153207122,-1.5476641157034743,-2.3080898665724248,1.6408599245034652,-1.4385170052844958,0.9266036748886108,0.038727737963199615,0.6472924314439297,0.8740083575248718,0.03378508239984512,-0.4808290898799896,0.06141151487827301
236.0,-2.866815341795035,-1.861072934302255,-1.5522007649944782,-2.3107855985131986,1.6010830612897284,-1.4233441735131331,0.9218635857105255,0.05590128153562546,0.6498386338353157,0.8733647465705872,0.04832373559474945,-0.4765019118785858,0.0885709822177887
237.0,-2.827742658763673,-1.8532447181885074,-1.565328175633651,-2.3043129231669375,1.5407681678613045,-1.3985128795487167,0.9149382412433624,0.08077540248632431,0.6479728035628796,0.8722507357597351,0.06912923604249954,-0.4665817320346832,0.12923356890678406
238.0,-2.8011954476505188,-1.842735962269625,-1.5735650056871942,-2.3067057049400224,1.4976656494548,-1.3802015542410888,0.9071503579616547,0.096102774143219,0.6522324346005917,0.870664119720459,0.08308230340480804,-0.45841118693351746,0.1577988862991333
239.0,-2.7573872419367933,-1.8233753876418928,-1.5953078589179162,-2.298998724734234,1.4307943679376807,-1.3448838078433516,0.8924641907215118,0.12078994512557983,0.6552364267408848,0.8687639832496643,0.1027045026421547,-0.4399692416191101,0.20280048251152039
240.0,-2.7360656061602318,-1.8107153349137068,-1.6072572342326568,-2.296130671830921,1.3988272290809787,-1.3253034854544823,0.8833179175853729,0.1317533403635025,0.6586528979241848,0.8678383231163025,0.11095984280109406,-0.429191529750824,0.22436413168907166
241.0,-2.7098881596258466,-1.8002658139823344,-1.6264403927072817,-2.2811490037644044,1.358978688328222,-1.2981233710456432,0.8746543824672699,0.1459205001592636,0.6550109386444092,0.8669741153717041,0.11971385031938553,-0.41357818245887756,0.2509533166885376
242.0,-2.682916073029799,-1.7878360998007397,-1.648971190846027,-2.2627911168934314,1.3205749913079228,-1.2666366577780919,0.8643115311861038,0.1600160449743271,0.650755800306797,0.8665780425071716,0.12638424336910248,-0.3954128623008728,0.2769809067249298
243.0,-2.6589561684649747,-1.7726394774631504,-1.6676983457632581,-2.2524371411345236,1.283295502757904,-1.2349143829183025,0.8532134592533112,0.1707402616739273,0.6516225636005402,0.8658484220504761,0.13127414882183075,-0.37716811895370483,0.3013603389263153
244.0,-2.6316057286301615,-1.7512610606263987,-1.6909015437503352,-2.24079820374512,1.2420833639243898,-1.1935901585143192,0.8382796049118042,0.18150372803211212,0.6546167321503162,0.8656357526779175,0.13404420018196106,-0.35352134704589844,0.3282218873500824
245.0,-2.598536398805219,-1.7305305881191386,-1.7238704051003044,-2.2143696327427427,1.1924657374894057,-1.1349301395379043,0.8226042836904526,0.19516949355602264,0.6502558216452599,0.8661039471626282,0.13311846554279327,-0.32040801644325256,0.35983628034591675
246.0,-2.6299239329567157,-1.756816224508091,-1.6961182743167205,-2.2280639179504638,1.2428543081547068,-1.1913401017303331,0.8403004705905914,0.18434932827949524,0.646178025752306,0.8662006258964539,0.13351333141326904,-0.3522418737411499,0.3283236026763916
247.0,-2.5794752410398214,-1.719987262159899,-1.7462743723154661,-2.192195189314118,1.1679527738742386,-1.0976430280024156,0.8135557025671005,0.20341706275939941,0.6440388783812523,0.8672775626182556,0.12984031438827515,-0.2997737228870392,0.37564194202423096
248.0,-2.5552808186708877,-1.6971653665123358,-1.7700070923347972,-2.179425044519158,1.1282765819423315,-1.0414735918021678,0.7988574802875519,0.21000078320503235,0.6473589651286602,0.8679400682449341,0.12360133975744247,-0.26900574564933777,0.3987964987754822
249.0,-2.5253275150683274,-1.6699274110891738,-1.8048579799139446,-2.15297220037746,1.08459972164016,-0.9638769387365845,0.7803888916969299,0.21807533502578735,0.6462997943162918,0.870194673538208,0.11043091863393784,-0.22715391218662262,0.4230453670024872
250.0,-2.4852701792033858,-1.629479972898003,-1.853420444032572,-2.1157694879309124,1.022059657520577,-0.8387199529627427,0.754820816218853,0.22608371078968048,0.6462524682283401,0.8733944296836853,0.08315887302160263,-0.16062282025814056,0.4521803855895996
251.0,-2.4581652973613672,-1.596574022855333,-1.886681617292193,-2.092340591598164,0.976257758095363,-0.7384019017206804,0.7360781133174896,0.22874543070793152,0.6497168876230717,0.8751684427261353,0.057566795498132706,-0.10761112719774246,0.46817314624786377
252.0,-2.4332317297487016,-1.5681619294071785,-1.9225310581379351,-2.058399519864848,0.9391317005454699,-0.6446672943072596,0.7191686779260635,0.23145198822021484,0.6473503448069096,0.8771324157714844,0.031052663922309875,-0.05724375694990158,0.4758125841617584
253.0,-2.398146461432415,-1.5141051593553647,-1.9750942139189471,-2.0027727914668243,0.8691801605407382,-0.4874146843094396,0.694250519387424,0.22997698187828064,0.6528805308043957,0.8782241344451904,-0.018226640298962593,0.033577460795640945,0.4767208397388458
254.0,-2.36304379791749,-1.456526602734698,-2.035562293071988,-1.930363709062439,0.8037521697700717,-0.35078486170724066,0.6680690348148346,0.2262342870235443,0.654381912201643,0.8769011497497559,-0.06345552206039429,0.12072538584470749,0.4609156548976898
255.0,-2.3394734135264112,-1.4171207377526436,-2.081761722532465,-1.8653311960656007,0.7712149654404213,-0.2921339820500131,0.6495627909898758,0.22336909174919128,0.6511525698006153,0.8774110674858093,-0.08486766368150711,0.16887497901916504,0.4409405291080475
256.0,-2.310286922218333,-1.3526144090218302,-2.1437752822420415,-1.7725400505113165,0.7236567966060415,-0.24034760924517712,0.6234650909900665,0.21366697549819946,0.6538148485124111,0.8772876858711243,-0.10709461569786072,0.23088338971138,0.4069274365901947
257.0,-2.2966869354166537,-1.3113780785735483,-2.1799198739987062,-1.7085422414460505,0.6956075625444604,-0.2325271215476081,0.6092597767710686,0.2052117884159088,0.6578103750944138,0.8773660659790039,-0.11547541618347168,0.26413312554359436,0.3835725784301758
258.0,-2.2846671657971225,-1.2755407512701527,-2.2130754650889584,-1.6478857190768121,0.6752680193039621,-0.23718322269443076,0.5964783281087875,0.19762957096099854,0.6597058065235615,0.877827525138855,-0.11950422078371048,0.28943777084350586,0.36244088411331177
259.0,-2.2727949569390153,-1.2380228025028093,-2.252293354178858,-1.568765528547136,0.6587944216643943,-0.2588460265936424,0.5830553472042084,0.18921393156051636,0.659049715846777,0.8794364929199219,-0.12025846540927887,0.31309252977371216,0.33779051899909973
260.0,-2.257163187773667,-1.1761918862242027,-2.316543679720881,-1.428399810153776,0.6397912397120848,-0.31877499494118944,0.5615089535713196,0.17290402948856354,0.6582684442400932,0.882311224937439,-0.11644992977380753,0.34638336300849915,0.29662248492240906
261.0,-2.253335784744201,-1.1239577454932574,-2.366401118453991,-1.2940709531539378,0.6307762665609931,-0.39964578532332923,0.5457677990198135,0.15519753098487854,0.6624100469052792,0.8843865394592285,-0.10946018248796463,0.37140795588493347,0.2606435716152191
262.0,-2.255553737248032,-1.078230491936063,-2.4153976404168414,-1.1466342769137123,0.6362371591651831,-0.4986553209720752,0.531299352645874,0.1366366297006607,0.6646023392677307,0.8868475556373596,-0.09907317906618118,0.39158856868743896,0.22437532246112823
263.0,-2.2710556981592336,-1.031653574473973,-2.4746507028972577,-0.9456559069158212,0.668871806198548,-0.6434214757168567,0.5148482322692871,0.11117026209831238,0.6646756082773209,0.8904402256011963,-0.0819263830780983,0.41096821427345276,0.17750893533229828
264.0,-2.2580816523575473,-1.0536980831779568,-2.4500583863429526,-1.0478101490588119,0.6521893651763409,-0.5647569582823101,0.5214020609855652,0.12514598667621613,0.660490695387125,0.8896088004112244,-0.09024617075920105,0.4002799987792969,0.20056910812854767
265.0,-2.277435061421442,-1.0166096295779763,-2.501662846766216,-0.8703261191935561,0.6941053502276868,-0.6951294455548163,0.5069442391395569,0.10158417373895645,0.6583488471806049,0.8932065367698669,-0.07355663180351257,0.41426920890808105,0.15859557688236237
266.0,-2.293117263041277,-1.0023130018725888,-2.5229190025857924,-0.7858720716743373,0.7219234646821723,-0.7602993106518914,0.5009147226810455,0.08926449716091156,0.6583295427262783,0.8943871259689331,-0.06510183960199356,0.4202858507633209,0.1385396420955658
267.0,-2.2589957025174376,-1.0350799975892861,-2.4771195309605223,-0.9806985073169108,0.6682510953322164,-0.6088056526713634,0.5127042829990387,0.1163463145494461,0.6549872420728207,0.8918787837028503,-0.0832262635231018,0.4050150215625763,0.18327155709266663
268.0,-2.244978933565596,-1.0816274505583157,-2.423624800398156,-1.1628102360608834,0.6441392774552067,-0.4762059645762501,0.5276153981685638,0.14064912497997284,0.6525026746094227,0.8889931440353394,-0.09824179112911224,0.38570407032966614,0.2264333814382553
269.0,-2.2478845258935487,-1.0571657727846593,-2.455137757927035,-1.0712880775565703,0.6565879366869959,-0.5384852445950231,0.5186535716056824,0.12931762635707855,0.6501343958079815,0.8913580179214478,-0.09034267067909241,0.39453715085983276,0.2041066735982895
270.0,-2.2422064868365172,-1.1136316588724313,-2.3929861343900294,-1.2577676724433886,0.6425601813099978,-0.4104053947991132,0.5368126779794693,0.1539451628923416,0.6490349508821964,0.8878275156021118,-0.10478969663381577,0.3716317117214203,0.2503424286842346
271.0,-2.2419717571904956,-1.1506555963706009,-2.357518258915776,-1.3599185752963303,0.645772128418217,-0.34416576743546395,0.5472274422645569,0.16770929098129272,0.6457080319523811,0.885972797870636,-0.11099443584680557,0.3549053966999054,0.2770824134349823
272.0,-2.246268540767881,-1.1918428373711554,-2.3228489283641984,-1.4475552338226036,0.6583313343148066,-0.29514240032599304,0.5589219778776169,0.18094030022621155,0.640671119093895,0.8850420117378235,-0.11445790529251099,0.3344798982143402,0.3028584420681
273.0,-2.265986895391907,-1.260073669620387,-2.253426120395604,-1.5876080584457546,0.6811645839064592,-0.24442692507387637,0.5832719802856445,0.19834552705287933,0.6419280618429184,0.8818657994270325,-0.11692968010902405,0.29751959443092346,0.34658658504486084
274.0,-2.2816125169600223,-1.3096047901127041,-2.205848578136151,-1.677350168880322,0.7060128196365528,-0.22922573719642164,0.600656270980835,0.20963943004608154,0.6405349895358086,0.8802273869514465,-0.11349456012248993,0.2650439739227295,0.3769223988056183
275.0,-2.2985661441844476,-1.3432923269563137,-2.1683631291734526,-1.7355008769611564,0.7237008171246866,-0.23722473065058866,0.6155384182929993,0.21492810547351837,0.6434434950351715,0.8792950510978699,-0.10815893858671188,0.2393815666437149,0.3972887694835663
276.0,-2.3230851776211816,-1.3990226885332002,-2.113150105065339,-1.8217846821238404,0.7619710505630264,-0.26977241185645107,0.6378174610435963,0.22399024665355682,0.6423508524894714,0.8786913156509399,-0.09228577464818954,0.1892690360546112,0.42844152450561523
277.0,-2.3388790679830667,-1.4320224582170473,-2.081990711296207,-1.864429049088779,0.7872685693924042,-0.3057871301651573,0.6517124474048615,0.22862359881401062,0.6404835321009159,0.8788219094276428,-0.07860568165779114,0.15551891922950745,0.4441928565502167
278.0,-2.3693935262465255,-1.4865078323261642,-2.02564709719946,-1.9381956670250864,0.8356632465905987,-0.3971991721534526,0.6763165071606636,0.233658105134964,0.6394991874694824,0.8787615895271301,-0.04651524871587753,0.08755677193403244,0.46684926748275757
279.0,-2.3935807845540493,-1.5233236194981852,-1.9840612774637574,-1.987854722450676,0.876009258090385,-0.4880397925721499,0.694250050932169,0.23522596061229706,0.6402980871498585,0.8786395788192749,-0.016724886372685432,0.03085959702730179,0.47619375586509705
280.0,-2.4404581159624916,-1.5859689542123314,-1.9145267414915623,-2.0587184895647135,0.9572785933137391,-0.6813874561919572,0.726696290075779,0.23418474197387695,0.6393382921814919,0.876946210861206,0.04182564839720726,-0.07763901352882385,0.47242793440818787
281.0,-2.4734282001257086,-1.6286201521385766,-1.8725767620338047,-2.0889170016607506,1.0130929701009044,-0.8075626327714562,0.7504730373620987,0.2322297990322113,0.6342347450554371,0.8748427033424377,0.07547284662723541,-0.14477552473545074,0.45606377720832825
282.0,-2.5162533966801615,-1.6694492416195919,-1.818618798041992,-2.1338173203187476,1.0765532238348379,-0.9422683998700562,0.7774421274662018,0.22312092781066895,0.6375127136707306,0.8712499141693115,0.10605437308549881,-0.21597859263420105,0.42781955003738403
283.0,-2.551681284186031,-1.7037177819533995,-1.7781063522494873,-2.162240281278263,1.1294468604297736,-1.0363839938381216,0.8001531064510345,0.21444816887378693,0.6364488080143929,0.8687160015106201,0.1224687471985817,-0.26659083366394043,0.3990781009197235
284.0,-2.599531211255057,-1.7478078559823995,-1.730412496727047,-2.1891458543950173,1.2034953288004075,-1.1399244681468053,0.8296367228031158,0.20031973719596863,0.6309169735759497,0.867203950881958,0.13231459259986877,-0.32357969880104065,0.35460731387138367
285.0,-2.656086337172355,-1.7881486217959044,-1.679369476051785,-2.220767841859786,1.2879430275567645,-1.2316883926902538,0.8592862337827682,0.17743076384067535,0.6297289617359638,0.8673031330108643,0.129859060049057,-0.37534672021865845,0.3000617027282715
286.0,-2.691007024313549,-1.8067470473633684,-1.6502781660308168,-2.2416114352896277,1.3371525605243575,-1.276073884439405,0.874535396695137,0.16010995209217072,0.6326703950762749,0.8679037094116211,0.12311776727437973,-0.40050315856933594,0.26680028438568115
287.0,-2.719054482396826,-1.8216111632989933,-1.630184890072756,-2.253298701312069,1.3792110951045502,-1.307100937458493,0.8861757516860962,0.1458459496498108,0.6327052637934685,0.8689211010932922,0.11484922468662262,-0.41811251640319824,0.23867960274219513
288.0,-2.7459068619928337,-1.8366475633294046,-1.613077162620087,-2.260805911689913,1.4181434944875633,-1.3332806849812417,0.8975960314273834,0.13168218731880188,0.6304940339177847,0.8698517680168152,0.10554560273885727,-0.43265384435653687,0.21219973266124725
289.0,-2.7703867182799033,-1.8443768714354016,-1.5981359383837248,-2.271810901728196,1.4549585476901643,-1.3547527848879908,0.9045992791652679,0.1172885149717331,0.633483026176691,0.8708590269088745,0.09558343142271042,-0.44425317645072937,0.1873699575662613
290.0,-2.7929481036488197,-1.8526110842740797,-1.5858671000588593,-2.279134987646572,1.4875435830335129,-1.372814309254355,0.9114684909582138,0.1037931963801384,0.6342227682471275,0.8715763092041016,0.08588474988937378,-0.4535905718803406,0.1650279462337494
291.0,-2.8204217408336256,-1.8622068757066128,-1.5748103030162923,-2.2819905758037806,1.5298400584646088,-1.3925867632257571,0.9191311597824097,0.08729524910449982,0.6327482834458351,0.872865617275238,0.0724012553691864,-0.4628393054008484,0.13654105365276337
292.0,-2.8545999037511356,-1.8727949914400805,-1.5632423555534378,-2.2843666883242246,1.5808197801429136,-1.4149851887262954,0.9275321066379547,0.06579340249300003,0.6307612992823124,0.8739189505577087,0.05497783049941063,-0.4721081554889679,0.10176941752433777
293.0,-2.877136837841491,-1.8795822239673423,-1.5600597928389042,-2.2786303657377065,1.614819452860969,-1.428109717563354,0.9326165020465851,0.05134671926498413,0.626469299197197,0.8749786615371704,0.04271012917160988,-0.4758363366127014,0.07853635400533676
294.0,-2.9454932698071348,-1.8821750572985734,-1.5507501511738357,-2.2812004202683487,1.7187186610299907,-1.4655954819344468,0.9364717304706573,0.004290299955755472,0.6311138533055782,0.8754766583442688,0.004297667182981968,-0.4831785559654236,0.007786991540342569
295.0,-2.926817727689639,-1.8791568239135,-1.5503395973261085,-2.2869808767468203,1.6916116520700455,-1.4559129593775115,0.9344289302825928,0.01714288629591465,0.6341019719839096,0.8753610849380493,0.014669100753962994,-0.4825139045715332,0.026612207293510437
296.0,-2.9023958057238604,-1.8760592721992058,-1.5503133657053676,-2.294253711836629,1.6535264544767676,-1.4431758734437774,0.9319048821926117,0.033493466675281525,0.6369568109512329,0.8746042847633362,0.028837036341428757,-0.4811319410800934,0.05242012068629265
297.0,-2.864775928987885,-1.8675544008228413,-1.5568983164493335,-2.2974838318698727,1.5978873353880079,-1.4216205742255381,0.925313264131546,0.05828184634447098,0.6402820162475109,0.8738396167755127,0.049280811101198196,-0.4751436412334442,0.09063264727592468
298.0,-2.8415248435891596,-1.8630020430916792,-1.5638171645581525,-2.2950642169275186,1.5607955395818505,-1.407136729640429,0.9213221073150635,0.07305002212524414,0.6397371515631676,0.8730859756469727,0.06206430494785309,-0.46963372826576233,0.11538241058588028
299.0,-2.8103940575894906,-1.8536599766794815,-1.5751743181219096,-2.2917106648653767,1.51422733411354,-1.386129185281287,0.9137083292007446,0.09241519868373871,0.6406785920262337,0.8719220757484436,0.07769288867712021,-0.4605189263820648,0.1470995843410492
300.0,-2.781782349219595,-1.840548984822624,-1.5871911573924593,-2.290552074112801,1.470474880022098,-1.3646785179801444,0.9039701372385025,0.10879829525947571,0.6447081193327904,0.8706238269805908,0.09127574414014816,-0.4499974250793457,0.17659400403499603
301.0,-2.753480623236065,-1.8299571346225108,-1.6024749837855004,-2.2824576241495076,1.4268229089430933,-1.3409006159333332,0.8953244984149933,0.12498530745506287,0.6441086977720261,0.8692442774772644,0.10357791185379028,-0.43739572167396545,0.20584222674369812
302.0,-2.722680811336978,-1.8130465789746748,-1.621746856098575,-2.2739420254374503,1.3820607379284382,-1.3115076756385562,0.8825635015964508,0.14126275479793549,0.6464382261037827,0.8681747913360596,0.11460577696561813,-0.4210726320743561,0.2362961620092392
303.0,-2.702869931600533,-1.8079535301526912,-1.63784389003499,-2.257796752036526,1.3523616813309873,-1.290043823183178,0.8772092461585999,0.15264299511909485,0.6401181891560555,0.8676247000694275,0.12067081779241562,-0.4087141454219818,0.2561618685722351
304.0,-2.6753558482232758,-1.790276869060126,-1.6589818422612375,-2.246441626244171,1.3123517032608667,-1.25707297431463,0.8640449196100235,0.16565808653831482,0.6416705027222633,0.8670273423194885,0.1272568553686142,-0.3898126780986786,0.2830466628074646
305.0,-2.6409366123226437,-1.7721935405718132,-1.6898239357642462,-2.221909647049559,1.2621113919725888,-1.2090074869024419,0.8493086695671082,0.18214720487594604,0.6368998736143112,0.866719126701355,0.1322246938943863,-0.3622826039791107,0.31633228063583374
306.0,-2.576980549829668,-1.7355633673063326,-1.7568575541397775,-2.162547784258552,1.1740717640143707,-1.096067736513423,0.8188217878341675,0.21013401448726654,0.6236637458205223,0.8686100244522095,0.1286277174949646,-0.29917508363723755,0.37345126271247864
307.0,-2.61379060253924,-1.7655141721830399,-1.720984003664327,-2.184606076007085,1.228768944464845,-1.1661270288634895,0.8401379287242889,0.1972084939479828,0.6217301487922668,0.8678624629974365,0.1321369707584381,-0.3380945324897766,0.3391853868961334
308.0,-2.6453754103745957,-1.7893351867754388,-1.6923201640882217,-2.2015853034806594,1.2750597847532947,-1.2164994038747876,0.8575263321399689,0.18456034362316132,0.6199261769652367,0.8677489757537842,0.13059456646442413,-0.366629421710968,0.30909496545791626
309.0,-2.669168175082625,-1.802368263674056,-1.6722829176025533,-2.2154578672414442,1.3088548836438203,-1.2488029903594695,0.8682729303836823,0.17310863733291626,0.621658593416214,0.8682240843772888,0.1269320398569107,-0.3847450911998749,0.28643760085105896
310.0,-2.698196301809055,-1.822152715046224,-1.6500334500018972,-2.2262007969217805,1.3515281970054096,-1.2842908519924956,0.8828834891319275,0.1596403568983078,0.6187061406672001,0.8688779473304749,0.12024201452732086,-0.4050464630126953,0.25793492794036865
311.0,-2.7346279915729443,-1.720798722780529,-1.7421097433926291,-1.8872547816959344,1.4369021402985969,-1.2235274974443993,0.8748659789562225,0.13578450679779053,0.6407785452902317,0.9464098215103149,0.04923900216817856,-0.26743441820144653,0.17424935102462769
312.0,-2.7622121802190134,-1.669290706015153,-1.8041583687115221,-1.6833689602956892,1.4820071621721465,-1.2190686151917791,0.8704159706830978,0.1159142553806305,0.6494608633220196,0.9742223620414734,0.02325267903506756,-0.19015103578567505,0.11913308501243591
313.0,-0.1036234583010615,-1.1746657168950576,1.5111643792207752,1.354146425170097,1.660868271337505,1.4676101888857436,0.8587336391210556,0.09882500767707825,0.6574163846671581,0.9971935153007507,0.002478180220350623,-0.06414695829153061,0.038524430245161057
314.0,-0.0912902573135497,-1.1762999235767173,1.5116999391398132,1.3436879520384077,1.657995177677964,1.4797719573050847,0.8580022156238556,0.10980098694562912,0.6566444486379623,0.9975858926773071,0.0022262053098529577,-0.05780528485774994,0.038419172167778015
315.0,-0.0802573017063539,-1.1838946768820973,1.5206945751372978,1.3330239822519576,1.6585379948748478,1.490679253675026,0.8516230285167694,0.11958815157413483,0.6565667241811752,0.9978135824203491,0.002100666519254446,-0.05279572308063507,0.03970158100128174
316.0,-0.06574356180525337,-1.193455594170189,1.5336431481040826,1.3248855313802144,1.665962150955409,1.5050859904997345,0.841936469078064,0.13130970299243927,0.6565917991101742,0.9977587461471558,0.002224729396402836,-0.05008654668927193,0.044318150728940964
317.0,-0.054230309277420376,-1.2011786925365449,1.5464884146543882,1.32573422826388,1.6822240384330323,1.5165346160362498,0.83199842274189,0.13894911110401154,0.656798493117094,0.9971944689750671,0.002805635565891862,-0.05296692997217178,0.052820973098278046
318.0,-0.045370859410224666,-1.2095896402278379,1.5554641462183647,1.3120071214392577,1.6776724197417627,1.525357371067656,0.8256674706935883,0.14724352955818176,0.656649474054575,0.997626006603241,0.0023589604534208775,-0.04584402218461037,0.051334068179130554
319.0,-0.04425241087554081,-1.2290359749451458,1.5790134329083387,1.298165491189657,1.679777691388342,1.5264296727896929,0.8101103603839874,0.148525208234787,0.6579760313034058,0.9977689981460571,0.0021627626847475767,-0.040979065001010895,0.05265951529145241
320.0,0.022958391613227686,-1.1715144320569646,1.5633899195436969,1.4327673867261181,1.9009786191040523,1.5943342315506914,0.814036414027214,0.1697055995464325,0.6509058699011803,0.9784747958183289,0.020519377663731575,-0.12103836238384247,0.1658787727355957
321.0,-0.029760046085216558,-1.245708509646197,1.6002875632184939,1.2836171996221877,1.6866112359910295,1.5409106442144413,0.7945256158709526,0.1595987230539322,0.6579596288502216,0.9977569580078125,0.0020126975141465664,-0.035346921533346176,0.05681351572275162
322.0,0.06056348875395232,-1.1661016586209434,1.5825874935507238,1.4570733998088385,1.9944316610815325,1.634723307457644,0.8020017370581627,0.18645498156547546,0.6471093595027924,0.9665216207504272,0.030079210177063942,-0.13421973586082458,0.21660159528255463
323.0,-0.017882251023883352,-1.263120475792888,1.6220291156067121,1.268633865419476,1.6916987230296368,1.5528138127293922,0.7787261083722115,0.16849248111248016,0.657970417290926,0.9977715611457825,0.0017639327561482787,-0.02939578890800476,0.0598725862801075
324.0,0.034514419110259306,-1.2335423636058864,1.6173176508122356,1.3347285713505417,1.8590157755395198,1.6064564379331743,0.7757006660103798,0.18401804566383362,0.6540180705487728,0.9869423508644104,0.010031242854893208,-0.06795267760753632,0.14569343626499176
325.0,0.037949207651871125,-1.2508608076497063,1.6336603976621884,1.309197004752087,1.8526303730037057,1.6100652802351574,0.7644584029912949,0.1872248500585556,0.6545100174844265,0.9882755875587463,0.00785401277244091,-0.05450664833188057,0.14240333437919617
326.0,0.022512803000185506,-1.2815890154389242,1.6556727583504918,1.2649843461905803,1.7820096333332924,1.5937745636617415,0.7509322240948677,0.18560275435447693,0.6565676294267178,0.9938504099845886,0.003366295015439391,-0.03153432160615921,0.10609371960163116
327.0,0.06199685130199914,-1.2715721221522363,1.6643161786051996,1.284269578598954,1.906438920788301,1.6362277524093631,0.7427179031074047,0.19657161831855774,0.6531255431473255,0.9845746755599976,0.007176029495894909,-0.041611447930336,0.16979309916496277
328.0,0.01202960746727621,-1.2980861776533565,1.6674440486900246,1.2396073443043862,1.7125524491276825,1.5829397548427382,0.7445065379142761,0.18816973268985748,0.6568092815577984,0.9973076581954956,0.0012946970527991652,-0.01817820593714714,0.07103072851896286
329.0,0.015037919258324409,-1.311667410959835,1.682369714038867,1.2255967631817446,1.6966637331215166,1.585949945914023,0.7341131456196308,0.19269080460071564,0.656567208468914,0.9979393482208252,0.0007442088681273162,-0.011775041930377483,0.06307200342416763
330.0,0.0340794027856469,-1.3125744236606731,1.6913617785999369,1.2326669120386662,1.7955849522172396,1.6057367407589556,0.7257829997688532,0.19144710898399353,0.6564332768321037,0.9934859871864319,0.0018521950114518404,-0.016318295150995255,0.11276482045650482
331.0,0.02004260422502936,-1.3363309926099407,1.7121332344205138,1.2089008577600797,1.715088737457073,1.5910482082129564,0.7129733506590128,0.19314053654670715,0.6568014249205589,0.9973745346069336,0.0003968575911130756,-0.0054816813208162785,0.07220698148012161
332.0,0.05851738975913433,-1.3254447728928833,1.713896115933912,1.2178823176547708,1.8680591955159187,1.6319917373624138,0.7090023988857865,0.19760841131210327,0.6547059863805771,0.9888212084770203,0.0013070889981463552,-0.008683236315846443,0.14884741604328156
333.0,0.13165507511508873,-1.3221726929505022,1.7442546916965704,1.1835879564302165,2.106517403009045,1.7239134719248388,0.6908138692378998,0.21478119492530823,0.6462277807295322,0.9641868472099304,-0.0057321046479046345,0.020908258855342865,0.2643367350101471
334.0,0.005003254894627539,-1.376446971859171,1.754570189336349,1.1802074574491765,1.697690745491901,1.5758397027060158,0.685404266230762,0.18490424752235413,0.6580191440880299,0.9979686141014099,-0.00041520741069689393,0.0065386611968278885,0.06337137520313263
335.0,0.11034342669373731,-1.358783149049807,1.766905084529743,1.145438128807972,2.0350120286670172,1.6939393881401599,0.6745979599654675,0.2074647694826126,0.6490922048687935,0.9731149673461914,-0.00821028184145689,0.03512225300073624,0.22747822105884552
336.0,0.0011469083181929426,-1.4115644731140964,1.7923476441791542,1.1526889050257336,1.704741552921859,1.5719527886765714,0.659494437277317,0.18115049600601196,0.6578197441995144,0.9975845217704773,-0.001253610011190176,0.018696259707212448,0.06688942760229111
337.0,0.002488123810060736,-1.4190354651230082,1.80316794303907,1.1553068963003315,1.6838667228101216,1.5732991878221316,0.651037659496069,0.18521082401275635,0.6570748873054981,0.9982796311378479,-0.0008932331693358719,0.015793727710843086,0.05645890161395073
338.0,-0.0059572290591995165,-1.4350713486273807,1.8206470748185253,1.1486257219238034,1.672550464988919,1.5648120009127064,0.6393518932163715,0.18152089416980743,0.6570865139365196,0.9985389113426208,-0.0009169377735815942,0.01796882599592209,0.050954800099134445
339.0,-0.01669429903155513,-1.451081205766585,1.8370347974990486,1.1399954648733845,1.6693809535806508,1.5540362122258498,0.6288037300109863,0.17534050345420837,0.6572783924639225,0.9985343217849731,-0.0010719128185883164,0.02156744711101055,0.04962765425443649
340.0,-0.02792581250130628,-1.468668776545682,1.8511514989774227,1.118123512369345,1.6852281987281872,1.5427496364612405,0.620649017393589,0.16611656546592712,0.6577540375292301,0.9977489709854126,-0.001946185133419931,0.03341751918196678,0.05810737609863281
341.0,-0.031068277421515928,-1.4704042798293098,1.8579016711763912,1.1345880929667167,1.6558102782331887,1.5396484596179998,0.6149826645851135,0.1688762605190277,0.6572871096432209,0.9988004565238953,-0.0009951137471944094,0.022997938096523285,0.04321778938174248
342.0,-0.043956266024309104,-1.4840605112797964,1.8718788401668953,1.1296928223338645,1.64934070163953,1.526758691136904,0.6060977578163147,0.1624167263507843,0.65739706158638,0.9988744854927063,-0.0010052805300801992,0.024866895750164986,0.04038095474243164
343.0,-0.023828678426768647,-1.496771366700795,1.8751927732531148,1.0738780482159294,1.7323652344964704,1.5468115614973437,0.6047430038452148,0.1618153154850006,0.6566633023321629,0.9949901103973389,-0.004700699355453253,0.057078178972005844,0.0819428563117981
344.0,-0.019411566247436236,-1.5271402458663097,1.9006796324673225,1.0191040093624906,1.7826629199678865,1.5512406185723417,0.589184582233429,0.15714633464813232,0.6548743806779385,0.9904526472091675,-0.009334692731499672,0.08639144897460938,0.10701951384544373
345.0,-0.019678312316516663,-1.5525155339850953,1.9215453128339728,0.971450204423481,1.8140056807870588,1.5510346928413858,0.5776063799858093,0.15250560641288757,0.6531357318162918,0.9860414862632751,-0.013897350989282131,0.11165698617696762,0.12272734194993973
346.0,-0.11395777911156506,-1.5292891099938157,1.9194354135644476,1.127695290510247,1.6114181958521423,1.4568759591049825,0.5773123055696487,0.1299295872449875,0.6580273173749447,0.9994432926177979,-0.0005563757731579244,0.02398895099759102,0.023180091753602028
347.0,-0.13677109929658376,-1.5421250268318052,1.9332509950136918,1.1290616136624927,1.6016076401201016,1.434105146609635,0.5687342286109924,0.11982141435146332,0.6580558829009533,0.9995613098144531,-0.0004297135164961219,0.02296343632042408,0.01870473474264145
348.0,-0.07190245186827485,-1.5933880773965194,1.953924139499621,0.9485685181544273,1.7589372318846144,1.4998393221270332,0.5586682111024857,0.13234777748584747,0.6533824093639851,0.9870625138282776,-0.012722154147922993,0.12291823327541351,0.10216191411018372
349.0,-0.11482723854498307,-1.6031756113481037,1.9637221124156896,0.9745364661323939,1.7009536988133342,1.4577777914081749,0.5519897490739822,0.11850954592227936,0.6548066399991512,0.9909535050392151,-0.008542988449335098,0.10923312604427338,0.07750125974416733
350.0,-0.1535793985314997,-1.5603291761907987,1.9512863741389406,1.1238051173708115,1.600522999370848,1.4173485516725701,0.5561071038246155,0.1126687303185463,0.6576531603932381,0.99949711561203,-0.00048213324043899775,0.025409048423171043,0.01896532252430916
351.0,-0.18604328195631764,-1.5783114182258857,1.9703608182297825,1.1267874173947816,1.5908487057763172,1.3849262809418643,0.54356649518013,0.09907118231058121,0.6575174741446972,0.9996122717857361,-0.0003470244992058724,0.023674651980400085,0.014652379788458347
352.0,-0.20595187996291567,-1.573371709834689,1.9666523374935547,1.1341973823848082,1.583921810328823,1.3649912581955626,0.5481146574020386,0.08876170963048935,0.6580038294196129,0.9997439980506897,-0.0002155159745598212,0.01985836774110794,0.010849875397980213
353.0,-0.16392824751570023,-1.6206427019088017,1.9800545747593707,0.9853839969909934,1.6557474284530822,1.4098973950786367,0.5421070903539658,0.10078982263803482,0.6553981192409992,0.9927176833152771,-0.006291729863733053,0.10435313731431961,0.05985359847545624
354.0,-0.2282127592112583,-1.586654301639736,1.9786165637795103,1.1295200871556266,1.5812058552096784,1.3428133294630193,0.5401986837387085,0.07923530787229538,0.657869715243578,0.9996824860572815,-0.00024315985501743853,0.022839006036520004,0.010643310844898224
355.0,-0.2219699942709085,-1.8787785695660968,2.171212380826486,0.39682911961736833,1.666140173497811,1.425205657004414,0.48357027769088745,0.08186028897762299,0.6270497664809227,0.901962399482727,-0.05480794608592987,0.41109564900398254,0.1202511116862297
356.0,-0.29690475484289675,-1.833439370082036,2.126507349440213,0.5882665672576102,1.5567746480267373,1.3395611376366705,0.48884546756744385,0.06289796531200409,0.6378462165594101,0.9407138228416443,-0.02852870710194111,0.32794302701950073,0.08183539658784866
357.0,-0.36528460166194865,-1.8716911861855228,2.156783042804012,0.5352089702969085,1.460785873115229,1.303802239083939,0.4812593460083008,0.04927856847643852,0.6338200010359287,0.9288779497146606,-0.025512952357530594,0.3637165427207947,0.06515628844499588
358.0,-0.43317254210135653,-1.9250220287244586,2.1995201081879285,0.43549142519830264,1.3610803721291018,1.2915010797973485,0.47274309396743774,0.03821722790598869,0.628077570348978,0.9044888615608215,-0.02592766471207142,0.4220671057701111,0.055562928318977356
359.0,-0.6083262175840586,-1.9241684775591026,2.2100537309150385,0.5031073581545065,1.11811741592781,1.1532051522623648,0.46981093287467957,-8.937087841331959e-06,0.6288337744772434,0.905032217502594,-0.0006770420586690307,0.42534002661705017,0.001440600142814219
360.0,-0.6712681294579669,-1.9112684792832004,2.213379087803388,0.5386114422584702,1.0329318067959994,1.0883808106253887,0.46980011463165283,-0.015526339411735535,0.6270240023732185,0.9054654836654663,0.009521097876131535,0.42382532358169556,-0.020340988412499428
361.0,-0.7196215004846955,-1.8960466919411791,2.2105033696591954,0.5739613504279021,0.9644691291282644,1.0315867212587306,0.47159066796302795,-0.02911633439362049,0.6288553439080715,0.9047251343727112,0.0184683408588171,0.4237651228904724,-0.039429325610399246
362.0,-0.5994120291133294,-1.7599236289748668,2.0974190809351385,0.8576739147880996,1.2411961325797631,1.016710274772182,0.49735039472579956,-0.03590099513530731,0.6473832987248898,0.9695495367050171,0.008662160485982895,0.2422747015953064,-0.034664761275053024
363.0,-0.6910901875682723,-1.7938753415618391,2.137027956594314,0.7898019505791978,1.0869463340026153,0.9503471396925146,0.48913508653640747,-0.050593405961990356,0.6405193507671356,0.9489522576332092,0.018530450761318207,0.30971378087997437,-0.056776657700538635
364.0,-0.6955003891914808,-1.7531655055344408,2.1121074394575006,0.8660267684153995,1.1084379495907875,0.9153023354761188,0.4975486546754837,-0.06380735337734222,0.6441031321883202,0.9594779014587402,0.020234528928995132,0.2718302011489868,-0.07142172008752823
365.0,-0.8266758274385135,-1.7803793444751603,2.1759400116974965,0.7851294876371049,0.8490702917870199,0.7947693636670863,0.48689547181129456,-0.08158273249864578,0.6309455148875713,0.919289767742157,0.045170314610004425,0.3749698996543884,-0.11074117571115494
366.0,-0.8476166039438383,-1.6974860937179754,2.1375086664933116,0.9177195883892644,0.8458357399197896,0.6865007594362975,0.5047432631254196,-0.11347027868032455,0.6344251818954945,0.9288721680641174,0.054745811969041824,0.3329820930957794,-0.1527165025472641
367.0,-0.5616501172878358,-1.5846553038452553,1.9828701128499975,1.1469427804202401,1.5243313319118303,1.0091456087884543,0.537813201546669,-0.09246878325939178,0.6574800871312618,0.9996480941772461,0.000298100319923833,0.02321792207658291,-0.012834715656936169
368.0,-0.8715524431015774,-1.7716972366619546,2.188246951644129,0.7815746825834866,0.7408584108216502,0.7316596540402226,0.488079771399498,-0.0911773145198822,0.631131250411272,0.90038001537323,0.06010479852557182,0.4102462828159332,-0.13191384077072144
369.0,-0.8932730239763278,-1.7256782265568025,2.1768581764546533,0.8526925807115218,0.7042828350711912,0.6425186425521804,0.496146023273468,-0.10843278467655182,0.6318611279129982,0.8984166979789734,0.07159952074289322,0.40275558829307556,-0.1597152203321457
370.0,-0.9111193892482293,-1.6621930491074934,2.1597385569502188,0.9520979626920236,0.6720262858557665,0.5268560679407035,0.5086745917797089,-0.13086222112178802,0.6323041543364525,0.8953352570533752,0.08590430021286011,0.3900038003921509,-0.19721131026744843
371.0,-0.9162698479909187,-1.618352291791424,2.1463947271044326,1.0207333175479318,0.6608554811968907,0.4544121285294811,0.518665224313736,-0.14563649892807007,0.63198197260499,0.8932437896728516,0.09453745186328888,0.37878385186195374,-0.22293713688850403
372.0,-0.8993095782972333,-1.6928543150747375,2.1582646925591287,0.9098567662264401,0.6792875503310577,0.5854872651947735,0.505689337849617,-0.12031552195549011,0.6388140693306923,0.8953381180763245,0.08064498007297516,0.3988693952560425,-0.1810230016708374
373.0,-0.8676230554068172,-1.7668554312422533,2.1721014063461213,0.7959843606220587,0.7282086296099475,0.7295775227910802,0.49355626106262207,-0.0932777002453804,0.6412001177668571,0.8979390859603882,0.06328729540109634,0.4132692813873291,-0.13750872015953064
374.0,-0.8473911640094693,-1.7996505359168522,2.18418666131076,0.7412456895318926,0.7668932717058377,0.7964401756193629,0.48695868253707886,-0.0799105316400528,0.6372534334659576,0.9001648426055908,0.0535028837621212,0.41649651527404785,-0.11563462018966675
375.0,-0.8000770317950553,-1.8494556816144112,2.198215537193962,0.6594518532075409,0.8438482275647071,0.9063980804690343,0.47864148020744324,-0.05718135088682175,0.6335366144776344,0.9025572538375854,0.03759688511490822,0.42129483819007874,-0.08054536581039429
376.0,-0.7399397174131461,-1.8857938868662234,2.1989568076393557,0.5971959422094542,0.9268487440865685,1.0052549820113563,0.4757322669029236,-0.03672836348414421,0.6362216211855412,0.9028869271278381,0.024065690115094185,0.42616507411003113,-0.05098634213209152
377.0,-0.6807679506040145,-1.907109178062687,2.1979178106939337,0.5519573859824511,1.0093089296358986,1.080759594960318,0.47477519512176514,-0.020155152305960655,0.6375744864344597,0.9032030701637268,0.012698802165687084,0.42818862199783325,-0.02678631618618965
378.0,-0.5746575021861352,-1.9263603501270237,2.188919026068356,0.49500763155153304,1.1533193725970894,1.1879296785000275,0.47620363533496857,0.0056262449361383915,0.6425913646817207,0.9022470116615295,-0.004450867418199778,0.43109601736068726,0.009315283969044685
