Sungjin-Park-dev/vision_inspection/data/output/1000/joint_trajectory_dp_20251102_060618.csv
time,ur20-shoulder_pan_joint,ur20-shoulder_lift_joint,ur20-elbow_joint,ur20-wrist_1_joint,ur20-wrist_2_joint,ur20-wrist_3_joint,target-POS_X,target-POS_Y,target-POS_Z,target-ROT_X,target-ROT_Y,target-ROT_Z,target-ROT_W
0.0,2.755915968751737,-1.7703923043987602,-1.342979945059322,3.1133722515588547,2.755915968751737,2.1007724146486754e-09,0.7576475702226162,-0.3702476918697357,0.9424479901790619,0.0,0.7071068286895752,0.7071068286895752,0.0
1.0,2.7755377123134335,-1.8052081989547422,-1.2645640210266795,3.06977222219757,2.7755377123134335,2.2161486432699787e-09,0.7936747595667839,-0.3652023673057556,0.9677158296108246,0.0,0.7071068286895752,0.7071068286895752,0.0
2.0,2.809940455072669,-1.759902909393638,-1.3239548887947012,3.0838578006393407,2.8099404550726694,2.4510010874751127e-09,0.7756050303578377,-0.3253812789916992,0.9656807780265808,0.0,0.7071068286895752,0.7071068286895752,0.0
3.0,2.867489868443376,-1.6743375269618763,-1.3936284446146419,3.0679659745508427,2.867489868443376,2.9743245282429735e-09,0.7309557795524597,-0.26002493500709534,0.9879867732524872,0.0,0.7071068286895752,0.7071068286895752,0.0
4.0,2.78571382109826,-1.7268872296149211,-1.1600434974734664,2.8869307293693227,2.7857138210982604,2.28093536888209e-09,0.7165878172963858,-0.3264957666397095,1.1120930910110474,0.0,0.7071068286895752,0.7071068286895752,0.0
5.0,2.890142767806384,-1.7338276067771246,-1.1427863415826918,2.8766139516053393,2.890142767806384,3.245523277497148e-09,0.766652025282383,-0.2501690089702606,1.1184080243110657,0.0,0.7071068286895752,0.7071068286895752,0.0
6.0,2.8414334132376,-1.8625876720008074,-0.9539086581573747,2.8164963328708916,2.8414334132376,2.712709451211167e-09,0.837109699845314,-0.31520187854766846,1.135310173034668,0.0,0.7071068286895752,0.7071068286895752,0.0
7.0,2.8896424149764006,-1.963914948935854,-0.7262670956403228,2.6901820478151866,2.8896424149764006,3.239009437548086e-09,0.9046801030635834,-0.2861359119415283,1.1911303400993347,0.0,0.7071068286895752,0.7071068286895752,0.0
8.0,2.86777883716719,-1.988418545884795,-0.8399841821002498,2.828402730962548,2.86777883716719,2.9775031065031842e-09,0.9496679902076721,-0.3212094306945801,1.0894249975681305,0.0,0.7071068286895752,0.7071068286895752,0.0
9.0,2.92464602020543,-1.820396793857671,-1.1582113318120548,2.9786081294365205,2.92464602020543,3.766794560704061e-09,0.8668601959943771,-0.2425941526889801,1.0305293500423431,0.0,0.7071068286895752,0.7071068286895752,0.0
10.0,2.929645439120596,-1.8996780120046002,-1.0952169817300255,2.994894997590964,2.929645439120596,3.856338576503299e-09,0.9346420764923096,-0.2524160146713257,0.9993159472942352,0.0,0.7071068286895752,0.7071068286895752,0.0
11.0,2.9664962124816574,-1.9342319044883995,-1.0268094587801277,2.9610413679420464,2.9664962124816574,4.673519144847241e-09,0.9726239740848541,-0.22188609838485718,1.013549119234085,0.0,0.7071068286895752,0.7071068286895752,0.0
12.0,2.954941005667915,-1.9159832331389757,-1.000871221695103,2.9168544592167374,2.9549410056679153,4.382658733452438e-09,0.9473480880260468,-0.229159414768219,1.0505441725254059,0.0,0.7071068286895752,0.7071068286895752,0.0
13.0,3.008515845436848,-1.918388857344272,-1.013739483077102,2.9321283465772368,3.008515845436848,6.1558630125810085e-09,0.9708322286605835,-0.1784563809633255,1.0389714539051056,0.0,0.7071068286895752,0.7071068286895752,0.0
14.0,3.006685298642526,-2.0355955850574277,-0.7261889455236045,2.761784536653118,3.006685298642526,6.0720858624113726e-09,1.0264613032341003,-0.18786650896072388,1.1177116632461548,0.0,0.7071068286895752,0.7071068286895752,0.0
15.0,3.0192461544781506,-2.1399730098017784,-0.4521465715471244,2.5921195880461934,3.019246154478151,6.697290806975094e-09,1.0533522069454193,-0.1777346432209015,1.1836561560630798,0.0,0.7071068286895752,0.7071068286895752,0.0
16.0,3.0575687916254997,-1.9976088317801128,-0.6752991915209698,2.672908033059394,3.0575687916255,9.758311040603478e-09,0.9865412414073944,-0.13050025701522827,1.1908332705497742,0.0,0.7071068286895752,0.7071068286895752,0.0
17.0,3.034378939577561,-1.9725982908600603,-0.7071180680915672,2.6797163665964305,3.0343789395775604,7.644802701337925e-09,0.9622640311717987,-0.1514258086681366,1.1950779557228088,0.0,0.7071068286895752,0.7071068286895752,0.0
18.0,2.9386356353517087,-2.0653466992998775,-0.5822350240982465,2.6475817274265414,2.938635635351709,4.0284174932899246e-09,0.9886305332183838,-0.25436270236968994,1.1812382340431213,0.0,0.7071068286895752,0.7071068286895752,0.0
19.0,2.977935053508198,-1.9136072745575505,-0.9162206325025977,2.829827912061943,2.9779350535081983,5.001794877155199e-09,0.9374334514141083,-0.20422479510307312,1.1123638153076172,0.0,0.7071068286895752,0.7071068286895752,0.0
20.0,2.979521498410957,-1.8726547399180582,-0.93941316682111,2.8120679117901415,2.979521498410957,5.050973476275409e-09,0.9009336829185486,-0.19667644798755646,1.1358277201652527,0.0,0.7071068286895752,0.7071068286895752,0.0
21.0,3.0773040867146393,-1.832609858777366,-1.0210238063282582,2.8536336778626534,3.0773040867146397,1.2757029265801646e-08,0.906992569565773,-0.1055058017373085,1.1165726780891418,0.0,0.7071068286895752,0.7071068286895752,0.0
22.0,3.069504930939942,-1.7589929496352392,-1.192381462222638,2.9513744232337173,3.0695049309399423,1.1375840021920294e-08,0.8600716292858124,-0.10933162271976471,1.0615575015544891,0.0,0.7071068286895752,0.7071068286895752,0.0
23.0,2.9803054717873465,-1.7105768223096993,-1.2138114280815024,2.924388255466834,2.9803054717873465,5.075632443821303e-09,0.788604699075222,-0.1776493340730667,1.0876278281211853,0.0,0.7071068286895752,0.7071068286895752,0.0
24.0,2.9918431705932345,-1.6088250145042307,-1.3530116539018853,2.9618366738744486,2.991843170593235,5.4683327283989285e-09,0.7113536326214671,-0.156303271651268,1.0686606764793396,0.0,0.7071068286895752,0.7071068286895752,0.0
25.0,3.002263907778202,-1.6023553985802585,-1.3001632544280608,2.9025186588871215,3.002263907778202,5.8788018913732405e-09,0.700134681086638,-0.14685191214084625,1.1111291646957397,0.0,0.7071068286895752,0.7071068286895752,0.0
26.0,3.0397309959480787,-1.7313373743560678,-0.9639942734366228,2.695331655839921,3.0397309959480787,8.047230329882338e-09,0.770568735897541,-0.12651130557060242,1.2424193024635315,0.0,0.7071068286895752,0.7071068286895752,0.0
27.0,2.9890595202612467,-1.8125293041480703,-0.79796928007755,2.6104985895937816,2.989059520261247,5.3681610623607085e-09,0.7944429516792297,-0.17118865251541138,1.2830067873001099,0.0,0.7071068286895752,0.7071068286895752,0.0
28.0,2.9937106616107876,-1.9420794262916967,-0.7100110813197199,2.652090513149062,2.993710661610788,5.537645365225951e-09,0.9158210158348083,-0.18534746766090393,1.2228904962539673,0.0,0.7071068286895752,0.7071068286895752,0.0
29.0,3.051161282731521,-2.224521815641666,-1.5671088115219418e-17,2.224521824707707,3.0511612827315204,9.066041237062499e-09,0.9484891295433044,-0.13353243470191956,1.3439463376998901,0.0,0.7071068286895752,0.7071068286895752,0.0
30.0,3.024720800077861,-2.2178230329575634,-0.08462702380019986,2.302450063769543,3.024720800077861,7.011779473052955e-09,0.9761695563793182,-0.16268962621688843,1.3069764971733093,0.0,0.7071068286895752,0.7071068286895752,0.0
31.0,3.0230363332597947,-2.268406172267274,-1.5671088115219418e-17,2.2684061791792,3.023036333259795,6.911926213085101e-09,1.000963568687439,-0.16735060513019562,1.3081721067428589,0.0,0.7071068286895752,0.7071068286895752,0.0
32.0,3.0235862782703364,-2.288666308528813,-1.5671088115219412e-17,2.288666315473026,3.023586278270337,6.944213264397068e-09,1.0251040160655975,-0.1696411520242691,1.2863272428512573,0.0,0.7071068286895752,0.7071068286895752,0.0
33.0,3.041488714389451,-2.251377132124771,-1.5671088115219415e-17,2.2513771403135445,3.0414887143894505,8.188773649755043e-09,0.9999190866947174,-0.14814284443855286,1.343193233013153,0.0,0.7071068286895752,0.7071068286895752,0.0
34.0,3.077959365217572,-2.267168074014533,-1.5671088115219415e-17,2.2671680869030206,3.0779593652175716,1.288848779840699e-08,1.0559726655483246,-0.11439348757266998,1.3578461408615112,0.0,0.7071068286895752,0.7071068286895752,0.0
35.0,3.0859882750151693,-2.239671475173854,-1.5671088115219415e-17,2.2396714899245325,3.0859882750151706,1.4750678658624648e-08,1.035197228193283,-0.10463202744722366,1.4028534889221191,0.0,0.7071068286895752,0.7071068286895752,0.0
36.0,3.0154628349588446,-2.246903473240065,-1.5671088115219415e-17,2.2469034797359577,3.015462834958844,6.495892798074594e-09,1.0394501686096191,-0.18011485040187836,1.4148251414299011,0.0,0.7071068286895752,0.7071068286895752,0.0
37.0,3.0056119747340744,-2.2633641908830873,-1.5671088115219418e-17,2.263364196907099,3.005611974734075,6.024011348217456e-09,1.0554929971694946,-0.19299063086509705,1.3941973447799683,0.0,0.7071068286895752,0.7071068286895752,0.0
38.0,2.987808274668444,-2.250181832488467,-1.5671088115219415e-17,2.2501818378127805,2.9878082746684442,5.324313225980329e-09,1.042081743478775,-0.21063172817230225,1.4212573170661926,0.0,0.7071068286895752,0.7071068286895752,0.0
39.0,3.0671326665582708,-2.219375313937934,-1.5671088115219415e-17,2.2193753249510255,3.067132666558271,1.1013091202171331e-08,1.0189756155014038,-0.12327193468809128,1.4448753595352173,0.0,0.7071068286895752,0.7071068286895752,0.0
40.0,3.070471627903931,-2.213033276435757,-1.5671088115219418e-17,2.213033287966354,3.07047162790393,1.1530596738750703e-08,1.0473433136940002,-0.12182340025901794,1.499833345413208,0.0,0.7071068286895752,0.7071068286895752,0.0
41.0,3.0552948619819937,-2.1968917653780133,-1.5671088115219415e-17,2.196891774878888,3.0552948619819937,9.500874580743867e-09,1.0710387527942657,-0.14010919630527496,1.5876495838165283,0.0,0.7071068286895752,0.7071068286895752,0.0
42.0,3.0713766869526538,-2.1347602403331116,-1.5671088115219415e-17,2.1347602520124584,3.0713766869526533,1.1679346636638117e-08,0.9235958307981491,-0.11215447634458542,1.563222587108612,0.0,0.7071068286895752,0.7071068286895752,0.0
43.0,3.0739436020224042,-2.12994483027389,-1.5671088115219415e-17,2.1299448423967626,3.0739436020224047,1.2122872281988704e-08,0.910704955458641,-0.10886328667402267,1.5574480295181274,0.0,0.7071068286895752,0.7071068286895752,0.0
44.0,2.9991409547221326,-2.1125100885346577,-1.5671088115219415e-17,2.112510094284157,2.999140954722133,5.749498940895667e-09,0.8205584064126015,-0.1664438545703888,1.502453327178955,0.0,0.7071068286895752,0.7071068286895752,0.0
45.0,3.0232772716511387,-2.162289453526824,-1.5671088115219418e-17,2.162289460452859,3.023277271651139,6.92603470881373e-09,0.9434822797775269,-0.16026738286018372,1.52703458070755,0.0,0.7071068286895752,0.7071068286895752,0.0
46.0,2.9747389183616035,-2.200538481451345,-1.5671088115219415e-17,2.2005384863568955,2.974738918361604,4.905550707740572e-09,0.9892447590827942,-0.21613895893096924,1.5000832080841064,0.0,0.7071068286895752,0.7071068286895752,0.0
47.0,2.976903421122317,-2.205794657762936,-1.5671088115219418e-17,2.2057946627332585,2.976903421122317,4.970322310428519e-09,0.9815211892127991,-0.2125803828239441,1.472753882408142,0.0,0.7071068286895752,0.7071068286895752,0.0
48.0,2.970435437271954,-2.2327978105738744,-1.5671088115219418e-17,2.232797815355501,2.9704354372719544,4.7816266956690365e-09,1.086735337972641,-0.23752093315124512,1.5367299914360046,0.0,0.7071068286895752,0.7071068286895752,0.0
49.0,2.99295655589677,-2.2133124407709293,-1.5671088115219415e-17,2.2133124462803764,2.99295655589677,5.509447176909194e-09,1.08040052652359,-0.21072059869766235,1.5768003463745117,0.0,0.7071068286895752,0.7071068286895752,0.0
50.0,2.9460516528176854,-2.284938870423946,-1.5671088115219418e-17,2.2849388746061785,2.9460516528176854,4.182232434589832e-09,1.1437502205371857,-0.2771497964859009,1.4681422710418701,0.0,0.7071068286895752,0.7071068286895752,0.0
51.0,2.991928361529357,-2.291945038694185,-1.5671088115219415e-17,2.291945044165642,2.991928361529357,5.471457037895318e-09,1.1355833113193512,-0.2202090620994568,1.417834222316742,0.0,0.7071068286895752,0.7071068286895752,0.0
52.0,2.8650098370308803,-2.233400779094419,-0.6333403837087936,-0.2748514907865814,-2.8650098370308803,3.1415926535897922,1.1299310624599457,-0.3753811717033386,1.2729666233062744,0.0,0.7071068286895752,0.7071068286895752,0.0
53.0,2.9774714260860993,-2.1889647145007416,-0.6885640491716501,-0.26406388991740326,-2.977471426086099,3.141592653589792,1.154001623392105,-0.24055296182632446,1.2882742881774902,0.0,0.7071068286895752,0.7071068286895752,0.0
54.0,3.0398230270852125,-2.218685869307421,-0.7139230484263385,-0.2089837358560358,-3.039823027085212,3.141592653589791,1.2062660455703735,-0.17093221843242645,1.234104037284851,0.0,0.7071068286895752,0.7071068286895752,0.0
55.0,3.0827319896985634,-2.189658587174546,-0.7952325334747115,-0.15670153294053993,-3.082731989698563,3.141592653589789,1.2058886885643005,-0.11811018735170364,1.2114542722702026,0.0,0.7071068286895752,0.7071068286895752,0.0
56.0,3.060172390730325,-2.2089385353010367,-0.7888172627240992,-0.14383685556466055,-3.060172390730325,3.1415926535897905,1.2142344117164612,-0.14645041525363922,1.1924145817756653,0.0,0.7071068286895752,0.7071068286895752,0.0
57.0,3.0534823390945336,-2.1544257296483464,-0.9629050156946385,-0.024261908246811428,-3.0534823390945336,3.1415926535897905,1.1811400949954987,-0.15182353556156158,1.1325894594192505,0.0,0.7071068286895752,0.7071068286895752,0.0
58.0,3.0772678686278785,-2.1981464320634716,-0.9630455075868913,0.019599286060566466,-3.0772678686278776,3.1415926535897896,1.2190817594528198,-0.1256420612335205,1.0791819095611572,0.0,0.7071068286895752,0.7071068286895752,0.0
59.0,3.0776371044232054,-2.206795156302678,-1.0193220051479768,0.08452450786085806,-3.0776371044232054,3.1415926535897896,1.2227328419685364,-0.12541912496089935,1.0275410413742065,0.0,0.7071068286895752,0.7071068286895752,0.0
60.0,2.8726199060002098,-2.3189974495939607,-0.9635664740674965,-3.0006213804863666,2.8726199060002098,3.0317628325335122e-09,1.2074677348136902,-0.38703814148902893,0.6063858955167234,0.0,0.7071068286895752,0.7071068286895752,0.0
61.0,2.877861851449619,-2.3002954300000718,-0.9349560019144394,-3.0479338721723273,2.8778618514496195,3.0927481189584994e-09,1.2026790380477905,-0.37864646315574646,0.6514787748456001,0.0,0.7071068286895752,0.7071068286895752,0.0
62.0,2.92074944515635,-2.255064685062524,-0.9743336456970821,-3.0537869727201765,2.92074944515635,3.6998039941475665e-09,1.195875734090805,-0.3201832175254822,0.6810462400317192,0.0,0.7071068286895752,0.7071068286895752,0.0
63.0,2.8697822207830295,-2.2944960008379134,-0.6623961083264733,2.956892112164111,2.8697822207830295,2.9997244733038995e-09,1.1858717501163483,-0.3848728835582733,0.8567765951156616,0.0,0.7071068286895752,0.7071068286895752,0.0
64.0,2.801388643968844,-2.302925094082109,-0.7137822331445913,3.0167073296149307,2.8013886439688442,2.3882305299348134e-09,1.1576995849609375,-0.4687071740627289,0.8088827431201935,0.0,0.7071068286895752,0.7071068286895752,0.0
65.0,2.7864512857284875,-2.2153071252931045,-0.9533279705222433,-3.1145502090784656,2.786451285728488,2.285773187962885e-09,1.0986630022525787,-0.4675344228744507,0.7463740110397339,0.0,0.7071068286895752,0.7071068286895752,0.0
66.0,2.8151298084085843,-2.0898277167593147,-1.1570596736916403,-3.0362979142379527,2.8151298084085843,2.49067925017459e-09,1.0269316136837006,-0.40560421347618103,0.7488880753517151,0.0,0.7071068286895752,0.7071068286895752,0.0
67.0,2.7740297662971183,-2.028578494372371,-1.2306693973801446,-3.023937413220221,2.7740297662971183,2.2068500829744906e-09,0.9586208164691925,-0.430215060710907,0.7647063732147217,0.0,0.7071068286895752,0.7071068286895752,0.0
68.0,2.8103835875896506,-1.9481151481851098,-1.4239235199227784,-2.911146636617357,2.8103835875896506,2.4543411957630113e-09,0.905841201543808,-0.36974960565567017,0.7119196429848671,0.0,0.7071068286895752,0.7071068286895752,0.0
69.0,2.799545085791627,-1.9927473505330853,-1.4075403327057283,-2.8828976215656668,2.799545085791627,2.3751061335015957e-09,0.9287981539964676,-0.3897514343261719,0.6769799366593361,0.0,0.7071068286895752,0.7071068286895752,0.0
70.0,2.7568732507615894,-1.9924417664253091,-1.4533629998315376,-2.8373805388166082,2.7568732507615894,2.1061313922601786e-09,0.8959828466176987,-0.4253303110599518,0.645227313041687,0.0,0.7071068286895752,0.7071068286895752,0.0
71.0,2.781630780924405,-1.9998166432264222,-1.4595592814353526,-2.8238093802633064,2.781630780924405,2.25450525339552e-09,0.9126443713903427,-0.4039463996887207,0.6331893801689148,0.0,0.7071068286895752,0.7071068286895752,0.0
72.0,2.7518088654434814,-1.9346753681450821,-1.5608876739621396,-2.7876222629942897,2.7518088654434814,2.0780753937475334e-09,0.8396512418985367,-0.407929927110672,0.6299736145883799,0.0,0.7071068286895752,0.7071068286895752,0.0
73.0,2.5950565130985757,-1.9670462323875444,-1.3840794680638868,-2.9320596052645933,2.5950565130985757,1.4635623808304167e-09,0.7887025251984596,-0.560778796672821,0.720635898411274,0.0,0.7071068286895752,0.7071068286895752,0.0
74.0,2.5767473975246293,-1.917658741506943,-1.4531243243956584,-2.912402239863352,2.5767473975246293,1.4136333218607566e-09,0.7393435277044773,-0.5521990656852722,0.7221099361777306,0.0,0.7071068286895752,0.7071068286895752,0.0
75.0,2.599439836134552,-1.8696575337936114,-1.516468906972478,-2.897058864937494,2.599439836134552,1.4760031166561057e-09,0.7193276192992926,-0.5136426687240601,0.7243684232234955,0.0,0.7071068286895752,0.7071068286895752,0.0
76.0,2.6251381344329663,-1.9038262694222838,-1.542641105255546,-2.836717930948674,2.6251381344329663,1.5530829520120965e-09,0.7502259984612465,-0.5028733015060425,0.6729018613696098,0.0,0.7071068286895752,0.7071068286895752,0.0
77.0,2.744033549864185,-1.7890369263962758,-1.600072089464889,-2.894076289282047,2.744033549864185,2.0363749196592207e-09,0.7456487342715263,-0.3768143057823181,0.7400241196155548,0.0,0.7071068286895752,0.7071068286895752,0.0
78.0,2.7748014631550832,-1.8414115237652424,-1.6900818461115719,-2.751691935091173,2.7748014631550832,2.2115992106196105e-09,0.7721983939409256,-0.35768288373947144,0.6306525263935328,0.0,0.7071068286895752,0.7071068286895752,0.0
79.0,3.028442072886989,-1.7690774580535467,-1.7611276292648907,-2.75298021261825,3.0284420728869885,7.242898846689081e-09,0.816072627902031,-0.14072880148887634,0.6460026651620865,0.0,0.7071068286895752,0.7071068286895752,0.0
80.0,3.0172388095329197,-1.593415600669969,-1.7132048608126773,-2.9765648391080313,3.0172388095329197,6.588909383475917e-09,0.7076640208251774,-0.13672137260437012,0.8190688341856003,0.0,0.7071068286895752,0.7071068286895752,0.0
81.0,3.0563103978735175,-1.7042026647500643,-1.5277529320118253,-3.051229700803547,3.0563103978735175,9.614150135857847e-09,0.8202072158455849,-0.11755236238241196,0.8655828535556793,0.0,0.7071068286895752,0.7071068286895752,0.0
82.0,3.0353488854454995,-1.7826241280873714,-1.5347645315216438,-2.9657966398558426,3.0353488854455,7.714728733894812e-09,0.8723198622465134,-0.14086861908435822,0.7922890484333038,0.0,0.7071068286895752,0.7071068286895752,0.0
83.0,3.0680105816343284,-1.831865911222906,-1.5500167368814564,-2.901302647930614,3.0680105816343284,1.1144610277649816e-08,0.9129641503095627,-0.11454466730356216,0.7363715022802353,0.0,0.7071068286895752,0.7071068286895752,0.0
84.0,2.9194142936342216,-1.7871149565562348,-1.5857188464705445,-2.9103515004754192,2.919414293634222,3.677388198045248e-09,0.8280458301305771,-0.2388271689414978,0.7519027143716812,0.0,0.7071068286895752,0.7071068286895752,0.0
85.0,2.9049000898820427,-1.6916003602969043,-1.6824957931547166,-2.9090891502780054,2.9049000898820427,3.4499602568139255e-09,0.7431737221777439,-0.23172876238822937,0.7648148387670517,0.0,0.7071068286895752,0.7071068286895752,0.0
86.0,2.9089386912134927,-1.864097472374008,-1.8275462128313287,0.5500510316155427,-2.9089386912134922,3.1415926535897922,0.8006374686956406,-0.24197199940681458,0.8398741334676743,0.0,0.7071068286895752,0.7071068286895752,0.0
87.0,2.889564766710377,-1.9230149472645055,-1.6825423064367249,0.46396460011143564,-2.889564766710377,3.1415926535897922,0.8689350485801697,-0.2770105004310608,0.8785903751850128,0.0,0.7071068286895752,0.7071068286895752,0.0
88.0,2.957607032935775,-1.9157197430097543,-1.6192710508369825,0.39339814025694125,-2.9576070329357744,3.141592653589792,0.9114480018615723,-0.21976213157176971,0.927497386932373,0.0,0.7071068286895752,0.7071068286895752,0.0
89.0,3.011732200653833,-1.8999623003124226,-1.6010770719657537,0.3594467186883807,-3.011732200653833,3.1415926535897913,0.9266563951969147,-0.16942384839057922,0.9549963176250458,0.0,0.7071068286895752,0.7071068286895752,0.0
90.0,3.0897514792813716,-2.003074357053591,-1.425934541758098,0.2874162452218909,-3.089751479281372,3.1415926535897887,1.0480955839157104,-0.10135363042354584,0.9717393219470978,0.0,0.7071068286895752,0.7071068286895752,0.0
91.0,3.0353000355218276,-2.0801954060261214,-1.2561934657443141,0.19479621818063972,-3.0353000355218276,3.141592653589791,1.107543021440506,-0.1660098433494568,1.0071065127849579,0.0,0.7071068286895752,0.7071068286895752,0.0
92.0,2.921822717707003,-2.27434378276427,-0.9159972002632144,0.048748329437690904,-2.921822717707003,3.1415926535897922,1.2107473015785217,-0.32210782170295715,1.0174110233783722,0.0,0.7071068286895752,0.7071068286895752,0.0
93.0,2.8748595801257477,-2.2473159406269008,-0.9669776605849253,0.07270094762203147,-2.8748595801257477,3.1415926535897922,1.1686931550502777,-0.3734070658683777,1.0148195326328278,0.0,0.7071068286895752,0.7071068286895752,0.0
94.0,2.8862905208323544,-2.12440500308966,-1.12740350354047,0.11021585304033607,-2.8862905208323544,3.1415926535897922,1.0885580778121948,-0.33754414319992065,1.0486936569213867,0.0,0.7071068286895752,0.7071068286895752,0.0
95.0,2.8593584717755185,-2.1289422084499785,-0.925379886901366,-0.08727055823844967,-2.8593584717755185,3.1415926535897922,1.079692393541336,-0.36806362867355347,1.1902949810028076,0.0,0.7071068286895752,0.7071068286895752,0.0
96.0,2.957395930727045,-2.0912254279035323,-1.0281833059479855,-0.02218391973827696,-2.957395930727045,3.141592653589792,1.10076305270195,-0.255240261554718,1.159640371799469,0.0,0.7071068286895752,0.7071068286895752,0.0
97.0,2.954737847769697,-2.169441529917435,-0.8636490216257258,-0.10850210204663414,-2.9547378477696964,3.141592653589792,1.1517676711082458,-0.26801422238349915,1.1866084933280945,0.0,0.7071068286895752,0.7071068286895752,0.0
98.0,2.9880917388674724,-2.300128532345028,-0.7289089699127138,-0.11255515133205332,-2.988091738867473,3.141592653589792,1.2525009512901306,-0.24287596344947815,1.1201699376106262,0.0,0.7071068286895752,0.7071068286895752,0.0
99.0,2.7876842876001007,-2.341151284628207,-0.8530766855922304,0.05263531663064455,-2.7876842876001007,3.1415926535897927,1.1760181188583374,-0.4944762587547302,0.9758883118629456,0.0,0.7071068286895752,0.7071068286895752,0.0
100.0,2.6233724334573205,-2.431995844930769,-0.5403784577006642,-0.16921835095836027,-2.62337243345732,3.1415926535897927,1.0924935340881348,-0.7000205516815186,1.0799388587474823,0.0,0.7071068286895752,0.7071068286895752,0.0
101.0,2.6925986866094873,-2.306103687121375,-0.730458471226123,-0.1050304952422956,-2.6925986866094873,3.1415926535897927,1.0865404903888702,-0.5923255085945129,1.1112754940986633,0.0,0.7071068286895752,0.7071068286895752,0.0
102.0,2.749036453199941,-2.362258926736131,-0.6097671598718261,-0.1695665669818374,-2.749036453199941,3.1415926535897927,1.1532888114452362,-0.5407627820968628,1.1243903040885925,0.0,0.7071068286895752,0.7071068286895752,0.0
103.0,2.753586212285838,-2.1806462293179623,-0.8402930173334382,-0.12065340693839334,-2.753586212285838,3.1415926535897927,1.05058753490448,-0.49224403500556946,1.1899176836013794,0.0,0.7071068286895752,0.7071068286895752,0.0
104.0,2.7701328666815046,-2.310533778931748,-0.5441506272299147,-0.286908247428132,-2.770132866681504,3.1415926535897927,1.1197273135185242,-0.4975943863391876,1.2385259866714478,0.0,0.7071068286895752,0.7071068286895752,0.0
105.0,2.716990902900214,-2.324989102172818,-0.5107144870856775,-0.30588906433129753,-2.7169909029002137,3.1415926535897927,1.088169902563095,-0.5582528710365295,1.2432882189750671,0.0,0.7071068286895752,0.7071068286895752,0.0
106.0,2.681107399710899,-2.3450476573840255,-0.4985094222514794,-0.2980355739542884,-2.681107399710899,3.1415926535897927,1.0746126174926758,-0.6031363010406494,1.2258599400520325,0.0,0.7071068286895752,0.7071068286895752,0.0
107.0,2.69098954897762,-2.3471534812774277,-0.5393635163473518,-0.25507565596501386,-2.69098954897762,3.1415926535897927,1.0909059941768646,-0.5967668890953064,1.1944763660430908,0.0,0.7071068286895752,0.7071068286895752,0.0
108.0,2.580503615284905,-2.467777801977446,-1.5671088115219415e-17,2.467777803401064,2.580503615284905,1.4236177426712668e-09,1.1768434643745422,-0.8227069973945618,1.2877220511436462,0.0,0.7071068286895752,0.7071068286895752,0.0
109.0,2.63700559240012,-2.3969461721771013,-1.5671088115219415e-17,2.3969461737683675,2.63700559240012,1.5912663262352113e-09,1.1345959603786469,-0.7019234299659729,1.3738796710968018,0.0,0.7071068286895752,0.7071068286895752,0.0
110.0,2.566647750293467,-2.3876899620925216,-1.5671088115219415e-17,2.387689963479939,2.566647750293467,1.3874171867405093e-09,1.0253996849060059,-0.7496328949928284,1.3464914560317993,0.0,0.7071068286895752,0.7071068286895752,0.0
111.0,2.5351649637421056,-2.3895130142097694,-1.5671088115219415e-17,2.389513015520916,2.5351649637421056,1.3111467171366864e-09,1.0342383086681366,-0.8076809644699097,1.384896993637085,0.0,0.7071068286895752,0.7071068286895752,0.0
112.0,2.488518638715704,-2.404169203572737,-1.5671088115219418e-17,2.404169204784001,2.488518638715704,1.2112640124676722e-09,1.0118638575077057,-0.8729215264320374,1.3739914298057556,0.0,0.7071068286895752,0.7071068286895752,0.0
113.0,2.507108693925111,-2.443605548502189,-1.5671088115219415e-17,2.4436055497515574,2.507108693925111,1.2493687630058576e-09,1.0286645293235779,-0.8523745536804199,1.2725184559822083,0.0,0.7071068286895752,0.7071068286895752,0.0
114.0,2.470583884514182,-2.4234477669226155,-1.5671088115219415e-17,2.423447768099049,2.470583884514182,1.176433825781611e-09,0.954640656709671,-0.8602278828620911,1.2815027236938477,0.0,0.7071068286895752,0.7071068286895752,0.0
115.0,2.5193087493552215,-2.409564448747918,-1.5671088115219415e-17,2.409564450023488,2.5193087493552215,1.2755700239336872e-09,0.9160381704568863,-0.7502011060714722,1.2195879817008972,0.0,0.7071068286895752,0.7071068286895752,0.0
116.0,2.588781370817218,-2.4007807536182724,-1.5671088115219415e-17,2.4007807550643596,2.588781370817218,1.4460871519181264e-09,1.011217474937439,-0.7057792544364929,1.2771206498146057,0.0,0.7071068286895752,0.7071068286895752,0.0
117.0,2.631509980050262,-2.42079019822399,-1.5671088115219415e-17,2.420790199797358,2.631509980050262,1.5733682101869656e-09,1.0630822777748108,-0.6707783341407776,1.24591726064682,0.0,0.7071068286895752,0.7071068286895752,0.0
118.0,2.6123227079057703,-2.3865686430749915,-1.5671088115219415e-17,2.386568644588722,2.6123227079057703,1.5137304848899135e-09,0.959803581237793,-0.6399853825569153,1.2340057492256165,0.0,0.7071068286895752,0.7071068286895752,0.0
119.0,2.6421129939854118,-2.342555676126211,-1.5671088115219418e-17,2.3425556777344565,2.6421129939854118,1.6082456169598983e-09,0.9119940400123596,-0.5722818374633789,1.2573534846305847,0.0,0.7071068286895752,0.7071068286895752,0.0
120.0,2.7057537466579533,-2.3220045165130423,-1.5671088115219415e-17,2.3220045183655285,2.7057537466579533,1.8524862143819107e-09,0.9156751334667206,-0.49386438727378845,1.2588855028152466,0.0,0.7071068286895752,0.7071068286895752,0.0
121.0,2.682977370516037,-2.315982354303776,-1.5671088115219418e-17,2.315982356061204,2.682977370516037,1.7574281091228766e-09,0.9719497263431549,-0.5497398376464844,1.3593983054161072,0.0,0.7071068286895752,0.7071068286895752,0.0
122.0,2.676969913220598,-2.2650434259362546,-1.5671088115219418e-17,2.2650434276701374,2.676969913220598,1.7338830330749238e-09,0.9472310692071915,-0.5453052520751953,1.4707499146461487,0.0,0.7071068286895752,0.7071068286895752,0.0
123.0,2.7039438203415433,-2.286621093788886,-1.5671088115219415e-17,2.2866210956334623,2.7039438203415433,1.8445765817870438e-09,0.974806010723114,-0.5237382650375366,1.422614336013794,0.0,0.7071068286895752,0.7071068286895752,0.0
124.0,2.6979967456004994,-2.3156373828065595,-1.5671088115219415e-17,2.3156373846255938,2.6979967456004994,1.8190342500413208e-09,1.0063134729862213,-0.5464195013046265,1.3889851570129395,0.0,0.7071068286895752,0.7071068286895752,0.0
125.0,2.6550863335929193,-2.343651175477377,-1.5671088115219415e-17,2.343651177130321,2.6550863335929193,1.6529438927953217e-09,1.0013778507709503,-0.6027204394340515,1.3476094007492065,0.0,0.7071068286895752,0.7071068286895752,0.0
126.0,2.6411861303580366,-2.3348799167303573,-1.5671088115219415e-17,2.3348799183354965,2.6411861303580366,1.6051391078453683e-09,0.9933086037635803,-0.6179605722427368,1.373141884803772,0.0,0.7071068286895752,0.7071068286895752,0.0
127.0,2.631787729329803,-2.3332053294573205,-1.5671088115219415e-17,2.3332053310315843,2.631787729329803,1.5742637254482283e-09,1.0072899460792542,-0.6391612887382507,1.4030259251594543,0.0,0.7071068286895752,0.7071068286895752,0.0
128.0,2.597671161834958,-2.3404980782511875,-1.5671088115219418e-17,2.3404980797221473,2.597671161834958,1.4709597381660413e-09,0.9871379435062408,-0.6775934100151062,1.3928544521331787,0.0,0.7071068286895752,0.7071068286895752,0.0
129.0,2.4979834335400573,-2.333138287641798,-1.5671088115219418e-17,2.3331382888721968,2.4979834335400573,1.230398867151215e-09,0.88211789727211,-0.7587078213691711,1.3896985054016113,0.0,0.7071068286895752,0.7071068286895752,0.0
130.0,2.4670504603213583,-2.336357361965976,-1.5671088115219415e-17,2.336357363135758,2.4670504603213583,1.1697820958118052e-09,0.8636238127946854,-0.7936822772026062,1.3948095440864563,0.0,0.7071068286895752,0.7071068286895752,0.0
131.0,2.501813780692438,-2.2943748687513175,-1.5671088115219415e-17,2.2943748699896154,2.501813780692438,1.2382978785200236e-09,0.8842248320579529,-0.7542925477027893,1.4939897060394287,0.0,0.7071068286895752,0.7071068286895752,0.0
132.0,2.5262162196942994,-2.3154367103378237,-1.5671088115219415e-17,2.315436711628674,2.5262162196942994,1.2908501183916861e-09,0.9602868556976318,-0.7707323431968689,1.5071950554847717,0.0,0.7071068286895752,0.7071068286895752,0.0
133.0,2.5267613037475436,-2.289609017961101,-1.5671088115219418e-17,2.289609019253171,2.5267613037475436,1.2920700514489217e-09,0.9316716939210892,-0.7496466636657715,1.5427318215370178,0.0,0.7071068286895752,0.7071068286895752,0.0
134.0,2.6062556491803295,-2.299398372086538,-1.5671088115219418e-17,2.2993983735822803,2.6062556491803295,1.4957423855840183e-09,1.0560967028141022,-0.7057748436927795,1.5865152478218079,0.0,0.7071068286895752,0.7071068286895752,0.0
135.0,2.580234268757626,-2.308527674013009,-1.5671088115219418e-17,2.3085276754359065,2.580234268757626,1.4228974622951594e-09,1.0460997223854065,-0.740972101688385,1.5756102204322815,0.0,0.7071068286895752,0.7071068286895752,0.0
136.0,2.5667034362660828,-2.3289541667532583,-1.5671088115219418e-17,2.3289541681408177,2.5667034362660828,1.3875592768073118e-09,1.0547712743282318,-0.7685726881027222,1.541725754737854,0.0,0.7071068286895752,0.7071068286895752,0.0
137.0,2.537235570515005,-2.3462354153491396,-1.5671088115219418e-17,2.3462354166650656,2.537235570515005,1.315925999472025e-09,1.0745401084423065,-0.8319939374923706,1.5507143139839172,0.0,0.7071068286895752,0.7071068286895752,0.0
138.0,2.561518700004189,-2.366365284461611,-1.5671088115219415e-17,2.366365285836055,2.561518700004189,1.3744434776704628e-09,1.1110210716724396,-0.8140326738357544,1.5076110363006592,0.0,0.7071068286895752,0.7071068286895752,0.0
139.0,2.5714943854391024,-2.40573777518811,-1.5671088115219418e-17,2.405737776587995,2.5714943854391024,1.3998850617911508e-09,1.1605394780635834,-0.828490674495697,1.4419986009597778,0.0,0.7071068286895752,0.7071068286895752,0.0
140.0,2.5729775169961484,-2.396489462169245,-1.5671088115219415e-17,2.3964894635729865,2.5729775169961484,1.403741694524422e-09,1.1626229584217072,-0.8271691203117371,1.4682725071907043,0.0,0.7071068286895752,0.7071068286895752,0.0
141.0,2.597456563686097,-2.4290304906672793,-1.5671088115219418e-17,2.4290304921376293,2.597456563686097,1.4703499863678983e-09,1.2006242275238037,-0.8070865273475647,1.394515573978424,0.0,0.7071068286895752,0.7071068286895752,0.0
142.0,2.584960420033614,-2.4185495219185444,-1.5671088115219418e-17,2.418549523354179,2.584960420033614,1.4356345527995576e-09,1.2058526873588562,-0.8328015804290771,1.44070303440094,0.0,0.7071068286895752,0.7071068286895752,0.0
143.0,2.6220822436221853,-2.390471433450494,-1.5671088115219415e-17,2.390471434994021,2.6220822436221853,1.54352694543088e-09,1.2568012475967407,-0.796029806137085,1.5361548066139221,0.0,0.7071068286895752,0.7071068286895752,0.0
144.0,2.6241943745864993,-2.4314967157900798,-1.5671088115219415e-17,2.4314967173402,2.6241943745864993,1.5501199651813453e-09,1.3125734329223633,-0.8239730596542358,1.473698616027832,0.0,0.7071068286895752,0.7071068286895752,0.0
145.0,2.6528357630968444,-2.4457097039321636,-1.5671088115219415e-17,2.445709705577187,2.6528357630968444,1.6450231313050032e-09,1.3522916436195374,-0.7924928665161133,1.445604383945465,0.0,0.7071068286895752,0.7071068286895752,0.0
146.0,2.6574723029035483,-2.4321649302846784,-1.5671088115219415e-17,2.4321649319460983,2.6574723029035483,1.6614200062576898e-09,1.396650791168213,-0.8072386384010315,1.5224993824958801,0.0,0.7071068286895752,0.7071068286895752,0.0
147.0,2.7366247819684038,-2.393913634901194,-1.5671088115219415e-17,2.393913636899305,2.7366247819684038,1.99811084571342e-09,1.4117227792739868,-0.6695398092269897,1.5811437368392944,0.0,0.7071068286895752,0.7071068286895752,0.0
148.0,2.7301033554495393,-2.3853560257754145,-1.5671088115219415e-17,2.385356027740969,2.7301033554495393,1.9655544960345593e-09,1.363789677619934,-0.6601682305335999,1.5633944869041443,0.0,0.7071068286895752,0.7071068286895752,0.0
149.0,2.6762831219761516,-2.3790337002226525,-1.5671088115219418e-17,2.379033701953882,2.6762831219761516,1.7312293216442573e-09,1.316926896572113,-0.7318135499954224,1.5811861753463745,0.0,0.7071068286895752,0.7071068286895752,0.0
150.0,2.6589339398342506,-2.3833367407818575,-1.5671088115219418e-17,2.3833367424485106,2.6589339398342506,1.6666530223715403e-09,1.2435528635978699,-0.7242380380630493,1.506472110748291,0.0,0.7071068286895752,0.7071068286895752,0.0
151.0,2.7002233527927415,-2.374240534423896,-1.5671088115219415e-17,2.3742405362524144,2.7002233527927415,1.8285180923728213e-09,1.2857755422592163,-0.675474226474762,1.5402302742004395,0.0,0.7071068286895752,0.7071068286895752,0.0
152.0,2.7232610912584954,-2.345780195541859,-1.5671088115219412e-17,2.3457801974743315,2.7232610912584954,1.9324724428067733e-09,1.2538542747497559,-0.6230978965759277,1.5693025588989258,0.0,0.7071068286895752,0.7071068286895752,0.0
153.0,2.74239277980801,-2.3508866737042955,-1.5671088115219418e-17,2.3508866757320757,2.74239277980801,2.027780038108181e-09,1.2620728015899658,-0.5962587594985962,1.5470907092094421,0.0,0.7071068286895752,0.7071068286895752,0.0
154.0,2.8107163436474636,-2.3287107659586517,-1.5671088115219412e-17,2.328710768415507,2.8107163436474636,2.4568551697948943e-09,1.2456167936325073,-0.4861026406288147,1.5414648056030273,0.0,0.7071068286895752,0.7071068286895752,0.0
155.0,2.8403257749845676,-2.312781811359112,-1.5671088115219418e-17,2.3127818140616965,2.8403257749845676,2.7025842672698968e-09,1.2412665486335754,-0.44187214970588684,1.5629920363426208,0.0,0.7071068286895752,0.7071068286895752,0.0
156.0,2.779089664663947,-2.312472547313011,-1.5671088115219418e-17,2.3124725495513645,2.779089664663947,2.2383535998655316e-09,1.2052067518234253,-0.5177609920501709,1.5671266317367554,0.0,0.7071068286895752,0.7071068286895752,0.0
157.0,2.722694154329508,-2.306770753206581,-1.5671088115219415e-17,2.30677075513636,2.722694154329508,1.9297791126107502e-09,1.1626755893230438,-0.583407461643219,1.5809873938560486,0.0,0.7071068286895752,0.7071068286895752,0.0
158.0,2.6867227573099695,-2.3426655753302774,-1.5671088115219418e-17,2.342665577102694,2.6867227573099695,1.77241656506049e-09,1.1639313697814941,-0.6387017965316772,1.5092202425003052,0.0,0.7071068286895752,0.7071068286895752,0.0
159.0,2.6804798731030304,-2.3590625987602043,-1.5671088115219418e-17,2.359062600507771,2.6804798731030304,1.7475664659125525e-09,1.1603582501411438,-0.6466482281684875,1.4645636081695557,0.0,0.7071068286895752,0.7071068286895752,0.0
160.0,2.6854978116162465,-2.3882022801338505,-1.5671088115219415e-17,2.3882022819013384,2.6854978116162465,1.7674879059648943e-09,1.1835456490516663,-0.6502265930175781,1.405992567539215,0.0,0.7071068286895752,0.7071068286895752,0.0
161.0,2.72904588242038,-2.359310645590093,-1.5671088115219415e-17,2.359310647550464,2.72904588242038,1.960370997779834e-09,1.2074119448661804,-0.5935465693473816,1.4742225408554077,0.0,0.7071068286895752,0.7071068286895752,0.0
162.0,3.0392875716614496,-2.262210670205535,-1.5671088115219415e-17,2.2622106782178255,3.0392875716614496,8.012290432861359e-09,1.2277010679244995,-0.17379656434059143,1.5929648280143738,0.0,0.7071068286895752,0.7071068286895752,0.0
163.0,2.997862412373508,-2.2709949023880576,-1.5671088115219418e-17,2.270994908086238,2.9978624123735083,5.6981805099769335e-09,1.2212960124015808,-0.22555020451545715,1.5760138630867004,0.0,0.7071068286895752,0.7071068286895752,0.0
164.0,2.9028550643411895,-2.271716155129103,-1.5671088115219418e-17,2.271716158549232,2.9028550643411895,3.4201289509144634e-09,1.189452737569809,-0.3420552611351013,1.5856505036354065,0.0,0.7071068286895752,0.7071068286895752,0.0
165.0,2.9477978359057264,-2.3058961473459423,-1.5671088115219415e-17,2.305896151566099,2.947797835905727,4.220156474020561e-09,1.2735289335250854,-0.30047452449798584,1.5560471415519714,0.0,0.7071068286895752,0.7071068286895752,0.0
166.0,2.7530431737485426,-2.379351282174002,-1.5671088115219415e-17,2.3793512842588487,2.7530431737485426,2.0848467328264633e-09,1.212502658367157,-0.5592398643493652,1.406403660774231,0.0,0.7071068286895752,0.7071068286895752,0.0
167.0,2.8345516619661244,-2.343182481393672,-1.5671088115219415e-17,2.343182484044648,2.8345516619661244,2.6509758235262597e-09,1.1942124366760254,-0.4352080523967743,1.4282492995262146,0.0,0.7071068286895752,0.7071068286895752,0.0
168.0,2.8102965775629736,-2.306221292643796,-1.5671088115219415e-17,2.306221295097481,2.810296577562974,2.453684659768566e-09,1.1415304839611053,-0.45091500878334045,1.4877042174339294,0.0,0.7071068286895752,0.7071068286895752,0.0
169.0,2.811237018841654,-2.2985489552351948,-1.5671088115219418e-17,2.298548957695994,2.811237018841654,2.4607989432842444e-09,1.137474924325943,-0.4482554495334625,1.5041587352752686,0.0,0.7071068286895752,0.7071068286895752,0.0
170.0,2.7888302297268113,-2.300738869841306,-1.5671088115219415e-17,2.3007388721428215,2.7888302297268117,2.3015156388093555e-09,1.1338174045085907,-0.47731804847717285,1.5099431872367859,0.0,0.7071068286895752,0.7071068286895752,0.0
171.0,2.7355160908939897,-2.2351882359541317,-1.5671088115219418e-17,2.2351882379466352,2.7355160908939897,1.992503275547073e-09,0.9884054362773895,-0.4894818961620331,1.5611355304718018,0.0,0.7071068286895752,0.7071068286895752,0.0
172.0,2.7149504707635903,-2.227448397124111,-1.5671088115219418e-17,2.2274483990178084,2.7149504707635908,1.893697522932161e-09,0.974215179681778,-0.5093340277671814,1.5839776992797852,0.0,0.7071068286895752,0.7071068286895752,0.0
173.0,2.7169672565327083,-2.2163748248432382,-1.5671088115219415e-17,2.216374826746208,2.7169672565327083,1.9029698631826898e-09,0.943989634513855,-0.493097722530365,1.5730105638504028,0.0,0.7071068286895752,0.7071068286895752,0.0
174.0,2.720147957183749,-2.23414220510166,-1.5671088115219418e-17,2.234142207019431,2.720147957183749,1.9177710137156372e-09,0.9322126805782318,-0.48389121890068054,1.499574601650238,0.0,0.7071068286895752,0.7071068286895752,0.0
175.0,2.7223672067997753,-2.1998003277870395,-1.5671088115219415e-17,2.1998003297152686,2.7223672067997753,1.928229156140504e-09,0.9024805426597595,-0.4679407477378845,1.5580735206604004,0.0,0.7071068286895752,0.7071068286895752,0.0
176.0,2.7550098433722945,-2.1926593009899524,-1.5671088115219415e-17,2.1926593030856765,2.7550098433722945,2.095723965740138e-09,0.9192139804363251,-0.43689578771591187,1.5758652687072754,0.0,0.7071068286895752,0.7071068286895752,0.0
177.0,2.792050463712455,-2.2007785535046214,-1.5671088115219418e-17,2.2007785558277844,2.792050463712455,2.3231630309534958e-09,0.8992152661085129,-0.38740959763526917,1.490215003490448,0.0,0.7071068286895752,0.7071068286895752,0.0
178.0,2.7884892514433965,-2.19775769231219,-1.5671088115219415e-17,2.1977576946114366,2.7884892514433965,2.299246358549784e-09,0.8752217590808868,-0.3824787437915802,1.466770350933075,0.0,0.7071068286895752,0.7071068286895752,0.0
179.0,2.841126373423229,-2.20606742797313,-1.5671088115219418e-17,2.2060674306830252,2.841126373423229,2.7098953053242684e-09,0.9469787925481796,-0.3495461940765381,1.5062546133995056,0.0,0.7071068286895752,0.7071068286895752,0.0
180.0,2.846555420277887,-2.2174181444746557,-1.5671088115219415e-17,2.217418147235168,2.846555420277887,2.7605120969788273e-09,0.998725563287735,-0.3592967391014099,1.5406792759895325,0.0,0.7071068286895752,0.7071068286895752,0.0
181.0,2.7941639277637074,-2.266823964051579,-1.5671088115219418e-17,2.266823966389165,2.7941639277637074,2.337586243492916e-09,0.9689933955669403,-0.4103619456291199,1.397559106349945,0.0,0.7071068286895752,0.7071068286895752,0.0
182.0,2.84554646117443,-2.292463562950649,-1.5671088115219415e-17,2.2924635657016146,2.8455464611744303,2.7509658299045817e-09,1.0587155222892761,-0.37875986099243164,1.404437243938446,0.0,0.7071068286895752,0.7071068286895752,0.0
183.0,2.8998422308973426,-2.249769631744624,-1.5671088115219415e-17,2.249769635121719,2.8998422308973426,3.377095143990152e-09,1.0315646827220917,-0.3070757985115051,1.4550302028656006,0.0,0.7071068286895752,0.7071068286895752,0.0
184.0,2.8976848692123554,-2.240818945786017,-1.5671088115219418e-17,2.2408189491329478,2.897684869212356,3.346930512303844e-09,0.974071592092514,-0.2952406108379364,1.4070709347724915,0.0,0.7071068286895752,0.7071068286895752,0.0
185.0,2.906562464017095,-2.255746430341021,-1.5671088115219418e-17,2.2557464338156112,2.906562464017095,3.47459044144227e-09,0.9799790680408478,-0.2870437502861023,1.3694929480552673,0.0,0.7071068286895752,0.7071068286895752,0.0
186.0,2.890933837906005,-2.1455400714261637,-0.3240230247219479,2.4695630994039863,2.8909338379060054,3.2558745971130694e-09,0.9565300643444061,-0.2980976402759552,1.2541746497154236,0.0,0.7071068286895752,0.7071068286895752,0.0
187.0,2.8460151153018485,-2.2646050295233278,-1.5671088115219415e-17,2.2646050322787197,2.8460151153018485,2.7553919547514492e-09,0.9242693036794662,-0.33724910020828247,1.3121792674064636,0.0,0.7071068286895752,0.7071068286895752,0.0
188.0,2.7968122519968075,-2.258638619755418,-1.5671088115219415e-17,2.2586386221113246,2.796812251996808,2.3559066594372442e-09,0.8952429741621017,-0.38077235221862793,1.3224521279335022,0.0,0.7071068286895752,0.7071068286895752,0.0
189.0,2.778126283450167,-2.32193791389851,-1.5671088115219418e-17,2.3219379161307985,2.7781262834501677,2.23228862543882e-09,0.9581334292888641,-0.4251900613307953,1.256736695766449,0.0,0.7071068286895752,0.7071068286895752,0.0
190.0,2.8048832385729145,-2.187619010797951,-0.3373376456759426,2.524956658887393,2.8048832385729145,2.4134993341029057e-09,0.9653261303901672,-0.3965598940849304,1.2015538811683655,0.0,0.7071068286895752,0.7071068286895752,0.0
191.0,2.814857387983932,-2.3111271635674866,-0.10222825119387191,2.4133554172499236,2.814857387983932,2.4885652420797117e-09,1.0012652575969696,-0.3972378075122833,1.1983575224876404,0.0,0.7071068286895752,0.7071068286895752,0.0
192.0,2.7477317645845627,-2.176197298392946,-0.41958852971008165,2.595785830159034,2.7477317645845627,2.0560064798559095e-09,0.95100137591362,-0.4585784673690796,1.1640740633010864,0.0,0.7071068286895752,0.7071068286895752,0.0
193.0,2.7969848630854277,-2.055601201907516,-0.7247036034397795,2.7803048077044057,2.7969848630854277,2.357110414782526e-09,0.9517822861671448,-0.40087831020355225,1.097248524427414,0.0,0.7071068286895752,0.7071068286895752,0.0
194.0,2.7368181268404195,-1.9884784370524233,-0.7957866984439661,2.784265137495481,2.7368181268404195,1.9990918534634066e-09,0.869757890701294,-0.43700316548347473,1.1197739839553833,0.0,0.7071068286895752,0.7071068286895752,0.0
195.0,2.690581547812109,-2.0627878341837107,-0.5662329411544427,2.629020777126268,2.690581547812109,1.7881146651147162e-09,0.8504168838262558,-0.48089084029197693,1.1941307187080383,0.0,0.7071068286895752,0.7071068286895752,0.0
196.0,2.7971762468012087,-2.046671717625201,-0.5662357728254825,2.61290749280913,2.7971762468012087,2.3584464832376973e-09,0.8960977047681808,-0.38068321347236633,1.2107800841331482,0.0,0.7071068286895752,0.7071068286895752,0.0
197.0,2.8315924001679353,-2.0256779950794783,-0.5325390845441328,2.558217082248877,2.8315924001679353,2.62526562635784e-09,0.8785446435213089,-0.3381827771663666,1.2527461051940918,0.0,0.7071068286895752,0.7071068286895752,0.0
198.0,2.8882737267585994,-2.01583077332725,-0.5012358466832514,2.5170666232318233,2.8882737267585994,3.221321951286715e-09,0.8811493366956711,-0.28143835067749023,1.281117856502533,0.0,0.7071068286895752,0.7071068286895752,0.0
199.0,2.791662370035455,-1.855420911178324,-0.8636186028164204,2.7190395163152776,2.791662370035455,2.320533249792598e-09,0.7827986553311348,-0.34534910321235657,1.2031521201133728,0.0,0.7071068286895752,0.7071068286895752,0.0
200.0,2.7910271232626465,-1.9015182922738423,-0.6747930121922283,2.576311306782312,2.7910271232626465,2.316241159120222e-09,0.7717757970094681,-0.34193167090415955,1.2826172709465027,0.0,0.7071068286895752,0.7071068286895752,0.0
201.0,2.845142452144883,-1.7637319050718132,-0.9194510110298186,2.683182918848793,2.845142452144883,2.747161384756313e-09,0.7243159543722868,-0.27711066603660583,1.2454723119735718,0.0,0.7071068286895752,0.7071068286895752,0.0
202.0,2.8399953281956742,-1.763485480666217,-0.8919208024581317,2.6554062858239265,2.8399953281956742,2.699577869456887e-09,0.7130944449454546,-0.278035968542099,1.2635374069213867,0.0,0.7071068286895752,0.7071068286895752,0.0
203.0,2.8522858894778005,-1.921179425356578,-0.5637228711788852,2.484902299351448,2.852285889477801,2.815984761619143e-09,0.7794065698981285,-0.28741195797920227,1.33149653673172,0.0,0.7071068286895752,0.7071068286895752,0.0
204.0,2.8274396222439413,-1.9820755076257623,-0.36653775157995966,2.3486132617957183,2.8274396222439417,2.5899964146670646e-09,0.7519565671682358,-0.3013637959957123,1.386278212070465,0.0,0.7071068286895752,0.7071068286895752,0.0
205.0,2.922066427051554,-1.920248568998075,-0.5232660317511009,2.443514604471357,2.922066427051554,3.722180771808451e-09,0.789124421775341,-0.22771349549293518,1.3552704453468323,0.0,0.7071068286895752,0.7071068286895752,0.0
206.0,2.9933055566459026,-2.1571340713628793,-1.5671088115219415e-17,2.157134076885341,2.993305556645903,5.5224617355066315e-09,0.8409242182970047,-0.17455065250396729,1.402197003364563,0.0,0.7071068286895752,0.7071068286895752,0.0
207.0,3.040425768467583,-2.162955807098228,0.21642754608132878,1.9465282691194898,3.0404257684675833,8.102590754092254e-09,0.724400769919157,-0.12126941233873367,1.4700989127159119,0.0,0.7071068286895752,0.7071068286895752,0.0
208.0,2.9148112473067775,-2.0699650407367916,-1.5671088115219418e-17,2.0699650443389146,2.9148112473067775,3.6021231486744147e-09,0.7183906640857458,-0.21775108575820923,1.5142988562583923,0.0,0.7071068286895752,0.7071068286895752,0.0
209.0,2.758063842695282,-2.1181860653758213,-1.5671088115219418e-17,2.118186067488655,2.758063842695282,2.112833330060404e-09,0.7343885079026222,-0.3587799668312073,1.5093204379081726,0.0,0.7071068286895752,0.7071068286895752,0.0
210.0,2.7742899901422406,-2.154709167002914,-1.5671088115219418e-17,2.1547091692113636,2.7742899901422406,2.208449331055375e-09,0.7914868220686913,-0.365600049495697,1.4774608612060547,0.0,0.7071068286895752,0.7071068286895752,0.0
211.0,2.9004049763714015,-2.1489698340555035,-1.5671088115219418e-17,2.1489698374405553,2.9004049763714015,3.3850518589492064e-09,0.8317150175571442,-0.25727319717407227,1.4652957916259766,0.0,0.7071068286895752,0.7071068286895752,0.0
212.0,2.8724990789607268,-2.1836762870404622,-1.5671088115219415e-17,2.183676290070847,2.8724990789607268,3.0303849680745825e-09,0.9099055826663971,-0.3051396310329437,1.498054325580597,0.0,0.7071068286895752,0.7071068286895752,0.0
213.0,2.841153203727407,-2.1878539903068623,-1.5671088115219418e-17,2.1878539930170033,2.841153203727407,2.7101409884452507e-09,0.8748814314603806,-0.32717955112457275,1.455737292766571,0.0,0.7071068286895752,0.7071068286895752,0.0
214.0,2.8561347971241244,-2.1872973775868503,-1.5671088115219415e-17,2.187297380441335,2.8561347971241244,2.854484760863014e-09,0.8397723585367203,-0.3016273081302643,1.3952673077583313,0.0,0.7071068286895752,0.7071068286895752,0.0
215.0,2.776874524953925,-2.2004183260049803,-1.5671088115219415e-17,2.2004183282294356,2.776874524953925,2.2244555052081105e-09,0.824820801615715,-0.3757675588130951,1.394210696220398,0.0,0.7071068286895752,0.7071068286895752,0.0
216.0,2.7068697750185944,-2.060563409925319,-0.3039203109471045,2.364483722729819,2.7068697750185944,1.8573957184652085e-09,0.7543320246040821,-0.4175868034362793,1.348645269870758,0.0,0.7071068286895752,0.7071068286895752,0.0
217.0,2.657800126420298,-2.179840323948783,-1.5671088115219418e-17,2.179840325611374,2.657800126420298,1.662590997393934e-09,0.7373481765389442,-0.46019062399864197,1.4226005673408508,0.0,0.7071068286895752,0.7071068286895752,0.0
218.0,2.676167974906067,-2.2186509344846708,-1.5671088115219418e-17,2.218650936215456,2.676167974906067,1.7307851544845687e-09,0.8163663893938065,-0.4806232750415802,1.417449712753296,0.0,0.7071068286895752,0.7071068286895752,0.0
219.0,2.6580256789707355,-2.2278071446423144,-1.5671088115219418e-17,2.227807146305712,2.6580256789707355,1.6633975788337453e-09,0.8659548759460449,-0.5274897217750549,1.481927752494812,0.0,0.7071068286895752,0.7071068286895752,0.0
220.0,2.6228520531281014,-2.2207188064018006,-1.5671088115219415e-17,2.2207188079477245,2.6228520531281014,1.5459238287531907e-09,0.8092641979455948,-0.539149820804596,1.453961968421936,0.0,0.7071068286895752,0.7071068286895752,0.0
221.0,2.62415717270892,-2.220190354421528,-1.5671088115219418e-17,2.220190355971531,2.62415717270892,1.5500033842789807e-09,0.8307103663682938,-0.5497846603393555,1.4866042137145996,0.0,0.7071068286895752,0.7071068286895752,0.0
222.0,2.5982641406957483,-2.224716705754971,-1.5671088115219415e-17,2.2247167072276177,2.5982641406957483,1.4726470501398754e-09,0.8470734655857086,-0.5921162962913513,1.5265876650810242,0.0,0.7071068286895752,0.7071068286895752,0.0
223.0,2.560296097674666,-2.1849769846717946,-1.5671088115219415e-17,2.1849769860431785,2.560296097674666,1.37138380487353e-09,0.7853496596217155,-0.6021950244903564,1.5968742966651917,0.0,0.7071068286895752,0.7071068286895752,0.0
224.0,2.5783437683754107,-2.232826286037987,-1.5671088115219415e-17,2.2328262874558478,2.5783437683754107,1.4178608035308824e-09,0.8229206651449203,-0.6030839681625366,1.4886590838432312,0.0,0.7071068286895752,0.7071068286895752,0.0
225.0,2.5811802294378077,-2.262681708929436,-1.5671088115219415e-17,2.262681710354866,2.5811802294378077,1.4254301025043668e-09,0.8865700513124466,-0.6393422484397888,1.492559015750885,0.0,0.7071068286895752,0.7071068286895752,0.0
226.0,2.6135362613644437,-2.260942695467569,-1.5671088115219415e-17,2.2609426969849458,2.6135362613644437,1.5173769564122777e-09,0.8809769451618195,-0.5922778844833374,1.4543851017951965,0.0,0.7071068286895752,0.7071068286895752,0.0
227.0,2.6420872886756928,-2.271915379975781,-1.5671088115219415e-17,2.2719153815839404,2.6420872886756928,1.6081593099480582e-09,0.8861014097929001,-0.5581868886947632,1.4026433229446411,0.0,0.7071068286895752,0.7071068286895752,0.0
228.0,2.560614094874542,-2.317357383686294,-1.5671088115219415e-17,2.3173573850584726,2.560614094874542,1.3721784174988148e-09,0.813557580113411,-0.6203077435493469,1.27157324552536,0.0,0.7071068286895752,0.7071068286895752,0.0
229.0,2.564429553424331,-2.2618744012570446,-0.27799734324976555,2.539871745888589,2.564429553424331,1.3817788477708376e-09,0.8541450351476669,-0.6417048573493958,1.1537114977836609,0.0,0.7071068286895752,0.7071068286895752,0.0
230.0,2.517903768909423,-2.3978429503274032,-1.5671088115219415e-17,2.3978429515999053,2.517903768909423,1.2725021426041237e-09,0.8525390326976776,-0.7067150473594666,1.176288366317749,0.0,0.7071068286895752,0.7071068286895752,0.0
231.0,2.504709551169945,-2.167712875751916,-0.40905916246982255,2.576772039466069,2.504709551169945,1.2443304774739085e-09,0.7648535817861557,-0.6614845991134644,1.1799837946891785,0.0,0.7071068286895752,0.7071068286895752,0.0
232.0,2.5130057491897366,-2.065793236999485,-0.6577744539485921,2.723567692209988,2.5130057491897366,1.26191069662973e-09,0.7516817077994347,-0.6406351327896118,1.1313546299934387,0.0,0.7071068286895752,0.7071068286895752,0.0
233.0,2.502789011344373,-2.011773141870148,-0.8388344501271338,2.8506075932376054,2.502789011344373,1.2403236235237904e-09,0.7359422631561756,-0.6426446437835693,1.065598040819168,0.0,0.7071068286895752,0.7071068286895752,0.0
234.0,2.415174256095927,-2.170448042338489,-0.5584275003622966,2.728875543780075,2.415174256095927,1.079289587899663e-09,0.7291697524487972,-0.7624340653419495,1.08089017868042,0.0,0.7071068286895752,0.7071068286895752,0.0
235.0,2.5052213187772563,-2.2979893839417342,-0.29833753166440014,2.5963269168515364,2.5052213187772563,1.245402128331996e-09,0.8424955308437347,-0.7181557416915894,1.0988881886005402,0.0,0.7071068286895752,0.7071068286895752,0.0
236.0,2.511887134757999,-2.2318913065052355,-0.5109524015183936,2.7428437092831435,2.511887134757999,1.259514163568136e-09,0.8521042764186859,-0.715298056602478,1.0403234362602234,0.0,0.7071068286895752,0.7071068286895752,0.0
237.0,2.5755330419857914,-2.435765257613806,-0.12336003859400646,2.5591252976182455,2.5755330419857914,1.4104330288755269e-09,0.9595417678356171,-0.6935609579086304,1.03699591755867,0.0,0.7071068286895752,0.7071068286895752,0.0
238.0,2.4628756828960583,-2.458047838842279,-1.5671088115219415e-17,2.4580478400042876,2.4628756828960583,1.1620088703029701e-09,0.9040356278419495,-0.8330712914466858,1.1550849676132202,0.0,0.7071068286895752,0.7071068286895752,0.0
239.0,2.5311383322530125,-2.466141889987319,-1.5671088115219415e-17,2.4661418912892614,2.5311383322530125,1.3019426021397996e-09,0.9975484311580658,-0.7888853549957275,1.1650220155715942,0.0,0.7071068286895752,0.7071068286895752,0.0
240.0,2.520710474923466,-2.456548827794875,-1.5671088115219415e-17,2.4565488290735193,2.520710474923466,1.278644183877091e-09,1.0113076865673065,-0.8161507248878479,1.2103338241577148,0.0,0.7071068286895752,0.7071068286895752,0.0
241.0,2.591944620541983,-2.4631416631342655,-1.5671088115219415e-17,2.4631416645891133,2.591944620541983,1.454847665212094e-09,1.0623938739299774,-0.7322643399238586,1.1805883646011353,0.0,0.7071068286895752,0.7071068286895752,0.0
242.0,2.5333916616566503,-2.4972853963723294,-1.5671088115219415e-17,2.4972853976794083,2.5333916616566503,1.3070787338597769e-09,1.0232029259204865,-0.8030189871788025,1.118790626525879,0.0,0.7071068286895752,0.7071068286895752,0.0
243.0,2.4948839305590793,-2.5273251190714494,-1.5671088115219415e-17,2.5273251202955227,2.4948839305590793,1.2240731411479718e-09,1.0236102044582367,-0.8704074621200562,1.0886432230472565,0.0,0.7071068286895752,0.7071068286895752,0.0
244.0,2.4708297947473095,-2.5439790485441893,-1.5671088115219415e-17,2.543979049721089,2.4708297947473095,1.1768992650980197e-09,0.9492922127246857,-0.8555511832237244,1.0103829503059387,0.0,0.7071068286895752,0.7071068286895752,0.0
245.0,2.4809773734910148,-2.499927646772981,-0.5892596680587597,-0.05240533875805322,-2.4809773734910148,3.141592653589793,0.9965355694293976,-0.8746535778045654,0.9497032463550568,0.0,0.7071068286895752,0.7071068286895752,0.0
246.0,2.5127324503494686,-2.4570540440276765,-0.7057735266389938,0.02123491707687617,-2.512732450349468,3.141592653589793,1.0109823048114777,-0.8296061754226685,0.9251833558082581,0.0,0.7071068286895752,0.7071068286895752,0.0
247.0,2.519257663140147,-2.426298721181994,-0.7642202183138475,0.04892628590604772,-2.5192576631401464,3.141592653589793,1.0029308795928955,-0.8126213550567627,0.9252951443195343,0.0,0.7071068286895752,0.7071068286895752,0.0
248.0,2.5888361318271973,-2.444051374104014,-0.8055434155181493,0.10800213603236995,-2.588836131827197,3.1415926535897927,1.073309302330017,-0.7439995408058167,0.8707447052001953,0.0,0.7071068286895752,0.7071068286895752,0.0
249.0,2.6478611324946417,-2.3296849759096117,-1.0054195828136512,0.19351190513346925,-2.6478611324946413,3.1415926535897927,1.0567533075809479,-0.6426960825920105,0.8809345364570618,0.0,0.7071068286895752,0.7071068286895752,0.0
250.0,2.658945769330596,-2.349418265485508,-0.8868059936805421,0.09463160557625613,-2.6589457693305953,3.1415926535897927,1.0855118930339813,-0.6414076089859009,0.9403871297836304,0.0,0.7071068286895752,0.7071068286895752,0.0
251.0,2.685184470126549,-2.3676788099754713,-0.7944277721133144,0.020513928498992338,-2.685184470126549,3.1415926535897927,1.1187705099582672,-0.61891770362854,0.9831385612487793,0.0,0.7071068286895752,0.7071068286895752,0.0
252.0,2.642920084449186,-2.277184855589884,-0.937430243139149,0.07302244513923892,-2.6429200844491856,3.1415926535897927,1.033499151468277,-0.6373956203460693,0.9981687068939209,0.0,0.7071068286895752,0.7071068286895752,0.0
253.0,2.659928439921732,-2.2374494184493554,-0.969519277157079,0.06537604201664024,-2.6599284399217313,3.1415926535897927,1.0236792266368866,-0.6076104044914246,1.0254364609718323,0.0,0.7071068286895752,0.7071068286895752,0.0
254.0,2.65910292661942,-2.148604797245773,-1.2084724223454584,0.2154845660014375,-2.6591029266194197,3.1415926535897927,0.9543915688991547,-0.5724933743476868,0.9618531167507172,0.0,0.7071068286895752,0.7071068286895752,0.0
255.0,2.6784622932665103,-2.0876424645473906,-1.2934222514626683,0.23947206242026442,-2.6784622932665103,3.1415926535897927,0.9246156066656113,-0.532076895236969,0.972167044878006,0.0,0.7071068286895752,0.7071068286895752,0.0
256.0,2.7053964278942386,-2.1240324230962973,-1.2031135639061938,0.18555333341269775,-2.705396427894238,3.1415926535897927,0.9747315049171448,-0.5218281745910645,0.994576096534729,0.0,0.7071068286895752,0.7071068286895752,0.0
257.0,2.7456446919427613,-2.18123894305378,-1.128180797717474,0.16782708718145997,-2.745644691942761,3.1415926535897927,1.0412478148937225,-0.49882277846336365,0.9801956415176392,0.0,0.7071068286895752,0.7071068286895752,0.0
258.0,2.786101458886622,-2.0314031359493305,-1.4802734088546563,0.370083891214193,-2.786101458886622,3.1415926535897927,0.9261253178119659,-0.4039424955844879,0.9041987359523773,0.0,0.7071068286895752,0.7071068286895752,0.0
259.0,2.826944971722316,-2.117168210565549,-1.4483152742057872,0.42389083118154214,-2.826944971722316,3.1415926535897927,0.9952904880046844,-0.3810044825077057,0.8323843479156494,0.0,0.7071068286895752,0.7071068286895752,0.0
260.0,2.9045559827506215,-2.0698861389708836,-1.4856759025772472,0.413969387958337,-2.904555982750621,3.1415926535897922,1.0023332238197327,-0.29462385177612305,0.8593349158763885,0.0,0.7071068286895752,0.7071068286895752,0.0
261.0,2.830193027615115,-2.1605739427516895,-1.2945399882610553,0.3135212774229508,-2.830193027615115,3.1415926535897927,1.0546221435070038,-0.39630812406539917,0.887239009141922,0.0,0.7071068286895752,0.7071068286895752,0.0
262.0,2.7928304728555164,-2.230303863427482,-1.1724322949935098,0.2611435048311976,-2.7928304728555164,3.1415926535897927,1.0892955958843231,-0.4556727111339569,0.8886937499046326,0.0,0.7071068286895752,0.7071068286895752,0.0
263.0,2.729723511201718,-2.3455766653326955,-0.8435417128867987,0.047525724629700256,-2.729723511201718,3.1415926535897927,1.1391348838806152,-0.5626797676086426,0.9769444465637207,0.0,0.7071068286895752,0.7071068286895752,0.0
264.0,2.7084586829105795,-2.3551622498354723,-0.9389549211907455,0.1525245174364238,-2.7084586829105795,3.1415926535897927,1.1220342516899109,-0.5860005021095276,0.8950407207012177,0.0,0.7071068286895752,0.7071068286895752,0.0
265.0,2.6981561027046754,-2.3813942886319284,-0.8671098399453249,0.10691147498745909,-2.6981561027046754,3.1415926535897927,1.132497876882553,-0.6061418652534485,0.9118161499500275,0.0,0.7071068286895752,0.7071068286895752,0.0
266.0,2.707074669016879,-2.302875837044642,-0.9469063441592828,-3.0334031241173625,2.707074669016879,1.8582997613320018e-09,1.095137745141983,-0.5755460262298584,0.6394595578312874,0.0,0.7071068286895752,0.7071068286895752,0.0
267.0,2.7079218154178424,-2.377668416108878,-0.696987124723723,3.0746555426946474,2.7079218154178424,1.8620465046182188e-09,1.140152484178543,-0.5951769351959229,0.7220382615923882,0.0,0.7071068286895752,0.7071068286895752,0.0
268.0,2.6457658277788805,-2.390841054452065,-0.6577545940950831,3.0485956501677474,2.6457658277788805,1.620599301797908e-09,1.0969232618808746,-0.6675408482551575,0.7327157706022263,0.0,0.7071068286895752,0.7071068286895752,0.0
269.0,2.6311803344174742,-2.368013217314692,-0.7534022213060713,3.12141544019307,2.6311803344174742,1.572306608703339e-09,1.0755829513072968,-0.6782801747322083,0.6939819604158401,0.0,0.7071068286895752,0.7071068286895752,0.0
270.0,2.575579999671274,-2.2946817475382124,-0.9651445278859603,-3.0233590303448574,2.575579999671274,1.4105565320024206e-09,0.9848404824733734,-0.7095643281936646,0.6368869729340076,0.0,0.7071068286895752,0.7071068286895752,0.0
271.0,2.6569674665146934,-2.142821360210915,-1.2616643447271312,-2.8786996005819208,2.6569674665146934,1.6596197597596493e-09,0.9418938159942627,-0.5687679648399353,0.612404060550034,0.0,0.7071068286895752,0.7071068286895752,0.0
272.0,2.6332543777803523,-2.090102162790628,-1.3135827561049334,-2.879500386705017,2.6332543777803523,1.5790083463040015e-09,0.8906877040863037,-0.5720669627189636,0.6365496926009655,0.0,0.7071068286895752,0.7071068286895752,0.0
273.0,2.5552547708456737,-2.1408182873424293,-1.2647046483837032,-2.877662370094556,2.5552547708456737,1.3588984018472906e-09,0.8622334003448486,-0.6597557067871094,0.6126075433567166,0.0,0.7071068286895752,0.7071068286895752,0.0
274.0,2.4990878223804045,-2.19019364472813,-1.1883053482051693,-2.9046863130136207,2.4990878223804045,1.2326670290035725e-09,0.847303032875061,-0.7309218049049377,0.6078416146337986,0.0,0.7071068286895752,0.7071068286895752,0.0
275.0,2.4653352320817605,-2.152744109367749,-1.2292113643603015,-2.9012298322849595,2.4653352320817605,1.166577258315723e-09,0.7957145422697067,-0.7419715523719788,0.6236386094242334,0.0,0.7071068286895752,0.7071068286895752,0.0
276.0,2.4754132021572723,-2.155379200724448,-1.2138207446841986,-2.9139853605853054,2.4754132021572723,1.185634885926425e-09,0.8078914135694504,-0.7364104390144348,0.6314292103052139,0.0,0.7071068286895752,0.7071068286895752,0.0
277.0,2.3885697729884425,-2.166821463196696,-1.1201659747162838,-2.9961978682290886,2.3885697729884425,1.037518004060981e-09,0.7416728883981705,-0.8163233995437622,0.6847920417785645,0.0,0.7071068286895752,0.7071068286895752,0.0
278.0,2.4726597746579393,-2.158612703613819,-1.088555567832151,-3.0360170345532436,2.4726597746579393,1.1803732479105374e-09,0.8188179060816765,-0.7492102980613708,0.7175262719392776,0.0,0.7071068286895752,0.7071068286895752,0.0
279.0,2.505345101984409,-2.192409088122717,-1.0497877922119052,-3.0409884255993025,2.505345101984409,1.2456615827788308e-09,0.8674825727939606,-0.736430287361145,0.7045678645372391,0.0,0.7071068286895752,0.7071068286895752,0.0
280.0,2.528032870380845,-2.2027780757809996,-0.9823427375059699,-3.098064492597693,2.528032870380845,1.2949240578448986e-09,0.8958330750465393,-0.7224136590957642,0.7408029735088348,0.0,0.7071068286895752,0.7071068286895752,0.0
281.0,2.550275688453943,-2.2271529127073624,-0.8428120056596009,3.0699649197137333,2.550275688453943,1.3467701473985965e-09,0.928079754114151,-0.710981011390686,0.8120448589324951,0.0,0.7071068286895752,0.7071068286895752,0.0
282.0,2.508328304811276,-2.2942939627608334,-0.6985272867692527,2.9928212507820304,2.508328304811276,1.2519441292834894e-09,0.9219721555709839,-0.771892786026001,0.8310748189687729,0.0,0.7071068286895752,0.7071068286895752,0.0
283.0,2.52646690066969,-2.3231926035323442,-0.7296578410611697,3.052850445884925,2.52646690066969,1.2914108984888358e-09,0.9579028189182281,-0.7686432600021362,0.7708876132965088,0.0,0.7071068286895752,0.7071068286895752,0.0
284.0,2.5624276285737904,-2.307360287303509,-0.809150699490338,3.1165109881705733,2.5624276285737904,1.3767262885909204e-09,0.9842740893363953,-0.7295576930046082,0.7338283807039261,0.0,0.7071068286895752,0.7071068286895752,0.0
285.0,2.5568331161565134,-2.2411524181228724,-0.952098682752658,-3.0899342049412715,2.5568331161565134,1.3627848607111035e-09,0.9424097239971161,-0.7106200456619263,0.7148368507623672,0.0,0.7071068286895752,0.7071068286895752,0.0
286.0,2.5024261602289095,-2.2919674238978294,-0.907306975528309,-3.083910906513879,2.5024261602289095,1.2395692133523158e-09,0.920769602060318,-0.7804993391036987,0.6823810711503029,0.0,0.7071068286895752,0.7071068286895752,0.0
287.0,2.409999125743164,-2.3369896251664883,-0.8550830065367069,-3.0911126744054545,2.409999125743164,1.0709370781190182e-09,0.8520248383283615,-0.8807616233825684,0.6613496504724026,0.0,0.7071068286895752,0.7071068286895752,0.0
288.0,2.4432865844235936,-2.3045401562142085,-0.9477660895079739,-3.0308790603306757,2.4432865844235936,1.1267284207765204e-09,0.867619201540947,-0.8364020586013794,0.6366714499890804,0.0,0.7071068286895752,0.7071068286895752,0.0
289.0,2.477395819075637,-2.364649272438677,-0.8867799378844634,-3.031756095666997,2.477395819075637,1.1894495546604215e-09,0.9304166436195374,-0.8293448090553284,0.6014738458907232,0.0,0.7071068286895752,0.7071068286895752,0.0
290.0,2.500993674781054,-2.4462491066639687,-0.7158257866347126,-3.1211104126443066,2.500993674781054,1.236598968515913e-09,0.9946193993091583,-0.8378695249557495,0.6143153011798859,0.0,0.7071068286895752,0.7071068286895752,0.0
291.0,2.536916768301641,-2.4637935832275093,-1.011196522859661,0.33339745249737684,-2.5369167683016407,3.1415926535897927,1.0046137571334839,-0.784233033657074,0.6976721361279488,0.0,0.7071068286895752,0.7071068286895752,0.0
292.0,2.5315769028368726,-2.4681490013586966,-0.9977013180783112,0.3242576658472147,-2.531576902836872,3.1415926535897927,1.0032751262187958,-0.7921613454818726,0.7010458335280418,0.0,0.7071068286895752,0.7071068286895752,0.0
293.0,2.477655348684146,-2.5509999247254744,-0.8263971931839097,0.23580446431959043,-2.4776553486841455,3.141592653589793,0.9980522096157074,-0.8818238973617554,0.7053649425506592,0.0,0.7071068286895752,0.7071068286895752,0.0
294.0,2.483512518057898,-2.484381144677637,-0.8212266107760284,0.1640151018638709,-2.4835125180578976,3.141592653589793,0.9857835471630096,-0.8617982268333435,0.803223118185997,0.0,0.7071068286895752,0.7071068286895752,0.0
295.0,2.397193975402503,-2.435764081964662,-0.970302248354356,0.26447367672922417,-2.3971939754025025,3.141592653589793,0.8636559247970581,-0.9145747423171997,0.7642658203840256,0.0,0.7071068286895752,0.7071068286895752,0.0
296.0,2.4071084221037493,-2.590134854042611,-0.6720773851258875,0.12061958557870398,-2.407108422103749,3.141592653589793,0.9471032172441483,-0.9717835783958435,0.75954470038414,0.0,0.7071068286895752,0.7071068286895752,0.0
297.0,2.3918991032366312,-2.638015641299162,-0.6668725077142481,0.1632954954236163,-2.391899103236631,3.141592653589793,0.9418522715568542,-0.9972158074378967,0.6931027919054031,0.0,0.7071068286895752,0.7071068286895752,0.0
298.0,2.411716210605438,-3.1071967519102603,0.46368609766376173,-0.49808199934329456,-2.4117162106054377,3.141592653589793,0.9850951433181763,-0.9967654347419739,0.773373618721962,0.0,0.7071068286895752,0.7071068286895752,0.0
299.0,2.398760521708205,-2.650060598225353,-1.5671088115219418e-17,2.650060599278534,2.398760521708205,1.0531811740301967e-09,1.0453419387340546,-1.078525424003601,0.9356104731559753,0.0,0.7071068286895752,0.7071068286895752,0.0
300.0,2.5404041063289817,-2.501189457716224,-1.5671088115219415e-17,2.5011894590395256,2.5404041063289817,1.3233012488117656e-09,1.3926259279251099,-1.0446141958236694,1.4381152987480164,0.0,0.7071068286895752,0.7071068286895752,0.0
301.0,2.606734301380653,-2.4646724748058984,-1.5671088115219418e-17,2.464672476303045,2.606734301380653,1.497147055796026e-09,1.4689874053001404,-0.9496474266052246,1.5447657704353333,0.0,0.7071068286895752,0.7071068286895752,0.0
302.0,2.5561829409640877,-2.4869768490628004,-1.5671088115219415e-17,2.4869768504239818,2.5561829409640877,1.3611814280705539e-09,1.4542649388313293,-1.0509285926818848,1.5184264779090881,0.0,0.7071068286895752,0.7071068286895752,0.0
303.0,2.558650189933832,-2.453956800589296,-1.5671088115219418e-17,2.4539568019565805,2.558650189933832,1.367284467920294e-09,1.435663104057312,-1.0331133604049683,1.598347544670105,0.0,0.7071068286895752,0.7071068286895752,0.0
304.0,2.562234931698549,-2.4454437973023273,-1.5671088115219418e-17,2.445443798678569,2.562234931698549,1.3762417411244324e-09,1.3531627655029297,-0.9712045192718506,1.53830486536026,0.0,0.7071068286895752,0.7071068286895752,0.0
305.0,2.5892293013127086,-2.4517845770939433,-1.5671088115219415e-17,2.451784578541265,2.5892293013127086,1.4473217372911568e-09,1.333403766155243,-0.9036720991134644,1.4714606404304504,0.0,0.7071068286895752,0.7071068286895752,0.0
306.0,2.539435436559051,-2.4782630018727754,-1.5671088115219415e-17,2.4782630031938138,2.539435436559051,1.3210385362068557e-09,1.3016117811203003,-0.98420649766922,1.4191888570785522,0.0,0.7071068286895752,0.7071068286895752,0.0
307.0,2.515633074477965,-2.47933071478829,-1.5671088115219418e-17,2.479330716055862,2.515633074477965,1.267572076289735e-09,1.3220866918563843,-1.0495206117630005,1.4623637199401855,0.0,0.7071068286895752,0.7071068286895752,0.0
308.0,2.5018576362571316,-2.4828534022006616,-1.5671088115219415e-17,2.4828534034390506,2.5018576362571316,1.2383888470370427e-09,1.3275054693222046,-1.0840834379196167,1.473677158355713,0.0,0.7071068286895752,0.7071068286895752,0.0
309.0,2.493676284883139,-2.49451035170899,-1.5671088115219415e-17,2.494510352930614,2.493676284883139,1.221624288406413e-09,1.3029428720474243,-1.0840131044387817,1.42670738697052,0.0,0.7071068286895752,0.7071068286895752,0.0
310.0,2.486377902978911,-2.4750848946614292,-1.5671088115219415e-17,2.4750848958684393,2.486377902978911,1.2070100676253223e-09,1.277279019355774,-1.0807393789291382,1.4655771851539612,0.0,0.7071068286895752,0.7071068286895752,0.0
311.0,2.494974516095249,-2.4194767488010616,-1.5671088115219418e-17,2.4194767500253187,2.494974516095249,1.2242571854890857e-09,1.2450268864631653,-1.0373880863189697,1.5846697688102722,0.0,0.7071068286895752,0.7071068286895752,0.0
312.0,2.4393347448003686,-2.4066016279709146,-1.5671088115219418e-17,2.406601629090755,2.4393347448003686,1.1198401420726428e-09,1.1281841397285461,-1.0636199712753296,1.5666548609733582,0.0,0.7071068286895752,0.7071068286895752,0.0
313.0,2.413845666939084,-2.391286190992779,-1.5671088115219415e-17,2.3912861920699133,2.413845666939084,1.0771344562559843e-09,1.0636295974254608,-1.0624473094940186,1.571782112121582,0.0,0.7071068286895752,0.7071068286895752,0.0
314.0,2.348605806678488,-2.3587718720924387,-1.5671088115219415e-17,2.358771873072234,2.348605806678488,9.797951740475034e-10,0.928454726934433,-1.0747931003570557,1.596333920955658,0.0,0.7071068286895752,0.7071068286895752,0.0
315.0,2.324614374079571,-2.3729183589661247,-1.5671088115219418e-17,2.3729183599138435,2.324614374079571,9.477186490650091e-10,0.896925687789917,-1.0948193073272705,1.551429808139801,0.0,0.7071068286895752,0.7071068286895752,0.0
316.0,2.4728958102120244,-2.3707979116038924,-1.5671088115219418e-17,2.370797912784715,2.4728958102120244,1.1808226634733166e-09,1.0488682687282562,-0.9306194186210632,1.5295291543006897,0.0,0.7071068286895752,0.7071068286895752,0.0
317.0,2.490747024501357,-2.3443657319600226,-1.5671088115219418e-17,2.3443657331757435,2.490747024501357,1.2157207888116155e-09,0.9922182261943817,-0.8539619445800781,1.5107702016830444,0.0,0.7071068286895752,0.7071068286895752,0.0
318.0,2.5218696876615545,-2.3939509607851113,-1.5671088115219415e-17,2.3939509620663078,2.5218696876615545,1.2811966481221828e-09,1.1069079339504242,-0.8823854923248291,1.4707534909248352,0.0,0.7071068286895752,0.7071068286895752,0.0
319.0,2.5318734184641647,-2.40573516374025,-1.5671088115219415e-17,2.4057351650438643,2.5318734184641647,1.3036140803705182e-09,1.1075842082500458,-0.8645278215408325,1.4275189638137817,0.0,0.7071068286895752,0.7071068286895752,0.0
320.0,2.542508247691635,-2.40878028076234,-1.5671088115219415e-17,2.408780282090581,2.542508247691635,1.3282407509933804e-09,1.1874311864376068,-0.8998552560806274,1.4945522546768188,0.0,0.7071068286895752,0.7071068286895752,0.0
321.0,2.4992490158691694,-2.412106965152551,-1.5671088115219415e-17,2.4121069663855494,2.4992490158691694,1.2329987131575656e-09,1.1296567916870117,-0.9419335722923279,1.472730278968811,0.0,0.7071068286895752,0.7071068286895752,0.0
322.0,2.4628739602616725,-2.4328030951653354,-1.5671088115219418e-17,2.432803096327341,2.4628739602616725,1.1620056818226464e-09,1.1110284626483917,-1.0000231266021729,1.4398612976074219,0.0,0.7071068286895752,0.7071068286895752,0.0
323.0,2.4898597194533836,-2.429274099047324,-1.5671088115219418e-17,2.4292741002612668,2.4898597194533836,1.213942655438133e-09,1.116504430770874,-0.9503480195999146,1.422179937362671,0.0,0.7071068286895752,0.7071068286895752,0.0
324.0,2.4854490156551385,-2.461758942730592,-1.5671088115219415e-17,2.4617589439357643,2.4854490156551385,1.2051725622081534e-09,1.1594467461109161,-0.9920847415924072,1.3850165605545044,0.0,0.7071068286895752,0.7071068286895752,0.0
325.0,2.451467197744591,-2.4818496930973613,-1.5671088115219415e-17,2.4818496942385893,2.451467197744591,1.1412280447586275e-09,1.124130666255951,-1.0343669652938843,1.3364442586898804,0.0,0.7071068286895752,0.7071068286895752,0.0
326.0,2.484238155859231,-2.48215639641355,-1.5671088115219415e-17,2.4821563976163348,2.484238155859231,1.2027847802904718e-09,1.1486106216907501,-0.9861958026885986,1.3220709562301636,0.0,0.7071068286895752,0.7071068286895752,0.0
327.0,2.5324233110724914,-2.4909392282233904,-1.5671088115219415e-17,2.4909392295282573,2.5324233110724914,1.3048670107277647e-09,1.2698896527290344,-0.9767656326293945,1.3624587059020996,0.0,0.7071068286895752,0.7071068286895752,0.0
328.0,2.5305985195452814,-2.4997229219658115,-1.5671088115219418e-17,2.4997229232665292,2.5305985195452814,1.3007176284786416e-09,1.2670162320137024,-0.9785155653953552,1.338449239730835,0.0,0.7071068286895752,0.7071068286895752,0.0
329.0,2.5111614770666555,-2.5008913576817515,-1.5671088115219415e-17,2.5008913589397155,2.5111614770666555,1.2579639027627194e-09,1.2273995876312256,-0.9902580976486206,1.3193536400794983,0.0,0.7071068286895752,0.7071068286895752,0.0
330.0,2.470194954985254,-2.5214660131233746,-1.5671088115219415e-17,2.521466014299073,2.470194954985254,1.1756983606718575e-09,1.1760503947734833,-1.0368297100067139,1.2636711597442627,0.0,0.7071068286895752,0.7071068286895752,0.0
331.0,2.453300589609712,-2.535988998441568,-1.5671088115219418e-17,2.5359889995860914,2.453300589609712,1.1445229814799077e-09,1.139404982328415,-1.0430757999420166,1.2129396200180054,0.0,0.7071068286895752,0.7071068286895752,0.0
332.0,2.386407099456099,-2.5034572420129058,-1.5671088115219415e-17,2.5034572430471513,2.386407099456099,1.0342457924633396e-09,1.0330018997192383,-1.0941393375396729,1.2694869637489319,0.0,0.7071068286895752,0.7071068286895752,0.0
333.0,2.381164286425978,-2.501717279355082,-1.5671088115219418e-17,2.501717280381469,2.381164286425978,1.0263867613196892e-09,0.9998005032539368,-1.0741944313049316,1.2464587688446045,0.0,0.7071068286895752,0.7071068286895752,0.0
334.0,2.345552994290863,-2.4911549602279233,-1.5671088115219415e-17,2.4911549612035353,2.345552994290863,9.756120629416379e-10,0.9260289818048477,-1.0789811611175537,1.2404760718345642,0.0,0.7071068286895752,0.7071068286895752,0.0
335.0,2.349277648693964,-2.4637590194960888,-1.5671088115219415e-17,2.4637590204768087,2.349277648693964,9.807198620699369e-10,0.9466788470745087,-1.0918099880218506,1.3264617323875427,0.0,0.7071068286895752,0.7071068286895752,0.0
336.0,2.3602112929130086,-2.4620177488152484,-1.5671088115219418e-17,2.4620177498112286,2.3602112929130086,9.95980043432437e-10,0.9601577818393707,-1.0812970399856567,1.3308209776878357,0.0,0.7071068286895752,0.7071068286895752,0.0
337.0,2.4077104500762703,-2.4561686581580235,-1.5671088115219415e-17,2.4561686592253027,2.4077104500762703,1.0672791107563186e-09,1.0764633417129517,-1.0872761011123657,1.4105533361434937,0.0,0.7071068286895752,0.7071068286895752,0.0
338.0,2.4265278082305457,-2.428438434126847,-1.5671088115219415e-17,2.4284384352248654,2.4265278082305457,1.0980185420188176e-09,1.0133478939533234,-0.9918721914291382,1.388932466506958,0.0,0.7071068286895752,0.7071068286895752,0.0
339.0,2.43917902040665,-2.4616734424842015,-1.5671088115219418e-17,2.4616734436037717,2.43917902040665,1.1195702275889191e-09,1.0492095649242401,-0.9971103072166443,1.3259556889533997,0.0,0.7071068286895752,0.7071068286895752,0.0
340.0,2.4331239217777596,-2.4523938338530056,-1.5671088115219415e-17,2.452393834962169,2.4331239217777596,1.1091632185685679e-09,0.9916625618934631,-0.9601224064826965,1.2949818968772888,0.0,0.7071068286895752,0.7071068286895752,0.0
341.0,2.396704026948461,-2.5107644172073322,-1.5671088115219418e-17,2.51076441825732,2.396704026948461,1.0499874511211906e-09,0.9337120652198792,-0.9800791144371033,1.140011966228485,0.0,0.7071068286895752,0.7071068286895752,0.0
342.0,2.4192073138618593,-2.548130052845704,-1.5671088115219415e-17,2.548130053931582,2.4192073138618593,1.085878092124255e-09,1.0143559575080872,-1.0075664520263672,1.1085706949234009,0.0,0.7071068286895752,0.7071068286895752,0.0
343.0,2.359920999470152,-2.5767045174613306,-1.5671088115219415e-17,2.5767045184569004,2.359920999470152,9.955696491140319e-10,0.9582443833351135,-1.0800325870513916,1.0591357946395874,0.0,0.7071068286895752,0.7071068286895752,0.0
344.0,2.348743747289437,-2.5780228184183227,-1.5671088115219415e-17,2.5780228193983077,2.348743747289437,9.799849071689941e-10,0.938796192407608,-1.0849896669387817,1.0512393712997437,0.0,0.7071068286895752,0.7071068286895752,0.0
345.0,2.3257159654545436,-2.5608036078411622,-1.5671088115219415e-17,2.5608036087903145,2.3257159654545436,9.491524115497526e-10,0.8510578870773315,-1.0436159372329712,1.0323348343372345,0.0,0.7071068286895752,0.7071068286895752,0.0
346.0,2.3199210511548882,-2.589571445934116,-1.5671088115219418e-17,2.589571446875767,2.3199210511548882,9.416507735877508e-10,0.863523855805397,-1.069412350654602,0.991081565618515,0.0,0.7071068286895752,0.7071068286895752,0.0
347.0,2.3214607986957714,-2.5993295887189483,-1.5671088115219415e-17,2.5993295896625823,2.3214607986957714,9.436342516919333e-10,0.8280957341194153,-1.0280836820602417,0.9382675290107727,0.0,0.7071068286895752,0.7071068286895752,0.0
348.0,2.310226195164395,-2.6019973224397535,-1.5671088115219415e-17,2.6019973233690745,2.310226195164395,9.293211902324008e-10,0.8198653534054756,-1.0429097414016724,0.9376151859760284,0.0,0.7071068286895752,0.7071068286895752,0.0
349.0,2.3269286551310304,-2.6710570201788397,-1.5671088115219412e-17,2.6710570211295748,2.3269286551310304,9.50735004573072e-10,0.8796830922365189,-1.0713950395584106,0.8375433534383774,0.0,0.7071068286895752,0.7071068286895752,0.0
350.0,2.282520570259814,-2.6604531538077194,-1.5671088115219415e-17,2.660453154703251,2.282520570259814,8.955316255490303e-10,0.8049301654100418,-1.0866625308990479,0.8420450389385223,0.0,0.7071068286895752,0.7071068286895752,0.0
351.0,2.2672673785577113,-2.621042752557123,-1.5671088115219415e-17,2.6210427534349106,2.2672673785577113,8.777878173151648e-10,0.7454463690519333,-1.0504114627838135,0.8809632062911987,0.0,0.7071068286895752,0.7071068286895752,0.0
352.0,2.237423443007488,-2.6440712331560494,-1.567108811521942e-17,2.6440712340007417,2.237423443007488,8.446923818134042e-10,0.7121207630261779,-1.0758737325668335,0.8412014842033386,0.0,0.7071068286895752,0.7071068286895752,0.0
353.0,2.248937039200706,-2.803683404654647,0.21966571535458404,2.5840176901572787,2.248937039200706,8.572157078270708e-10,0.7415728457272053,-1.08663010597229,0.7483432292938232,0.0,0.7071068286895752,0.7071068286895752,0.0
354.0,2.2856387982814748,-3.0031762367363077,0.5681180307851779,2.4350582068503615,2.2856387982814748,8.992319360452509e-10,0.7711582705378532,-1.040784478187561,0.6690076142549515,0.0,0.7071068286895752,0.7071068286895752,0.0
355.0,2.28133867612011,-3.0792633315415863,0.7560109734018278,2.3232523590338943,2.28133867612011,8.94135681850352e-10,0.7336135879158974,-1.0064374208450317,0.6626532301306725,0.0,0.7071068286895752,0.7071068286895752,0.0
356.0,2.327939761495613,-3.1216825682115683,0.9719310607804661,2.14975150838316,2.327939761495613,9.520579302916482e-10,0.7197105251252651,-0.8999161124229431,0.7041086032986641,0.0,0.7071068286895752,0.7071068286895752,0.0
357.0,2.2716667930066707,-3.004693073981564,0.7023298187641115,2.3023632561002985,2.2716667930066707,8.828457855779089e-10,0.7109958166256547,-1.00001859664917,0.7368856519460678,0.0,0.7071068286895752,0.7071068286895752,0.0
358.0,2.3127581032589717,-2.9127894674366366,0.5070478575477882,2.405741610821363,2.3127581032589717,9.32514958454771e-10,0.7841399535536766,-0.9985542297363281,0.761628732085228,0.0,0.7071068286895752,0.7071068286895752,0.0
359.0,2.364048687597224,-2.9201138419551573,0.6837088036697339,2.236405039286856,2.364048687597224,1.0014323725925124e-09,0.7789691537618637,-0.8945782780647278,0.8395101875066757,0.0,0.7071068286895752,0.7071068286895752,0.0
360.0,2.3497723074425867,-2.9532914713491922,0.8330743872855938,2.120217085045,2.3497723074425867,9.814016342705757e-10,0.7191922646015882,-0.8602898716926575,0.8598132431507111,0.0,0.7071068286895752,0.7071068286895752,0.0
361.0,2.3785908951246673,-3.073104594219609,0.9765729639374002,2.0965316313047757,2.3785908951246673,1.0225668278191884e-09,0.7469659559428692,-0.8380336165428162,0.766283392906189,0.0,0.7071068286895752,0.7071068286895752,0.0
362.0,2.402985454361136,-3.0517515003142948,0.8505898384830015,2.201161662891089,2.402985454361136,1.0597956704707948e-09,0.8170670047402382,-0.8615106344223022,0.7429917007684708,0.0,0.7071068286895752,0.7071068286895752,0.0
363.0,2.4167356174315886,-2.220759907822858,-0.8109245211700968,3.0316844300747867,2.4167356174315886,1.0818319530366081e-09,0.7994413822889328,-0.8222669363021851,0.8431722074747086,0.0,0.7071068286895752,0.7071068286895752,0.0
364.0,2.4195525892936076,-2.3245184381566384,-0.4965395480096573,2.8210579872527415,2.4195525892936076,1.0864454121562586e-09,0.8288698494434357,-0.8435083031654358,0.9351188838481903,0.0,0.7071068286895752,0.7071068286895752,0.0
365.0,2.4339597610675496,-2.3376323884059333,-0.4872592656912451,2.824891655207768,2.4339597610675496,1.110589638346252e-09,0.8500486463308334,-0.8373571038246155,0.9246759414672852,0.0,0.7071068286895752,0.7071068286895752,0.0
366.0,2.40770355511792,-2.6059097957598634,-1.5671088115219415e-17,2.6059097968271314,2.40770355511792,1.067268123527688e-09,0.9220758527517319,-0.948042094707489,0.9216700196266174,0.0,0.7071068286895752,0.7071068286895752,0.0
367.0,2.411888220775167,-2.6123858106794753,-1.5671088115219415e-17,2.612385811753448,2.411888220775167,1.0739729059320669e-09,0.982496052980423,-0.9940943121910095,0.9530504047870636,0.0,0.7071068286895752,0.7071068286895752,0.0
368.0,2.3752002507134873,-2.421806396453159,-0.30507847158612056,2.7268848690568506,2.3752002507134873,1.0175710208176619e-09,0.8080257400870323,-0.9025856852531433,0.938860684633255,0.0,0.7071068286895752,0.7071068286895752,0.0
369.0,2.3718923126973834,-2.5261960941706105,-1.5671088115219415e-17,2.526196095183348,2.3718923126973834,1.0127374034322486e-09,0.7991780862212181,-0.9000709652900696,1.0014943480491638,0.0,0.7071068286895752,0.7071068286895752,0.0
370.0,2.403335824778045,-2.4648021654552164,-1.5671088115219418e-17,2.4648021665155637,2.403335824778045,1.0603474482367512e-09,0.8270605057477951,-0.8699935674667358,1.1222432851791382,0.0,0.7071068286895752,0.7071068286895752,0.0
371.0,2.3987994352479793,-2.4183059766939268,-1.5671088115219415e-17,2.4183059777471687,2.3987994352479793,1.0532417690480564e-09,0.7519712708890438,-0.8090605139732361,1.14129638671875,0.0,0.7071068286895752,0.7071068286895752,0.0
372.0,2.412103089452489,-2.3821778599591745,-1.5671088115219418e-17,2.382177861033494,2.412103089452489,1.0743191570201998e-09,0.7407751306891441,-0.7775644063949585,1.1908929944038391,0.0,0.7071068286895752,0.7071068286895752,0.0
373.0,2.429840116019168,-2.3399364639012465,-1.5671088115219415e-17,2.3399364650048367,2.429840116019168,1.1035902377825208e-09,0.7254477478563786,-0.7369023561477661,1.2458224296569824,0.0,0.7071068286895752,0.7071068286895752,0.0
374.0,2.4169383232734085,-2.3844627715383195,-1.5671088115219415e-17,2.3844627726204823,2.4169383232734085,1.0821627869503196e-09,0.7595246881246567,-0.7865899205207825,1.2037954926490784,0.0,0.7071068286895752,0.7071068286895752,0.0
375.0,2.397760786152811,-2.422975663223113,-1.5671088115219415e-17,2.4229756642747393,2.397760786152811,1.0516264881626984e-09,0.8213864043354988,-0.8746337890625,1.2150129675865173,0.0,0.7071068286895752,0.7071068286895752,0.0
376.0,2.3914878171348657,-2.394870341773284,-1.5671088115219418e-17,2.3948703428152456,2.3914878171348657,1.0419615962235688e-09,0.7983956411480904,-0.8643726706504822,1.260302722454071,0.0,0.7071068286895752,0.7071068286895752,0.0
377.0,2.3733908942659347,-2.2913518671916875,-1.5671088115219415e-17,2.29135186820661,2.3733908942659347,1.014922255763066e-09,0.7055221050977707,-0.8068573474884033,1.4154614806175232,0.0,0.7071068286895752,0.7071068286895752,0.0
378.0,2.3224192862342377,-2.3451995472013443,-1.5671088115219415e-17,2.345199548146217,2.3224192862342377,9.448725116195172e-10,0.71694765239954,-0.9071555733680725,1.3701582551002502,0.0,0.7071068286895752,0.7071068286895752,0.0
379.0,2.2706633690030076,-2.4225836254663977,-1.5671088115219415e-17,2.4225836263480858,2.2706633690030076,8.816879482577565e-10,0.7075628628954291,-0.9980305433273315,1.247474730014801,0.0,0.7071068286895752,0.7071068286895752,0.0
380.0,2.264844282368681,-2.4327618382506166,-1.5671088115219415e-17,2.432761839125639,2.264844282368681,8.750222907962282e-10,0.7101311720907688,-1.0132869482040405,1.2360960841178894,0.0,0.7071068286895752,0.7071068286895752,0.0
381.0,2.265700694216233,-2.452051404589252,-1.5671088115219418e-17,2.45205140546525,2.265700694216233,8.759980950117031e-10,0.7434125207364559,-1.051403284072876,1.233151376247406,0.0,0.7071068286895752,0.7071068286895752,0.0
382.0,2.2799896011304988,-2.49508646186816,-1.5671088115219415e-17,2.4950864627607063,2.2799896011304988,8.925466683767949e-10,0.757086843252182,-1.036605715751648,1.1311695575714111,0.0,0.7071068286895752,0.7071068286895752,0.0
383.0,2.255700764877176,-2.5232052799092504,-1.5671088115219418e-17,2.5232052807739644,2.255700764877176,8.647140479330521e-10,0.7622917853295803,-1.0966968536376953,1.1094221472740173,0.0,0.7071068286895752,0.7071068286895752,0.0
384.0,2.2413402788872046,-2.4852689584062793,-1.5671088115219415e-17,2.4852689592551984,2.2413402788872046,8.48919220626461e-10,0.7346702553331852,-1.0954375267028809,1.1828068494796753,0.0,0.7071068286895752,0.7071068286895752,0.0
385.0,2.268280250174797,-2.4708553426779174,-1.5671088115219415e-17,2.4708553435568654,2.268280250174797,8.789480812024271e-10,0.773081548511982,-1.081177830696106,1.2223432660102844,0.0,0.7071068286895752,0.7071068286895752,0.0
386.0,2.2589982555312274,-2.4386532778596357,-1.5671088115219418e-17,2.438653278728044,2.2589982555312274,8.684085728022053e-10,0.7577805481851101,-1.083678960800171,1.2950352430343628,0.0,0.7071068286895752,0.7071068286895752,0.0
387.0,2.332424563221716,-2.4227572990204003,-1.5671088115219415e-17,2.4227572999783638,2.332424563221716,9.579634483018798e-10,0.8315676748752594,-1.0090324878692627,1.3158249855041504,0.0,0.7071068286895752,0.7071068286895752,0.0
388.0,2.396073466874874,-2.409702952484962,-1.5671088115219415e-17,2.4097029535339733,2.396073466874874,1.0490115606745834e-09,0.8737615793943405,-0.9259782433509827,1.3120140433311462,0.0,0.7071068286895752,0.7071068286895752,0.0
389.0,2.404721315956086,-2.3771141952248858,-1.5671088115219415e-17,2.37711419628742,2.404721315956086,1.062534281133711e-09,0.8195942342281342,-0.8607850670814514,1.3132448196411133,0.0,0.7071068286895752,0.7071068286895752,0.0
390.0,2.4082202031263393,-2.3897790139510837,-1.5671088115219415e-17,2.3897790150191756,2.4082202031263393,1.068091956892914e-09,0.8774395287036896,-0.9068347811698914,1.3506147861480713,0.0,0.7071068286895752,0.7071068286895752,0.0
391.0,2.3863373519009747,-2.367428441096174,-1.5671088115219415e-17,2.367428442130315,2.3863373519009747,1.034140558629447e-09,0.8607598841190338,-0.932134211063385,1.4179670214653015,0.0,0.7071068286895752,0.7071068286895752,0.0
392.0,2.3621246992189877,-2.4047666252519773,-1.5671088115219415e-17,2.4047666262506695,2.3621246992189877,9.986923230014554e-10,0.8901076316833496,-1.0078988075256348,1.392595112323761,0.0,0.7071068286895752,0.7071068286895752,0.0
393.0,2.339775985826962,-2.3880471336246125,-1.5671088115219415e-17,2.3880471345923913,2.339775985826962,9.677786626774076e-10,0.8819281160831451,-1.0461153984069824,1.4617856740951538,0.0,0.7071068286895752,0.7071068286895752,0.0
394.0,2.301075378806635,-2.400101027594309,-1.5671088115219415e-17,2.400101028512238,2.301075378806635,9.179293947454349e-10,0.8393560647964478,-1.0844022035598755,1.4349302649497986,0.0,0.7071068286895752,0.7071068286895752,0.0
395.0,2.3092237046111537,-2.370648674520349,-1.5671088115219415e-17,2.3706486754484106,2.3092237046111537,9.280616985366605e-10,0.8295149058103561,-1.0556515455245972,1.4887481331825256,0.0,0.7071068286895752,0.7071068286895752,0.0
396.0,2.2570110042935307,-2.366082275627023,-1.5671088115219415e-17,2.366082276493202,2.2570110042935307,8.661789664851616e-10,0.7457420229911804,-1.0734889507293701,1.4715368151664734,0.0,0.7071068286895752,0.7071068286895752,0.0
397.0,2.311944591777885,-2.2873575365796848,-1.5671088115219418e-17,2.2873575375111717,2.311944591777885,9.314867868847886e-10,0.7253507319837809,-0.9359801411628723,1.5626484155654907,0.0,0.7071068286895752,0.7071068286895752,0.0
398.0,2.3794551868736913,-2.328218009468987,-1.5671088115219418e-17,2.3282180104928343,2.3794551868736913,1.0238470430642918e-09,0.8657745271921158,-0.9499753713607788,1.5456981658935547,0.0,0.7071068286895752,0.7071068286895752,0.0
399.0,2.399483370386441,-2.320597664202936,-1.5671088115219415e-17,2.3205976652572438,2.399483370386441,1.0543077619200006e-09,0.8612212687730789,-0.9081203937530518,1.5296976566314697,0.0,0.7071068286895752,0.7071068286895752,0.0
400.0,2.4289304500399744,-2.33881077073643,-1.5671088115219418e-17,2.338810771838485,2.4289304500399744,1.1020551333050035e-09,0.8855255097150803,-0.8765968680381775,1.4686232209205627,0.0,0.7071068286895752,0.7071068286895752,0.0
401.0,2.3615282415171808,-2.3176287178137325,-1.5671088115219418e-17,2.317628718811578,2.3615282415171808,9.97845481857763e-10,0.7834640741348267,-0.9036035537719727,1.4824163913726807,0.0,0.7071068286895752,0.7071068286895752,0.0
402.0,2.3416425041086426,-2.3206912871149235,-1.5671088115219418e-17,2.3206912880852215,2.3416425041086426,9.702978823452786e-10,0.7563754841685295,-0.9129010438919067,1.4647223949432373,0.0,0.7071068286895752,0.7071068286895752,0.0
403.0,2.4244941871240058,-2.308161710661288,-1.5671088115219418e-17,2.3081617117559103,2.4244941871240058,1.09462216012111e-09,0.8147688582539558,-0.8228143453598022,1.4601396918296814,0.0,0.7071068286895752,0.7071068286895752,0.0
404.0,2.446656630554773,-2.268514834402658,-1.5671088115219418e-17,2.26851483553532,2.446656630554773,1.1326619419055605e-09,0.7938572764396667,-0.7692002654075623,1.509626865386963,0.0,0.7071068286895752,0.7071068286895752,0.0
405.0,2.4858723386050134,-2.2517593937485922,-1.5671088115219415e-17,2.2517593949546018,2.4858723386050134,1.2060093484383672e-09,0.8168980255723,-0.727708101272583,1.5398321747779846,0.0,0.7071068286895752,0.7071068286895752,0.0
406.0,2.4727181170677386,-2.2515812039365812,-1.5671088115219415e-17,2.2515812051170654,2.4727181170677386,1.1804843044123598e-09,0.75808360055089,-0.7011150121688843,1.466176152229309,0.0,0.7071068286895752,0.7071068286895752,0.0
407.0,2.513261765996651,-2.311255146541443,-1.5671088115219415e-17,2.3112551478039034,2.513261765996651,1.2624603502506336e-09,0.8041096404194832,-0.678386926651001,1.3243388533592224,0.0,0.7071068286895752,0.7071068286895752,0.0
408.0,2.5194788360574916,-2.295033767369709,-1.5671088115219418e-17,2.2950337686456517,2.5194788360574916,1.2759423308379092e-09,0.7676683515310287,-0.643538236618042,1.3078351020812988,0.0,0.7071068286895752,0.7071068286895752,0.0
409.0,2.562762260621465,-2.2320940521730117,-1.5671088115219415e-17,2.23209405355058,2.562762260621465,1.3775684853065281e-09,0.7233520839363337,-0.5585229992866516,1.356213629245758,0.0,0.7071068286895752,0.7071068286895752,0.0
410.0,2.6468525946741366,-1.8178087097417506,-1.2960173473451793,-0.027766596502863974,-2.646852594674136,3.1415926535897927,0.731134070083499,-0.46852633357048035,1.2516668438911438,0.0,0.7071068286895752,0.7071068286895752,0.0
411.0,2.633365175814209,-1.9034081315581644,-1.3562640703241065,0.11807954829247766,-2.6333651758142085,3.1415926535897927,0.780233733355999,-0.5103968381881714,1.1245114207267761,0.0,0.7071068286895752,0.7071068286895752,0.0
412.0,2.6600178082367907,-1.9584683846867301,-1.2672245366112764,0.08410026770821209,-2.6600178082367902,3.1415926535897927,0.8392453640699387,-0.5110955834388733,1.1324207186698914,0.0,0.7071068286895752,0.7071068286895752,0.0
413.0,2.6105489930734276,-1.9633416161502044,-1.238772881630787,0.060521844191198076,-2.610548993073427,3.1415926535897927,0.8097361847758293,-0.5543773174285889,1.1479595303535461,0.0,0.7071068286895752,0.7071068286895752,0.0
414.0,2.5893061083355526,-1.9746897602923805,-1.2998947379397894,0.13299184464237587,-2.589306108335552,3.1415926535897927,0.797834150493145,-0.5734717845916748,1.0916158854961395,0.0,0.7071068286895752,0.7071068286895752,0.0
415.0,2.572238288021866,-1.9758652207990883,-1.3444489861337923,0.178721553343087,-2.5722382880218655,3.1415926535897927,0.7817253321409225,-0.5846962928771973,1.0583006739616394,0.0,0.7071068286895752,0.7071068286895752,0.0
416.0,2.6850528621556515,-1.9986293133733595,-1.3447605846203425,0.20179724440390753,-2.6850528621556515,3.1415926535897927,0.8732018619775772,-0.49850472807884216,1.033851683139801,0.0,0.7071068286895752,0.7071068286895752,0.0
417.0,2.6113051999682466,-2.001494608293698,-1.411053958922441,0.27095591362634486,-2.611305199968246,3.1415926535897927,0.8144876286387444,-0.5562365055084229,0.9838389158248901,0.0,0.7071068286895752,0.7071068286895752,0.0
418.0,2.536930298494461,-1.9251531161544644,-1.4772280339058714,0.2607884964705416,-2.5369302984944606,3.1415926535897927,0.7110312525182962,-0.5813441872596741,1.016154021024704,0.0,0.7071068286895752,0.7071068286895752,0.0
419.0,2.5212691637920672,-2.050602541162146,-1.4338509355211322,0.34286082309348465,-2.521269163792067,3.141592653589793,0.7653563320636749,-0.6394913196563721,0.915290355682373,0.0,0.7071068286895752,0.7071068286895752,0.0
420.0,2.491215527890333,-2.1567602534646806,-1.3989090950493988,0.41407669492428645,-2.4912155278903327,3.141592653589793,0.7886004149913788,-0.6982253193855286,0.820611983537674,0.0,0.7071068286895752,0.7071068286895752,0.0
421.0,2.5600609079859296,-2.157848183425129,-1.3530521042318566,0.36930763406719236,-2.560060907985929,3.1415926535897927,0.8564370274543762,-0.6492266654968262,0.8502429127693176,0.0,0.7071068286895752,0.7071068286895752,0.0
422.0,2.5903685724040124,-2.140560942160657,-1.303676265394055,0.30264455396491713,-2.590368572404012,3.1415926535897927,0.8834044933319092,-0.6247564554214478,0.9042422771453857,0.0,0.7071068286895752,0.7071068286895752,0.0
423.0,2.616245029470052,-2.125648921753612,-1.2429624713812817,0.22701873954510066,-2.6162450294700514,3.1415926535897927,0.9063336998224258,-0.6034172773361206,0.9642698764801025,0.0,0.7071068286895752,0.7071068286895752,0.0
424.0,2.631696532288968,-2.112226963725553,-1.2561403702691818,0.22677468040494084,-2.6316965322889674,3.1415926535897927,0.9093493074178696,-0.5845230221748352,0.970472127199173,0.0,0.7071068286895752,0.7071068286895752,0.0
425.0,2.6808805707182017,-2.0480892183166888,-1.3622759998947402,0.26877256462163474,-2.6808805707182017,3.1415926535897927,0.8946225047111511,-0.5141297578811646,0.967759370803833,0.0,0.7071068286895752,0.7071068286895752,0.0
426.0,2.644604856109544,-2.0333501891106533,-1.4421536660544712,0.33391120157533094,-2.6446048561095434,3.1415926535897927,0.8474525213241577,-0.5340193510055542,0.9281927645206451,0.0,0.7071068286895752,0.7071068286895752,0.0
427.0,2.698691560078913,-1.9958221831959506,-1.5532205046793361,0.4074500342854932,-2.698691560078913,3.1415926535897927,0.8394938558340073,-0.4663618505001068,0.8921446800231934,0.0,0.7071068286895752,0.7071068286895752,0.0
428.0,2.6621043772503867,-2.0000540915765193,-1.5516035004694144,0.41006493845614034,-2.6621043772503863,3.1415926535897927,0.8185026124119759,-0.4978366196155548,0.888884961605072,0.0,0.7071068286895752,0.7071068286895752,0.0
429.0,2.633280106108757,-2.0432471695401855,-1.5763956866851805,0.47805020263557263,-2.6332801061087565,3.1415926535897927,0.8100519105792046,-0.5271077752113342,0.8279351890087128,0.0,0.7071068286895752,0.7071068286895752,0.0
430.0,2.639909603826554,-2.172632241878922,-1.3331259707832839,0.364165559072412,-2.6399096038265535,3.1415926535897927,0.9282353520393372,-0.5840770602226257,0.846603661775589,0.0,0.7071068286895752,0.7071068286895752,0.0
431.0,2.674516637764437,-2.2289341983876536,-1.3211154776990242,0.4084570224968844,-2.674516637764437,3.1415926535897927,0.97738116979599,-0.563698410987854,0.7881211787462234,0.0,0.7071068286895752,0.7071068286895752,0.0
432.0,2.737248603896719,-2.1859287573615966,-1.1061987568308072,-2.9910577909859035,2.737248603896719,2.001279363927256e-09,1.040604144334793,-0.5096288919448853,0.6717119142413139,0.0,0.7071068286895752,0.7071068286895752,0.0
