Sungjin-Park-dev/vision_inspection/data/trajectory/675/collision_free_trajectory.csv
time,ur20-shoulder_pan_joint,ur20-shoulder_lift_joint,ur20-elbow_joint,ur20-wrist_1_joint,ur20-wrist_2_joint,ur20-wrist_3_joint
0.0,-0.05958212539553642,-0.6897312998771667,1.6901501417160034,-0.3728426992893219,1.8987903594970703,0.22956694662570953
1.0,-0.023293934762477875,-0.6673926115036011,1.6342109441757202,-0.293510764837265,2.017591714859009,0.3318987488746643
2.0,0.0023836225736886263,-0.6409525275230408,1.5865275859832764,-0.22408270835876465,2.0982892513275146,0.41686639189720154
3.0,0.020575128495693207,-0.6167570948600769,1.5456156730651855,-0.16341333091259003,2.1531858444213867,0.4861857295036316
4.0,0.0476146899163723,-0.5777124166488647,1.456946849822998,-0.02851325087249279,2.252335786819458,0.6228243112564087
5.0,0.06012291833758354,-0.5538084506988525,1.3962863683700562,0.06626509130001068,2.3087973594665527,0.7121312022209167
6.0,0.03468053415417671,-0.6033695936203003,1.4942666292190552,-0.08626352250576019,2.217751979827881,0.5596100687980652
7.0,0.023580949753522873,-0.5468738079071045,1.3286094665527344,0.32365185022354126,2.1442995071411133,0.8240229487419128
8.0,-0.017442019656300545,-0.6356125473976135,1.5109360218048096,0.008404924534261227,2.0333049297332764,0.49811848998069763
9.0,-0.0053602540865540504,-0.5859276056289673,1.391782522201538,0.2559603154659271,2.057859182357788,0.697917640209198
10.0,-0.05219925940036774,-0.6449994444847107,1.4989029169082642,0.10046391189098358,1.9294843673706055,0.46000564098358154
11.0,-0.05352602154016495,-0.5746423602104187,1.3304065465927124,0.4564659893512726,1.9142365455627441,0.731986403465271
12.0,-0.07705412805080414,-0.6414909958839417,1.4690569639205933,0.19928403198719025,1.863731026649475,0.44544294476509094
13.0,-0.11033111065626144,-0.7018557190895081,1.626115083694458,-0.13092656433582306,1.7591980695724487,0.18803717195987701
14.0,-0.1716206967830658,-0.7052831053733826,1.5998942852020264,-0.017327766865491867,1.5640007257461548,-0.00817485898733139
15.0,-0.12171844393014908,-0.633433997631073,1.4247193336486816,0.33402854204177856,1.7426472902297974,0.34390079975128174
16.0,-0.16767928004264832,-0.6357201933860779,1.4192560911178589,0.3746360242366791,1.590144157409668,0.04416627436876297
17.0,-0.12445656210184097,-0.5428128242492676,1.2394245862960815,0.6916438937187195,1.7408558130264282,0.7420308589935303
18.0,-0.16786165535449982,-0.5426133275032043,1.2343858480453491,0.7234808802604675,1.5989367961883545,0.17754358053207397
19.0,-0.13931457698345184,-0.4935063123703003,1.1434593200683594,0.8542651534080505,1.6923500299453735,-1.7109837532043457
20.0,-0.13931457698345184,-0.4935063123703003,1.1434593200683594,0.8542651534080505,1.6923500299453735,-1.7109837532043457
21.0,-0.1467302292585373,-0.49866363406181335,1.1357414722442627,0.8504867553710938,1.691355586051941,-1.710468053817749
22.0,-0.16175399720668793,-0.509114146232605,1.1200990676879883,0.8428269624710083,1.689341425895691,-1.7094229459762573
23.0,-0.18680478632450104,-0.5265448689460754,1.093998908996582,0.8300414681434631,1.6859848499298096,-1.7076797485351562
24.0,-0.2220485955476761,-0.5510619282722473,1.0572634935379028,0.812045693397522,1.6812571287155151,-1.7052228450775146
25.0,-0.2642919719219208,-0.5804503560066223,1.0132275819778442,0.7904742956161499,1.6755826473236084,-1.7022751569747925
26.0,-0.31330931186676025,-0.6145550608634949,0.9621267914772034,0.7654430866241455,1.668989896774292,-1.6988528966903687
27.0,-0.3718199133872986,-0.6552666425704956,0.9011109471321106,0.7355573177337646,1.6611127853393555,-1.6947720050811768
28.0,-0.43651455640792847,-0.7002769112586975,0.8336183428764343,0.7025035619735718,1.6524006128311157,-1.6902573108673096
29.0,-0.5065087080001831,-0.7489703297615051,0.7605720162391663,0.6667355895042419,1.6429709196090698,-1.6853677034378052
30.0,-0.5822590589523315,-0.8016634583473206,0.6814887523651123,0.6280205249786377,1.6327595710754395,-1.6800663471221924
31.0,-0.6644300222396851,-0.858820378780365,0.5956763625144958,0.5860121846199036,1.6216447353363037,-1.6742920875549316
32.0,-0.7504270672798157,-0.9186358451843262,0.5058436989784241,0.5420371294021606,1.6099936962127686,-1.668232798576355
33.0,-0.840022087097168,-0.9809481501579285,0.41222772002220154,0.4962131977081299,1.597839117050171,-1.6619043350219727
34.0,-0.9340442419052124,-1.0463171005249023,0.31395331025123596,0.44812139868736267,1.5850664377212524,-1.6552435159683228
35.0,-1.0310736894607544,-1.11378812789917,0.212506502866745,0.39848217368125916,1.5718746185302734,-1.6483711004257202
36.0,-1.1302319765090942,-1.1827456951141357,0.10881375521421432,0.3477441072463989,1.5583879947662354,-1.6413426399230957
37.0,-1.2313591241836548,-1.2530770301818848,0.0030436061788350344,0.29598671197891235,1.5446308851242065,-1.6341642141342163
38.0,-1.3344480991363525,-1.3247789144515991,-0.10479503870010376,0.24321389198303223,1.5305927991867065,-1.6268422603607178
39.0,-1.4381920099258423,-1.3969289064407349,-0.2133314162492752,0.19010409712791443,1.5164626836776733,-1.6194641590118408
40.0,-1.5423619747161865,-1.4693690538406372,-0.32232168316841125,0.1367754340171814,1.5022668838500977,-1.612045168876648
41.0,-1.6465339660644531,-1.5418070554733276,-0.43131110072135925,0.08344700932502747,1.4880471229553223,-1.6046088933944702
42.0,-1.7498831748962402,-1.6136789321899414,-0.5394542217254639,0.030526068061590195,1.4739415645599365,-1.5972263813018799
43.0,-1.8521851301193237,-1.6848256587982178,-0.6465033888816833,-0.021860137581825256,1.4599695205688477,-1.5899163484573364
44.0,-1.953212857246399,-1.7550878524780273,-0.7522167563438416,-0.07359141856431961,1.446157693862915,-1.5826959609985352
45.0,-2.0513055324554443,-1.823284387588501,-0.8548552989959717,-0.12382108718156815,1.432748794555664,-1.5756837129592896
46.0,-2.1467621326446533,-1.8896530866622925,-0.9547499418258667,-0.17271728813648224,1.4196730852127075,-1.5688488483428955
47.0,-2.239459991455078,-1.954103946685791,-1.0517640113830566,-0.2202117145061493,1.4069561958312988,-1.5622071027755737
48.0,-2.328394651412964,-2.015932083129883,-1.1448347568511963,-0.2657845616340637,1.3947442770004272,-1.5558395385742188
49.0,-2.4119949340820312,-2.0740818977355957,-1.2323659658432007,-0.3086470365524292,1.383223295211792,-1.5498356819152832
50.0,-2.4913783073425293,-2.129286527633667,-1.315475583076477,-0.34934860467910767,1.3722702264785767,-1.544126033782959
51.0,-2.5663204193115234,-2.1813857555389404,-1.3939220905303955,-0.38777175545692444,1.3619190454483032,-1.5387294292449951
52.0,-2.6339199542999268,-2.2283995151519775,-1.4646987915039062,-0.42244580388069153,1.3525514602661133,-1.5338598489761353
53.0,-2.695061445236206,-2.2709109783172607,-1.528704047203064,-0.4537949860095978,1.3440697193145752,-1.529462456703186
54.0,-2.750291109085083,-2.3093082904815674,-1.5865193605422974,-0.48211055994033813,1.3363999128341675,-1.5254944562911987
55.0,-2.7986536026000977,-2.3429336547851562,-1.6371530294418335,-0.5069116353988647,1.329674482345581,-1.5220229625701904
56.0,-2.8365747928619385,-2.3692972660064697,-1.6768628358840942,-0.5263694524765015,1.324395775794983,-1.5192949771881104
57.0,-2.867110013961792,-2.390528678894043,-1.7088408470153809,-0.542044460773468,1.320141315460205,-1.51710045337677
58.0,-2.8900675773620605,-2.4064958095550537,-1.7328842878341675,-0.5538343191146851,1.316938042640686,-1.5154532194137573
59.0,-2.9021668434143066,-2.4149208068847656,-1.7455540895462036,-0.5600420832633972,1.3152440786361694,-1.5145866870880127
60.0,-2.9048988819122314,-2.416823387145996,-1.7484149932861328,-0.5614438652992249,1.314861536026001,-1.5143909454345703
61.0,-2.9048988819122314,-2.416823387145996,-1.7484149932861328,-0.5614438652992249,1.314861536026001,-1.5143909454345703
62.0,-2.901411771774292,-2.427541732788086,-1.7207032442092896,-0.5881398320198059,1.3139036893844604,-1.4766144752502441
63.0,-2.8873190879821777,-2.4296770095825195,-1.723587155342102,-0.5884516835212708,1.3094215393066406,-1.457757830619812
64.0,-2.889343500137329,-2.4198081493377686,-1.7598159313201904,-0.5314313769340515,1.2958118915557861,-1.5757075548171997
65.0,-2.8691537380218506,-2.43904185295105,-1.8820149898529053,-0.13225051760673523,1.199776291847229,-2.202030658721924
66.0,-2.8609743118286133,-2.4313838481903076,-1.837345838546753,-0.2923619747161865,1.2027101516723633,-1.971570611000061
67.0,-2.858891487121582,-2.4315617084503174,-1.7768152952194214,-0.45948323607444763,1.2327312231063843,-1.7043448686599731
68.0,-2.877634286880493,-2.441925525665283,-1.695850133895874,-0.6160118579864502,1.307675838470459,-1.412864327430725
69.0,-2.852663993835449,-2.438267469406128,-1.751075267791748,-0.5073524117469788,1.233208179473877,-1.6181474924087524
70.0,-2.810560464859009,-2.4581406116485596,-1.79766845703125,-0.35654518008232117,1.084689736366272,-1.7824182510375977
71.0,-2.8327016830444336,-2.45052170753479,-1.738824486732483,-0.5109153985977173,1.1847988367080688,-1.6029993295669556
72.0,-2.857891082763672,-2.4531795978546143,-1.6810697317123413,-0.6256484985351562,1.2839547395706177,-1.4043045043945312
73.0,-2.8716025352478027,-2.460056781768799,-1.6514712572097778,-0.6550945043563843,1.310910940170288,-1.362599492073059
74.0,-2.8726844787597656,-2.4508554935455322,-1.6750081777572632,-0.6351931691169739,1.3076460361480713,-1.3856964111328125
75.0,-2.8841538429260254,-2.4582507610321045,-1.6489059925079346,-0.6543294191360474,1.316228985786438,-1.3780966997146606
76.0,-2.894101142883301,-2.4629249572753906,-1.6308424472808838,-0.6675482988357544,1.3226686716079712,-1.373996376991272
77.0,-2.894166946411133,-2.4516098499298096,-1.6604992151260376,-0.6423166394233704,1.3189340829849243,-1.4035910367965698
78.0,-2.8909199237823486,-2.4430360794067383,-1.6852526664733887,-0.621506929397583,1.3149632215499878,-1.4239686727523804
79.0,-2.9028406143188477,-2.4472761154174805,-1.6666992902755737,-0.6354791522026062,1.3199315071105957,-1.4225122928619385
80.0,-2.9056408405303955,-2.460131883621216,-1.6311583518981934,-0.6656062602996826,1.3249279260635376,-1.3898193836212158
81.0,-2.9128122329711914,-2.440138816833496,-1.6795657873153687,-0.6224866509437561,1.322179913520813,-1.4502317905426025
82.0,-2.9164657592773438,-2.4308650493621826,-1.703188419342041,-0.5984220504760742,1.3321692943572998,-1.486008882522583
83.0,-2.9361183643341064,-2.4375526905059814,-1.6777399778366089,-0.607649564743042,1.3895275592803955,-1.512322187423706
84.0,-2.9145374298095703,-2.4538071155548096,-1.6420528888702393,-0.6555154919624329,1.3251523971557617,-1.4117509126663208
85.0,-2.918025493621826,-2.462977647781372,-1.6156638860702515,-0.6785239577293396,1.3275808095932007,-1.3868457078933716
86.0,-2.9104392528533936,-2.4741768836975098,-1.5916584730148315,-0.6990253329277039,1.3296196460723877,-1.3543497323989868
87.0,-2.898015022277832,-2.472057580947876,-1.604958176612854,-0.6883471608161926,1.3274229764938354,-1.3542131185531616
88.0,-2.905988931655884,-2.4826526641845703,-1.5730483531951904,-0.7138845324516296,1.333472728729248,-1.3318977355957031
89.0,-2.918379783630371,-2.4856462478637695,-1.556874394416809,-0.7292729616165161,1.330302119255066,-1.3260990381240845
90.0,-2.9127137660980225,-2.4949660301208496,-1.5370692014694214,-0.7452205419540405,1.332888126373291,-1.3018442392349243
91.0,-2.9101884365081787,-2.505223274230957,-1.5127226114273071,-0.7657479643821716,1.3312689065933228,-1.2783615589141846
92.0,-2.9211413860321045,-2.5020864009857178,-1.5132232904434204,-0.7668604254722595,1.3295413255691528,-1.2861955165863037
93.0,-2.9293041229248047,-2.510213851928711,-1.4875010251998901,-0.7888810038566589,1.3302754163742065,-1.26828134059906
94.0,-2.9472317695617676,-2.5010271072387695,-1.5035384893417358,-0.7633779048919678,1.384731650352478,-1.2787744998931885
95.0,-2.951605796813965,-2.511247396469116,-1.4757999181747437,-0.7852622270584106,1.3936671018600464,-1.2426363229751587
96.0,-2.9584176540374756,-2.5244154930114746,-1.4400129318237305,-0.8128020167350769,1.410614013671875,-1.1841799020767212
97.0,-2.934882164001465,-2.529705286026001,-1.4353876113891602,-0.8330021500587463,1.3322697877883911,-1.2220263481140137
98.0,-2.924685478210449,-2.531437397003174,-1.4376840591430664,-0.8304299712181091,1.3292601108551025,-1.2205345630645752
99.0,-2.9181628227233887,-2.52473521232605,-1.4586206674575806,-0.8120923042297363,1.3292406797409058,-1.2358872890472412
100.0,-2.910677433013916,-2.532674551010132,-1.4437681436538696,-0.8236592411994934,1.3257780075073242,-1.2230095863342285
101.0,-2.9015614986419678,-2.542006731033325,-1.426576852798462,-0.8374486565589905,1.3174571990966797,-1.2122747898101807
102.0,-2.9008772373199463,-2.530060052871704,-1.4565504789352417,-0.8124722242355347,1.3206405639648438,-1.2331595420837402
103.0,-2.891693592071533,-2.5266175270080566,-1.4710707664489746,-0.7994975447654724,1.319274663925171,-1.2416819334030151
104.0,-2.9049787521362305,-2.5141963958740234,-1.4934978485107422,-0.781539261341095,1.3282418251037598,-1.260574460029602
105.0,-2.8951821327209473,-2.507422924041748,-1.5169841051101685,-0.7611321210861206,1.3278591632843018,-1.2750943899154663
106.0,-2.9033308029174805,-2.498222827911377,-1.5348938703536987,-0.7464658617973328,1.3321144580841064,-1.2934916019439697
107.0,-2.8966588973999023,-2.489650011062622,-1.5612539052963257,-0.7233285903930664,1.3331072330474854,-1.313631296157837
108.0,-2.890746831893921,-2.4820163249969482,-1.5842983722686768,-0.7049316763877869,1.3297991752624512,-1.3287467956542969
109.0,-2.8835017681121826,-2.470554828643799,-1.6178182363510132,-0.6790578961372375,1.3219716548919678,-1.350688099861145
110.0,-2.8808867931365967,-2.4823009967803955,-1.5895323753356934,-0.7016221880912781,1.326151967048645,-1.3235270977020264
111.0,-2.884960174560547,-2.491725444793701,-1.5635530948638916,-0.7210021018981934,1.3323748111724854,-1.3062435388565063
112.0,-2.8741846084594727,-2.4938817024230957,-1.5651257038116455,-0.7195429801940918,1.331122636795044,-1.298607587814331
113.0,-2.8713228702545166,-2.474860191345215,-1.6139719486236572,-0.6843343377113342,1.3170273303985596,-1.3329946994781494
114.0,-2.8592538833618164,-2.471004009246826,-1.6302906274795532,-0.6759248375892639,1.3037068843841553,-1.3296010494232178
115.0,-2.8388843536376953,-2.479862928390503,-1.6247490644454956,-0.6782156825065613,1.2382733821868896,-1.357927680015564
116.0,-2.8004679679870605,-2.473910331726074,-1.7109535932540894,-0.5400155782699585,1.0828553438186646,-1.5441582202911377
117.0,-2.7868189811706543,-2.475752353668213,-1.7685319185256958,-0.4062314033508301,1.0129643678665161,-1.6873016357421875
118.0,-2.748833179473877,-2.5083301067352295,-1.7689611911773682,-0.37035825848579407,0.8518630266189575,-1.6689189672470093
119.0,-2.75618052482605,-2.5028815269470215,-1.726493239402771,-0.4895119369029999,0.8971678614616394,-1.5603808164596558
120.0,-2.766777515411377,-2.501572608947754,-1.6803010702133179,-0.5946210026741028,0.9514161944389343,-1.460666298866272
121.0,-2.808288335800171,-2.48210072517395,-1.659722089767456,-0.6285708546638489,1.1221413612365723,-1.437710165977478
122.0,-2.8108553886413574,-2.4940526485443115,-1.6147078275680542,-0.697295606136322,1.1330468654632568,-1.3527085781097412
123.0,-2.8249642848968506,-2.5029053688049316,-1.5710102319717407,-0.7517130970954895,1.182332992553711,-1.279106616973877
124.0,-2.8475747108459473,-2.4878792762756348,-1.5957797765731812,-0.7052653431892395,1.2669872045516968,-1.3198620080947876
125.0,-2.854067802429199,-2.4989566802978516,-1.5622881650924683,-0.7342576384544373,1.2825435400009155,-1.2857348918914795
126.0,-2.866729497909546,-2.507075786590576,-1.5352741479873657,-0.7484025955200195,1.3140071630477905,-1.2709393501281738
127.0,-2.857337474822998,-2.524620532989502,-1.4897515773773193,-0.818773090839386,1.2646608352661133,-1.1880148649215698
128.0,-2.8636884689331055,-2.534054756164551,-1.4605426788330078,-0.8498773574829102,1.268064260482788,-1.1515709161758423
129.0,-2.8796839714050293,-2.5083303451538086,-1.5245678424835205,-0.7548429369926453,1.3218674659729004,-1.2734465599060059
130.0,-2.8791511058807373,-2.521015167236328,-1.4930026531219482,-0.7814358472824097,1.315913200378418,-1.2518607378005981
131.0,-2.8771610260009766,-2.5379481315612793,-1.446775197982788,-0.8417738676071167,1.2910761833190918,-1.1773326396942139
132.0,-2.8867204189300537,-2.5436158180236816,-1.4275200366973877,-0.8541690111160278,1.3007378578186035,-1.1688835620880127
133.0,-2.8844025135040283,-2.5668985843658447,-1.355594277381897,-0.9919068217277527,1.2682439088821411,-0.9686042666435242
134.0,-2.8803374767303467,-2.614325761795044,-1.2269843816757202,-1.248892903327942,1.2306455373764038,-0.6990286707878113
135.0,-2.893136978149414,-2.6477527618408203,-1.1381860971450806,-1.3947415351867676,1.2520315647125244,-0.5546907186508179
136.0,-2.9062273502349854,-2.7150282859802246,-0.9824705123901367,-1.645646572113037,1.2837117910385132,-0.36989402770996094
137.0,-2.8894078731536865,-2.7591588497161865,-0.9029250741004944,-1.796983003616333,1.2389768362045288,-0.3384740352630615
138.0,-2.87070894241333,-2.6999928951263428,-1.0379048585891724,-1.6049689054489136,1.1922154426574707,-0.468763142824173
139.0,-2.8576364517211914,-2.643902063369751,-1.1712983846664429,-1.3914105892181396,1.1680727005004883,-0.6288615465164185
140.0,-2.84474515914917,-2.593782663345337,-1.302802562713623,-1.16945219039917,1.1566810607910156,-0.8284171223640442
141.0,-2.8527426719665527,-2.560744047164917,-1.3869930505752563,-0.9984846711158752,1.207007646560669,-0.9808927178382874
142.0,-2.8274357318878174,-2.585035800933838,-1.3384276628494263,-1.1385377645492554,1.116236686706543,-0.8778074383735657
143.0,-2.819941282272339,-2.6510655879974365,-1.1854281425476074,-1.4473862648010254,1.056266188621521,-0.6532029509544373
144.0,-2.830904960632324,-2.6969125270843506,-1.0758655071258545,-1.6242207288742065,1.0781419277191162,-0.5251290798187256
145.0,-2.8480982780456543,-2.7808682918548584,-0.8915706276893616,-1.895226001739502,1.1175122261047363,-0.36369621753692627
146.0,-2.8687808513641357,-2.828270435333252,-0.7888271808624268,-1.9944891929626465,1.18307626247406,-0.2919331192970276
147.0,-2.8899691104888916,-2.868501663208008,-0.7009868621826172,-2.0672969818115234,1.2492458820343018,-0.234091117978096
148.0,-2.851762056350708,-2.805905342102051,-0.850500226020813,-1.927222490310669,1.136662244796753,-0.3402066230773926
149.0,-2.832350015640259,-2.771540403366089,-0.932636559009552,-1.846185564994812,1.0778297185897827,-0.402652770280838
150.0,-2.8112761974334717,-2.731567859649658,-1.0292928218841553,-1.7454801797866821,1.0107614994049072,-0.4812532961368561
151.0,-2.7852232456207275,-2.6798698902130127,-1.1586298942565918,-1.597854495048523,0.9252971410751343,-0.5974889397621155
152.0,-2.7898764610290527,-2.6183245182037354,-1.2905641794204712,-1.3258835077285767,0.9700069427490234,-0.7762515544891357
153.0,-2.7776172161102295,-2.5935182571411133,-1.3655779361724854,-1.2105516195297241,0.9392877817153931,-0.8759877681732178
154.0,-2.7900826930999756,-2.549912214279175,-1.4693080186843872,-0.9717729687690735,1.0225484371185303,-1.0688555240631104
155.0,-2.8168323040008545,-2.552063226699829,-1.4355889558792114,-0.9819770455360413,1.1113708019256592,-1.0353516340255737
156.0,-2.826524496078491,-2.527665138244629,-1.497307300567627,-0.8600114583969116,1.167118787765503,-1.153102993965149
157.0,-2.8099186420440674,-2.5205259323120117,-1.5326684713363647,-0.8277769684791565,1.1165697574615479,-1.200764536857605
158.0,-2.792015314102173,-2.5153379440307617,-1.5712451934814453,-0.7849031686782837,1.0530295372009277,-1.257299780845642
159.0,-2.7347629070281982,-2.559657096862793,-1.5356366634368896,-0.9566848278045654,0.7688739895820618,-1.113930344581604
160.0,-2.7384214401245117,-2.5329816341400146,-1.6289418935775757,-0.7294356822967529,0.8060644865036011,-1.3152157068252563
161.0,-2.718651294708252,-2.5622358322143555,-1.5775859355926514,-0.8941632509231567,0.6921300292015076,-1.1623879671096802
162.0,-2.7111682891845703,-2.553760051727295,-1.6655027866363525,-0.6664798855781555,0.6585258841514587,-1.3529024124145508
163.0,-2.707982063293457,-2.556265354156494,-1.7299175262451172,-0.4611043632030487,0.6436014771461487,-1.5271801948547363
164.0,-2.7085530757904053,-2.5615651607513428,-1.7733964920043945,-0.2972303628921509,0.6395660042762756,-1.6706302165985107
165.0,-2.7120602130889893,-2.5732028484344482,-1.8156813383102417,-0.10678012669086456,0.6493286490440369,-1.8405020236968994
166.0,-2.706178665161133,-2.563021183013916,-1.6982648372650146,-0.5535990595817566,0.6580842137336731,-1.4415150880813599
167.0,-2.7042770385742188,-2.569376230239868,-1.7487467527389526,-0.3795347809791565,0.6519908308982849,-1.5893282890319824
168.0,-2.7074153423309326,-2.5843505859375,-1.812294840812683,-0.11393225938081741,0.6587570309638977,-1.8239800930023193
169.0,-2.7123894691467285,-2.593916654586792,-1.8404943943023682,0.027997273951768875,0.6724275350570679,-1.9545719623565674
170.0,-2.73279070854187,-2.631037712097168,-1.8953189849853516,0.36295804381370544,0.7560363411903381,-2.269912004470825
171.0,-2.750936985015869,-2.6518962383270264,-1.9181065559387207,0.5214588046073914,0.8279913067817688,-2.4286880493164062
172.0,-2.7179267406463623,-2.614386796951294,-1.8671672344207764,0.18455266952514648,0.705242931842804,-2.0957984924316406
173.0,-2.703047513961792,-2.5875062942504883,-1.7959060668945312,-0.17943526804447174,0.6611650586128235,-1.7594183683395386
174.0,-2.7097487449645996,-2.6097922325134277,-1.8470858335494995,0.07358948886394501,0.6884303689002991,-1.9871814250946045
175.0,-2.7214457988739014,-2.6319682598114014,-1.8820735216140747,0.2818088233470917,0.7341554760932922,-2.182544469833374
176.0,-2.7345378398895264,-2.6456410884857178,-1.9026894569396973,0.41527387499809265,0.7797008752822876,-2.3145370483398438
177.0,-2.7445216178894043,-2.6626391410827637,-1.916287899017334,0.5125923752784729,0.826177716255188,-2.4094417095184326
178.0,-2.763821601867676,-2.6712164878845215,-1.931096076965332,0.6173269152641296,0.8863990306854248,-2.5240917205810547
179.0,-2.7947120666503906,-2.6879801750183105,-1.9474364519119263,0.7424315214157104,0.9900380969047546,-2.66795015335083
180.0,-2.773505687713623,-2.689382553100586,-1.9391095638275146,0.6814498901367188,0.9343065023422241,-2.587534189224243
181.0,-2.75441312789917,-2.678473949432373,-1.9267154932022095,0.5895418524742126,0.8711255788803101,-2.4856531620025635
182.0,-2.7370240688323975,-2.6689465045928955,-1.9122575521469116,0.48836857080459595,0.8162062168121338,-2.376392364501953
183.0,-2.8258044719696045,-2.527416706085205,-1.9128271341323853,0.008536698296666145,1.2506744861602783,-2.3124568462371826
184.0,-2.8258044719696045,-2.527416706085205,-1.9128271341323853,0.008536698296666145,1.2506744861602783,-2.3124568462371826
185.0,-2.8261053562164307,-2.5282270908355713,-1.9090925455093384,0.02333560772240162,1.2339606285095215,-2.3063292503356934
186.0,-2.826725482940674,-2.529902935028076,-1.9013563394546509,0.053988270461559296,1.1993424892425537,-2.293637752532959
187.0,-2.8276419639587402,-2.53238844871521,-1.8898646831512451,0.0995137020945549,1.14792799949646,-2.2747890949249268
188.0,-2.828827381134033,-2.5356171131134033,-1.874922275543213,0.15869785845279694,1.0810884237289429,-2.2502872943878174
189.0,-2.8302555084228516,-2.5395214557647705,-1.8568412065505981,0.2303018718957901,1.0002233982086182,-2.2206475734710693
190.0,-2.831899404525757,-2.5440328121185303,-1.8359336853027344,0.3130844533443451,0.9067360162734985,-2.186385154724121
191.0,-2.8337326049804688,-2.5490822792053223,-1.8125125169754028,0.40580427646636963,0.8020294904708862,-2.148015260696411
192.0,-2.8357295989990234,-2.5546019077301025,-1.7868911027908325,0.5072199702262878,0.6875060796737671,-2.1060521602630615
193.0,-2.8378653526306152,-2.5605227947235107,-1.7593823671340942,0.6160902976989746,0.5645684599876404,-2.0610105991363525
194.0,-2.840114116668701,-2.5667765140533447,-1.7302998304367065,0.7311742901802063,0.43461868166923523,-2.0134034156799316
195.0,-2.842452049255371,-2.573296070098877,-1.6999576091766357,0.8512301445007324,0.29905858635902405,-1.9637445211410522
196.0,-2.8448565006256104,-2.5800137519836426,-1.6686697006225586,0.9750158190727234,0.15929014980793,-1.91254723072052
197.0,-2.847304105758667,-2.5868613719940186,-1.636750340461731,1.10128915309906,0.016715459525585175,-1.8603246212005615
198.0,-2.8497719764709473,-2.5937702655792236,-1.6045140027999878,1.2288085222244263,-0.12726294994354248,-1.8075908422470093
199.0,-2.852238655090332,-2.6006715297698975,-1.5722745656967163,1.3563321828842163,-0.27124255895614624,-1.7548590898513794
200.0,-2.854681968688965,-2.6074981689453125,-1.540346622467041,1.4826183319091797,-0.41382095217704773,-1.7026429176330566
201.0,-2.857079267501831,-2.6141843795776367,-1.5090447664260864,1.606424331665039,-0.5535959005355835,-1.6514555215835571
202.0,-2.8594064712524414,-2.6206634044647217,-1.4786839485168457,1.7265084981918335,-0.6891646385192871,-1.601810336112976
203.0,-2.8616397380828857,-2.6268694400787354,-1.4495787620544434,1.8416283130645752,-0.8191247582435608,-1.5542206764221191
204.0,-2.863755226135254,-2.632736921310425,-1.4220432043075562,1.9505414962768555,-0.9420729875564575,-1.5092002153396606
205.0,-2.8657288551330566,-2.638200044631958,-1.3963916301727295,2.0520052909851074,-1.0566067695617676,-1.4672632217407227
206.0,-2.867536783218384,-2.6431922912597656,-1.3729379177093506,2.1447765827178955,-1.161322832107544,-1.4289236068725586
207.0,-2.869154214859009,-2.647646427154541,-1.3519965410232544,2.2276110649108887,-1.2548178434371948,-1.3946943283081055
208.0,-2.870556116104126,-2.651496648788452,-1.3338819742202759,2.299264907836914,-1.335689902305603,-1.365087628364563
209.0,-2.871717929840088,-2.654676675796509,-1.318908929824829,2.3584938049316406,-1.4025367498397827,-1.3406169414520264
210.0,-2.8726136684417725,-2.6571218967437744,-1.3073910474777222,2.4040560722351074,-1.4539591073989868,-1.321794033050537
211.0,-2.873218536376953,-2.65876841545105,-1.299635648727417,2.434735059738159,-1.488584280014038,-1.3091211318969727
212.0,-2.873511791229248,-2.6595635414123535,-1.2958910465240479,2.449547290802002,-1.5053021907806396,-1.3030030727386475
213.0,-2.873511791229248,-2.6595635414123535,-1.2958910465240479,2.449547290802002,-1.5053021907806396,-1.3030030727386475
214.0,-2.843397617340088,-2.6418349742889404,-1.324930191040039,2.550757884979248,-1.368161916732788,0.9112749695777893
215.0,-2.7597434520721436,-2.609358787536621,-1.4429004192352295,2.8491318225860596,-0.9792941212654114,0.9662862420082092
216.0,-2.8599424362182617,-2.694899320602417,-1.2138620615005493,2.3750243186950684,-1.5042088031768799,-1.2889277935028076
217.0,-2.856342077255249,-2.683232545852661,-1.2423681020736694,2.3988826274871826,-1.50601327419281,-1.2854673862457275
218.0,-2.8468923568725586,-2.700920820236206,-1.2019611597061157,2.3638272285461426,-1.5101535320281982,-1.275887131690979
219.0,-2.8550655841827393,-2.716278076171875,-1.1656725406646729,2.3310651779174805,-1.522194743156433,-1.2840800285339355
220.0,-2.7613635063171387,-2.688047409057617,-1.2624614238739014,2.530658721923828,-1.0599339008331299,1.2691926956176758
221.0,-2.8359129428863525,-2.730639696121216,-1.1309893131256104,2.31857967376709,-1.4547765254974365,-1.2635806798934937
222.0,-2.7509591579437256,-2.6557281017303467,-1.3452500104904175,2.6734533309936523,-0.9787144660949707,1.1523518562316895
223.0,-2.715106248855591,-2.625086784362793,-1.4590063095092773,2.9782049655914307,-0.741570770740509,0.9734908938407898
224.0,-2.7110555171966553,-2.64742374420166,-1.4029736518859863,2.8671822547912598,-0.7111011147499084,1.07658052444458
225.0,-2.70422625541687,-2.680588722229004,-1.3440427780151367,2.753830671310425,-0.6911129355430603,1.1890414953231812
226.0,-2.6973023414611816,-2.7431421279907227,-1.2331745624542236,2.544245481491089,-0.6746320724487305,1.3938778638839722
227.0,-2.697291612625122,-2.7763400077819824,-1.168602705001831,2.422534227371216,-0.6709962487220764,1.5090445280075073
228.0,-2.697964906692505,-2.818082571029663,-1.0898816585540771,2.2804970741271973,-0.6745515465736389,1.6433098316192627
229.0,-2.7011399269104004,-2.8601551055908203,-1.009644865989685,2.143167495727539,-0.6871725916862488,1.771301507949829
230.0,-2.701824426651001,-2.892758846282959,-0.9540278315544128,2.061304807662964,-0.7041044235229492,1.8494316339492798
231.0,-2.697324275970459,-2.8546829223632812,-1.0309332609176636,2.190253496170044,-0.6916617751121521,1.7319631576538086
232.0,-2.7180094718933105,-2.764350414276123,-1.1597950458526611,2.399503707885742,-0.8396857976913452,1.5017319917678833
233.0,-2.842909097671509,-2.764913320541382,-1.0518966913223267,2.2511119842529297,-1.514007329940796,-1.271687626838684
234.0,-2.837642192840576,-2.7367513179779053,-1.1182007789611816,2.2995195388793945,-1.5156906843185425,-1.2665215730667114
235.0,-2.8373055458068848,-2.7500922679901123,-1.0868030786514282,2.2770745754241943,-1.5186203718185425,-1.266188383102417
236.0,-2.835360527038574,-2.7704598903656006,-1.0391888618469238,2.2439653873443604,-1.522446870803833,-1.2642542123794556
237.0,-2.8361289501190186,-2.7881622314453125,-0.9977005124092102,2.2162563800811768,-1.5258952379226685,-1.2650483846664429
238.0,-2.8139467239379883,-2.7935521602630615,-0.9967065453529358,2.207817792892456,-1.366752028465271,1.6282023191452026
239.0,-2.835843086242676,-2.80570912361145,-0.9568033218383789,2.1898205280303955,-1.528440237045288,-1.2647823095321655
240.0,-2.8281097412109375,-2.8272922039031982,-0.914914608001709,2.146925687789917,-1.434875249862671,-1.2543525695800781
241.0,-2.8281097412109375,-2.8272922039031982,-0.914914608001709,2.146925687789917,-1.434875249862671,-1.2543525695800781
242.0,-2.827378273010254,-2.825901508331299,-0.918918788433075,2.128845453262329,-1.4217625856399536,-1.2539225816726685
243.0,-2.825860023498535,-2.8230221271514893,-0.927210807800293,2.0913984775543213,-1.3946032524108887,-1.2530354261398315
244.0,-2.8236024379730225,-2.8187475204467773,-0.939523458480835,2.0357837677001953,-1.3542674779891968,-1.251721739768982
245.0,-2.8206655979156494,-2.8131942749023438,-0.9555273652076721,1.9634859561920166,-1.3018325567245483,-1.2500178813934326
246.0,-2.8171112537384033,-2.8064818382263184,-0.9748876094818115,1.8760181665420532,-1.2383978366851807,-1.2479606866836548
247.0,-2.813001871109009,-2.798727512359619,-0.9972693920135498,1.7748976945877075,-1.1650636196136475,-1.2455857992172241
248.0,-2.808398723602295,-2.790048837661743,-1.0223373174667358,1.6616406440734863,-1.0829299688339233,-1.2429293394088745
249.0,-2.8033628463745117,-2.780561923980713,-1.049755334854126,1.5377637147903442,-0.9930970072746277,-1.2400285005569458
250.0,-2.7979557514190674,-2.770383596420288,-1.079187273979187,1.4047846794128418,-0.8966640830039978,-1.2369182109832764
251.0,-2.7922396659851074,-2.7596311569213867,-1.1102968454360962,1.2642210721969604,-0.7947303652763367,-1.2336324453353882
252.0,-2.7862765789031982,-2.7484214305877686,-1.142746925354004,1.117588996887207,-0.6883959174156189,-1.23020601272583
253.0,-2.7801296710968018,-2.7368695735931396,-1.176201581954956,0.9664053320884705,-0.5787615180015564,-1.2266730070114136
254.0,-2.773860216140747,-2.7250897884368896,-1.2103257179260254,0.8121873140335083,-0.46692678332328796,-1.223068118095398
255.0,-2.7675294876098633,-2.7131967544555664,-1.244783878326416,0.6564524173736572,-0.3539922833442688,-1.2194246053695679
256.0,-2.7612009048461914,-2.7013025283813477,-1.2792396545410156,0.5007178783416748,-0.24105869233608246,-1.2157771587371826
257.0,-2.7549362182617188,-2.6895205974578857,-1.3133572340011597,0.34649962186813354,-0.1292262226343155,-1.2121617794036865
258.0,-2.7487974166870117,-2.677964925765991,-1.3468016386032104,0.19531401991844177,-0.01959458366036415,-1.208613395690918
259.0,-2.7428464889526367,-2.6667516231536865,-1.3792368173599243,0.048678088933229446,0.08673730492591858,-1.2051680088043213
260.0,-2.73714542388916,-2.655996561050415,-1.4103273153305054,-0.09189102798700333,0.18867023289203644,-1.2018603086471558
261.0,-2.7317540645599365,-2.6458168029785156,-1.439737319946289,-0.2248765230178833,0.2851046323776245,-1.1987265348434448
262.0,-2.726732015609741,-2.6363284587860107,-1.4671322107315063,-0.3487616181373596,0.37494128942489624,-1.1958034038543701
263.0,-2.7221407890319824,-2.62764835357666,-1.4921773672103882,-0.4620288908481598,0.4570801854133606,-1.193126916885376
264.0,-2.7180421352386475,-2.6198909282684326,-1.5145378112792969,-0.5631604790687561,0.5304203629493713,-1.1907331943511963
265.0,-2.71449613571167,-2.6131744384765625,-1.5338788032531738,-0.6506379842758179,0.5938599705696106,-1.1886588335037231
266.0,-2.7115654945373535,-2.6076178550720215,-1.5498650074005127,-0.7229447364807129,0.6462987065315247,-1.1869409084320068
267.0,-2.7093098163604736,-2.603339672088623,-1.5621615648269653,-0.7785672545433044,0.6866375803947449,-1.1856167316436768
268.0,-2.707789897918701,-2.600456953048706,-1.5704408884048462,-0.8160205483436584,0.7137992978096008,-1.1847236156463623
269.0,-2.70705509185791,-2.599064350128174,-1.5744383335113525,-0.8341036438941956,0.7269132733345032,-1.1842916011810303
270.0,-2.70705509185791,-2.599064350128174,-1.5744383335113525,-0.8341036438941956,0.7269132733345032,-1.1842916011810303
271.0,-2.714733123779297,-2.614217519760132,-1.5033117532730103,-0.9783575534820557,0.7613804340362549,-1.0623093843460083
272.0,-2.828333854675293,-2.565784454345703,-1.5524563789367676,-0.6442829370498657,1.4160863161087036,-1.2559980154037476
273.0,-2.8447413444519043,-2.559019088745117,-1.5806254148483276,-0.5791448950767517,1.5362874269485474,1.8678275346755981
274.0,-2.840545654296875,-2.568331241607666,-1.5538676977157593,-0.6004458069801331,1.5318974256515503,1.8720779418945312
275.0,-2.847452163696289,-2.574742317199707,-1.5351248979568481,-0.6136789917945862,1.5361114740371704,1.8651190996170044
276.0,-2.812011241912842,-2.5794451236724854,-1.5129317045211792,-0.7204386591911316,1.3043948411941528,-1.2052416801452637
277.0,-2.784586191177368,-2.605003595352173,-1.4423354864120483,-0.8975223302841187,1.1289567947387695,-1.0651366710662842
278.0,-2.8524532318115234,-2.592156410217285,-1.4858589172363281,-0.6508241295814514,1.536483645439148,1.8601056337356567
279.0,-2.856374502182007,-2.6029021739959717,-1.4555593729019165,-0.6751632690429688,1.5345737934112549,1.856191635131836
280.0,-2.8620052337646484,-2.610842704772949,-1.4333350658416748,-0.6922788023948669,1.5341135263442993,1.8505526781082153
281.0,-2.781679153442383,-2.6295015811920166,-1.372351884841919,-1.0370010137557983,1.0754858255386353,-0.9518337845802307
282.0,-2.8376011848449707,-2.613603353500366,-1.4031527042388916,-0.835852861404419,1.3582816123962402,-0.9810438752174377
283.0,-2.8633556365966797,-2.6189746856689453,-1.4000166654586792,-0.7601799368858337,1.4690039157867432,1.8503321409225464
284.0,-2.8674211502075195,-2.619429588317871,-1.409438967704773,-0.711500883102417,1.5337527990341187,1.8451207876205444
285.0,-2.8763110637664795,-2.631469488143921,-1.3758786916732788,-0.7394199371337891,1.5326392650604248,1.83620285987854
286.0,-2.8833224773406982,-2.6453945636749268,-1.3381168842315674,-0.7706113457679749,1.5326781272888184,1.8291347026824951
287.0,-2.8561031818389893,-2.6520907878875732,-1.2857893705368042,-1.0039843320846558,1.3518840074539185,-0.7489818930625916
288.0,-2.847428321838379,-2.6388068199157715,-1.3251640796661377,-0.9527201056480408,1.3439521789550781,-0.8263638615608215
289.0,-2.770242691040039,-2.711341619491577,-1.1701297760009766,-1.5000920295715332,0.9409872889518738,-0.6400993466377258
290.0,-2.744439125061035,-2.657212018966675,-1.318820834159851,-1.30486261844635,0.8516839146614075,-0.8006974458694458
291.0,-2.7800793647766113,-2.7202436923980713,-1.1299864053726196,-1.5632432699203491,0.9605582356452942,-0.5964024066925049
292.0,-2.763911247253418,-2.6838011741638184,-1.2205315828323364,-1.4572463035583496,0.903832197189331,-0.6838822960853577
293.0,-2.7566304206848145,-2.661923885345459,-1.271181344985962,-1.3971575498580933,0.8703304529190063,-0.7366422414779663
294.0,-2.745701313018799,-2.6454029083251953,-1.3287386894226074,-1.3092403411865234,0.8390098810195923,-0.8051040768623352
295.0,-2.7370681762695312,-2.6260719299316406,-1.387607455253601,-1.2191119194030762,0.8047663569450378,-0.8800181150436401
296.0,-2.732106924057007,-2.637166976928711,-1.3923369646072388,-1.1855759620666504,0.8134134411811829,-0.8958919048309326
297.0,-2.721905469894409,-2.6170990467071533,-1.4637553691864014,-1.0655912160873413,0.7752801179885864,-0.9951165318489075
298.0,-2.710721015930176,-2.5903213024139404,-1.568869948387146,-0.8650014996528625,0.7207385897636414,-1.1655405759811401
299.0,-2.7202582359313965,-2.601261615753174,-1.496835708618164,-1.0205429792404175,0.7523612380027771,-1.0383356809616089
300.0,-2.728304147720337,-2.61254620552063,-1.441084623336792,-1.1275160312652588,0.7773784399032593,-0.9530656933784485
301.0,-2.7055652141571045,-2.578092098236084,-1.6356526613235474,-0.7114912867546082,0.6891676783561707,-1.2977594137191772
302.0,-2.7007949352264404,-2.581763505935669,-1.7592171430587769,-0.32657134532928467,0.6612387299537659,-1.6275842189788818
303.0,-2.702559471130371,-2.574636697769165,-1.6935460567474365,-0.5510300397872925,0.6703571677207947,-1.4347957372665405
304.0,-2.717658519744873,-2.5875980854034424,-1.5328810214996338,-0.9600359797477722,0.7287834286689758,-1.0936046838760376
305.0,-2.7085890769958496,-2.566427230834961,-1.6444289684295654,-0.7070086002349854,0.676093578338623,-1.3097018003463745
306.0,-2.7144217491149902,-2.5726842880249023,-1.5826079845428467,-0.8632392883300781,0.7009228467941284,-1.178635835647583
307.0,-2.7229301929473877,-2.581562042236328,-1.5161337852478027,-1.012524962425232,0.7284635901451111,-1.0578947067260742
308.0,-2.7339680194854736,-2.601966619491577,-1.432649850845337,-1.1682441234588623,0.7704779505729675,-0.931041955947876
309.0,-2.7315378189086914,-2.585294246673584,-1.4675450325012207,-1.1218914985656738,0.7457598447799683,-0.9746819734573364
310.0,-2.744356155395508,-2.613361358642578,-1.3750619888305664,-1.2757591009140015,0.79835444688797,-0.8479834198951721
311.0,-2.762204885482788,-2.646796703338623,-1.2695256471633911,-1.4356517791748047,0.8601775765419006,-0.7198880314826965
312.0,-2.7867636680603027,-2.6990668773651123,-1.1328307390213013,-1.6074498891830444,0.9471362233161926,-0.5809962749481201
313.0,-2.7557435035705566,-2.647116184234619,-1.2918733358383179,-1.3855019807815552,0.852285623550415,-0.7532191872596741
314.0,-2.770096778869629,-2.679955005645752,-1.2059457302093506,-1.4965629577636719,0.9064357876777649,-0.6612504124641418
315.0,-2.782582998275757,-2.707958698272705,-1.13588285446167,-1.5799448490142822,0.9511628746986389,-0.5928827524185181
316.0,-2.7956156730651855,-2.736585855484009,-1.0678900480270386,-1.653335452079773,0.9952976107597351,-0.532740592956543
317.0,-2.8233025074005127,-2.786388874053955,-0.9404820203781128,-1.7940261363983154,1.0762473344802856,-0.4255026578903198
318.0,-2.8072564601898193,-2.749178647994995,-1.0211098194122314,-1.7203915119171143,1.022111415863037,-0.4866030514240265
319.0,-2.8301572799682617,-2.7869699001312256,-0.9219251871109009,-1.8304612636566162,1.0872505903244019,-0.4042319357395172
320.0,-2.8137447834014893,-2.7481861114501953,-1.0056365728378296,-1.7539067268371582,1.0294573307037354,-0.46774983406066895
321.0,-2.844926118850708,-2.805772066116333,-0.8671975135803223,-1.8936821222305298,1.1246169805526733,-0.3595031201839447
322.0,-2.8659660816192627,-2.8408732414245605,-0.7812097668647766,-1.9787578582763672,1.1855279207229614,-0.29636815190315247
323.0,-2.897792339324951,-2.9025869369506836,-0.647588849067688,-2.0865514278411865,1.2839381694793701,-0.21035660803318024
324.0,-2.944084882736206,-2.9767906665802,-0.47867506742477417,-2.2253592014312744,1.4213438034057617,-0.10202702134847641
325.0,-2.962453603744507,-3.0198140144348145,-0.398128867149353,-2.269118070602417,1.4799766540527344,-0.06145552918314934
326.0,-2.9448816776275635,-2.995016098022461,-0.4535473585128784,-2.2272891998291016,1.4291809797286987,-0.09777504205703735
327.0,-2.925859212875366,-2.9628825187683105,-0.5247415900230408,-2.1725680828094482,1.3731409311294556,-0.14015516638755798
328.0,-2.876251459121704,-2.8745832443237305,-0.7221419811248779,-2.0114173889160156,1.2257864475250244,-0.264394074678421
329.0,-2.8514721393585205,-2.8302559852600098,-0.8251663446426392,-1.9178053140640259,1.1536617279052734,-0.3350718915462494
330.0,-2.8882410526275635,-2.907665967941284,-0.658107340335846,-2.0548627376556396,1.2685081958770752,-0.22822241485118866
331.0,-2.8714194297790527,-2.884486675262451,-0.7205229997634888,-1.9905885457992554,1.2246034145355225,-0.27178284525871277
332.0,-2.855159282684326,-2.8510117530822754,-0.7934006452560425,-1.9300694465637207,1.1746081113815308,-0.31949329376220703
333.0,-2.839327335357666,-2.8242194652557373,-0.8596924543380737,-1.8644483089447021,1.130934476852417,-0.36732158064842224
334.0,-2.81149959564209,-2.77404522895813,-0.9835265874862671,-1.7372318506240845,1.0505119562149048,-0.46372926235198975
335.0,-2.795069932937622,-2.753077745437622,-1.0512679815292358,-1.6487587690353394,1.0111597776412964,-0.5260132551193237
336.0,-2.830937147140503,-2.820950746536255,-0.8826741576194763,-1.8270729780197144,1.1159121990203857,-0.3902530074119568
337.0,-2.8685989379882812,-2.668652296066284,-1.2381432056427002,-1.0624210834503174,1.3667702674865723,-0.6571112871170044
338.0,-2.8685989379882812,-2.668652296066284,-1.2381432056427002,-1.0624210834503174,1.3667702674865723,-0.6571112871170044
339.0,-2.861567497253418,-2.6632401943206787,-1.231796383857727,-1.0656473636627197,1.3593426942825317,-0.6516714096069336
340.0,-2.8473658561706543,-2.6523091793060303,-1.218977451324463,-1.072163701057434,1.3443405628204346,-0.6406841278076172
341.0,-2.8222858905792236,-2.6330041885375977,-1.1963386535644531,-1.0836730003356934,1.3178454637527466,-0.6212802529335022
342.0,-2.7881815433502197,-2.606752395629883,-1.1655545234680176,-1.0993249416351318,1.2818167209625244,-0.594894289970398
343.0,-2.7473349571228027,-2.5753111839294434,-1.1286855936050415,-1.1180721521377563,1.23866605758667,-0.5632923245429993
344.0,-2.6989223957061768,-2.5380454063415527,-1.0849883556365967,-1.1402934789657593,1.187523365020752,-0.525836706161499
345.0,-2.6413371562957764,-2.4937191009521484,-1.0330132246017456,-1.1667276620864868,1.126691222190857,-0.4812837243080139
346.0,-2.5783467292785645,-2.4452316761016846,-0.9761601090431213,-1.1956453323364258,1.060149073600769,-0.43254798650741577
347.0,-2.510114908218384,-2.392709493637085,-0.9145769476890564,-1.22697114944458,0.9880697131156921,-0.3797561526298523
348.0,-2.4342830181121826,-2.3343372344970703,-0.8461351990699768,-1.261789083480835,0.9079608917236328,-0.3210833966732025
349.0,-2.353865146636963,-2.272434711456299,-0.7735546231269836,-1.2987143993377686,0.8230071663856506,-0.2588624656200409
350.0,-2.269549608230591,-2.207531213760376,-0.6974561214447021,-1.337430715560913,0.7339353561401367,-0.19362595677375793
351.0,-2.1805176734924316,-2.1389966011047363,-0.6171003580093384,-1.3783143758773804,0.6398798227310181,-0.12474087625741959
352.0,-2.0873918533325195,-2.067310094833374,-0.5330493450164795,-1.4210784435272217,0.5414986610412598,-0.05268911272287369
353.0,-1.9917118549346924,-1.9936575889587402,-0.4466923475265503,-1.4650152921676636,0.4404180347919464,0.02133892849087715
354.0,-1.8935434818267822,-1.9180899858474731,-0.3580888509750366,-1.5100942850112915,0.33670756220817566,0.0972924456000328
355.0,-1.7924288511276245,-1.8402552604675293,-0.26682573556900024,-1.5565251111984253,0.22988316416740417,0.17552703619003296
356.0,-1.6901041269302368,-1.7614885568618774,-0.1744701862335205,-1.6035106182098389,0.12177948653697968,0.2546995282173157
357.0,-1.5867328643798828,-1.681915521621704,-0.08116979151964188,-1.6509757041931152,0.012569354847073555,0.3346834182739258
358.0,-1.482479453086853,-1.6016615629196167,0.012926379218697548,-1.6988435983657837,-0.09757290035486221,0.4153514802455902
359.0,-1.3782272338867188,-1.5214078426361084,0.10702044516801834,-1.7467085123062134,-0.20771357417106628,0.496019184589386
360.0,-1.27427077293396,-1.4413807392120361,0.20084668695926666,-1.7944356203079224,-0.3175417184829712,0.5764581561088562
361.0,-1.1710363626480103,-1.361907958984375,0.29402002692222595,-1.8418288230895996,-0.4266071021556854,0.6563383340835571
362.0,-1.0695744752883911,-1.2837975025177002,0.38559308648109436,-1.88840651512146,-0.5338014960289001,0.7348476648330688
363.0,-0.9697533845901489,-1.2069480419158936,0.47568583488464355,-1.9342304468154907,-0.6392642855644226,0.812088668346405
364.0,-0.8717371225357056,-1.131485939025879,0.5641502737998962,-1.9792256355285645,-0.7428222298622131,0.8879343867301941
365.0,-0.7776562571525574,-1.0590503215789795,0.649063766002655,-2.0224146842956543,-0.8422245979309082,0.9607368111610413
366.0,-0.686690092086792,-0.9890105724334717,0.7311668992042542,-2.0641753673553467,-0.9383373856544495,1.0311298370361328
367.0,-0.5988704562187195,-0.9213917255401611,0.8104307651519775,-2.104492664337158,-1.031126856803894,1.0990889072418213
368.0,-0.5159664750099182,-0.8575559854507446,0.885258674621582,-2.1425557136535645,-1.1187238693237305,1.1632450819015503
369.0,-0.43856674432754517,-0.7979565262794495,0.9551195502281189,-2.1780929565429688,-1.200506329536438,1.2231429815292358
370.0,-0.3656551241874695,-0.7418117523193359,1.020930290222168,-2.2115707397460938,-1.2775473594665527,1.2795685529708862
371.0,-0.29798424243927,-0.6897012591362,1.0820119380950928,-2.242643356323242,-1.3490514755249023,1.3319393396377563
372.0,-0.23886141180992126,-0.6441720128059387,1.1353797912597656,-2.2697927951812744,-1.411523699760437,1.3776956796646118
373.0,-0.18556776642799377,-0.603131115436554,1.183487057685852,-2.294266939163208,-1.4678362607955933,1.4189412593841553
374.0,-0.13826683163642883,-0.5667045712471008,1.2261857986450195,-2.315990686416626,-1.5178165435791016,1.4555493593215942
375.0,-0.10104969888925552,-0.5380424857139587,1.2597832679748535,-2.3330867290496826,-1.557141661643982,1.4843541383743286
376.0,-0.07206800580024719,-0.5157220959663391,1.2859469652175903,-2.3464016914367676,-1.5877647399902344,1.50678551197052
377.0,-0.050352878868579865,-0.4989975094795227,1.3055514097213745,-2.356379747390747,-1.6107094287872314,1.5235930681228638
378.0,-0.038254402577877045,-0.48967882990837097,1.3164743185043335,-2.361940383911133,-1.62349271774292,1.5329574346542358
379.0,-0.03630303591489792,-0.48817580938339233,1.3182361125946045,-2.362837314605713,-1.6255545616149902,1.5344678163528442
380.0,-0.03630303591489792,-0.48817580938339233,1.3182361125946045,-2.362837314605713,-1.6255545616149902,1.5344678163528442
381.0,-0.019727511331439018,-0.44173064827919006,1.1685816049575806,-2.057344675064087,-1.8150763511657715,-0.778867781162262
382.0,-0.02126968838274479,-0.463590532541275,1.2339375019073486,-2.1835451126098633,-1.770341157913208,-0.8950178623199463
383.0,-0.04181903228163719,-0.4751327931880951,1.283300518989563,-2.3330864906311035,-1.6249359846115112,1.5289644002914429
384.0,-0.048633843660354614,-0.46730372309684753,1.2604904174804688,-2.3077807426452637,-1.6285531520843506,1.5221658945083618
385.0,-0.05417395383119583,-0.4635324478149414,1.2451419830322266,-2.276028633117676,-1.6479610204696655,1.5166363716125488
386.0,-0.056682273745536804,-0.45445600152015686,1.2274487018585205,-2.2820334434509277,-1.6222349405288696,1.5141572952270508
387.0,-0.06385095417499542,-0.44788894057273865,1.2086520195007324,-2.2608249187469482,-1.6227644681930542,1.5070337057113647
388.0,-0.07187825441360474,-0.44418391585350037,1.1949230432510376,-2.2352466583251953,-1.627038836479187,1.4990965127944946
389.0,-0.045564569532871246,-0.42676857113838196,1.1258440017700195,-2.0272746086120605,-1.7557272911071777,-0.6390255689620972
390.0,0.01383510697633028,-0.26690441370010376,0.7649869322776794,-1.3114732503890991,-2.071413278579712,-0.4697243571281433
391.0,0.0012101678876206279,-0.22338128089904785,0.6584118604660034,-1.1631191968917847,-2.047438383102417,-0.38824930787086487
392.0,-0.013257784768939018,-0.1869071125984192,0.5810097455978394,-1.0965179204940796,-1.997199296951294,-0.336746484041214
393.0,-0.03414630517363548,-0.20748764276504517,0.6156188249588013,-1.1776198148727417,-1.9232535362243652,-0.322703093290329
394.0,-0.07135515660047531,-0.35639482736587524,0.9363759756088257,-1.7053477764129639,-1.7588388919830322,-0.37319767475128174
395.0,-0.08780966699123383,-0.4309699833393097,1.1611462831497192,-2.207335948944092,-1.6150161027908325,1.4833159446716309
396.0,-0.09945410490036011,-0.4249650835990906,1.143936038017273,-2.1857123374938965,-1.6091008186340332,1.4718436002731323
397.0,-0.10452265292406082,-0.42310279607772827,1.1242412328720093,-2.1074419021606445,-1.6333709955215454,-0.3602833151817322
398.0,-0.10452265292406082,-0.42310279607772827,1.1242412328720093,-2.1074419021606445,-1.6333709955215454,-0.3602833151817322
399.0,-0.1042250543832779,-0.4212246537208557,1.1198817491531372,-2.1002931594848633,-1.6348330974578857,-0.35941341519355774
400.0,-0.10360836982727051,-0.4173350930213928,1.110852837562561,-2.085487127304077,-1.6378612518310547,-0.3576119840145111
401.0,-0.10269211232662201,-0.4115593433380127,1.0974444150924683,-2.0634992122650146,-1.6423583030700684,-0.3549370765686035
402.0,-0.10150055587291718,-0.4040525257587433,1.0800154209136963,-2.0349173545837402,-1.6482046842575073,-0.3514603078365326
403.0,-0.10005860775709152,-0.39497220516204834,1.0589317083358765,-2.0003397464752197,-1.6552778482437134,-0.3472546339035034
404.0,-0.09839125722646713,-0.38447633385658264,1.0345590114593506,-1.9603667259216309,-1.6634544134140015,-0.3423929810523987
405.0,-0.09652382135391235,-0.3727225065231323,1.0072633028030396,-1.9155970811843872,-1.6726099252700806,-0.3369482159614563
406.0,-0.09448157995939255,-0.3598681390285492,0.9774108529090881,-1.8666300773620605,-1.6826204061508179,-0.3309932351112366
407.0,-0.09228984266519547,-0.3460703194141388,0.9453673362731934,-1.8140650987625122,-1.6933618783950806,-0.32460105419158936
408.0,-0.08997368067502975,-0.33148646354675293,0.911498486995697,-1.7585023641586304,-1.704710841178894,-0.31784486770629883
409.0,-0.08755823969841003,-0.31627413630485535,0.8761708736419678,-1.700541615486145,-1.7165451049804688,-0.3107980787754059
410.0,-0.08506863564252853,-0.3005913197994232,0.8397502899169922,-1.6407833099365234,-1.7287424802780151,-0.3035339415073395
411.0,-0.08252986520528793,-0.2845956087112427,0.8026026487350464,-1.5798280239105225,-1.7411803007125854,-0.2961258888244629
412.0,-0.07996678352355957,-0.2684447765350342,0.7650935053825378,-1.5182757377624512,-1.7537355422973633,-0.2886475622653961
413.0,-0.07740439474582672,-0.2522967457771301,0.7275880575180054,-1.456727147102356,-1.7662853002548218,-0.2811720669269562
414.0,-0.07486764341592789,-0.2363089621067047,0.6904516220092773,-1.3957818746566772,-1.7787082195281982,-0.27377185225486755
415.0,-0.07238159328699112,-0.2206384390592575,0.6540490388870239,-1.336039423942566,-1.7908825874328613,-0.2665194869041443
416.0,-0.06997130066156387,-0.20544184744358063,0.6187453866004944,-1.2780990600585938,-1.8026856184005737,-0.2594875693321228
417.0,-0.06766169518232346,-0.19087594747543335,0.5849056243896484,-1.2225592136383057,-1.8139952421188354,-0.2527482509613037
418.0,-0.0654776319861412,-0.17709775269031525,0.5528945922851562,-1.1700173616409302,-1.8246897459030151,-0.24637334048748016
419.0,-0.06344372034072876,-0.16426405310630798,0.5230764746665955,-1.1210719347000122,-1.8346482515335083,-0.24043527245521545
420.0,-0.06158456206321716,-0.15253175795078278,0.49581602215766907,-1.0763229131698608,-1.8437492847442627,-0.23500651121139526
421.0,-0.05992453917860985,-0.14205777645111084,0.47147879004478455,-1.0363692045211792,-1.8518719673156738,-0.23015958070755005
422.0,-0.05848808214068413,-0.13299906253814697,0.4504299461841583,-1.0018103122711182,-1.8588944673538208,-0.2259671837091446
423.0,-0.05730006843805313,-0.12551254034042358,0.4330342411994934,-0.9732449650764465,-1.86469566822052,-0.2225021868944168
424.0,-0.05638546869158745,-0.11975453794002533,0.4196552038192749,-0.9512718319892883,-1.869155764579773,-0.21983711421489716
425.0,-0.05576906353235245,-0.11587833613157272,0.4106484651565552,-0.9364774823188782,-1.8721574544906616,-0.2180430144071579
426.0,-0.05547121539711952,-0.11400741338729858,0.40630075335502625,-0.9293351173400879,-1.8736059665679932,-0.21717698872089386
427.0,-0.05547121539711952,-0.11400741338729858,0.40630075335502625,-0.9293351173400879,-1.8736059665679932,-0.21717698872089386
428.0,-0.028391903266310692,-0.17262689769268036,0.5332159399986267,-1.0345242023468018,-1.960106611251831,-0.2943342328071594
429.0,-0.07125895470380783,-0.08951413631439209,0.34976035356521606,-0.8796362280845642,-1.8275400400161743,-0.17911067605018616
430.0,-0.08894161134958267,-0.0692078247666359,0.2986185550689697,-0.8293969631195068,-1.77645742893219,-0.1388079971075058
431.0,-0.14091861248016357,-0.013338243588805199,0.18727654218673706,-0.7511661648750305,-1.6117647886276245,-0.026665441691875458
432.0,-0.11533315479755402,0.0068017723970115185,0.14937278628349304,-0.7398715615272522,-1.6888660192489624,-0.07764343917369843
433.0,-0.09854293614625931,-0.02993234433233738,0.22652938961982727,-0.7928144335746765,-1.7406007051467896,-0.11417721956968307
434.0,-0.09854293614625931,-0.02993234433233738,0.22652938961982727,-0.7928144335746765,-1.7406007051467896,-0.11417721956968307
435.0,-0.09865749627351761,-0.03241648152470589,0.23202647268772125,-0.8010725378990173,-1.7397549152374268,-0.10468030720949173
436.0,-0.09889841824769974,-0.03755545988678932,0.24341653287410736,-0.8181784749031067,-1.7380037307739258,-0.08500996977090836
437.0,-0.0992618128657341,-0.04517758637666702,0.2603442072868347,-0.8435845971107483,-1.735403060913086,-0.05579766258597374
438.0,-0.09974012523889542,-0.05507167428731918,0.2823672890663147,-0.8766118288040161,-1.732023000717163,-0.017824964597821236
439.0,-0.1003250926733017,-0.0670223981142044,0.3090290129184723,-0.9165661334991455,-1.7279348373413086,0.02811160869896412
440.0,-0.10100702196359634,-0.08081433176994324,0.33986490964889526,-0.9627569317817688,-1.7232106924057007,0.08121568709611893
441.0,-0.10177639126777649,-0.09623417258262634,0.3744083344936371,-1.014492392539978,-1.717923641204834,0.14069174230098724
442.0,-0.10262227803468704,-0.11307243257761002,0.41220083832740784,-1.0710806846618652,-1.7121490240097046,0.2057441771030426
443.0,-0.10353375226259232,-0.13112182915210724,0.4527842402458191,-1.1318293809890747,-1.7059577703475952,0.2755763828754425
444.0,-0.10449978709220886,-0.1501787155866623,0.49569955468177795,-1.1960477828979492,-1.6994221210479736,0.34939339756965637
445.0,-0.10551068186759949,-0.17004086077213287,0.5404826998710632,-1.2630431652069092,-1.6926156282424927,0.42640066146850586
446.0,-0.10655686259269714,-0.19050313532352448,0.5866739153862,-1.332122564315796,-1.6856039762496948,0.5058023929595947
447.0,-0.10762954503297806,-0.21135656535625458,0.6338149309158325,-1.4025931358337402,-1.6784611940383911,0.5868000984191895
448.0,-0.1087183877825737,-0.23238839209079742,0.6814417839050293,-1.4737627506256104,-1.6712530851364136,0.6685945987701416
449.0,-0.10981417447328568,-0.25338494777679443,0.729089081287384,-1.5449353456497192,-1.6640572547912598,0.7503899335861206
450.0,-0.11090638488531113,-0.274130642414093,0.7762904763221741,-1.6154158115386963,-1.6569433212280273,0.8313892483711243
451.0,-0.11198625713586807,-0.294412761926651,0.8225856423377991,-1.6845084428787231,-1.6499806642532349,0.9107950329780579
452.0,-0.11304394900798798,-0.3140220046043396,0.8675185441970825,-1.7515205144882202,-1.6432379484176636,0.9878104329109192
453.0,-0.11407109349966049,-0.3327521085739136,0.9106307625770569,-1.8157531023025513,-1.6367835998535156,1.0616322755813599
454.0,-0.11505859345197678,-0.35039305686950684,0.9514612555503845,-1.8765097856521606,-1.6306897401809692,1.1314700841903687
455.0,-0.11599920690059662,-0.36672836542129517,0.9895525574684143,-1.9330998659133911,-1.6250226497650146,1.1965231895446777
456.0,-0.11688443273305893,-0.38154271245002747,1.0244444608688354,-1.9848287105560303,-1.6198478937149048,1.2559970617294312
457.0,-0.11770649254322052,-0.3946186900138855,1.0556751489639282,-2.0310018062591553,-1.6152317523956299,1.3090955018997192
458.0,-0.11845710128545761,-0.405741423368454,1.0827776193618774,-2.0709192752838135,-1.6112393140792847,1.3550224304199219
459.0,-0.11912853270769119,-0.4146995544433594,1.105289340019226,-2.1038875579833984,-1.6079432964324951,1.3929816484451294
460.0,-0.11971136182546616,-0.4212857484817505,1.122747778892517,-2.1292152404785156,-1.6054115295410156,1.422179102897644
461.0,-0.12018661201000214,-0.4253423511981964,1.1346853971481323,-2.1462314128875732,-1.6037108898162842,1.4418373107910156
462.0,-0.12047214806079865,-0.42705538868904114,1.140565276145935,-2.154423475265503,-1.6028907299041748,1.4513278007507324
463.0,-0.12047214806079865,-0.42705538868904114,1.140565276145935,-2.154423475265503,-1.6028907299041748,1.4513278007507324
464.0,-0.11318926513195038,-0.4194687306880951,1.1282449960708618,-2.1655001640319824,-1.600752830505371,1.458329677581787
465.0,-0.1271272748708725,-0.41747087240219116,1.1197153329849243,-2.1440956592559814,-1.5940284729003906,1.4447271823883057
466.0,-0.13659235835075378,-0.4161762595176697,1.1175919771194458,-2.146336078643799,-1.5846052169799805,1.4352905750274658
467.0,-0.140628382563591,-0.41051408648490906,1.0810630321502686,-2.0133204460144043,-1.5827882289886475,-0.051628366112709045
468.0,-0.1526367962360382,-0.3767181932926178,0.9821106195449829,-1.7982323169708252,-1.5730801820755005,-0.005752179771661758
469.0,-0.15255647897720337,-0.41858047246932983,1.1184186935424805,-2.12602162361145,-1.572424292564392,-0.011178414337337017
470.0,-0.16529454290866852,-0.42214685678482056,1.1260956525802612,-2.1265735626220703,-1.5601202249526978,0.07140124589204788
471.0,-0.1762508600950241,-0.4254136383533478,1.1341791152954102,-2.131953477859497,-1.5508626699447632,0.13325904309749603
472.0,-0.18616360425949097,-0.4300902485847473,1.1449319124221802,-2.1357202529907227,-1.5405861139297485,0.19736610352993011
473.0,-0.18166492879390717,-0.30699455738067627,0.8132639527320862,-1.4762496948242188,-1.5057954788208008,0.09449628740549088
474.0,-0.19327393174171448,-0.38127848505973816,0.991302490234375,-1.7691776752471924,-1.4938663244247437,0.17424938082695007
475.0,-0.20556685328483582,-0.407669335603714,1.0610225200653076,-1.8902256488800049,-1.480324149131775,0.2547753155231476
476.0,-0.19540154933929443,-0.43292638659477234,1.1589137315750122,-2.1730198860168457,-1.5384992361068726,1.3766039609909058
477.0,-0.20995502173900604,-0.44171398878097534,1.1814988851547241,-2.1906497478485107,-1.527462363243103,1.3618913888931274
478.0,-0.22064918279647827,-0.44969695806503296,1.1991186141967773,-2.1930103302001953,-1.5138721466064453,1.351184606552124
479.0,-0.2374853640794754,-0.3516945242881775,0.9218291640281677,-1.5724289417266846,-1.3737034797668457,0.2974230945110321
480.0,-0.24171140789985657,-0.1578548103570938,0.5087949633598328,-0.9446494579315186,-1.316440463066101,0.16822503507137299
481.0,-0.16798678040504456,-0.03534328192472458,0.2384403944015503,-0.7795376777648926,-1.531831979751587,0.02531861513853073
482.0,-0.1936626434326172,-0.08840486407279968,0.34593790769577026,-0.8349210619926453,-1.4554495811462402,0.07483513653278351
483.0,-0.21577686071395874,-0.1227555200457573,0.4223487675189972,-0.8818721175193787,-1.3915150165557861,0.11687780171632767
484.0,-0.17551010847091675,-0.07448439300060272,0.3081720471382141,-0.8076688051223755,-1.5087196826934814,0.04009147733449936
485.0,-0.20722343027591705,-0.13361194729804993,0.42843639850616455,-0.87256920337677,-1.4134109020233154,0.10183092206716537
486.0,-0.2331303060054779,-0.1642063707113266,0.5051294565200806,-0.9287657141685486,-1.3372701406478882,0.15301400423049927
487.0,-0.2571737766265869,-0.20792348682880402,0.6001032590866089,-0.9911966323852539,-1.2641490697860718,0.2032356709241867
488.0,-0.27481821179389954,-0.23922108113765717,0.6702293753623962,-1.0409268140792847,-1.2114019393920898,0.24099567532539368
489.0,-0.2942984998226166,-0.26685819029808044,0.7416720986366272,-1.1021896600723267,-1.152959942817688,0.28615960478782654
490.0,-0.2768571078777313,-0.22401884198188782,0.6545639634132385,-1.0436590909957886,-1.2109342813491821,0.24286609888076782
491.0,-0.30756571888923645,-0.2699050307273865,0.7713140249252319,-1.1419389247894287,-1.1209917068481445,0.3133978843688965
492.0,-0.2676226496696472,-0.19562891125679016,0.601980447769165,-1.0151516199111938,-1.241782546043396,0.22155329585075378
493.0,-0.2666475772857666,-0.4174014925956726,1.0847984552383423,-1.802731990814209,-1.3282372951507568,0.47656890749931335
494.0,-0.23648616671562195,-0.4513159692287445,1.183333396911621,-2.0812714099884033,-1.4564059972763062,0.4690364897251129
495.0,-0.23285430669784546,-0.4584449231624603,1.2237001657485962,-2.2193057537078857,-1.5081218481063843,1.3386437892913818
496.0,-0.24724328517913818,-0.4746880531311035,1.2600663900375366,-2.2269418239593506,-1.4839082956314087,0.5887510776519775
497.0,-0.25799480080604553,-0.48242777585983276,1.2856899499893188,-2.264212131500244,-1.483192801475525,1.3127174377441406
498.0,-0.311454176902771,-0.367298424243927,0.9835501909255981,-1.5035628080368042,-1.1473348140716553,0.4672729969024658
499.0,-0.29885387420654297,-0.4743337631225586,1.2391456365585327,-2.014768600463867,-1.2883310317993164,0.6979080438613892
500.0,-0.28705888986587524,-0.5082452297210693,1.3435570001602173,-2.256831169128418,-1.4043166637420654,0.8338124752044678
501.0,-0.2699294686317444,-0.4953693449497223,1.3190534114837646,-2.2863411903381348,-1.4691790342330933,0.7515060305595398
502.0,-0.27620235085487366,-0.5027512907981873,1.342586636543274,-2.318234443664551,-1.4736384153366089,1.29380464553833
503.0,-0.2856919467449188,-0.5147451162338257,1.3762624263763428,-2.34867787361145,-1.4668465852737427,1.283892273902893
504.0,-0.2936133146286011,-0.5259038805961609,1.4077991247177124,-2.3766660690307617,-1.461145043373108,1.2756106853485107
505.0,-0.2996928095817566,-0.5351987481117249,1.4325062036514282,-2.3922388553619385,-1.4456403255462646,1.023845911026001
506.0,-0.3237500488758087,-0.5156170129776001,1.362050175666809,-2.1846890449523926,-1.2565181255340576,0.9170706868171692
507.0,-0.3543790876865387,-0.5130038261413574,1.3660887479782104,-2.1084375381469727,-1.1157790422439575,0.9320713877677917
508.0,-0.36884939670562744,-0.3729858100414276,1.0377862453460693,-1.3974472284317017,-0.9308239817619324,0.49302029609680176
509.0,-0.3880193531513214,-0.4142951965332031,1.14125657081604,-1.5094996690750122,-0.8621464967727661,0.574332058429718
510.0,-0.40746527910232544,-0.4571349620819092,1.2560904026031494,-1.6529788970947266,-0.7875570058822632,0.6806462407112122
511.0,-0.42820653319358826,-0.4924595355987549,1.37956702709198,-1.8450748920440674,-0.7120386958122253,0.8222904205322266
512.0,-0.41932594776153564,-0.48533809185028076,1.3362514972686768,-1.767504096031189,-0.7374139428138733,0.7677153944969177
513.0,-0.39677324891090393,-0.45183292031288147,1.215777039527893,-1.5859897136688232,-0.8141323328018188,0.6362653970718384
514.0,-0.3844958245754242,-0.426220566034317,1.1461831331253052,-1.498705267906189,-0.8611947894096375,0.5713793635368347
515.0,-0.37136924266815186,-0.4038528800010681,1.0829012393951416,-1.4246617555618286,-0.9043850302696228,0.5187021493911743
516.0,-0.3544865548610687,-0.3716318905353546,1.0004770755767822,-1.337202787399292,-0.9630350470542908,0.4549615681171417
517.0,-0.35235199332237244,-0.3526689112186432,0.9725544452667236,-1.3227429389953613,-0.978945255279541,0.44152340292930603
518.0,-0.3379625976085663,-0.32999464869499207,0.9100310802459717,-1.2578120231628418,-1.0238183736801147,0.3965066969394684
519.0,-0.3234035074710846,-0.3010718822479248,0.8435496687889099,-1.201905369758606,-1.0705640316009521,0.3559648394584656
520.0,-0.3115043640136719,-0.2908119261264801,0.8047266602516174,-1.1576740741729736,-1.103066325187683,0.3262389004230499
521.0,-0.33913764357566833,-0.3489108979701996,0.9355610609054565,-1.2673777341842651,-1.0109628438949585,0.406161367893219
522.0,-0.3238980770111084,-0.3220488131046295,0.8698940873146057,-1.207966685295105,-1.0591226816177368,0.3632389008998871
523.0,-0.3157293200492859,-0.3222639560699463,0.852073609828949,-1.1790424585342407,-1.0783600807189941,0.34452202916145325
524.0,-0.285137802362442,-0.2721996307373047,0.7300626039505005,-1.0747945308685303,-1.1741982698440552,0.26742252707481384
525.0,-0.26598450541496277,-0.24085766077041626,0.6572136878967285,-1.0192437171936035,-1.2324060201644897,0.22466452419757843
526.0,-0.2404329776763916,-0.20170924067497253,0.565706729888916,-0.9515119194984436,-1.3107030391693115,0.16962023079395294
527.0,-0.22008371353149414,-0.16518494486808777,0.4875465929508209,-0.9012570381164551,-1.3741458654403687,0.1270146518945694
528.0,-0.19989055395126343,-0.14306898415088654,0.43381375074386597,-0.8643664717674255,-1.4323234558105469,0.08894500136375427
529.0,-0.17813853919506073,-0.126457080245018,0.38920125365257263,-0.8309834003448486,-1.4984748363494873,0.04610341042280197
530.0,-0.15451641380786896,-0.08955075591802597,0.31757357716560364,-0.796183168888092,-1.5712686777114868,-0.000301573978504166
531.0,-0.17721247673034668,-0.10171061009168625,0.3516768217086792,-0.8211343884468079,-1.502487063407898,0.04383453354239464
532.0,-0.14339375495910645,-0.06348440051078796,0.2733251452445984,-0.7823895812034607,-1.604323387145996,-0.021603135392069817
533.0,-0.11429458111524582,-0.05389264598488808,0.25730472803115845,-0.7848542928695679,-1.6994471549987793,-0.08412136882543564
534.0,-0.0821416899561882,-0.09823998063802719,0.3491442799568176,-0.8524991869926453,-1.8034619092941284,-0.15698093175888062
535.0,-0.10850327461957932,-0.08823572844266891,0.3163592219352722,-0.8109449744224548,-1.7237471342086792,-0.1000981330871582
536.0,-0.0855264887213707,-0.11583421379327774,0.3732525408267975,-0.8531871438026428,-1.8003246784210205,-0.15303835272789001
537.0,-0.06746768206357956,-0.14539678394794464,0.437112420797348,-0.9065921902656555,-1.8592027425765991,-0.19822382926940918
538.0,-0.09697339683771133,-0.12414032965898514,0.3779991865158081,-0.8401238322257996,-1.7690227031707764,-0.13005518913269043
539.0,-0.12268184125423431,-0.10743623971939087,0.342431902885437,-0.8105897903442383,-1.6757864952087402,-0.06789739429950714
540.0,-0.15967227518558502,-0.11572153866291046,0.3608521819114685,-0.8114001154899597,-1.554936408996582,0.010081673972308636
541.0,-0.17223338782787323,-0.14285507798194885,0.40877261757850647,-0.8310807943344116,-1.5151751041412354,0.03524032607674599
542.0,-0.20302195847034454,-0.1676950752735138,0.47151628136634827,-0.8754075169563293,-1.421186923980713,0.0955793634057045
543.0,-0.2277575433254242,-0.1948992758989334,0.5385628342628479,-0.9240691661834717,-1.3470993041992188,0.14445537328720093
544.0,-0.26864299178123474,-0.2681911289691925,0.6951965689659119,-1.0290067195892334,-1.2174748182296753,0.23340727388858795
545.0,-0.24478095769882202,-0.2328895479440689,0.6115440726280212,-0.9644511342048645,-1.292731523513794,0.18014900386333466
546.0,-0.22120828926563263,-0.20324218273162842,0.5400577783584595,-0.9114965200424194,-1.36542809009552,0.13130222260951996
547.0,-0.24668726325035095,-0.2529812157154083,0.638874351978302,-0.9699134826660156,-1.283314824104309,0.18525005877017975
548.0,-0.2224782258272171,-0.22733134031295776,0.572646975517273,-0.9175050854682922,-1.3580777645111084,0.1351442039012909
549.0,-0.20067957043647766,-0.1876743882894516,0.4957908093929291,-0.8757606148719788,-1.4273167848587036,0.09092476218938828
550.0,-0.1586102545261383,-0.14532844722270966,0.4034267067909241,-0.8203667402267456,-1.5585511922836304,0.007715508341789246
551.0,-0.12867754697799683,-0.1465345323085785,0.4010445475578308,-0.825736403465271,-1.6599615812301636,-0.05716822296380997
552.0,-0.10097330063581467,-0.15519331395626068,0.42170536518096924,-0.8492326736450195,-1.7591993808746338,-0.12281513959169388
553.0,-0.07940229028463364,-0.15210291743278503,0.4304746687412262,-0.8728836178779602,-1.8296462297439575,-0.17136573791503906
554.0,-0.05338209867477417,-0.1833679974079132,0.5075051188468933,-0.951295018196106,-1.9108667373657227,-0.2371988147497177
555.0,-0.021392488852143288,-0.23544900119304657,0.6282963156700134,-1.0673528909683228,-2.012645721435547,-0.32946255803108215
556.0,-0.04188090190291405,-0.2156549096107483,0.567704439163208,-0.9917658567428589,-1.9544684886932373,-0.27165308594703674
557.0,-0.021301614120602608,-0.2555674612522125,0.6539795398712158,-1.069032907485962,-2.0259010791778564,-0.3355026841163635
558.0,-0.057805631309747696,-0.20617789030075073,0.531276524066925,-0.9399023056030273,-1.9094328880310059,-0.23039981722831726
559.0,-0.07814530283212662,-0.1767423003911972,0.4656454026699066,-0.8796449303627014,-1.8425487279891968,-0.1781032234430313
560.0,-0.04220458120107651,-0.39330431818962097,0.9153090715408325,-1.4645838737487793,-1.9603755474090576,-0.48176801204681396
561.0,-0.10392030328512192,-0.20554320514202118,0.5093648433685303,-0.9232072234153748,-1.7531269788742065,-0.12856626510620117
562.0,-0.15147796273231506,-0.16369612514972687,0.4261004626750946,-0.8221496939659119,-1.581726312637329,-0.006848462857306004
563.0,-0.19273091852664948,-0.2759634554386139,0.6503506898880005,-1.0449695587158203,-1.4552685022354126,0.09117969870567322
564.0,-0.16385996341705322,-0.3353099226951599,0.7595380544662476,-1.2164247035980225,-1.5445579290390015,0.026588238775730133
565.0,-0.133448988199234,-0.30855971574783325,0.705845296382904,-1.1594743728637695,-1.6477659940719604,-0.07327330112457275
566.0,-0.10974109172821045,-0.4112994372844696,0.9165323972702026,-1.4708925485610962,-1.7385010719299316,-0.23678943514823914
567.0,-0.08413714915513992,-0.38802990317344666,0.8787526488304138,-1.4161297082901,-1.8333110809326172,-0.33190563321113586
568.0,-0.06557904183864594,-0.43377846479415894,0.987473726272583,-1.5886180400848389,-1.8933354616165161,-0.4903036057949066
569.0,-0.05505366250872612,-0.5148821473121643,1.1915758848190308,-1.9555739164352417,-1.9066030979156494,-0.8314427733421326
570.0,-0.05284873768687248,-0.5528762340545654,1.3063879013061523,-2.1840150356292725,-1.886167287826538,-1.143541932106018
571.0,-0.05092710256576538,-0.5764387845993042,1.387137770652771,-2.3347880840301514,-1.8567529916763306,-1.4065834283828735
572.0,-0.06468161195516586,-0.5885348916053772,1.4154785871505737,-2.380131959915161,-1.8329938650131226,-1.5029621124267578
573.0,-0.06867378950119019,-0.5815455913543701,1.3938770294189453,-2.360771894454956,-1.8334434032440186,-1.484890103340149
574.0,-0.07351170480251312,-0.572902262210846,1.3618943691253662,-2.3111958503723145,-1.8399403095245361,-1.3899078369140625
575.0,-0.08411293476819992,-0.589837908744812,1.404415488243103,-2.366065740585327,-1.8263909816741943,-1.4945636987686157
576.0,-0.08579907566308975,-0.5804270505905151,1.3779569864273071,-2.342531442642212,-1.8257018327713013,-1.4688299894332886
577.0,-0.1027614176273346,-0.5229930877685547,1.1788536310195923,-1.9275081157684326,-1.7658370733261108,-0.5610533952713013
578.0,-0.14873291552066803,-0.4527275264263153,0.9999977946281433,-1.5896356105804443,-1.5930259227752686,-0.03805520385503769
579.0,-0.13470663130283356,-0.5611922144889832,1.273815393447876,-2.101925849914551,-1.6451469659805298,-0.38461875915527344
580.0,-0.10957156866788864,-0.5828462839126587,1.3638525009155273,-2.307589530944824,-1.7388269901275635,-1.312180995941162
581.0,-0.12441501021385193,-0.6030185222625732,1.4110996723175049,-2.3510732650756836,-1.6884827613830566,1.4456225633621216
582.0,-0.14218991994857788,-0.5945254564285278,1.3833134174346924,-2.316854238510132,-1.6185648441314697,1.4286154508590698
583.0,-0.16323433816432953,-0.5452775359153748,1.2224689722061157,-1.98012113571167,-1.5563889741897583,0.0524430088698864
584.0,-0.17580178380012512,-0.46667999029159546,1.0314126014709473,-1.6233530044555664,-1.5161200761795044,0.09689797461032867
585.0,-0.18881423771381378,-0.564535915851593,1.2739145755767822,-2.0562140941619873,-1.5084655284881592,0.266938716173172
586.0,-0.17147129774093628,-0.6006638407707214,1.3959230184555054,-2.318070411682129,-1.5610437393188477,1.3994970321655273
587.0,-0.1611751765012741,-0.6026666760444641,1.4013954401016235,-2.3239614963531494,-1.5683338642120361,1.4097821712493896
588.0,-0.17274993658065796,-0.6195898652076721,1.4452385902404785,-2.3612754344940186,-1.5652939081192017,1.3981428146362305
589.0,-0.16158567368984222,-0.6189320683479309,1.4437669515609741,-2.360884428024292,-1.570955753326416,1.4093066453933716
590.0,-0.13590440154075623,-0.6210039854049683,1.4550411701202393,-2.3843796253204346,-1.6534924507141113,1.4344910383224487
591.0,-0.1434972882270813,-0.6321418285369873,1.4827088117599487,-2.405230760574341,-1.6309261322021484,1.4270811080932617
592.0,-0.16792026162147522,-0.6303543448448181,1.4737389087677002,-2.386678695678711,-1.568658709526062,1.402936339378357
593.0,-0.1794818937778473,-0.6309597492218018,1.4751001596450806,-2.3870272636413574,-1.5635021924972534,1.391371726989746
594.0,-0.18411283195018768,-0.6168540120124817,1.4377042055130005,-2.35329532623291,-1.5572519302368164,1.386781930923462
595.0,-0.18449336290359497,-0.6033200025558472,1.4023488759994507,-2.3218188285827637,-1.5517321825027466,1.3864471912384033
596.0,-0.19544079899787903,-0.6125154495239258,1.425843358039856,-2.3406944274902344,-1.5459176301956177,1.375435471534729
597.0,-0.22274598479270935,-0.5781974792480469,1.3082789182662964,-2.0688984394073486,-1.4381511211395264,0.510380744934082
598.0,-0.2280179113149643,-0.5166805386543274,1.1519449949264526,-1.7698979377746582,-1.3847705125808716,0.3777552843093872
599.0,-0.20688778162002563,-0.484708309173584,1.0752639770507812,-1.664583444595337,-1.4344550371170044,0.24565692245960236
600.0,-0.22447489202022552,-0.34801536798477173,0.8002337217330933,-1.2082886695861816,-1.3608191013336182,0.19408245384693146
601.0,-0.2436879277229309,-0.38788947463035583,0.8863311409950256,-1.3062286376953125,-1.304268479347229,0.26878392696380615
602.0,-0.2794272303581238,-0.39838147163391113,0.9272467494010925,-1.299792766571045,-1.189254641532898,0.34708482027053833
603.0,-0.2908799350261688,-0.4799349904060364,1.0979171991348267,-1.560874104499817,-1.17041015625,0.4927651882171631
604.0,-0.31284722685813904,-0.5231031179428101,1.20582914352417,-1.7037475109100342,-1.1091511249542236,0.6285318732261658
605.0,-0.27068400382995605,-0.5665222406387329,1.2832776308059692,-1.9343430995941162,-1.282596468925476,0.6567773818969727
606.0,-0.252838671207428,-0.5575268864631653,1.2559428215026855,-1.9175161123275757,-1.333590030670166,0.5695816278457642
607.0,-0.21672149002552032,-0.6100709438323975,1.4059923887252808,-2.2638096809387207,-1.492354154586792,1.3541682958602905
608.0,-0.2333930879831314,-0.6143053770065308,1.4128471612930298,-2.242884397506714,-1.450948715209961,0.7547168731689453
609.0,-0.20678913593292236,-0.6272372603416443,1.4642497301101685,-2.3735570907592773,-1.544034481048584,1.3640145063400269
610.0,-0.19543834030628204,-0.624601423740387,1.4577436447143555,-2.3696720600128174,-1.5522377490997314,1.3754130601882935
611.0,-0.19572018086910248,-0.6341671943664551,1.4832953214645386,-2.3930702209472656,-1.5571165084838867,1.3751132488250732
612.0,-0.2064526230096817,-0.6417984962463379,1.5034754276275635,-2.410198211669922,-1.553661584854126,1.36434805393219
613.0,-0.21768827736377716,-0.6363915205001831,1.488010048866272,-2.3923709392547607,-1.5357117652893066,1.3530242443084717
614.0,-0.24957138299942017,-0.6231716275215149,1.4361660480499268,-2.252819061279297,-1.4117608070373535,0.8769750595092773
615.0,-0.30333006381988525,-0.5951127409934998,1.3710179328918457,-2.0330207347869873,-1.1889362335205078,0.8545188307762146
616.0,-0.2918943464756012,-0.6266767978668213,1.4518101215362549,-2.2005484104156494,-1.2619073390960693,0.9937149882316589
617.0,-0.2508498728275299,-0.6504662036895752,1.5180243253707886,-2.3766801357269287,-1.4440548419952393,1.3179761171340942
618.0,-0.22183388471603394,-0.6463168263435364,1.5148677825927734,-2.4174413681030273,-1.5411266088485718,1.3488880395889282
619.0,-0.21040888130664825,-0.6541606187820435,1.5374091863632202,-2.4423532485961914,-1.5617408752441406,1.3603883981704712
620.0,-0.20033253729343414,-0.6504848003387451,1.5273962020874023,-2.433304786682129,-1.5623706579208374,1.3704723119735718
621.0,-0.19321385025978088,-0.6597929000854492,1.5530909299850464,-2.4574031829833984,-1.5679874420166016,1.3775852918624878
622.0,-0.20527997612953186,-0.6643902659416199,1.5659384727478027,-2.4696033000946045,-1.5692107677459717,1.3655166625976562
623.0,-0.19715295732021332,-0.6731534004211426,1.590043067932129,-2.490846633911133,-1.567627191543579,1.3736437559127808
624.0,-0.18623724579811096,-0.6696717739105225,1.5804486274719238,-2.4824230670928955,-1.5701720714569092,1.384559154510498
625.0,-0.17419740557670593,-0.6697714328765869,1.580680251121521,-2.4825026988983154,-1.5705289840698242,1.3965989351272583
626.0,-0.18226897716522217,-0.6565918922424316,1.544335126876831,-2.449542284011841,-1.5691394805908203,1.3885338306427002
627.0,-0.18409383296966553,-0.6413911581039429,1.5030040740966797,-2.411994457244873,-1.5652971267700195,1.3867335319519043
628.0,-0.17620134353637695,-0.6485503315925598,1.522450566291809,-2.429849624633789,-1.568943738937378,1.3946129083633423
629.0,-0.16852813959121704,-0.6558860540390015,1.542455792427063,-2.448000907897949,-1.570976734161377,1.4022754430770874
630.0,-0.16465702652931213,-0.6420862078666687,1.505122423171997,-2.4147086143493652,-1.571090579032898,1.406169056892395
631.0,-0.14185583591461182,-0.6416476368904114,1.5090898275375366,-2.4302401542663574,-1.6410810947418213,1.428609848022461
632.0,-0.14697228372097015,-0.6526832580566406,1.53794264793396,-2.4539928436279297,-1.6281425952911377,1.4235883951187134
633.0,-0.10850376635789871,-0.645415723323822,1.5386375188827515,-2.475972890853882,-1.763658881187439,-1.6330907344818115
634.0,-0.11468782275915146,-0.656310498714447,1.56510329246521,-2.497220039367676,-1.7451646327972412,-1.6720858812332153
635.0,-0.1580439954996109,-0.6650828719139099,1.5694258213043213,-2.4768550395965576,-1.5957471132278442,1.4127031564712524
636.0,-0.13562951982021332,-0.6724039316177368,1.5978138446807861,-2.5163815021514893,-1.6773821115493774,1.4343899488449097
637.0,-0.13562951982021332,-0.6724039316177368,1.5978138446807861,-2.5163815021514893,-1.6773821115493774,1.4343899488449097
638.0,-0.1355508267879486,-0.6708547472953796,1.594091534614563,-2.4963936805725098,-1.6579949855804443,1.434082269668579
639.0,-0.1353878378868103,-0.6676487326622009,1.5863871574401855,-2.455042600631714,-1.6178882122039795,1.4334441423416138
640.0,-0.13514481484889984,-0.6628769636154175,1.5749197006225586,-2.3935208320617676,-1.5582185983657837,1.4324921369552612
641.0,-0.13482734560966492,-0.6566604971885681,1.5599794387817383,-2.3133955001831055,-1.4805041551589966,1.4312492609024048
642.0,-0.13444098830223083,-0.6491252183914185,1.5418671369552612,-2.216280937194824,-1.3863118886947632,1.429738163948059
643.0,-0.13399142026901245,-0.6403986215591431,1.5208848714828491,-2.103797197341919,-1.2772138118743896,1.4279818534851074
644.0,-0.13348428905010223,-0.6306073665618896,1.4973328113555908,-1.977565050125122,-1.154783010482788,1.4260040521621704
645.0,-0.13292519748210907,-0.6198767423629761,1.4715102910995483,-1.8392066955566406,-1.0205914974212646,1.4238287210464478
646.0,-0.13232028484344482,-0.6083311438560486,1.4437178373336792,-1.6903433799743652,-0.8762087225914001,1.4214799404144287
647.0,-0.13167616724967957,-0.5960946679115295,1.4142576456069946,-1.5325965881347656,-0.7232059836387634,1.418982982635498
648.0,-0.1309995949268341,-0.5832915902137756,1.3834302425384521,-1.3675864934921265,-0.5631566047668457,1.4163635969161987
649.0,-0.1302972435951233,-0.5700471997261047,1.351538062095642,-1.1969325542449951,-0.39763468503952026,1.4136472940444946
650.0,-0.1295754313468933,-0.5564877390861511,1.3188852071762085,-1.0222549438476562,-0.2282133549451828,1.4108598232269287
651.0,-0.12884053587913513,-0.542739748954773,1.2857754230499268,-0.845173716545105,-0.05646459013223648,1.4080266952514648
652.0,-0.12809935212135315,-0.5289297103881836,1.2525124549865723,-0.6673088669776917,0.11604000627994537,1.405173659324646
653.0,-0.12735901772975922,-0.5151837468147278,1.219400405883789,-0.4902796745300293,0.2877289354801178,1.4023271799087524
654.0,-0.12662680447101593,-0.5016278028488159,1.186743140220642,-0.3157057762145996,0.4570308327674866,1.3995144367218018
655.0,-0.12590987980365753,-0.4883877635002136,1.1548442840576172,-0.14520786702632904,0.6223744750022888,1.3967623710632324
656.0,-0.1252155303955078,-0.47558924555778503,1.124008059501648,0.019593127071857452,0.7821882963180542,1.3940976858139038
657.0,-0.1245511993765831,-0.4633583426475525,1.0945377349853516,0.1770765781402588,0.9349007606506348,1.3915473222732544
658.0,-0.12392456829547882,-0.4518214762210846,1.0667380094528198,0.32562217116355896,1.0789402723312378,1.389137864112854
659.0,-0.12334326654672623,-0.44110506772994995,1.0409132242202759,0.46360892057418823,1.2127354145050049,1.3868961334228516
660.0,-0.12281452119350433,-0.4313346743583679,1.0173685550689697,0.5894147753715515,1.334714651107788,1.384848713874817
661.0,-0.12234511226415634,-0.42263564467430115,0.996408224105835,0.7014176845550537,1.4433060884475708,1.3830221891403198
662.0,-0.12194155156612396,-0.41513365507125854,0.9783363938331604,0.7979955673217773,1.5369383096694946,1.3814436197280884
663.0,-0.12161049991846085,-0.408954918384552,0.9634557962417603,0.8775272965431213,1.6140400171279907,1.3801416158676147
664.0,-0.1213584691286087,-0.4042254388332367,0.952067494392395,0.9383969306945801,1.6730453968048096,1.379143476486206
665.0,-0.12119128555059433,-0.4010665714740753,0.9444617629051208,0.9790470600128174,1.7124474048614502,1.3784765005111694
666.0,-0.12111230939626694,-0.3995642364025116,0.9408449530601501,0.9983755350112915,1.731181025505066,1.3781592845916748
667.0,-0.12111230939626694,-0.3995642364025116,0.9408449530601501,0.9983755350112915,1.731181025505066,1.3781592845916748
668.0,-0.1143597960472107,-0.4193488657474518,0.9866838455200195,0.9621202945709229,1.7589691877365112,1.353173017501831
669.0,-0.14684757590293884,-0.4214259088039398,0.9847267270088196,0.976934552192688,1.648099422454834,-1.7180604934692383
670.0,-0.16007894277572632,-0.40469056367874146,0.9488182067871094,1.0092428922653198,1.5995429754257202,-1.7309291362762451
671.0,-0.17894236743450165,-0.418374627828598,0.9798096418380737,0.9921053647994995,1.5642722845077515,-1.7497128248214722
672.0,-0.17433293163776398,-0.4330960512161255,1.011974573135376,0.9690836071968079,1.5631386041641235,-1.745084524154663
673.0,-0.1396513283252716,-0.46971338987350464,1.0906625986099243,0.8948045969009399,1.6844964027404785,-1.711255669593811
674.0,-0.170807346701622,-0.47728225588798523,1.1077628135681152,0.8955644369125366,1.5846593379974365,-1.7414699792861938
675.0,-0.1681746542453766,-0.46216925978660583,1.07454514503479,0.9195674061775208,1.5885823965072632,-1.738891839981079
676.0,-0.18099243938922882,-0.4495311677455902,1.048016905784607,0.9433424472808838,1.5599331855773926,-1.7517147064208984
677.0,-0.18928459286689758,-0.4369256794452667,1.0205631256103516,0.9636178016662598,1.558308482170105,-1.7600337266921997
678.0,-0.19047479331493378,-0.399697870016098,0.9391493797302246,1.02126145362854,1.5633248090744019,-1.7612642049789429
679.0,-0.20451602339744568,-0.4072939455509186,0.9558939933776855,1.0099952220916748,1.5583815574645996,-1.7753065824508667
680.0,-0.19860917329788208,-0.42631423473358154,0.9974867701530457,0.9805830121040344,1.5564475059509277,-1.769379734992981
681.0,-0.21057046949863434,-0.43184930086135864,1.0100080966949463,0.9729061126708984,1.5481616258621216,-1.7813597917556763
682.0,-0.21353931725025177,-0.45168769359588623,1.053809642791748,0.9423989653587341,1.5407222509384155,-1.7843222618103027
683.0,-0.19986747205257416,-0.445926696062088,1.0405974388122559,0.9502272605895996,1.5512309074401855,-1.770615816116333
684.0,-0.189632847905159,-0.4755796790122986,1.1054767370224,0.9024695158004761,1.5514717102050781,-1.760300636291504
685.0,-0.20250195264816284,-0.4746774733066559,1.1039915084838867,0.9050484895706177,1.543220043182373,-1.773201823234558
686.0,-0.22104544937610626,-0.47477686405181885,1.1041264533996582,0.9029998183250427,1.5240817070007324,-1.7918307781219482
687.0,-0.23180845379829407,-0.5294811725616455,1.2116628885269165,0.7536753416061401,1.453770399093628,-0.7102781534194946
688.0,-0.22898374497890472,-0.5775851607322693,1.306697964668274,0.6016853451728821,1.4252604246139526,-0.5349746346473694
689.0,-0.18722034990787506,-0.4936557114124298,1.1451383829116821,0.8729180097579956,1.551239252090454,-1.7578234672546387
690.0,-0.2080560177564621,-0.5701950788497925,1.2898924350738525,0.6361234188079834,1.4765721559524536,-0.4068494737148285
691.0,-0.21057401597499847,-0.6382198929786682,1.429464340209961,0.3695940375328064,1.4456425905227661,-0.27970579266548157
692.0,-0.26948457956314087,-0.7014064788818359,1.6198714971542358,-0.05577709898352623,1.235767126083374,-0.36663633584976196
693.0,-0.2903379797935486,-0.6640818119049072,1.5243040323257446,0.15647773444652557,1.1884334087371826,-0.5426273941993713
694.0,-0.29724815487861633,-0.6169080138206482,1.4141236543655396,0.37988516688346863,1.194385051727295,-0.7244288921356201
695.0,-0.29703572392463684,-0.5793079137802124,1.3313443660736084,0.5322335362434387,1.2193925380706787,-0.8628548979759216
696.0,-0.3586162030696869,-0.6459866166114807,1.5494002103805542,0.03453734144568443,0.9302866458892822,-0.6836702227592468
697.0,-0.37126702070236206,-0.6073054075241089,1.4658687114715576,0.20844687521457672,0.8953707218170166,-0.848216712474823
698.0,-0.396648108959198,-0.5699946284294128,1.4179877042770386,0.2723529636859894,0.7847353219985962,-0.9712468385696411
699.0,-0.396648108959198,-0.5699946284294128,1.4179877042770386,0.2723529636859894,0.7847353219985962,-0.9712468385696411
700.0,-0.39708417654037476,-0.5703856945037842,1.420317530632019,0.25276800990104675,0.7756906151771545,-0.9542814493179321
701.0,-0.39796116948127747,-0.5711833238601685,1.4251469373703003,0.2122042328119278,0.7569593787193298,-0.9191415309906006
702.0,-0.3992196023464203,-0.5723470449447632,1.4323245286941528,0.15196049213409424,0.729144275188446,-0.8669513463973999
703.0,-0.4007931053638458,-0.5738309025764465,1.4416592121124268,0.07364242523908615,0.6929892897605896,-0.7991037368774414
704.0,-0.4026142358779907,-0.5755881667137146,1.452955961227417,-0.021112263202667236,0.6492537260055542,-0.7170194387435913
705.0,-0.4046144187450409,-0.5775729417800903,1.46602201461792,-0.13066191971302032,0.5986972451210022,-0.6221241354942322
706.0,-0.4067230522632599,-0.5797392725944519,1.4806615114212036,-0.2533639073371887,0.5420796275138855,-0.5158427953720093
707.0,-0.40887022018432617,-0.5820431709289551,1.496678352355957,-0.38757604360580444,0.48016002774238586,-0.3995996117591858
708.0,-0.4109862446784973,-0.5844405293464661,1.5138747692108154,-0.531655490398407,0.4136967062950134,-0.2748173773288727
709.0,-0.4130041301250458,-0.5868865847587585,1.5320523977279663,-0.6839587688446045,0.3434474468231201,-0.14291828870773315
710.0,-0.4148562252521515,-0.5893338918685913,1.5510133504867554,-0.8428428769111633,0.27016979455947876,-0.005325769539922476
711.0,-0.4164760708808899,-0.5917360782623291,1.5705595016479492,-1.0066640377044678,0.19462090730667114,0.13653525710105896
712.0,-0.41779839992523193,-0.5940488576889038,1.5904923677444458,-1.1737802028656006,0.11755872517824173,0.2812390923500061
713.0,-0.4187776744365692,-0.5962361097335815,1.610613465309143,-1.3425467014312744,0.03974246606230736,0.427361398935318
714.0,-0.41943880915641785,-0.5982891917228699,1.6307272911071777,-1.5113177299499512,-0.038068726658821106,0.5734771490097046
715.0,-0.4198185205459595,-0.6002042889595032,1.6506401300430298,-1.6784487962722778,-0.11511630564928055,0.7181628346443176
716.0,-0.4199550151824951,-0.6019778251647949,1.6701573133468628,-1.842296838760376,-0.19064325094223022,0.8599976301193237
717.0,-0.41988807916641235,-0.6036067008972168,1.6890851259231567,-2.001215934753418,-0.26389333605766296,0.9975619316101074
718.0,-0.41965731978416443,-0.6050886511802673,1.7072274684906006,-2.1535608768463135,-0.334110289812088,1.1294348239898682
719.0,-0.4193015396595001,-0.6064236760139465,1.7243903875350952,-2.2976884841918945,-0.4005366861820221,1.2541931867599487
720.0,-0.41885626316070557,-0.6076136231422424,1.7403796911239624,-2.431954860687256,-0.4624161720275879,1.3704124689102173
721.0,-0.41835319995880127,-0.6086581945419312,1.7550017833709717,-2.5547189712524414,-0.5189928412437439,1.4766690731048584
722.0,-0.417824387550354,-0.609555184841156,1.7680590152740479,-2.6643338203430176,-0.5695109963417053,1.5715411901474
723.0,-0.4173036217689514,-0.61030113697052,1.7793562412261963,-2.7591562271118164,-0.6132122874259949,1.6536076068878174
724.0,-0.416825532913208,-0.6108933687210083,1.788696050643921,-2.8375399112701416,-0.6493380069732666,1.7214435338974
725.0,-0.41642412543296814,-0.611331045627594,1.7958807945251465,-2.8978428840637207,-0.6771305799484253,1.7736283540725708
726.0,-0.4161328971385956,-0.6116155982017517,1.800718069076538,-2.9384491443634033,-0.695846676826477,1.808767557144165
727.0,-0.4159829318523407,-0.6117494106292725,1.8030530214309692,-2.9580538272857666,-0.7048846483230591,1.8257333040237427
728.0,-0.4159829318523407,-0.6117494106292725,1.8030530214309692,-2.9580538272857666,-0.7048846483230591,1.8257333040237427
729.0,-0.36496487259864807,-0.6657522916793823,1.8111188411712646,-2.9185633659362793,-0.9684023857116699,1.9182697534561157
730.0,-0.3254721760749817,-0.688988983631134,1.836328148841858,-2.960336685180664,-1.1275925636291504,2.0934548377990723
731.0,-0.2695494592189789,-0.7134327292442322,1.7486425638198853,-2.6986773014068604,-1.3731077909469604,2.0127713680267334
732.0,-0.2857035994529724,-0.7056313157081604,1.7303903102874756,-2.674978017807007,-1.3213661909103394,1.8826937675476074
733.0,-0.22763410210609436,-0.7095083594322205,1.6913868188858032,-2.575334072113037,-1.5269922018051147,1.3430582284927368
734.0,-0.23761090636253357,-0.7039697766304016,1.6768763065338135,-2.564068555831909,-1.5081380605697632,1.3328540325164795
735.0,-0.274834007024765,-0.6987966895103455,1.6817163228988647,-2.5865478515625,-1.3746155500411987,1.7377222776412964
736.0,-0.23359838128089905,-0.6947857737541199,1.6484757661819458,-2.5351552963256836,-1.5267808437347412,1.3370176553726196
737.0,-0.21893921494483948,-0.6963032484054565,1.6540775299072266,-2.544609785079956,-1.5440192222595215,1.351828694343567
738.0,-0.2162114530801773,-0.6869189143180847,1.6277738809585571,-2.522162675857544,-1.5519975423812866,1.3545684814453125
739.0,-0.20706312358379364,-0.6776227951049805,1.6022850275039673,-2.5012004375457764,-1.56298828125,1.3637322187423706
740.0,-0.21699102222919464,-0.6704950332641602,1.5827736854553223,-2.4846246242523193,-1.5665065050125122,1.3538039922714233
741.0,-0.22029417753219604,-0.6621014475822449,1.5593994855880737,-2.4629664421081543,-1.5639901161193848,1.3504983186721802
742.0,-0.23827460408210754,-0.6708569526672363,1.580482006072998,-2.4699723720550537,-1.5134618282318115,1.3321233987808228
743.0,-0.303090363740921,-0.6564506888389587,1.5494630336761475,-2.358130693435669,-1.245826244354248,1.250043272972107
744.0,-0.34139177203178406,-0.65301114320755,1.5761024951934814,-2.3600380420684814,-1.0818469524383545,1.2916008234024048
745.0,-0.36110764741897583,-0.6553075313568115,1.62251877784729,-2.4357597827911377,-0.9958065748214722,1.3843151330947876
746.0,-0.26463592052459717,-0.6860101819038391,1.6306381225585938,-2.516641855239868,-1.417233943939209,1.5787568092346191
747.0,-0.3305571973323822,-0.6815330386161804,1.6801234483718872,-2.577662706375122,-1.1418755054473877,1.590693473815918
748.0,-0.38859421014785767,-0.646260678768158,1.6603920459747314,-2.4928314685821533,-0.8634145259857178,1.4296196699142456
749.0,-0.387067973613739,-0.6542151570320129,1.7431906461715698,-2.7175612449645996,-0.8723618984222412,1.6605267524719238
750.0,-0.4330219626426697,-0.6055697202682495,1.7132431268692017,-2.6106293201446533,-0.6007277965545654,1.488616943359375
751.0,-0.44041046500205994,-0.5843102931976318,1.764548897743225,-2.829714298248291,-0.5534880757331848,1.6632118225097656
752.0,-0.4393761157989502,-0.5939603447914124,1.6543229818344116,-2.3971498012542725,-0.5674197673797607,1.2953097820281982
753.0,-0.4393761157989502,-0.5939603447914124,1.6543229818344116,-2.3971498012542725,-0.5674197673797607,1.2953097820281982
754.0,-0.4393269121646881,-0.593894362449646,1.6537021398544312,-2.395418882369995,-0.5676875710487366,1.2939066886901855
755.0,-0.43922510743141174,-0.5937570929527283,1.6524152755737305,-2.391834020614624,-0.5682423710823059,1.2910007238388062
756.0,-0.4390738904476166,-0.5935527086257935,1.6505030393600464,-2.3865127563476562,-0.5690662860870361,1.2866857051849365
757.0,-0.4388773441314697,-0.5932863354682922,1.6480159759521484,-2.3795976638793945,-0.5701366662979126,1.2810767889022827
758.0,-0.4386393427848816,-0.5929632782936096,1.6450049877166748,-2.3712334632873535,-0.5714308619499207,1.2742913961410522
759.0,-0.43836379051208496,-0.5925886631011963,1.6415214538574219,-2.361565113067627,-0.5729262828826904,1.2664469480514526
760.0,-0.4380544126033783,-0.5921679139137268,1.6376171112060547,-2.3507378101348877,-0.5746005177497864,1.2576614618301392
761.0,-0.4377153515815735,-0.5917064547538757,1.633342981338501,-2.338897228240967,-0.5764312744140625,1.2480525970458984
762.0,-0.4373506009578705,-0.5912100076675415,1.6287518739700317,-2.3261895179748535,-0.5783956050872803,1.2377384901046753
763.0,-0.4369643032550812,-0.5906844139099121,1.6238960027694702,-2.3127598762512207,-0.5804707407951355,1.2268368005752563
764.0,-0.43656057119369507,-0.5901355743408203,1.6188278198242188,-2.2987546920776367,-0.5826336741447449,1.2154654264450073
765.0,-0.43614351749420166,-0.5895692706108093,1.6136001348495483,-2.2843191623687744,-0.5848620533943176,1.2037419080734253
766.0,-0.43571731448173523,-0.5889913439750671,1.6082656383514404,-2.269598960876465,-0.5871331095695496,1.1917836666107178
767.0,-0.435286283493042,-0.5884078741073608,1.6028761863708496,-2.2547383308410645,-0.589424192905426,1.179708480834961
768.0,-0.43485477566719055,-0.5878246426582336,1.59748375415802,-2.239881753921509,-0.5917133092880249,1.1676349639892578
769.0,-0.4344269931316376,-0.587247371673584,1.592140793800354,-2.2251737117767334,-0.5939780473709106,1.15568208694458
770.0,-0.43400707840919495,-0.5866816639900208,1.586899995803833,-2.210759162902832,-0.596195638179779,1.1439679861068726
771.0,-0.4335992932319641,-0.5861330032348633,1.5818151235580444,-2.196782350540161,-0.5983439087867737,1.1326109170913696
772.0,-0.43320778012275696,-0.5856071710586548,1.5769397020339966,-2.183387517929077,-0.6004007458686829,1.121727705001831
773.0,-0.4328369200229645,-0.5851101875305176,1.572326898574829,-2.1707189083099365,-0.6023440361022949,1.1114351749420166
774.0,-0.4324910044670105,-0.5846478343009949,1.5680304765701294,-2.1589207649230957,-0.6041517853736877,1.1018503904342651
775.0,-0.43217432498931885,-0.584226131439209,1.5641032457351685,-2.148137331008911,-0.6058022975921631,1.0930899381637573
776.0,-0.43189120292663574,-0.5838505625724792,1.5605977773666382,-2.138512134552002,-0.6072738766670227,1.0852704048156738
777.0,-0.431645929813385,-0.583526611328125,1.5575666427612305,-2.130188226699829,-0.6085452437400818,1.0785084962844849
778.0,-0.4314429759979248,-0.5832597017288208,1.5550618171691895,-2.1233086585998535,-0.6095947027206421,1.072920322418213
779.0,-0.43128666281700134,-0.5830549001693726,1.5531349182128906,-2.1180169582366943,-0.610400915145874,1.0686222314834595
780.0,-0.43118128180503845,-0.582917332649231,1.5518368482589722,-2.1144535541534424,-0.6109431982040405,1.0657280683517456
781.0,-0.43113037943840027,-0.582850992679596,1.551209807395935,-2.1127328872680664,-0.6112046241760254,1.0643309354782104
782.0,-0.43113037943840027,-0.582850992679596,1.551209807395935,-2.1127328872680664,-0.6112046241760254,1.0643309354782104
783.0,-0.43113037943840027,-0.582850992679596,1.551209807395935,-2.1127328872680664,-0.6112047433853149,1.0643309354782104
784.0,-0.43102970719337463,-0.582672119140625,1.5503612756729126,-2.111015558242798,-0.6117359399795532,1.0629167556762695
785.0,-0.4308169186115265,-0.5822974443435669,1.5486027002334595,-2.1074230670928955,-0.6128090023994446,1.0600141286849976
786.0,-0.43049290776252747,-0.5817360281944275,1.5459879636764526,-2.102039098739624,-0.6143584251403809,1.0557435750961304
787.0,-0.43006372451782227,-0.5809990167617798,1.5425784587860107,-2.0949785709381104,-0.6163290739059448,1.050230622291565
788.0,-0.4295344948768616,-0.580100953578949,1.5384411811828613,-2.086374044418335,-0.6186748743057251,1.043582797050476
789.0,-0.42891547083854675,-0.5790558457374573,1.5336322784423828,-2.0763707160949707,-0.6213710308074951,1.0358903408050537
790.0,-0.4282147288322449,-0.5778790712356567,1.528213381767273,-2.0651137828826904,-0.6244004964828491,1.0272278785705566
791.0,-0.42744502425193787,-0.5765864849090576,1.52224600315094,-2.0527589321136475,-0.6277499794960022,1.0176751613616943
792.0,-0.42661309242248535,-0.5751907825469971,1.515791654586792,-2.039447069168091,-0.6313982605934143,1.007314920425415
793.0,-0.4257323443889618,-0.5737093091011047,1.508920669555664,-2.025327205657959,-0.6353117823600769,0.9962558746337891
794.0,-0.4248061180114746,-0.5721500515937805,1.5017046928405762,-2.0105321407318115,-0.6394386887550354,0.9846265912055969
795.0,-0.4238473176956177,-0.5705314874649048,1.4942247867584229,-1.9952088594436646,-0.6437159180641174,0.9725701808929443
796.0,-0.42285943031311035,-0.5688614845275879,1.486562728881836,-1.9794986248016357,-0.6480740904808044,0.9602480530738831
797.0,-0.42185547947883606,-0.5671628713607788,1.478801965713501,-1.9635576009750366,-0.6524468660354614,0.9478049874305725
798.0,-0.4208419620990753,-0.5654470324516296,1.471024751663208,-1.9475497007369995,-0.656782329082489,0.9353823661804199
799.0,-0.41983330249786377,-0.56374192237854,1.4633044004440308,-1.9316385984420776,-0.6610413193702698,0.9230941534042358
