Sungjin-Park-dev/vision_inspection/data/trajectory/675/collision_free_trajectory.csv
time,ur20-shoulder_pan_joint,ur20-shoulder_lift_joint,ur20-elbow_joint,ur20-wrist_1_joint,ur20-wrist_2_joint,ur20-wrist_3_joint
0.0,-0.05958212539553642,-0.6897312998771667,1.6901501417160034,-0.3728426992893219,1.8987903594970703,0.22956694662570953
1.0,-0.023293934762477875,-0.6673926115036011,1.6342109441757202,-0.293510764837265,2.017591714859009,0.3318987488746643
2.0,0.0023836225736886263,-0.6409525275230408,1.5865275859832764,-0.22408270835876465,2.0982892513275146,0.41686639189720154
3.0,0.020575128495693207,-0.6167570948600769,1.5456156730651855,-0.16341333091259003,2.1531858444213867,0.4861857295036316
4.0,0.0476146899163723,-0.5777124166488647,1.456946849822998,-0.02851325087249279,2.252335786819458,0.6228243112564087
5.0,0.06012291833758354,-0.5538084506988525,1.3962863683700562,0.06626509130001068,2.3087973594665527,0.7121312022209167
6.0,0.03468053415417671,-0.6033695936203003,1.4942666292190552,-0.08626352250576019,2.217751979827881,0.5596100687980652
7.0,0.023580949753522873,-0.5468738079071045,1.3286094665527344,0.32365185022354126,2.1442995071411133,0.8240229487419128
8.0,-0.017442019656300545,-0.6356125473976135,1.5109360218048096,0.008404924534261227,2.0333049297332764,0.49811848998069763
9.0,-0.0053602540865540504,-0.5859276056289673,1.391782522201538,0.2559603154659271,2.057859182357788,0.697917640209198
10.0,-0.05219925940036774,-0.6449994444847107,1.4989029169082642,0.10046391189098358,1.9294843673706055,0.46000564098358154
11.0,-0.05352602154016495,-0.5746423602104187,1.3304065465927124,0.4564659893512726,1.9142365455627441,0.731986403465271
12.0,-0.07705412805080414,-0.6414909958839417,1.4690569639205933,0.19928403198719025,1.863731026649475,0.44544294476509094
13.0,-0.11033111065626144,-0.7018557190895081,1.626115083694458,-0.13092656433582306,1.7591980695724487,0.18803717195987701
14.0,-0.1716206967830658,-0.7052831053733826,1.5998942852020264,-0.017327766865491867,1.5640007257461548,-0.00817485898733139
15.0,-0.12171844393014908,-0.633433997631073,1.4247193336486816,0.33402854204177856,1.7426472902297974,0.34390079975128174
16.0,-0.16767928004264832,-0.6357201933860779,1.4192560911178589,0.3746360242366791,1.590144157409668,0.04416627436876297
17.0,-0.12445656210184097,-0.5428128242492676,1.2394245862960815,0.6916438937187195,1.7408558130264282,0.7420308589935303
18.0,-0.16786165535449982,-0.5426133275032043,1.2343858480453491,0.7234808802604675,1.5989367961883545,0.17754358053207397
19.0,-0.13931457698345184,-0.4935063123703003,1.1434593200683594,0.8542651534080505,1.6923500299453735,-1.7109837532043457
20.0,-0.13931457698345184,-0.4935063123703003,1.1434593200683594,0.8542651534080505,1.6923500299453735,-1.7109837532043457
21.0,-0.1467221975326538,-0.4986571967601776,1.1357117891311646,0.8504709601402283,1.6913398504257202,-1.7104549407958984
22.0,-0.16173219680786133,-0.5090947151184082,1.1200134754180908,0.8427832126617432,1.6892929077148438,-1.709383249282837
23.0,-0.18676692247390747,-0.5265039801597595,1.0938313007354736,0.8299623131752014,1.6858787536621094,-1.7075954675674438
24.0,-0.221988245844841,-0.5509986281394958,1.0569971799850464,0.8119279146194458,1.6810752153396606,-1.705079436302185
25.0,-0.2642061114311218,-0.5803595185279846,1.012847661972046,0.790313720703125,1.6753175258636475,-1.7020639181137085
26.0,-0.31319549679756165,-0.6144302487373352,0.9616183042526245,0.7652352452278137,1.6686365604400635,-1.6985653638839722
27.0,-0.37167543172836304,-0.6551015377044678,0.9004674553871155,0.7353030443191528,1.6606611013412476,-1.694393277168274
28.0,-0.4363427758216858,-0.7000759840011597,0.832849383354187,0.702206552028656,1.6518422365188599,-1.6897838115692139
29.0,-0.5063140392303467,-0.7487393617630005,0.7596876621246338,0.6663970351219177,1.6422995328903198,-1.6847996711730957
30.0,-0.5820484161376953,-0.8014112114906311,0.6805023550987244,0.6276392340660095,1.6319701671600342,-1.6794087886810303
31.0,-0.664202094078064,-0.8585487008094788,0.5946076512336731,0.5855963230133057,1.620764970779419,-1.6735655069351196
32.0,-0.7501883506774902,-0.9183518886566162,0.5047070980072021,0.5415911078453064,1.6090368032455444,-1.667452335357666
33.0,-0.8397781848907471,-0.9806613326072693,0.41104015707969666,0.4957405626773834,1.596817135810852,-1.6610857248306274
34.0,-0.9337916970252991,-1.0460467338562012,0.31275081634521484,0.44762369990348816,1.5839937925338745,-1.6544080972671509
35.0,-1.0308208465576172,-1.1135276556015015,0.21131131052970886,0.39796125888824463,1.5707587003707886,-1.6475183963775635
36.0,-1.129980444908142,-1.1824887990951538,0.10764573514461517,0.3472064137458801,1.5572324991226196,-1.6404789686203003
37.0,-1.2311068773269653,-1.2528165578842163,0.0019248786848038435,0.29544273018836975,1.5434378385543823,-1.6333011388778687
38.0,-1.3341988325119019,-1.3245106935501099,-0.10585275292396545,0.2426692396402359,1.5293729305267334,-1.6259833574295044
39.0,-1.43794584274292,-1.396660566329956,-0.21431775391101837,0.1895584762096405,1.5152164697647095,-1.6186177730560303
40.0,-1.5421181917190552,-1.469106674194336,-0.32323071360588074,0.13622809946537018,1.5009994506835938,-1.6112204790115356
41.0,-1.6462903022766113,-1.5415527820587158,-0.43214815855026245,0.08289642632007599,1.4867788553237915,-1.6038211584091187
42.0,-1.7496435642242432,-1.6134289503097534,-0.540215253829956,0.029983334243297577,1.472666621208191,-1.5964784622192383
43.0,-1.851948857307434,-1.6845760345458984,-0.6471911072731018,-0.02239347994327545,1.4586950540542603,-1.5892095565795898
44.0,-1.9529770612716675,-1.7548346519470215,-0.7528365850448608,-0.07411669939756393,1.4448961019515991,-1.5820306539535522
45.0,-2.0510590076446533,-1.823043942451477,-0.8554081320762634,-0.1243317499756813,1.4314953088760376,-1.5750612020492554
46.0,-2.1465227603912354,-1.8894323110580444,-0.9552455544471741,-0.17320603132247925,1.4184494018554688,-1.5682785511016846
47.0,-2.2392377853393555,-1.9539088010787964,-1.0522112846374512,-0.2206723988056183,1.4057769775390625,-1.5616917610168457
48.0,-2.3281898498535156,-2.015768051147461,-1.1452441215515137,-0.26621106266975403,1.393617033958435,-1.5553724765777588
49.0,-2.4118399620056152,-2.073939323425293,-1.2327337265014648,-0.3090341091156006,1.3821816444396973,-1.5494296550750732
50.0,-2.4912679195404053,-2.129173517227173,-1.3158077001571655,-0.34969502687454224,1.3713243007659912,-1.5437867641448975
51.0,-2.566244125366211,-2.1813111305236816,-1.39422607421875,-0.3880766034126282,1.361076831817627,-1.5384602546691895
52.0,-2.633887529373169,-2.228349208831787,-1.4649748802185059,-0.42270419001579285,1.3518354892730713,-1.5336542129516602
53.0,-2.69504976272583,-2.270880937576294,-1.5289435386657715,-0.454013854265213,1.3434829711914062,-1.5293083190917969
54.0,-2.750286817550659,-2.309293270111084,-1.586714744567871,-0.482290655374527,1.3359426259994507,-1.5253828763961792
55.0,-2.798649311065674,-2.342926025390625,-1.637295126914978,-0.5070486068725586,1.3293441534042358,-1.5219449996948242
56.0,-2.8365721702575684,-2.3693008422851562,-1.6769564151763916,-0.5264630317687988,1.3241729736328125,-1.519248127937317
57.0,-2.8671112060546875,-2.390540838241577,-1.7088953256607056,-0.5420976877212524,1.3200100660324097,-1.5170766115188599
58.0,-2.890072822570801,-2.406511068344116,-1.7329094409942627,-0.5538533329963684,1.3168810606002808,-1.515444278717041
59.0,-2.902167797088623,-2.414923667907715,-1.745558738708496,-0.560045599937439,1.315233588218689,-1.514585018157959
60.0,-2.9048988819122314,-2.416823387145996,-1.7484149932861328,-0.5614438652992249,1.314861536026001,-1.5143909454345703
61.0,-2.9048988819122314,-2.416823387145996,-1.7484149932861328,-0.5614438652992249,1.314861536026001,-1.5143909454345703
62.0,-2.901411771774292,-2.427541732788086,-1.7207032442092896,-0.5881398320198059,1.3139036893844604,-1.4766144752502441
63.0,-2.8873190879821777,-2.4296770095825195,-1.723587155342102,-0.5884516835212708,1.3094215393066406,-1.457757830619812
64.0,-2.889343500137329,-2.4198081493377686,-1.7598159313201904,-0.5314313769340515,1.2958118915557861,-1.5757075548171997
65.0,-2.8691537380218506,-2.43904185295105,-1.8820149898529053,-0.13225051760673523,1.199776291847229,-2.202030658721924
66.0,-2.8609743118286133,-2.4313838481903076,-1.837345838546753,-0.2923619747161865,1.2027101516723633,-1.971570611000061
67.0,-2.858891487121582,-2.4315617084503174,-1.7768152952194214,-0.45948323607444763,1.2327312231063843,-1.7043448686599731
68.0,-2.877634286880493,-2.441925525665283,-1.695850133895874,-0.6160118579864502,1.307675838470459,-1.412864327430725
69.0,-2.852663993835449,-2.438267469406128,-1.751075267791748,-0.5073524117469788,1.233208179473877,-1.6181474924087524
70.0,-2.810560464859009,-2.4581406116485596,-1.79766845703125,-0.35654518008232117,1.084689736366272,-1.7824182510375977
71.0,-2.8327016830444336,-2.45052170753479,-1.738824486732483,-0.5109153985977173,1.1847988367080688,-1.6029993295669556
72.0,-2.857891082763672,-2.4531795978546143,-1.6810697317123413,-0.6256484985351562,1.2839547395706177,-1.4043045043945312
73.0,-2.8716025352478027,-2.460056781768799,-1.6514712572097778,-0.6550945043563843,1.310910940170288,-1.362599492073059
74.0,-2.8726844787597656,-2.4508554935455322,-1.6750081777572632,-0.6351931691169739,1.3076460361480713,-1.3856964111328125
75.0,-2.8841538429260254,-2.4582507610321045,-1.6489059925079346,-0.6543294191360474,1.316228985786438,-1.3780966997146606
76.0,-2.894101142883301,-2.4629249572753906,-1.6308424472808838,-0.6675482988357544,1.3226686716079712,-1.373996376991272
77.0,-2.894166946411133,-2.4516098499298096,-1.6604992151260376,-0.6423166394233704,1.3189340829849243,-1.4035910367965698
78.0,-2.8909199237823486,-2.4430360794067383,-1.6852526664733887,-0.621506929397583,1.3149632215499878,-1.4239686727523804
79.0,-2.9028406143188477,-2.4472761154174805,-1.6666992902755737,-0.6354791522026062,1.3199315071105957,-1.4225122928619385
80.0,-2.9056408405303955,-2.460131883621216,-1.6311583518981934,-0.6656062602996826,1.3249279260635376,-1.3898193836212158
81.0,-2.9128122329711914,-2.440138816833496,-1.6795657873153687,-0.6224866509437561,1.322179913520813,-1.4502317905426025
82.0,-2.9164657592773438,-2.4308650493621826,-1.703188419342041,-0.5984220504760742,1.3321692943572998,-1.486008882522583
83.0,-2.9361183643341064,-2.4375526905059814,-1.6777399778366089,-0.607649564743042,1.3895275592803955,-1.512322187423706
84.0,-2.9145374298095703,-2.4538071155548096,-1.6420528888702393,-0.6555154919624329,1.3251523971557617,-1.4117509126663208
85.0,-2.918025493621826,-2.462977647781372,-1.6156638860702515,-0.6785239577293396,1.3275808095932007,-1.3868457078933716
86.0,-2.9104392528533936,-2.4741768836975098,-1.5916584730148315,-0.6990253329277039,1.3296196460723877,-1.3543497323989868
87.0,-2.898015022277832,-2.472057580947876,-1.604958176612854,-0.6883471608161926,1.3274229764938354,-1.3542131185531616
88.0,-2.905988931655884,-2.4826526641845703,-1.5730483531951904,-0.7138845324516296,1.333472728729248,-1.3318977355957031
89.0,-2.918379783630371,-2.4856462478637695,-1.556874394416809,-0.7292729616165161,1.330302119255066,-1.3260990381240845
90.0,-2.9127137660980225,-2.4949660301208496,-1.5370692014694214,-0.7452205419540405,1.332888126373291,-1.3018442392349243
91.0,-2.9101884365081787,-2.505223274230957,-1.5127226114273071,-0.7657479643821716,1.3312689065933228,-1.2783615589141846
92.0,-2.9211413860321045,-2.5020864009857178,-1.5132232904434204,-0.7668604254722595,1.3295413255691528,-1.2861955165863037
93.0,-2.9293041229248047,-2.510213851928711,-1.4875010251998901,-0.7888810038566589,1.3302754163742065,-1.26828134059906
94.0,-2.9472317695617676,-2.5010271072387695,-1.5035384893417358,-0.7633779048919678,1.384731650352478,-1.2787744998931885
95.0,-2.951605796813965,-2.511247396469116,-1.4757999181747437,-0.7852622270584106,1.3936671018600464,-1.2426363229751587
96.0,-2.9584176540374756,-2.5244154930114746,-1.4400129318237305,-0.8128020167350769,1.410614013671875,-1.1841799020767212
97.0,-2.934882164001465,-2.529705286026001,-1.4353876113891602,-0.8330021500587463,1.3322697877883911,-1.2220263481140137
98.0,-2.924685478210449,-2.531437397003174,-1.4376840591430664,-0.8304299712181091,1.3292601108551025,-1.2205345630645752
99.0,-2.9181628227233887,-2.52473521232605,-1.4586206674575806,-0.8120923042297363,1.3292406797409058,-1.2358872890472412
100.0,-2.910677433013916,-2.532674551010132,-1.4437681436538696,-0.8236592411994934,1.3257780075073242,-1.2230095863342285
101.0,-2.9015614986419678,-2.542006731033325,-1.426576852798462,-0.8374486565589905,1.3174571990966797,-1.2122747898101807
102.0,-2.9008772373199463,-2.530060052871704,-1.4565504789352417,-0.8124722242355347,1.3206405639648438,-1.2331595420837402
103.0,-2.891693592071533,-2.5266175270080566,-1.4710707664489746,-0.7994975447654724,1.319274663925171,-1.2416819334030151
104.0,-2.9049787521362305,-2.5141963958740234,-1.4934978485107422,-0.781539261341095,1.3282418251037598,-1.260574460029602
105.0,-2.8951821327209473,-2.507422924041748,-1.5169841051101685,-0.7611321210861206,1.3278591632843018,-1.2750943899154663
106.0,-2.9033308029174805,-2.498222827911377,-1.5348938703536987,-0.7464658617973328,1.3321144580841064,-1.2934916019439697
107.0,-2.8966588973999023,-2.489650011062622,-1.5612539052963257,-0.7233285903930664,1.3331072330474854,-1.313631296157837
108.0,-2.890746831893921,-2.4820163249969482,-1.5842983722686768,-0.7049316763877869,1.3297991752624512,-1.3287467956542969
109.0,-2.8835017681121826,-2.470554828643799,-1.6178182363510132,-0.6790578961372375,1.3219716548919678,-1.350688099861145
110.0,-2.8808867931365967,-2.4823009967803955,-1.5895323753356934,-0.7016221880912781,1.326151967048645,-1.3235270977020264
111.0,-2.884960174560547,-2.491725444793701,-1.5635530948638916,-0.7210021018981934,1.3323748111724854,-1.3062435388565063
112.0,-2.8741846084594727,-2.4938817024230957,-1.5651257038116455,-0.7195429801940918,1.331122636795044,-1.298607587814331
113.0,-2.8713228702545166,-2.474860191345215,-1.6139719486236572,-0.6843343377113342,1.3170273303985596,-1.3329946994781494
114.0,-2.8592538833618164,-2.471004009246826,-1.6302906274795532,-0.6759248375892639,1.3037068843841553,-1.3296010494232178
115.0,-2.8388843536376953,-2.479862928390503,-1.6247490644454956,-0.6782156825065613,1.2382733821868896,-1.357927680015564
116.0,-2.8004679679870605,-2.473910331726074,-1.7109535932540894,-0.5400155782699585,1.0828553438186646,-1.5441582202911377
117.0,-2.7868189811706543,-2.475752353668213,-1.7685319185256958,-0.4062314033508301,1.0129643678665161,-1.6873016357421875
118.0,-2.748833179473877,-2.5083301067352295,-1.7689611911773682,-0.37035825848579407,0.8518630266189575,-1.6689189672470093
119.0,-2.75618052482605,-2.5028815269470215,-1.726493239402771,-0.4895119369029999,0.8971678614616394,-1.5603808164596558
120.0,-2.766777515411377,-2.501572608947754,-1.6803010702133179,-0.5946210026741028,0.9514161944389343,-1.460666298866272
121.0,-2.808288335800171,-2.48210072517395,-1.659722089767456,-0.6285708546638489,1.1221413612365723,-1.437710165977478
122.0,-2.8108553886413574,-2.4940526485443115,-1.6147078275680542,-0.697295606136322,1.1330468654632568,-1.3527085781097412
123.0,-2.8249642848968506,-2.5029053688049316,-1.5710102319717407,-0.7517130970954895,1.182332992553711,-1.279106616973877
124.0,-2.8475747108459473,-2.4878792762756348,-1.5957797765731812,-0.7052653431892395,1.2669872045516968,-1.3198620080947876
125.0,-2.854067802429199,-2.4989566802978516,-1.5622881650924683,-0.7342576384544373,1.2825435400009155,-1.2857348918914795
126.0,-2.866729497909546,-2.507075786590576,-1.5352741479873657,-0.7484025955200195,1.3140071630477905,-1.2709393501281738
127.0,-2.857337474822998,-2.524620532989502,-1.4897515773773193,-0.818773090839386,1.2646608352661133,-1.1880148649215698
128.0,-2.8636884689331055,-2.534054756164551,-1.4605426788330078,-0.8498773574829102,1.268064260482788,-1.1515709161758423
129.0,-2.8796839714050293,-2.5083303451538086,-1.5245678424835205,-0.7548429369926453,1.3218674659729004,-1.2734465599060059
130.0,-2.8791511058807373,-2.521015167236328,-1.4930026531219482,-0.7814358472824097,1.315913200378418,-1.2518607378005981
131.0,-2.8771610260009766,-2.5379481315612793,-1.446775197982788,-0.8417738676071167,1.2910761833190918,-1.1773326396942139
132.0,-2.8867204189300537,-2.5436158180236816,-1.4275200366973877,-0.8541690111160278,1.3007378578186035,-1.1688835620880127
133.0,-2.8844025135040283,-2.5668985843658447,-1.355594277381897,-0.9919068217277527,1.2682439088821411,-0.9686042666435242
134.0,-2.8803374767303467,-2.614325761795044,-1.2269843816757202,-1.248892903327942,1.2306455373764038,-0.6990286707878113
135.0,-2.893136978149414,-2.6477527618408203,-1.1381860971450806,-1.3947415351867676,1.2520315647125244,-0.5546907186508179
136.0,-2.9062273502349854,-2.7150282859802246,-0.9824705123901367,-1.645646572113037,1.2837117910385132,-0.36989402770996094
137.0,-2.8894078731536865,-2.7591588497161865,-0.9029250741004944,-1.796983003616333,1.2389768362045288,-0.3384740352630615
138.0,-2.87070894241333,-2.6999928951263428,-1.0379048585891724,-1.6049689054489136,1.1922154426574707,-0.468763142824173
139.0,-2.8576364517211914,-2.643902063369751,-1.1712983846664429,-1.3914105892181396,1.1680727005004883,-0.6288615465164185
140.0,-2.84474515914917,-2.593782663345337,-1.302802562713623,-1.16945219039917,1.1566810607910156,-0.8284171223640442
141.0,-2.8527426719665527,-2.560744047164917,-1.3869930505752563,-0.9984846711158752,1.207007646560669,-0.9808927178382874
142.0,-2.8274357318878174,-2.585035800933838,-1.3384276628494263,-1.1385377645492554,1.116236686706543,-0.8778074383735657
143.0,-2.819941282272339,-2.6510655879974365,-1.1854281425476074,-1.4473862648010254,1.056266188621521,-0.6532029509544373
144.0,-2.830904960632324,-2.6969125270843506,-1.0758655071258545,-1.6242207288742065,1.0781419277191162,-0.5251290798187256
145.0,-2.8480982780456543,-2.7808682918548584,-0.8915706276893616,-1.895226001739502,1.1175122261047363,-0.36369621753692627
146.0,-2.8687808513641357,-2.828270435333252,-0.7888271808624268,-1.9944891929626465,1.18307626247406,-0.2919331192970276
147.0,-2.8899691104888916,-2.868501663208008,-0.7009868621826172,-2.0672969818115234,1.2492458820343018,-0.234091117978096
148.0,-2.851762056350708,-2.805905342102051,-0.850500226020813,-1.927222490310669,1.136662244796753,-0.3402066230773926
149.0,-2.832350015640259,-2.771540403366089,-0.932636559009552,-1.846185564994812,1.0778297185897827,-0.402652770280838
150.0,-2.8112761974334717,-2.731567859649658,-1.0292928218841553,-1.7454801797866821,1.0107614994049072,-0.4812532961368561
151.0,-2.7852232456207275,-2.6798698902130127,-1.1586298942565918,-1.597854495048523,0.9252971410751343,-0.5974889397621155
152.0,-2.7898764610290527,-2.6183245182037354,-1.2905641794204712,-1.3258835077285767,0.9700069427490234,-0.7762515544891357
153.0,-2.7776172161102295,-2.5935182571411133,-1.3655779361724854,-1.2105516195297241,0.9392877817153931,-0.8759877681732178
154.0,-2.7900826930999756,-2.549912214279175,-1.4693080186843872,-0.9717729687690735,1.0225484371185303,-1.0688555240631104
155.0,-2.8168323040008545,-2.552063226699829,-1.4355889558792114,-0.9819770455360413,1.1113708019256592,-1.0353516340255737
156.0,-2.826524496078491,-2.527665138244629,-1.497307300567627,-0.8600114583969116,1.167118787765503,-1.153102993965149
157.0,-2.8099186420440674,-2.5205259323120117,-1.5326684713363647,-0.8277769684791565,1.1165697574615479,-1.200764536857605
158.0,-2.792015314102173,-2.5153379440307617,-1.5712451934814453,-0.7849031686782837,1.0530295372009277,-1.257299780845642
159.0,-2.7347629070281982,-2.559657096862793,-1.5356366634368896,-0.9566848278045654,0.7688739895820618,-1.113930344581604
160.0,-2.7384214401245117,-2.5329816341400146,-1.6289418935775757,-0.7294356822967529,0.8060644865036011,-1.3152157068252563
161.0,-2.718651294708252,-2.5622358322143555,-1.5775859355926514,-0.8941632509231567,0.6921300292015076,-1.1623879671096802
162.0,-2.7111682891845703,-2.553760051727295,-1.6655027866363525,-0.6664798855781555,0.6585258841514587,-1.3529024124145508
163.0,-2.707982063293457,-2.556265354156494,-1.7299175262451172,-0.4611043632030487,0.6436014771461487,-1.5271801948547363
164.0,-2.7085530757904053,-2.5615651607513428,-1.7733964920043945,-0.2972303628921509,0.6395660042762756,-1.6706302165985107
165.0,-2.7120602130889893,-2.5732028484344482,-1.8156813383102417,-0.10678012669086456,0.6493286490440369,-1.8405020236968994
166.0,-2.706178665161133,-2.563021183013916,-1.6982648372650146,-0.5535990595817566,0.6580842137336731,-1.4415150880813599
167.0,-2.7042770385742188,-2.569376230239868,-1.7487467527389526,-0.3795347809791565,0.6519908308982849,-1.5893282890319824
168.0,-2.7074153423309326,-2.5843505859375,-1.812294840812683,-0.11393225938081741,0.6587570309638977,-1.8239800930023193
169.0,-2.7123894691467285,-2.593916654586792,-1.8404943943023682,0.027997273951768875,0.6724275350570679,-1.9545719623565674
170.0,-2.73279070854187,-2.631037712097168,-1.8953189849853516,0.36295804381370544,0.7560363411903381,-2.269912004470825
171.0,-2.750936985015869,-2.6518962383270264,-1.9181065559387207,0.5214588046073914,0.8279913067817688,-2.4286880493164062
172.0,-2.7179267406463623,-2.614386796951294,-1.8671672344207764,0.18455266952514648,0.705242931842804,-2.0957984924316406
173.0,-2.703047513961792,-2.5875062942504883,-1.7959060668945312,-0.17943526804447174,0.6611650586128235,-1.7594183683395386
174.0,-2.7097487449645996,-2.6097922325134277,-1.8470858335494995,0.07358948886394501,0.6884303689002991,-1.9871814250946045
175.0,-2.7214457988739014,-2.6319682598114014,-1.8820735216140747,0.2818088233470917,0.7341554760932922,-2.182544469833374
176.0,-2.7345378398895264,-2.6456410884857178,-1.9026894569396973,0.41527387499809265,0.7797008752822876,-2.3145370483398438
177.0,-2.7445216178894043,-2.6626391410827637,-1.916287899017334,0.5125923752784729,0.826177716255188,-2.4094417095184326
178.0,-2.763821601867676,-2.6712164878845215,-1.931096076965332,0.6173269152641296,0.8863990306854248,-2.5240917205810547
179.0,-2.7947120666503906,-2.6879801750183105,-1.9474364519119263,0.7424315214157104,0.9900380969047546,-2.66795015335083
180.0,-2.773505687713623,-2.689382553100586,-1.9391095638275146,0.6814498901367188,0.9343065023422241,-2.587534189224243
181.0,-2.75441312789917,-2.678473949432373,-1.9267154932022095,0.5895418524742126,0.8711255788803101,-2.4856531620025635
182.0,-2.7370240688323975,-2.6689465045928955,-1.9122575521469116,0.48836857080459595,0.8162062168121338,-2.376392364501953
183.0,-2.8258044719696045,-2.527416706085205,-1.9128271341323853,0.008536698296666145,1.2506744861602783,-2.3124568462371826
184.0,-2.8258044719696045,-2.527416706085205,-1.9128271341323853,0.008536698296666145,1.2506744861602783,-2.3124568462371826
185.0,-2.826101779937744,-2.5282304286956787,-1.9090889692306519,0.023335278034210205,1.2339603900909424,-2.3063318729400635
186.0,-2.826716184616089,-2.529911756515503,-1.9013463258743286,0.05398813635110855,1.1993415355682373,-2.2936460971832275
187.0,-2.827624559402466,-2.532404899597168,-1.8898472785949707,0.09951459616422653,1.1479264497756958,-2.2748053073883057
188.0,-2.828801393508911,-2.5356392860412598,-1.8748977184295654,0.15870000422000885,1.0810878276824951,-2.250312328338623
189.0,-2.83022141456604,-2.5395452976226807,-1.856810450553894,0.2303047776222229,1.0002261400222778,-2.220679998397827
190.0,-2.831859827041626,-2.544055223464966,-1.835898518562317,0.3130876421928406,0.9067429304122925,-2.186422109603882
191.0,-2.8336904048919678,-2.5491015911102295,-1.812475323677063,0.4058072865009308,0.8020399808883667,-2.148052930831909
192.0,-2.835686445236206,-2.554615020751953,-1.7868540287017822,0.5072221159934998,0.687518835067749,-2.1060876846313477
193.0,-2.837822675704956,-2.560527801513672,-1.7593486309051514,0.6160916090011597,0.5645802021026611,-2.061042070388794
194.0,-2.8400769233703613,-2.5667715072631836,-1.7302724123001099,0.7311757206916809,0.43462660908699036,-2.01343035697937
195.0,-2.8424246311187744,-2.573279619216919,-1.6999388933181763,0.851233720779419,0.2990608513355255,-1.9637666940689087
196.0,-2.844841480255127,-2.5799849033355713,-1.6686604022979736,0.9750238656997681,0.15928561985492706,-1.9125651121139526
197.0,-2.8473033905029297,-2.5868215560913086,-1.6367487907409668,1.101304531097412,0.016704367473721504,-1.860339641571045
198.0,-2.8497869968414307,-2.593722343444824,-1.6045169830322266,1.2288339138031006,-0.12727989256381989,-1.807604432106018
199.0,-2.8522682189941406,-2.6006195545196533,-1.572279453277588,1.3563687801361084,-0.271263986825943,-1.7548726797103882
200.0,-2.854724407196045,-2.6074459552764893,-1.5403515100479126,1.4826654195785522,-0.4138450026512146,-1.702657699584961
201.0,-2.8571324348449707,-2.6141364574432373,-1.5090487003326416,1.606480598449707,-0.5536203980445862,-1.651473045349121
202.0,-2.8594675064086914,-2.62062406539917,-1.4786863327026367,1.726572036743164,-0.6891880631446838,-1.601831316947937
203.0,-2.861705780029297,-2.6268415451049805,-1.449579119682312,1.8416961431503296,-0.8191453814506531,-1.5542454719543457
204.0,-2.8638243675231934,-2.632720470428467,-1.4220411777496338,1.9506096839904785,-0.9420900940895081,-1.5092278718948364
205.0,-2.865797519683838,-2.638193368911743,-1.396386981010437,2.0520694255828857,-1.0566201210021973,-1.4672904014587402
206.0,-2.8676013946533203,-2.6431925296783447,-1.3729315996170044,2.144832134246826,-1.1613333225250244,-1.4289460182189941
207.0,-2.869211435317993,-2.6476519107818604,-1.351989507675171,2.2276551723480225,-1.254827857017517,-1.3947088718414307
208.0,-2.870603322982788,-2.651505947113037,-1.3338754177093506,2.2992968559265137,-1.3356990814208984,-1.365094780921936
209.0,-2.8717517852783203,-2.6546871662139893,-1.3189038038253784,2.3585147857666016,-1.4025437831878662,-1.3406187295913696
210.0,-2.872633695602417,-2.657130002975464,-1.3073878288269043,2.4040675163269043,-1.453963041305542,-1.3217934370040894
211.0,-2.8732264041900635,-2.6587719917297363,-1.2996342182159424,2.434739112854004,-1.4885854721069336,-1.3091202974319458
212.0,-2.873511791229248,-2.6595635414123535,-1.2958910465240479,2.449547290802002,-1.5053021907806396,-1.3030030727386475
213.0,-2.873511791229248,-2.6595635414123535,-1.2958910465240479,2.449547290802002,-1.5053021907806396,-1.3030030727386475
214.0,-2.843397617340088,-2.6418349742889404,-1.324930191040039,2.550757884979248,-1.368161916732788,0.9112749695777893
215.0,-2.7597434520721436,-2.609358787536621,-1.4429004192352295,2.8491318225860596,-0.9792941212654114,0.9662862420082092
216.0,-2.8599424362182617,-2.694899320602417,-1.2138620615005493,2.3750243186950684,-1.5042088031768799,-1.2889277935028076
217.0,-2.856342077255249,-2.683232545852661,-1.2423681020736694,2.3988826274871826,-1.50601327419281,-1.2854673862457275
218.0,-2.8468923568725586,-2.700920820236206,-1.2019611597061157,2.3638272285461426,-1.5101535320281982,-1.275887131690979
219.0,-2.8550655841827393,-2.716278076171875,-1.1656725406646729,2.3310651779174805,-1.522194743156433,-1.2840800285339355
220.0,-2.7613635063171387,-2.688047409057617,-1.2624614238739014,2.530658721923828,-1.0599339008331299,1.2691926956176758
221.0,-2.8359129428863525,-2.730639696121216,-1.1309893131256104,2.31857967376709,-1.4547765254974365,-1.2635806798934937
222.0,-2.7509591579437256,-2.6557281017303467,-1.3452500104904175,2.6734533309936523,-0.9787144660949707,1.1523518562316895
223.0,-2.715106248855591,-2.625086784362793,-1.4590063095092773,2.9782049655914307,-0.741570770740509,0.9734908938407898
224.0,-2.7110555171966553,-2.64742374420166,-1.4029736518859863,2.8671822547912598,-0.7111011147499084,1.07658052444458
225.0,-2.70422625541687,-2.680588722229004,-1.3440427780151367,2.753830671310425,-0.6911129355430603,1.1890414953231812
226.0,-2.6973023414611816,-2.7431421279907227,-1.2331745624542236,2.544245481491089,-0.6746320724487305,1.3938778638839722
227.0,-2.697291612625122,-2.7763400077819824,-1.168602705001831,2.422534227371216,-0.6709962487220764,1.5090445280075073
228.0,-2.697964906692505,-2.818082571029663,-1.0898816585540771,2.2804970741271973,-0.6745515465736389,1.6433098316192627
229.0,-2.7011399269104004,-2.8601551055908203,-1.009644865989685,2.143167495727539,-0.6871725916862488,1.771301507949829
230.0,-2.701824426651001,-2.892758846282959,-0.9540278315544128,2.061304807662964,-0.7041044235229492,1.8494316339492798
231.0,-2.697324275970459,-2.8546829223632812,-1.0309332609176636,2.190253496170044,-0.6916617751121521,1.7319631576538086
232.0,-2.7180094718933105,-2.764350414276123,-1.1597950458526611,2.399503707885742,-0.8396857976913452,1.5017319917678833
233.0,-2.842909097671509,-2.764913320541382,-1.0518966913223267,2.2511119842529297,-1.514007329940796,-1.271687626838684
234.0,-2.837642192840576,-2.7367513179779053,-1.1182007789611816,2.2995195388793945,-1.5156906843185425,-1.2665215730667114
235.0,-2.8373055458068848,-2.7500922679901123,-1.0868030786514282,2.2770745754241943,-1.5186203718185425,-1.266188383102417
236.0,-2.835360527038574,-2.7704598903656006,-1.0391888618469238,2.2439653873443604,-1.522446870803833,-1.2642542123794556
237.0,-2.8361289501190186,-2.7881622314453125,-0.9977005124092102,2.2162563800811768,-1.5258952379226685,-1.2650483846664429
238.0,-2.8139467239379883,-2.7935521602630615,-0.9967065453529358,2.207817792892456,-1.366752028465271,1.6282023191452026
239.0,-2.835843086242676,-2.80570912361145,-0.9568033218383789,2.1898205280303955,-1.528440237045288,-1.2647823095321655
240.0,-2.8281097412109375,-2.8272922039031982,-0.914914608001709,2.146925687789917,-1.434875249862671,-1.2543525695800781
241.0,-2.8281097412109375,-2.8272922039031982,-0.914914608001709,2.146925687789917,-1.434875249862671,-1.2543525695800781
242.0,-2.827378511428833,-2.8259222507476807,-0.918912410736084,2.128852128982544,-1.4217678308486938,-1.2539180517196655
243.0,-2.8258614540100098,-2.823080062866211,-0.9271933436393738,2.091416597366333,-1.3946186304092407,-1.25301992893219
244.0,-2.8236050605773926,-2.818850517272949,-0.9394917488098145,2.035815477371216,-1.3542953729629517,-1.2516883611679077
245.0,-2.8206686973571777,-2.813342571258545,-0.9554795622825623,1.9635297060012817,-1.3018728494644165,-1.2499606609344482
246.0,-2.817115068435669,-2.8066701889038086,-0.9748231768608093,1.8760708570480347,-1.2384486198425293,-1.2478744983673096
247.0,-2.8130054473876953,-2.7989468574523926,-0.9971891045570374,1.7749533653259277,-1.1651214361190796,-1.245466947555542
248.0,-2.8084018230438232,-2.790287971496582,-1.0222430229187012,1.6616922616958618,-1.0829905271530151,-1.2427750825881958
249.0,-2.8033645153045654,-2.7808101177215576,-1.0496493577957153,1.5378042459487915,-0.9931565523147583,-1.2398364543914795
250.0,-2.797955274581909,-2.7706298828125,-1.0790729522705078,1.404807448387146,-0.896719753742218,-1.236688256263733
251.0,-2.792236566543579,-2.7598650455474854,-1.1101765632629395,1.2642196416854858,-0.7947793006896973,-1.2333675622940063
252.0,-2.786271572113037,-2.748631715774536,-1.1426241397857666,1.1175593137741089,-0.6884348392486572,-1.229910135269165
253.0,-2.7801249027252197,-2.7370476722717285,-1.176079511642456,0.966346025466919,-0.5787866711616516,-1.2263524532318115
254.0,-2.7738590240478516,-2.7252285480499268,-1.2102062702178955,0.8120997548103333,-0.46693480014801025,-1.2227305173873901
255.0,-2.767536163330078,-2.7132930755615234,-1.2446683645248413,0.6563399434089661,-0.353981077671051,-1.2190797328948975
256.0,-2.761216878890991,-2.7013580799102783,-1.2791309356689453,0.5005849599838257,-0.24102893471717834,-1.2154338359832764
257.0,-2.7549619674682617,-2.6895384788513184,-1.3132574558258057,0.3463529050350189,-0.12918120622634888,-1.2118268013000488
258.0,-2.7488319873809814,-2.6779510974884033,-1.3467119932174683,0.1951625496149063,-0.019538652151823044,-1.2082922458648682
259.0,-2.7428863048553467,-2.666713237762451,-1.3791589736938477,0.048530902713537216,0.08679980039596558,-1.2048656940460205
260.0,-2.737187147140503,-2.6559412479400635,-1.4102632999420166,-0.0920272022485733,0.1887359619140625,-1.2015825510025024
261.0,-2.7317965030670166,-2.6457505226135254,-1.439687967300415,-0.22499783337116241,0.28517138957977295,-1.1984782218933105
262.0,-2.7267749309539795,-2.636255979537964,-1.467096209526062,-0.34886616468429565,0.37500640749931335,-1.1955881118774414
263.0,-2.722181797027588,-2.627575159072876,-1.4921523332595825,-0.4621160626411438,0.4571399688720703,-1.1929478645324707
264.0,-2.718076705932617,-2.6198253631591797,-1.5145208835601807,-0.5632301568984985,0.5304714441299438,-1.1905913352966309
265.0,-2.714522361755371,-2.6131227016448975,-1.5338674783706665,-0.6506906151771545,0.5939006209373474,-1.188554286956787
266.0,-2.7115824222564697,-2.607581853866577,-1.5498582124710083,-0.7229804992675781,0.6463266015052795,-1.1868715286254883
267.0,-2.7093191146850586,-2.6033198833465576,-1.562158465385437,-0.7785868048667908,0.6866523623466492,-1.1855791807174683
268.0,-2.7077932357788086,-2.600450277328491,-1.5704401731491089,-0.8160273432731628,0.7138040661811829,-1.1847103834152222
269.0,-2.70705509185791,-2.599064350128174,-1.5744383335113525,-0.8341036438941956,0.7269132733345032,-1.1842916011810303
270.0,-2.70705509185791,-2.599064350128174,-1.5744383335113525,-0.8341036438941956,0.7269132733345032,-1.1842916011810303
271.0,-2.714733123779297,-2.614217519760132,-1.5033117532730103,-0.9783575534820557,0.7613804340362549,-1.0623093843460083
272.0,-2.828333854675293,-2.565784454345703,-1.5524563789367676,-0.6442829370498657,1.4160863161087036,-1.2559980154037476
273.0,-2.8447413444519043,-2.559019088745117,-1.5806254148483276,-0.5791448950767517,1.5362874269485474,1.8678275346755981
274.0,-2.840545654296875,-2.568331241607666,-1.5538676977157593,-0.6004458069801331,1.5318974256515503,1.8720779418945312
275.0,-2.847452163696289,-2.574742317199707,-1.5351248979568481,-0.6136789917945862,1.5361114740371704,1.8651190996170044
276.0,-2.812011241912842,-2.5794451236724854,-1.5129317045211792,-0.7204386591911316,1.3043948411941528,-1.2052416801452637
277.0,-2.784586191177368,-2.605003595352173,-1.4423354864120483,-0.8975223302841187,1.1289567947387695,-1.0651366710662842
278.0,-2.8524532318115234,-2.592156410217285,-1.4858589172363281,-0.6508241295814514,1.536483645439148,1.8601056337356567
279.0,-2.856374502182007,-2.6029021739959717,-1.4555593729019165,-0.6751632690429688,1.5345737934112549,1.856191635131836
280.0,-2.8620052337646484,-2.610842704772949,-1.4333350658416748,-0.6922788023948669,1.5341135263442993,1.8505526781082153
281.0,-2.781679153442383,-2.6295015811920166,-1.372351884841919,-1.0370010137557983,1.0754858255386353,-0.9518337845802307
282.0,-2.8376011848449707,-2.613603353500366,-1.4031527042388916,-0.835852861404419,1.3582816123962402,-0.9810438752174377
283.0,-2.8633556365966797,-2.6189746856689453,-1.4000166654586792,-0.7601799368858337,1.4690039157867432,1.8503321409225464
284.0,-2.8674211502075195,-2.619429588317871,-1.409438967704773,-0.711500883102417,1.5337527990341187,1.8451207876205444
285.0,-2.8763110637664795,-2.631469488143921,-1.3758786916732788,-0.7394199371337891,1.5326392650604248,1.83620285987854
286.0,-2.8833224773406982,-2.6453945636749268,-1.3381168842315674,-0.7706113457679749,1.5326781272888184,1.8291347026824951
287.0,-2.8561031818389893,-2.6520907878875732,-1.2857893705368042,-1.0039843320846558,1.3518840074539185,-0.7489818930625916
288.0,-2.847428321838379,-2.6388068199157715,-1.3251640796661377,-0.9527201056480408,1.3439521789550781,-0.8263638615608215
289.0,-2.770242691040039,-2.711341619491577,-1.1701297760009766,-1.5000920295715332,0.9409872889518738,-0.6400993466377258
290.0,-2.744439125061035,-2.657212018966675,-1.318820834159851,-1.30486261844635,0.8516839146614075,-0.8006974458694458
291.0,-2.7800793647766113,-2.7202436923980713,-1.1299864053726196,-1.5632432699203491,0.9605582356452942,-0.5964024066925049
292.0,-2.763911247253418,-2.6838011741638184,-1.2205315828323364,-1.4572463035583496,0.903832197189331,-0.6838822960853577
293.0,-2.7566304206848145,-2.661923885345459,-1.271181344985962,-1.3971575498580933,0.8703304529190063,-0.7366422414779663
294.0,-2.745701313018799,-2.6454029083251953,-1.3287386894226074,-1.3092403411865234,0.8390098810195923,-0.8051040768623352
295.0,-2.7370681762695312,-2.6260719299316406,-1.387607455253601,-1.2191119194030762,0.8047663569450378,-0.8800181150436401
296.0,-2.732106924057007,-2.637166976928711,-1.3923369646072388,-1.1855759620666504,0.8134134411811829,-0.8958919048309326
297.0,-2.721905469894409,-2.6170990467071533,-1.4637553691864014,-1.0655912160873413,0.7752801179885864,-0.9951165318489075
298.0,-2.710721015930176,-2.5903213024139404,-1.568869948387146,-0.8650014996528625,0.7207385897636414,-1.1655405759811401
299.0,-2.7202582359313965,-2.601261615753174,-1.496835708618164,-1.0205429792404175,0.7523612380027771,-1.0383356809616089
300.0,-2.728304147720337,-2.61254620552063,-1.441084623336792,-1.1275160312652588,0.7773784399032593,-0.9530656933784485
301.0,-2.7055652141571045,-2.578092098236084,-1.6356526613235474,-0.7114912867546082,0.6891676783561707,-1.2977594137191772
302.0,-2.7007949352264404,-2.581763505935669,-1.7592171430587769,-0.32657134532928467,0.6612387299537659,-1.6275842189788818
303.0,-2.702559471130371,-2.574636697769165,-1.6935460567474365,-0.5510300397872925,0.6703571677207947,-1.4347957372665405
304.0,-2.717658519744873,-2.5875980854034424,-1.5328810214996338,-0.9600359797477722,0.7287834286689758,-1.0936046838760376
305.0,-2.7085890769958496,-2.566427230834961,-1.6444289684295654,-0.7070086002349854,0.676093578338623,-1.3097018003463745
306.0,-2.7144217491149902,-2.5726842880249023,-1.5826079845428467,-0.8632392883300781,0.7009228467941284,-1.178635835647583
307.0,-2.7229301929473877,-2.581562042236328,-1.5161337852478027,-1.012524962425232,0.7284635901451111,-1.0578947067260742
308.0,-2.7339680194854736,-2.601966619491577,-1.432649850845337,-1.1682441234588623,0.7704779505729675,-0.931041955947876
309.0,-2.7315378189086914,-2.585294246673584,-1.4675450325012207,-1.1218914985656738,0.7457598447799683,-0.9746819734573364
310.0,-2.744356155395508,-2.613361358642578,-1.3750619888305664,-1.2757591009140015,0.79835444688797,-0.8479834198951721
311.0,-2.762204885482788,-2.646796703338623,-1.2695256471633911,-1.4356517791748047,0.8601775765419006,-0.7198880314826965
312.0,-2.7867636680603027,-2.6990668773651123,-1.1328307390213013,-1.6074498891830444,0.9471362233161926,-0.5809962749481201
313.0,-2.7557435035705566,-2.647116184234619,-1.2918733358383179,-1.3855019807815552,0.852285623550415,-0.7532191872596741
314.0,-2.770096778869629,-2.679955005645752,-1.2059457302093506,-1.4965629577636719,0.9064357876777649,-0.6612504124641418
315.0,-2.782582998275757,-2.707958698272705,-1.13588285446167,-1.5799448490142822,0.9511628746986389,-0.5928827524185181
316.0,-2.7956156730651855,-2.736585855484009,-1.0678900480270386,-1.653335452079773,0.9952976107597351,-0.532740592956543
317.0,-2.8233025074005127,-2.786388874053955,-0.9404820203781128,-1.7940261363983154,1.0762473344802856,-0.4255026578903198
318.0,-2.8072564601898193,-2.749178647994995,-1.0211098194122314,-1.7203915119171143,1.022111415863037,-0.4866030514240265
319.0,-2.8301572799682617,-2.7869699001312256,-0.9219251871109009,-1.8304612636566162,1.0872505903244019,-0.4042319357395172
320.0,-2.8137447834014893,-2.7481861114501953,-1.0056365728378296,-1.7539067268371582,1.0294573307037354,-0.46774983406066895
321.0,-2.844926118850708,-2.805772066116333,-0.8671975135803223,-1.8936821222305298,1.1246169805526733,-0.3595031201839447
322.0,-2.8659660816192627,-2.8408732414245605,-0.7812097668647766,-1.9787578582763672,1.1855279207229614,-0.29636815190315247
323.0,-2.897792339324951,-2.9025869369506836,-0.647588849067688,-2.0865514278411865,1.2839381694793701,-0.21035660803318024
324.0,-2.944084882736206,-2.9767906665802,-0.47867506742477417,-2.2253592014312744,1.4213438034057617,-0.10202702134847641
325.0,-2.962453603744507,-3.0198140144348145,-0.398128867149353,-2.269118070602417,1.4799766540527344,-0.06145552918314934
326.0,-2.9448816776275635,-2.995016098022461,-0.4535473585128784,-2.2272891998291016,1.4291809797286987,-0.09777504205703735
327.0,-2.925859212875366,-2.9628825187683105,-0.5247415900230408,-2.1725680828094482,1.3731409311294556,-0.14015516638755798
328.0,-2.876251459121704,-2.8745832443237305,-0.7221419811248779,-2.0114173889160156,1.2257864475250244,-0.264394074678421
329.0,-2.8514721393585205,-2.8302559852600098,-0.8251663446426392,-1.9178053140640259,1.1536617279052734,-0.3350718915462494
330.0,-2.8882410526275635,-2.907665967941284,-0.658107340335846,-2.0548627376556396,1.2685081958770752,-0.22822241485118866
331.0,-2.8714194297790527,-2.884486675262451,-0.7205229997634888,-1.9905885457992554,1.2246034145355225,-0.27178284525871277
332.0,-2.855159282684326,-2.8510117530822754,-0.7934006452560425,-1.9300694465637207,1.1746081113815308,-0.31949329376220703
333.0,-2.839327335357666,-2.8242194652557373,-0.8596924543380737,-1.8644483089447021,1.130934476852417,-0.36732158064842224
334.0,-2.81149959564209,-2.77404522895813,-0.9835265874862671,-1.7372318506240845,1.0505119562149048,-0.46372926235198975
335.0,-2.795069932937622,-2.753077745437622,-1.0512679815292358,-1.6487587690353394,1.0111597776412964,-0.5260132551193237
336.0,-2.830937147140503,-2.820950746536255,-0.8826741576194763,-1.8270729780197144,1.1159121990203857,-0.3902530074119568
337.0,-2.8685989379882812,-2.668652296066284,-1.2381432056427002,-1.0624210834503174,1.3667702674865723,-0.6571112871170044
338.0,-2.8685989379882812,-2.668652296066284,-1.2381432056427002,-1.0624210834503174,1.3667702674865723,-0.6571112871170044
339.0,-2.8615753650665283,-2.6632447242736816,-1.2317984104156494,-1.0656468868255615,1.3593449592590332,-0.6516745090484619
340.0,-2.847388744354248,-2.652322292327881,-1.2189832925796509,-1.07216215133667,1.3443468809127808,-0.640693187713623
341.0,-2.8223319053649902,-2.6330316066741943,-1.1963509321212769,-1.0836691856384277,1.3178571462631226,-0.6212981939315796
342.0,-2.788255214691162,-2.606797695159912,-1.165573000907898,-1.0993191003799438,1.2818323373794556,-0.5949217677116394
343.0,-2.7474400997161865,-2.5753769874572754,-1.1287105083465576,-1.118064284324646,1.238684058189392,-0.5633295178413391
344.0,-2.6990625858306885,-2.5381345748901367,-1.0850199460983276,-1.1402833461761475,1.1875407695770264,-0.5258832573890686
345.0,-2.6415162086486816,-2.493833303451538,-1.0330520868301392,-1.166712999343872,1.1267050504684448,-0.48133912682533264
346.0,-2.5785651206970215,-2.4453718662261963,-0.9762069582939148,-1.1956226825714111,1.0601577758789062,-0.4326120615005493
347.0,-2.510373592376709,-2.392875909805298,-0.9146324396133423,-1.226936936378479,0.9880722761154175,-0.37982863187789917
348.0,-2.4345829486846924,-2.334528684616089,-0.8462000489234924,-1.2617359161376953,0.9079565405845642,-0.321163147687912
349.0,-2.354206085205078,-2.272648811340332,-0.7736292481422424,-1.2986375093460083,0.8229950666427612,-0.25894778966903687
350.0,-2.269930839538574,-2.207765817642212,-0.6975410580635071,-1.3373267650604248,0.7339147329330444,-0.19371512532234192
351.0,-2.1809380054473877,-2.1392478942871094,-0.6171968579292297,-1.3781802654266357,0.6398494243621826,-0.12483082711696625
352.0,-2.087848424911499,-2.0675745010375977,-0.5331587791442871,-1.4209131002426147,0.5414568185806274,-0.052776604890823364
353.0,-1.992201328277588,-1.9939323663711548,-0.44681575894355774,-1.4648187160491943,0.440364271402359,0.021256010979413986
354.0,-1.8940623998641968,-1.9183716773986816,-0.35822707414627075,-1.5098665952682495,0.33664146065711975,0.09721621125936508
355.0,-1.792969822883606,-1.8405377864837646,-0.26697927713394165,-1.5562688112258911,0.22980578243732452,0.17545941472053528
356.0,-1.6906616687774658,-1.7617696523666382,-0.1746385395526886,-1.6032289266586304,0.12169182300567627,0.25464096665382385
357.0,-1.5873017311096191,-1.6821930408477783,-0.08135227859020233,-1.6506723165512085,0.012472476810216904,0.3346341848373413
358.0,-1.483052134513855,-1.6019322872161865,0.012731759808957577,-1.6985265016555786,-0.09767743200063705,0.41531187295913696
359.0,-1.3787988424301147,-1.5216679573059082,0.10681691765785217,-1.7463843822479248,-0.2078242003917694,0.49598896503448486
360.0,-1.2748371362686157,-1.4416279792785645,0.2006373405456543,-1.7941104173660278,-0.3176569640636444,0.57643723487854
361.0,-1.1715928316116333,-1.3621402978897095,0.2938092350959778,-1.8415100574493408,-0.4267248213291168,0.6563265323638916
362.0,-1.0701138973236084,-1.2840125560760498,0.38538658618927,-1.8881036043167114,-0.5339184999465942,0.7348446249961853
363.0,-0.9702702760696411,-1.207144856452942,0.4754870533943176,-1.9339486360549927,-0.6393787264823914,0.8120937347412109
364.0,-0.8722258806228638,-1.1316637992858887,0.5639623999595642,-1.978969693183899,-0.742932140827179,0.8879467248916626
365.0,-0.7781089544296265,-1.0592082738876343,0.6488913297653198,-2.022190809249878,-0.8423279523849487,0.9607540369033813
366.0,-0.687102198600769,-0.9891492128372192,0.7310120463371277,-2.0639846324920654,-0.9384334087371826,1.0311511754989624
367.0,-0.5992384552955627,-0.9215114116668701,0.8102953433990479,-2.1043355464935303,-1.031214714050293,1.0991135835647583
368.0,-0.5162873268127441,-0.8576568365097046,0.8851447105407715,-2.142430543899536,-1.1188023090362549,1.1632716655731201
369.0,-0.4388402998447418,-0.7980399131774902,0.9550268054008484,-2.1779980659484863,-1.2005746364593506,1.2231709957122803
370.0,-0.3658824861049652,-0.7418787479400635,1.020857810974121,-2.211503505706787,-1.2776050567626953,1.2795974016189575
371.0,-0.29816746711730957,-0.6897533535957336,1.0819581747055054,-2.242601156234741,-1.3490984439849854,1.3319681882858276
372.0,-0.23900508880615234,-0.6442110538482666,1.1353408098220825,-2.2697699069976807,-1.411559820175171,1.3777226209640503
373.0,-0.18567511439323425,-0.6031586527824402,1.1834604740142822,-2.2942593097686768,-1.467862606048584,1.4189651012420654
374.0,-0.1383412480354309,-0.56672203540802,1.2261693477630615,-2.3159940242767334,-1.5178340673446655,1.4555691480636597
375.0,-0.10109725594520569,-0.5380524396896362,1.2597734928131104,-2.333092451095581,-1.5571521520614624,1.4843682050704956
376.0,-0.0720943957567215,-0.5157267451286316,1.2859419584274292,-2.3464066982269287,-1.5877701044082642,1.5067942142486572
377.0,-0.050363268703222275,-0.4989987909793854,1.3055495023727417,-2.3563826084136963,-1.6107113361358643,1.523597002029419
378.0,-0.03825584426522255,-0.4896790087223053,1.3164740800857544,-2.361940860748291,-1.623492956161499,1.5329580307006836
379.0,-0.03630303591489792,-0.48817580938339233,1.3182361125946045,-2.362837314605713,-1.6255545616149902,1.5344678163528442
380.0,-0.03630303591489792,-0.48817580938339233,1.3182361125946045,-2.362837314605713,-1.6255545616149902,1.5344678163528442
381.0,-0.019727511331439018,-0.44173064827919006,1.1685816049575806,-2.057344675064087,-1.8150763511657715,-0.778867781162262
382.0,-0.02126968838274479,-0.463590532541275,1.2339375019073486,-2.1835451126098633,-1.770341157913208,-0.8950178623199463
383.0,-0.04181903228163719,-0.4751327931880951,1.283300518989563,-2.3330864906311035,-1.6249359846115112,1.5289644002914429
384.0,-0.048633843660354614,-0.46730372309684753,1.2604904174804688,-2.3077807426452637,-1.6285531520843506,1.5221658945083618
385.0,-0.05417395383119583,-0.4635324478149414,1.2451419830322266,-2.276028633117676,-1.6479610204696655,1.5166363716125488
386.0,-0.056682273745536804,-0.45445600152015686,1.2274487018585205,-2.2820334434509277,-1.6222349405288696,1.5141572952270508
387.0,-0.06385095417499542,-0.44788894057273865,1.2086520195007324,-2.2608249187469482,-1.6227644681930542,1.5070337057113647
388.0,-0.07187825441360474,-0.44418391585350037,1.1949230432510376,-2.2352466583251953,-1.627038836479187,1.4990965127944946
389.0,-0.045564569532871246,-0.42676857113838196,1.1258440017700195,-2.0272746086120605,-1.7557272911071777,-0.6390255689620972
390.0,0.01383510697633028,-0.26690441370010376,0.7649869322776794,-1.3114732503890991,-2.071413278579712,-0.4697243571281433
391.0,0.0012101678876206279,-0.22338128089904785,0.6584118604660034,-1.1631191968917847,-2.047438383102417,-0.38824930787086487
392.0,-0.013257784768939018,-0.1869071125984192,0.5810097455978394,-1.0965179204940796,-1.997199296951294,-0.336746484041214
393.0,-0.03414630517363548,-0.20748764276504517,0.6156188249588013,-1.1776198148727417,-1.9232535362243652,-0.322703093290329
394.0,-0.07135515660047531,-0.35639482736587524,0.9363759756088257,-1.7053477764129639,-1.7588388919830322,-0.37319767475128174
395.0,-0.08780966699123383,-0.4309699833393097,1.1611462831497192,-2.207335948944092,-1.6150161027908325,1.4833159446716309
396.0,-0.09945410490036011,-0.4249650835990906,1.143936038017273,-2.1857123374938965,-1.6091008186340332,1.4718436002731323
397.0,-0.10452265292406082,-0.42310279607772827,1.1242412328720093,-2.1074419021606445,-1.6333709955215454,-0.3602833151817322
398.0,-0.10452265292406082,-0.42310279607772827,1.1242412328720093,-2.1074419021606445,-1.6333709955215454,-0.3602833151817322
399.0,-0.10422247648239136,-0.4212276339530945,1.1198816299438477,-2.1002919673919678,-1.6348329782485962,-0.3594152629375458
400.0,-0.1036013513803482,-0.4173436462879181,1.1108529567718506,-2.0854837894439697,-1.6378604173660278,-0.3576173484325409
401.0,-0.10267983376979828,-0.4115751087665558,1.0974446535110474,-2.063493251800537,-1.6423548460006714,-0.354947030544281
402.0,-0.10148314386606216,-0.4040759801864624,1.0800153017044067,-2.034907341003418,-1.6481952667236328,-0.3514755666255951
403.0,-0.10003657639026642,-0.3950037658214569,1.0589306354522705,-2.0003256797790527,-1.6552590131759644,-0.34727564454078674
404.0,-0.09836521744728088,-0.3845158517360687,1.0345572233200073,-1.9603477716445923,-1.6634230613708496,-0.3424202501773834
405.0,-0.0964941680431366,-0.37276944518089294,1.0072605609893799,-1.915573239326477,-1.672564148902893,-0.3369824290275574
406.0,-0.09444860368967056,-0.35992151498794556,0.9774065017700195,-1.8666020631790161,-1.6825600862503052,-0.33103489875793457
407.0,-0.09225399792194366,-0.3461291193962097,0.9453610777854919,-1.8140337467193604,-1.693287968635559,-0.32465043663978577
408.0,-0.08993588387966156,-0.3315490782260895,0.9114899635314941,-1.758467674255371,-1.7046252489089966,-0.3179016709327698
409.0,-0.0875195786356926,-0.3163391947746277,0.8761590123176575,-1.7005037069320679,-1.7164491415023804,-0.3108614385128021
410.0,-0.08502984046936035,-0.3006570041179657,0.8397344946861267,-1.6407424211502075,-1.7286378145217896,-0.30360233783721924
411.0,-0.08249140530824661,-0.2846607565879822,0.8025827407836914,-1.5797842741012573,-1.741068720817566,-0.29619723558425903
412.0,-0.07992906868457794,-0.26850786805152893,0.7650695443153381,-1.5182292461395264,-1.753619909286499,-0.28871920704841614
413.0,-0.07736794650554657,-0.25235652923583984,0.7275605201721191,-1.4566771984100342,-1.7661687135696411,-0.28124094009399414
414.0,-0.07483316957950592,-0.23636382818222046,0.6904208660125732,-1.3957282304763794,-1.7785931825637817,-0.27383527159690857
415.0,-0.07234959304332733,-0.22068718075752258,0.6540160775184631,-1.3359817266464233,-1.7907716035842896,-0.26657554507255554
416.0,-0.06994198262691498,-0.2054838091135025,0.6187114119529724,-1.2780377864837646,-1.8025814294815063,-0.2595349848270416
417.0,-0.06763508170843124,-0.1909106820821762,0.5848719477653503,-1.2224957942962646,-1.8139005899429321,-0.25278711318969727
418.0,-0.06545359641313553,-0.17712517082691193,0.552862823009491,-1.1699550151824951,-1.8246067762374878,-0.24640481173992157
419.0,-0.06342223286628723,-0.16428464651107788,0.5230487585067749,-1.1210143566131592,-1.834578037261963,-0.2404605895280838
420.0,-0.0615655854344368,-0.15254661440849304,0.4957941770553589,-1.0762723684310913,-1.843692421913147,-0.2350265234708786
421.0,-0.05990830063819885,-0.14206813275814056,0.4714633524417877,-1.0363274812698364,-1.851827621459961,-0.23017503321170807
422.0,-0.05847503989934921,-0.13300594687461853,0.450420618057251,-1.0017786026000977,-1.8588618040084839,-0.22597835958003998
423.0,-0.05729059875011444,-0.1255168318748474,0.43302977085113525,-0.9732238054275513,-1.8646739721298218,-0.22250933945178986
424.0,-0.056379809975624084,-0.11975692957639694,0.4196537733078003,-0.951260507106781,-1.8691438436508179,-0.21984080970287323
425.0,-0.05576692894101143,-0.11587926000356674,0.41064825654029846,-0.936473548412323,-1.8721530437469482,-0.21804417669773102
426.0,-0.05547121539711952,-0.11400741338729858,0.40630075335502625,-0.9293351173400879,-1.8736059665679932,-0.21717698872089386
427.0,-0.05547121539711952,-0.11400741338729858,0.40630075335502625,-0.9293351173400879,-1.8736059665679932,-0.21717698872089386
428.0,-0.028391903266310692,-0.17262689769268036,0.5332159399986267,-1.0345242023468018,-1.960106611251831,-0.2943342328071594
429.0,-0.07125895470380783,-0.08951413631439209,0.34976035356521606,-0.8796362280845642,-1.8275400400161743,-0.17911067605018616
430.0,-0.08894161134958267,-0.0692078247666359,0.2986185550689697,-0.8293969631195068,-1.77645742893219,-0.1388079971075058
431.0,-0.14091861248016357,-0.013338243588805199,0.18727654218673706,-0.7511661648750305,-1.6117647886276245,-0.026665441691875458
432.0,-0.11533315479755402,0.0068017723970115185,0.14937278628349304,-0.7398715615272522,-1.6888660192489624,-0.07764343917369843
433.0,-0.09854293614625931,-0.02993234433233738,0.22652938961982727,-0.7928144335746765,-1.7406007051467896,-0.11417721956968307
434.0,-0.09854293614625931,-0.02993234433233738,0.22652938961982727,-0.7928144335746765,-1.7406007051467896,-0.11417721956968307
435.0,-0.09865749627351761,-0.03241648152470589,0.23202647268772125,-0.8010725378990173,-1.7397549152374268,-0.10468030720949173
436.0,-0.09889841824769974,-0.03755545988678932,0.24341653287410736,-0.8181784749031067,-1.7380037307739258,-0.08500996977090836
437.0,-0.0992618128657341,-0.04517758637666702,0.2603442072868347,-0.8435845971107483,-1.735403060913086,-0.05579766258597374
438.0,-0.09974012523889542,-0.05507167428731918,0.2823672890663147,-0.8766118288040161,-1.732023000717163,-0.017824964597821236
439.0,-0.1003250926733017,-0.0670223981142044,0.3090290129184723,-0.9165661334991455,-1.7279348373413086,0.02811160869896412
440.0,-0.10100702196359634,-0.08081433176994324,0.33986490964889526,-0.9627569317817688,-1.7232106924057007,0.08121568709611893
441.0,-0.10177639126777649,-0.09623417258262634,0.3744083344936371,-1.014492392539978,-1.717923641204834,0.14069174230098724
442.0,-0.10262227803468704,-0.11307243257761002,0.41220083832740784,-1.0710806846618652,-1.7121490240097046,0.2057441771030426
443.0,-0.10353375226259232,-0.13112182915210724,0.4527842402458191,-1.1318293809890747,-1.7059577703475952,0.2755763828754425
444.0,-0.10449978709220886,-0.1501787155866623,0.49569955468177795,-1.1960477828979492,-1.6994221210479736,0.34939339756965637
445.0,-0.10551068186759949,-0.17004086077213287,0.5404826998710632,-1.2630431652069092,-1.6926156282424927,0.42640066146850586
446.0,-0.10655686259269714,-0.19050313532352448,0.5866739153862,-1.332122564315796,-1.6856039762496948,0.5058023929595947
447.0,-0.10762954503297806,-0.21135656535625458,0.6338149309158325,-1.4025931358337402,-1.6784611940383911,0.5868000984191895
448.0,-0.1087183877825737,-0.23238839209079742,0.6814417839050293,-1.4737627506256104,-1.6712530851364136,0.6685945987701416
449.0,-0.10981417447328568,-0.25338494777679443,0.729089081287384,-1.5449353456497192,-1.6640572547912598,0.7503899335861206
450.0,-0.11090638488531113,-0.274130642414093,0.7762904763221741,-1.6154158115386963,-1.6569433212280273,0.8313892483711243
451.0,-0.11198625713586807,-0.294412761926651,0.8225856423377991,-1.6845084428787231,-1.6499806642532349,0.9107950329780579
452.0,-0.11304394900798798,-0.3140220046043396,0.8675185441970825,-1.7515205144882202,-1.6432379484176636,0.9878104329109192
453.0,-0.11407109349966049,-0.3327521085739136,0.9106307625770569,-1.8157531023025513,-1.6367835998535156,1.0616322755813599
454.0,-0.11505859345197678,-0.35039305686950684,0.9514612555503845,-1.8765097856521606,-1.6306897401809692,1.1314700841903687
455.0,-0.11599920690059662,-0.36672836542129517,0.9895525574684143,-1.9330998659133911,-1.6250226497650146,1.1965231895446777
456.0,-0.11688443273305893,-0.38154271245002747,1.0244444608688354,-1.9848287105560303,-1.6198478937149048,1.2559970617294312
457.0,-0.11770649254322052,-0.3946186900138855,1.0556751489639282,-2.0310018062591553,-1.6152317523956299,1.3090955018997192
458.0,-0.11845710128545761,-0.405741423368454,1.0827776193618774,-2.0709192752838135,-1.6112393140792847,1.3550224304199219
459.0,-0.11912853270769119,-0.4146995544433594,1.105289340019226,-2.1038875579833984,-1.6079432964324951,1.3929816484451294
460.0,-0.11971136182546616,-0.4212857484817505,1.122747778892517,-2.1292152404785156,-1.6054115295410156,1.422179102897644
461.0,-0.12018661201000214,-0.4253423511981964,1.1346853971481323,-2.1462314128875732,-1.6037108898162842,1.4418373107910156
462.0,-0.12047214806079865,-0.42705538868904114,1.140565276145935,-2.154423475265503,-1.6028907299041748,1.4513278007507324
463.0,-0.12047214806079865,-0.42705538868904114,1.140565276145935,-2.154423475265503,-1.6028907299041748,1.4513278007507324
464.0,-0.11318926513195038,-0.4194687306880951,1.1282449960708618,-2.1655001640319824,-1.600752830505371,1.458329677581787
465.0,-0.1271272748708725,-0.41747087240219116,1.1197153329849243,-2.1440956592559814,-1.5940284729003906,1.4447271823883057
466.0,-0.13659235835075378,-0.4161762595176697,1.1175919771194458,-2.146336078643799,-1.5846052169799805,1.4352905750274658
467.0,-0.140628382563591,-0.41051408648490906,1.0810630321502686,-2.0133204460144043,-1.5827882289886475,-0.051628366112709045
468.0,-0.1526367962360382,-0.3767181932926178,0.9821106195449829,-1.7982323169708252,-1.5730801820755005,-0.005752179771661758
469.0,-0.15255647897720337,-0.41858047246932983,1.1184186935424805,-2.12602162361145,-1.572424292564392,-0.011178414337337017
470.0,-0.16529454290866852,-0.42214685678482056,1.1260956525802612,-2.1265735626220703,-1.5601202249526978,0.07140124589204788
471.0,-0.1762508600950241,-0.4254136383533478,1.1341791152954102,-2.131953477859497,-1.5508626699447632,0.13325904309749603
472.0,-0.18616360425949097,-0.4300902485847473,1.1449319124221802,-2.1357202529907227,-1.5405861139297485,0.19736610352993011
473.0,-0.18166492879390717,-0.30699455738067627,0.8132639527320862,-1.4762496948242188,-1.5057954788208008,0.09449628740549088
474.0,-0.19327393174171448,-0.38127848505973816,0.991302490234375,-1.7691776752471924,-1.4938663244247437,0.17424938082695007
475.0,-0.20556685328483582,-0.407669335603714,1.0610225200653076,-1.8902256488800049,-1.480324149131775,0.2547753155231476
476.0,-0.19540154933929443,-0.43292638659477234,1.1589137315750122,-2.1730198860168457,-1.5384992361068726,1.3766039609909058
477.0,-0.20995502173900604,-0.44171398878097534,1.1814988851547241,-2.1906497478485107,-1.527462363243103,1.3618913888931274
478.0,-0.22064918279647827,-0.44969695806503296,1.1991186141967773,-2.1930103302001953,-1.5138721466064453,1.351184606552124
479.0,-0.2374853640794754,-0.3516945242881775,0.9218291640281677,-1.5724289417266846,-1.3737034797668457,0.2974230945110321
480.0,-0.24171140789985657,-0.1578548103570938,0.5087949633598328,-0.9446494579315186,-1.316440463066101,0.16822503507137299
481.0,-0.16798678040504456,-0.03534328192472458,0.2384403944015503,-0.7795376777648926,-1.531831979751587,0.02531861513853073
482.0,-0.1936626434326172,-0.08840486407279968,0.34593790769577026,-0.8349210619926453,-1.4554495811462402,0.07483513653278351
483.0,-0.21577686071395874,-0.1227555200457573,0.4223487675189972,-0.8818721175193787,-1.3915150165557861,0.11687780171632767
484.0,-0.17551010847091675,-0.07448439300060272,0.3081720471382141,-0.8076688051223755,-1.5087196826934814,0.04009147733449936
485.0,-0.20722343027591705,-0.13361194729804993,0.42843639850616455,-0.87256920337677,-1.4134109020233154,0.10183092206716537
486.0,-0.2331303060054779,-0.1642063707113266,0.5051294565200806,-0.9287657141685486,-1.3372701406478882,0.15301400423049927
487.0,-0.2571737766265869,-0.20792348682880402,0.6001032590866089,-0.9911966323852539,-1.2641490697860718,0.2032356709241867
488.0,-0.27481821179389954,-0.23922108113765717,0.6702293753623962,-1.0409268140792847,-1.2114019393920898,0.24099567532539368
489.0,-0.2942984998226166,-0.26685819029808044,0.7416720986366272,-1.1021896600723267,-1.152959942817688,0.28615960478782654
490.0,-0.2768571078777313,-0.22401884198188782,0.6545639634132385,-1.0436590909957886,-1.2109342813491821,0.24286609888076782
491.0,-0.30756571888923645,-0.2699050307273865,0.7713140249252319,-1.1419389247894287,-1.1209917068481445,0.3133978843688965
492.0,-0.2676226496696472,-0.19562891125679016,0.601980447769165,-1.0151516199111938,-1.241782546043396,0.22155329585075378
493.0,-0.2666475772857666,-0.4174014925956726,1.0847984552383423,-1.802731990814209,-1.3282372951507568,0.47656890749931335
494.0,-0.23648616671562195,-0.4513159692287445,1.183333396911621,-2.0812714099884033,-1.4564059972763062,0.4690364897251129
495.0,-0.23285430669784546,-0.4584449231624603,1.2237001657485962,-2.2193057537078857,-1.5081218481063843,1.3386437892913818
496.0,-0.24724328517913818,-0.4746880531311035,1.2600663900375366,-2.2269418239593506,-1.4839082956314087,0.5887510776519775
497.0,-0.25799480080604553,-0.48242777585983276,1.2856899499893188,-2.264212131500244,-1.483192801475525,1.3127174377441406
498.0,-0.311454176902771,-0.367298424243927,0.9835501909255981,-1.5035628080368042,-1.1473348140716553,0.4672729969024658
499.0,-0.29885387420654297,-0.4743337631225586,1.2391456365585327,-2.014768600463867,-1.2883310317993164,0.6979080438613892
500.0,-0.28705888986587524,-0.5082452297210693,1.3435570001602173,-2.256831169128418,-1.4043166637420654,0.8338124752044678
501.0,-0.2699294686317444,-0.4953693449497223,1.3190534114837646,-2.2863411903381348,-1.4691790342330933,0.7515060305595398
502.0,-0.27620235085487366,-0.5027512907981873,1.342586636543274,-2.318234443664551,-1.4736384153366089,1.29380464553833
503.0,-0.2856919467449188,-0.5147451162338257,1.3762624263763428,-2.34867787361145,-1.4668465852737427,1.283892273902893
504.0,-0.2936133146286011,-0.5259038805961609,1.4077991247177124,-2.3766660690307617,-1.461145043373108,1.2756106853485107
505.0,-0.2996928095817566,-0.5351987481117249,1.4325062036514282,-2.3922388553619385,-1.4456403255462646,1.023845911026001
506.0,-0.3237500488758087,-0.5156170129776001,1.362050175666809,-2.1846890449523926,-1.2565181255340576,0.9170706868171692
507.0,-0.3543790876865387,-0.5130038261413574,1.3660887479782104,-2.1084375381469727,-1.1157790422439575,0.9320713877677917
508.0,-0.36884939670562744,-0.3729858100414276,1.0377862453460693,-1.3974472284317017,-0.9308239817619324,0.49302029609680176
509.0,-0.3880193531513214,-0.4142951965332031,1.14125657081604,-1.5094996690750122,-0.8621464967727661,0.574332058429718
510.0,-0.40746527910232544,-0.4571349620819092,1.2560904026031494,-1.6529788970947266,-0.7875570058822632,0.6806462407112122
511.0,-0.42820653319358826,-0.4924595355987549,1.37956702709198,-1.8450748920440674,-0.7120386958122253,0.8222904205322266
512.0,-0.41932594776153564,-0.48533809185028076,1.3362514972686768,-1.767504096031189,-0.7374139428138733,0.7677153944969177
513.0,-0.39677324891090393,-0.45183292031288147,1.215777039527893,-1.5859897136688232,-0.8141323328018188,0.6362653970718384
514.0,-0.3844958245754242,-0.426220566034317,1.1461831331253052,-1.498705267906189,-0.8611947894096375,0.5713793635368347
515.0,-0.37136924266815186,-0.4038528800010681,1.0829012393951416,-1.4246617555618286,-0.9043850302696228,0.5187021493911743
516.0,-0.3544865548610687,-0.3716318905353546,1.0004770755767822,-1.337202787399292,-0.9630350470542908,0.4549615681171417
517.0,-0.35235199332237244,-0.3526689112186432,0.9725544452667236,-1.3227429389953613,-0.978945255279541,0.44152340292930603
518.0,-0.3379625976085663,-0.32999464869499207,0.9100310802459717,-1.2578120231628418,-1.0238183736801147,0.3965066969394684
519.0,-0.3234035074710846,-0.3010718822479248,0.8435496687889099,-1.201905369758606,-1.0705640316009521,0.3559648394584656
520.0,-0.3115043640136719,-0.2908119261264801,0.8047266602516174,-1.1576740741729736,-1.103066325187683,0.3262389004230499
521.0,-0.33913764357566833,-0.3489108979701996,0.9355610609054565,-1.2673777341842651,-1.0109628438949585,0.406161367893219
522.0,-0.3238980770111084,-0.3220488131046295,0.8698940873146057,-1.207966685295105,-1.0591226816177368,0.3632389008998871
523.0,-0.3157293200492859,-0.3222639560699463,0.852073609828949,-1.1790424585342407,-1.0783600807189941,0.34452202916145325
524.0,-0.285137802362442,-0.2721996307373047,0.7300626039505005,-1.0747945308685303,-1.1741982698440552,0.26742252707481384
525.0,-0.26598450541496277,-0.24085766077041626,0.6572136878967285,-1.0192437171936035,-1.2324060201644897,0.22466452419757843
526.0,-0.2404329776763916,-0.20170924067497253,0.565706729888916,-0.9515119194984436,-1.3107030391693115,0.16962023079395294
527.0,-0.22008371353149414,-0.16518494486808777,0.4875465929508209,-0.9012570381164551,-1.3741458654403687,0.1270146518945694
528.0,-0.19989055395126343,-0.14306898415088654,0.43381375074386597,-0.8643664717674255,-1.4323234558105469,0.08894500136375427
529.0,-0.17813853919506073,-0.126457080245018,0.38920125365257263,-0.8309834003448486,-1.4984748363494873,0.04610341042280197
530.0,-0.15451641380786896,-0.08955075591802597,0.31757357716560364,-0.796183168888092,-1.5712686777114868,-0.000301573978504166
531.0,-0.17721247673034668,-0.10171061009168625,0.3516768217086792,-0.8211343884468079,-1.502487063407898,0.04383453354239464
532.0,-0.14339375495910645,-0.06348440051078796,0.2733251452445984,-0.7823895812034607,-1.604323387145996,-0.021603135392069817
533.0,-0.11429458111524582,-0.05389264598488808,0.25730472803115845,-0.7848542928695679,-1.6994471549987793,-0.08412136882543564
534.0,-0.0821416899561882,-0.09823998063802719,0.3491442799568176,-0.8524991869926453,-1.8034619092941284,-0.15698093175888062
535.0,-0.10850327461957932,-0.08823572844266891,0.3163592219352722,-0.8109449744224548,-1.7237471342086792,-0.1000981330871582
536.0,-0.0855264887213707,-0.11583421379327774,0.3732525408267975,-0.8531871438026428,-1.8003246784210205,-0.15303835272789001
537.0,-0.06746768206357956,-0.14539678394794464,0.437112420797348,-0.9065921902656555,-1.8592027425765991,-0.19822382926940918
538.0,-0.09697339683771133,-0.12414032965898514,0.3779991865158081,-0.8401238322257996,-1.7690227031707764,-0.13005518913269043
539.0,-0.12268184125423431,-0.10743623971939087,0.342431902885437,-0.8105897903442383,-1.6757864952087402,-0.06789739429950714
540.0,-0.15967227518558502,-0.11572153866291046,0.3608521819114685,-0.8114001154899597,-1.554936408996582,0.010081673972308636
541.0,-0.17223338782787323,-0.14285507798194885,0.40877261757850647,-0.8310807943344116,-1.5151751041412354,0.03524032607674599
542.0,-0.20302195847034454,-0.1676950752735138,0.47151628136634827,-0.8754075169563293,-1.421186923980713,0.0955793634057045
543.0,-0.2277575433254242,-0.1948992758989334,0.5385628342628479,-0.9240691661834717,-1.3470993041992188,0.14445537328720093
544.0,-0.26864299178123474,-0.2681911289691925,0.6951965689659119,-1.0290067195892334,-1.2174748182296753,0.23340727388858795
545.0,-0.24478095769882202,-0.2328895479440689,0.6115440726280212,-0.9644511342048645,-1.292731523513794,0.18014900386333466
546.0,-0.22120828926563263,-0.20324218273162842,0.5400577783584595,-0.9114965200424194,-1.36542809009552,0.13130222260951996
547.0,-0.24668726325035095,-0.2529812157154083,0.638874351978302,-0.9699134826660156,-1.283314824104309,0.18525005877017975
548.0,-0.2224782258272171,-0.22733134031295776,0.572646975517273,-0.9175050854682922,-1.3580777645111084,0.1351442039012909
549.0,-0.20067957043647766,-0.1876743882894516,0.4957908093929291,-0.8757606148719788,-1.4273167848587036,0.09092476218938828
550.0,-0.1586102545261383,-0.14532844722270966,0.4034267067909241,-0.8203667402267456,-1.5585511922836304,0.007715508341789246
551.0,-0.12867754697799683,-0.1465345323085785,0.4010445475578308,-0.825736403465271,-1.6599615812301636,-0.05716822296380997
552.0,-0.10097330063581467,-0.15519331395626068,0.42170536518096924,-0.8492326736450195,-1.7591993808746338,-0.12281513959169388
553.0,-0.07940229028463364,-0.15210291743278503,0.4304746687412262,-0.8728836178779602,-1.8296462297439575,-0.17136573791503906
554.0,-0.05338209867477417,-0.1833679974079132,0.5075051188468933,-0.951295018196106,-1.9108667373657227,-0.2371988147497177
555.0,-0.021392488852143288,-0.23544900119304657,0.6282963156700134,-1.0673528909683228,-2.012645721435547,-0.32946255803108215
556.0,-0.04188090190291405,-0.2156549096107483,0.567704439163208,-0.9917658567428589,-1.9544684886932373,-0.27165308594703674
557.0,-0.021301614120602608,-0.2555674612522125,0.6539795398712158,-1.069032907485962,-2.0259010791778564,-0.3355026841163635
558.0,-0.057805631309747696,-0.20617789030075073,0.531276524066925,-0.9399023056030273,-1.9094328880310059,-0.23039981722831726
559.0,-0.07814530283212662,-0.1767423003911972,0.4656454026699066,-0.8796449303627014,-1.8425487279891968,-0.1781032234430313
560.0,-0.04220458120107651,-0.39330431818962097,0.9153090715408325,-1.4645838737487793,-1.9603755474090576,-0.48176801204681396
561.0,-0.10392030328512192,-0.20554320514202118,0.5093648433685303,-0.9232072234153748,-1.7531269788742065,-0.12856626510620117
562.0,-0.15147796273231506,-0.16369612514972687,0.4261004626750946,-0.8221496939659119,-1.581726312637329,-0.006848462857306004
563.0,-0.19273091852664948,-0.2759634554386139,0.6503506898880005,-1.0449695587158203,-1.4552685022354126,0.09117969870567322
564.0,-0.16385996341705322,-0.3353099226951599,0.7595380544662476,-1.2164247035980225,-1.5445579290390015,0.026588238775730133
565.0,-0.133448988199234,-0.30855971574783325,0.705845296382904,-1.1594743728637695,-1.6477659940719604,-0.07327330112457275
566.0,-0.10974109172821045,-0.4112994372844696,0.9165323972702026,-1.4708925485610962,-1.7385010719299316,-0.23678943514823914
567.0,-0.08413714915513992,-0.38802990317344666,0.8787526488304138,-1.4161297082901,-1.8333110809326172,-0.33190563321113586
568.0,-0.06557904183864594,-0.43377846479415894,0.987473726272583,-1.5886180400848389,-1.8933354616165161,-0.4903036057949066
569.0,-0.05505366250872612,-0.5148821473121643,1.1915758848190308,-1.9555739164352417,-1.9066030979156494,-0.8314427733421326
570.0,-0.05284873768687248,-0.5528762340545654,1.3063879013061523,-2.1840150356292725,-1.886167287826538,-1.143541932106018
571.0,-0.05092710256576538,-0.5764387845993042,1.387137770652771,-2.3347880840301514,-1.8567529916763306,-1.4065834283828735
572.0,-0.06468161195516586,-0.5885348916053772,1.4154785871505737,-2.380131959915161,-1.8329938650131226,-1.5029621124267578
573.0,-0.06867378950119019,-0.5815455913543701,1.3938770294189453,-2.360771894454956,-1.8334434032440186,-1.484890103340149
574.0,-0.07351170480251312,-0.572902262210846,1.3618943691253662,-2.3111958503723145,-1.8399403095245361,-1.3899078369140625
575.0,-0.08411293476819992,-0.589837908744812,1.404415488243103,-2.366065740585327,-1.8263909816741943,-1.4945636987686157
576.0,-0.08579907566308975,-0.5804270505905151,1.3779569864273071,-2.342531442642212,-1.8257018327713013,-1.4688299894332886
577.0,-0.1027614176273346,-0.5229930877685547,1.1788536310195923,-1.9275081157684326,-1.7658370733261108,-0.5610533952713013
578.0,-0.14873291552066803,-0.4527275264263153,0.9999977946281433,-1.5896356105804443,-1.5930259227752686,-0.03805520385503769
579.0,-0.13470663130283356,-0.5611922144889832,1.273815393447876,-2.101925849914551,-1.6451469659805298,-0.38461875915527344
580.0,-0.10957156866788864,-0.5828462839126587,1.3638525009155273,-2.307589530944824,-1.7388269901275635,-1.312180995941162
581.0,-0.12441501021385193,-0.6030185222625732,1.4110996723175049,-2.3510732650756836,-1.6884827613830566,1.4456225633621216
582.0,-0.14218991994857788,-0.5945254564285278,1.3833134174346924,-2.316854238510132,-1.6185648441314697,1.4286154508590698
583.0,-0.16323433816432953,-0.5452775359153748,1.2224689722061157,-1.98012113571167,-1.5563889741897583,0.0524430088698864
584.0,-0.17580178380012512,-0.46667999029159546,1.0314126014709473,-1.6233530044555664,-1.5161200761795044,0.09689797461032867
585.0,-0.18881423771381378,-0.564535915851593,1.2739145755767822,-2.0562140941619873,-1.5084655284881592,0.266938716173172
586.0,-0.17147129774093628,-0.6006638407707214,1.3959230184555054,-2.318070411682129,-1.5610437393188477,1.3994970321655273
587.0,-0.1611751765012741,-0.6026666760444641,1.4013954401016235,-2.3239614963531494,-1.5683338642120361,1.4097821712493896
588.0,-0.17274993658065796,-0.6195898652076721,1.4452385902404785,-2.3612754344940186,-1.5652939081192017,1.3981428146362305
589.0,-0.16158567368984222,-0.6189320683479309,1.4437669515609741,-2.360884428024292,-1.570955753326416,1.4093066453933716
590.0,-0.13590440154075623,-0.6210039854049683,1.4550411701202393,-2.3843796253204346,-1.6534924507141113,1.4344910383224487
591.0,-0.1434972882270813,-0.6321418285369873,1.4827088117599487,-2.405230760574341,-1.6309261322021484,1.4270811080932617
592.0,-0.16792026162147522,-0.6303543448448181,1.4737389087677002,-2.386678695678711,-1.568658709526062,1.402936339378357
593.0,-0.1794818937778473,-0.6309597492218018,1.4751001596450806,-2.3870272636413574,-1.5635021924972534,1.391371726989746
594.0,-0.18411283195018768,-0.6168540120124817,1.4377042055130005,-2.35329532623291,-1.5572519302368164,1.386781930923462
595.0,-0.18449336290359497,-0.6033200025558472,1.4023488759994507,-2.3218188285827637,-1.5517321825027466,1.3864471912384033
596.0,-0.19544079899787903,-0.6125154495239258,1.425843358039856,-2.3406944274902344,-1.5459176301956177,1.375435471534729
597.0,-0.22274598479270935,-0.5781974792480469,1.3082789182662964,-2.0688984394073486,-1.4381511211395264,0.510380744934082
598.0,-0.2280179113149643,-0.5166805386543274,1.1519449949264526,-1.7698979377746582,-1.3847705125808716,0.3777552843093872
599.0,-0.20688778162002563,-0.484708309173584,1.0752639770507812,-1.664583444595337,-1.4344550371170044,0.24565692245960236
600.0,-0.22447489202022552,-0.34801536798477173,0.8002337217330933,-1.2082886695861816,-1.3608191013336182,0.19408245384693146
601.0,-0.2436879277229309,-0.38788947463035583,0.8863311409950256,-1.3062286376953125,-1.304268479347229,0.26878392696380615
602.0,-0.2794272303581238,-0.39838147163391113,0.9272467494010925,-1.299792766571045,-1.189254641532898,0.34708482027053833
603.0,-0.2908799350261688,-0.4799349904060364,1.0979171991348267,-1.560874104499817,-1.17041015625,0.4927651882171631
604.0,-0.31284722685813904,-0.5231031179428101,1.20582914352417,-1.7037475109100342,-1.1091511249542236,0.6285318732261658
605.0,-0.27068400382995605,-0.5665222406387329,1.2832776308059692,-1.9343430995941162,-1.282596468925476,0.6567773818969727
606.0,-0.252838671207428,-0.5575268864631653,1.2559428215026855,-1.9175161123275757,-1.333590030670166,0.5695816278457642
607.0,-0.21672149002552032,-0.6100709438323975,1.4059923887252808,-2.2638096809387207,-1.492354154586792,1.3541682958602905
608.0,-0.2333930879831314,-0.6143053770065308,1.4128471612930298,-2.242884397506714,-1.450948715209961,0.7547168731689453
609.0,-0.20678913593292236,-0.6272372603416443,1.4642497301101685,-2.3735570907592773,-1.544034481048584,1.3640145063400269
610.0,-0.19543834030628204,-0.624601423740387,1.4577436447143555,-2.3696720600128174,-1.5522377490997314,1.3754130601882935
611.0,-0.19572018086910248,-0.6341671943664551,1.4832953214645386,-2.3930702209472656,-1.5571165084838867,1.3751132488250732
612.0,-0.2064526230096817,-0.6417984962463379,1.5034754276275635,-2.410198211669922,-1.553661584854126,1.36434805393219
613.0,-0.21768827736377716,-0.6363915205001831,1.488010048866272,-2.3923709392547607,-1.5357117652893066,1.3530242443084717
614.0,-0.24957138299942017,-0.6231716275215149,1.4361660480499268,-2.252819061279297,-1.4117608070373535,0.8769750595092773
615.0,-0.30333006381988525,-0.5951127409934998,1.3710179328918457,-2.0330207347869873,-1.1889362335205078,0.8545188307762146
616.0,-0.2918943464756012,-0.6266767978668213,1.4518101215362549,-2.2005484104156494,-1.2619073390960693,0.9937149882316589
617.0,-0.2508498728275299,-0.6504662036895752,1.5180243253707886,-2.3766801357269287,-1.4440548419952393,1.3179761171340942
618.0,-0.22183388471603394,-0.6463168263435364,1.5148677825927734,-2.4174413681030273,-1.5411266088485718,1.3488880395889282
619.0,-0.21040888130664825,-0.6541606187820435,1.5374091863632202,-2.4423532485961914,-1.5617408752441406,1.3603883981704712
620.0,-0.20033253729343414,-0.6504848003387451,1.5273962020874023,-2.433304786682129,-1.5623706579208374,1.3704723119735718
621.0,-0.19321385025978088,-0.6597929000854492,1.5530909299850464,-2.4574031829833984,-1.5679874420166016,1.3775852918624878
622.0,-0.20527997612953186,-0.6643902659416199,1.5659384727478027,-2.4696033000946045,-1.5692107677459717,1.3655166625976562
623.0,-0.19715295732021332,-0.6731534004211426,1.590043067932129,-2.490846633911133,-1.567627191543579,1.3736437559127808
624.0,-0.18623724579811096,-0.6696717739105225,1.5804486274719238,-2.4824230670928955,-1.5701720714569092,1.384559154510498
625.0,-0.17419740557670593,-0.6697714328765869,1.580680251121521,-2.4825026988983154,-1.5705289840698242,1.3965989351272583
626.0,-0.18226897716522217,-0.6565918922424316,1.544335126876831,-2.449542284011841,-1.5691394805908203,1.3885338306427002
627.0,-0.18409383296966553,-0.6413911581039429,1.5030040740966797,-2.411994457244873,-1.5652971267700195,1.3867335319519043
628.0,-0.17620134353637695,-0.6485503315925598,1.522450566291809,-2.429849624633789,-1.568943738937378,1.3946129083633423
629.0,-0.16852813959121704,-0.6558860540390015,1.542455792427063,-2.448000907897949,-1.570976734161377,1.4022754430770874
630.0,-0.16465702652931213,-0.6420862078666687,1.505122423171997,-2.4147086143493652,-1.571090579032898,1.406169056892395
631.0,-0.14185583591461182,-0.6416476368904114,1.5090898275375366,-2.4302401542663574,-1.6410810947418213,1.428609848022461
632.0,-0.14697228372097015,-0.6526832580566406,1.53794264793396,-2.4539928436279297,-1.6281425952911377,1.4235883951187134
633.0,-0.10850376635789871,-0.645415723323822,1.5386375188827515,-2.475972890853882,-1.763658881187439,-1.6330907344818115
634.0,-0.11468782275915146,-0.656310498714447,1.56510329246521,-2.497220039367676,-1.7451646327972412,-1.6720858812332153
635.0,-0.1580439954996109,-0.6650828719139099,1.5694258213043213,-2.4768550395965576,-1.5957471132278442,1.4127031564712524
636.0,-0.13562951982021332,-0.6724039316177368,1.5978138446807861,-2.5163815021514893,-1.6773821115493774,1.4343899488449097
637.0,-0.13562951982021332,-0.6724039316177368,1.5978138446807861,-2.5163815021514893,-1.6773821115493774,1.4343899488449097
638.0,-0.13554203510284424,-0.6708547472953796,1.594085931777954,-2.496398687362671,-1.6580016613006592,1.4340722560882568
639.0,-0.13536135852336884,-0.66764897108078,1.5863717794418335,-2.455056667327881,-1.6179063320159912,1.4334161281585693
640.0,-0.13509303331375122,-0.6628793478012085,1.5748929977416992,-2.3935465812683105,-1.5582492351531982,1.4324413537979126
641.0,-0.13474442064762115,-0.6566677689552307,1.5599422454833984,-2.313432455062866,-1.4805477857589722,1.431173324584961
642.0,-0.13432316482067108,-0.6491397619247437,1.5418204069137573,-2.2163279056549072,-1.386367678642273,1.4296374320983887
643.0,-0.13383708894252777,-0.6404209136962891,1.5208290815353394,-2.103853940963745,-1.2772806882858276,1.4278594255447388
644.0,-0.1332945078611374,-0.6306357383728027,1.497269868850708,-1.9776324033737183,-1.1548588275909424,1.4258649349212646
645.0,-0.13270369172096252,-0.6199084520339966,1.4714449644088745,-1.839284062385559,-1.0206735134124756,1.4236795902252197
646.0,-0.13207252323627472,-0.6083637475967407,1.443656325340271,-1.6904300451278687,-0.8762980103492737,1.4213289022445679
647.0,-0.1314084827899933,-0.5961272120475769,1.4142059087753296,-1.5326906442642212,-0.723305344581604,1.4188379049301147
648.0,-0.13071857392787933,-0.5833250284194946,1.3833954334259033,-1.3676860332489014,-0.563267707824707,1.4162298440933228
649.0,-0.13000959157943726,-0.5700829029083252,1.3515262603759766,-1.1970354318618774,-0.3977563679218292,1.4135290384292603
650.0,-0.12928827106952667,-0.5565270185470581,1.3188998699188232,-1.0223584175109863,-0.22834274172782898,1.4107600450515747
651.0,-0.1285610944032669,-0.5427833795547485,1.285818099975586,-0.8452754616737366,-0.056598201394081116,1.407947063446045
652.0,-0.1278342306613922,-0.5289776921272278,1.2525835037231445,-0.6674071550369263,0.11590573191642761,1.4051148891448975
653.0,-0.12711341679096222,-0.5152350664138794,1.2194980382919312,-0.4903736412525177,0.2875974178314209,1.4022891521453857
654.0,-0.12640444934368134,-0.5016806125640869,1.186863899230957,-0.3157946765422821,0.4569052457809448,1.3994959592819214
655.0,-0.12571340799331665,-0.48844003677368164,1.1549835205078125,-0.14529015123844147,0.6222578287124634,1.396761417388916
656.0,-0.12504662573337555,-0.4756399691104889,1.1241600513458252,0.019519729539752007,0.7820833325386047,1.3941107988357544
657.0,-0.12441050261259079,-0.4634067416191101,1.0946967601776123,0.1770143210887909,0.9348093867301941,1.391569972038269
658.0,-0.12381140142679214,-0.4518662095069885,1.0668970346450806,0.32557228207588196,1.0788637399673462,1.3891656398773193
659.0,-0.12325578927993774,-0.4411444067955017,1.041064977645874,0.46357131004333496,1.2126736640930176,1.3869260549545288
660.0,-0.12275011837482452,-0.4313676357269287,1.0175050497055054,0.5893886685371399,1.3346660137176514,1.3848779201507568
661.0,-0.1223006621003151,-0.42266207933425903,0.9965221881866455,0.7014012932777405,1.4432686567306519,1.3830479383468628
662.0,-0.1219135969877243,-0.4151538908481598,0.9784219264984131,0.7979865074157715,1.5369106531143188,1.3814644813537598
663.0,-0.12159509211778641,-0.40896889567375183,0.9635112881660461,0.8775225877761841,1.6140211820602417,1.3801562786102295
664.0,-0.12135154008865356,-0.4042331874370575,0.952096164226532,0.9383946061134338,1.6730351448059082,1.3791520595550537
665.0,-0.12118923664093018,-0.4010692238807678,0.9444711208343506,0.9790462255477905,1.7124439477920532,1.3784797191619873
666.0,-0.12111230939626694,-0.3995642364025116,0.9408449530601501,0.9983755350112915,1.731181025505066,1.3781592845916748
667.0,-0.12111230939626694,-0.3995642364025116,0.9408449530601501,0.9983755350112915,1.731181025505066,1.3781592845916748
668.0,-0.1143597960472107,-0.4193488657474518,0.9866838455200195,0.9621202945709229,1.7589691877365112,1.353173017501831
669.0,-0.14684757590293884,-0.4214259088039398,0.9847267270088196,0.976934552192688,1.648099422454834,-1.7180604934692383
670.0,-0.16007894277572632,-0.40469056367874146,0.9488182067871094,1.0092428922653198,1.5995429754257202,-1.7309291362762451
671.0,-0.17894236743450165,-0.418374627828598,0.9798096418380737,0.9921053647994995,1.5642722845077515,-1.7497128248214722
672.0,-0.17433293163776398,-0.4330960512161255,1.011974573135376,0.9690836071968079,1.5631386041641235,-1.745084524154663
673.0,-0.1396513283252716,-0.46971338987350464,1.0906625986099243,0.8948045969009399,1.6844964027404785,-1.711255669593811
674.0,-0.170807346701622,-0.47728225588798523,1.1077628135681152,0.8955644369125366,1.5846593379974365,-1.7414699792861938
675.0,-0.1681746542453766,-0.46216925978660583,1.07454514503479,0.9195674061775208,1.5885823965072632,-1.738891839981079
676.0,-0.18099243938922882,-0.4495311677455902,1.048016905784607,0.9433424472808838,1.5599331855773926,-1.7517147064208984
677.0,-0.18928459286689758,-0.4369256794452667,1.0205631256103516,0.9636178016662598,1.558308482170105,-1.7600337266921997
678.0,-0.19047479331493378,-0.399697870016098,0.9391493797302246,1.02126145362854,1.5633248090744019,-1.7612642049789429
679.0,-0.20451602339744568,-0.4072939455509186,0.9558939933776855,1.0099952220916748,1.5583815574645996,-1.7753065824508667
680.0,-0.19860917329788208,-0.42631423473358154,0.9974867701530457,0.9805830121040344,1.5564475059509277,-1.769379734992981
681.0,-0.21057046949863434,-0.43184930086135864,1.0100080966949463,0.9729061126708984,1.5481616258621216,-1.7813597917556763
682.0,-0.21353931725025177,-0.45168769359588623,1.053809642791748,0.9423989653587341,1.5407222509384155,-1.7843222618103027
683.0,-0.19986747205257416,-0.445926696062088,1.0405974388122559,0.9502272605895996,1.5512309074401855,-1.770615816116333
684.0,-0.189632847905159,-0.4755796790122986,1.1054767370224,0.9024695158004761,1.5514717102050781,-1.760300636291504
685.0,-0.20250195264816284,-0.4746774733066559,1.1039915084838867,0.9050484895706177,1.543220043182373,-1.773201823234558
686.0,-0.22104544937610626,-0.47477686405181885,1.1041264533996582,0.9029998183250427,1.5240817070007324,-1.7918307781219482
687.0,-0.23180845379829407,-0.5294811725616455,1.2116628885269165,0.7536753416061401,1.453770399093628,-0.7102781534194946
688.0,-0.22898374497890472,-0.5775851607322693,1.306697964668274,0.6016853451728821,1.4252604246139526,-0.5349746346473694
689.0,-0.18722034990787506,-0.4936557114124298,1.1451383829116821,0.8729180097579956,1.551239252090454,-1.7578234672546387
690.0,-0.2080560177564621,-0.5701950788497925,1.2898924350738525,0.6361234188079834,1.4765721559524536,-0.4068494737148285
691.0,-0.21057401597499847,-0.6382198929786682,1.429464340209961,0.3695940375328064,1.4456425905227661,-0.27970579266548157
692.0,-0.26948457956314087,-0.7014064788818359,1.6198714971542358,-0.05577709898352623,1.235767126083374,-0.36663633584976196
693.0,-0.2903379797935486,-0.6640818119049072,1.5243040323257446,0.15647773444652557,1.1884334087371826,-0.5426273941993713
694.0,-0.29724815487861633,-0.6169080138206482,1.4141236543655396,0.37988516688346863,1.194385051727295,-0.7244288921356201
695.0,-0.29703572392463684,-0.5793079137802124,1.3313443660736084,0.5322335362434387,1.2193925380706787,-0.8628548979759216
696.0,-0.3586162030696869,-0.6459866166114807,1.5494002103805542,0.03453734144568443,0.9302866458892822,-0.6836702227592468
697.0,-0.37126702070236206,-0.6073054075241089,1.4658687114715576,0.20844687521457672,0.8953707218170166,-0.848216712474823
698.0,-0.396648108959198,-0.5699946284294128,1.4179877042770386,0.2723529636859894,0.7847353219985962,-0.9712468385696411
699.0,-0.396648108959198,-0.5699946284294128,1.4179877042770386,0.2723529636859894,0.7847353219985962,-0.9712468385696411
700.0,-0.3970787227153778,-0.5703955292701721,1.4203134775161743,0.25276222825050354,0.7756961584091187,-0.9542840123176575
701.0,-0.39794427156448364,-0.5712123513221741,1.4251315593719482,0.2121892124414444,0.7569752335548401,-0.9191461801528931
702.0,-0.39918696880340576,-0.5724029541015625,1.4322887659072876,0.1519346833229065,0.7291727662086487,-0.8669581413269043
703.0,-0.40074098110198975,-0.5739203095436096,1.4415949583053589,0.07360576093196869,0.6930314898490906,-0.7991141676902771
704.0,-0.40254098176956177,-0.5757176876068115,1.4528552293777466,-0.02115807496011257,0.6493070125579834,-0.7170361280441284
705.0,-0.4045192301273346,-0.5777492523193359,1.46587336063385,-0.13071195781230927,0.5987581014633179,-0.6221488118171692
706.0,-0.40660732984542847,-0.5799659490585327,1.480458378791809,-0.25341054797172546,0.5421443581581116,-0.5158751606941223
707.0,-0.408735066652298,-0.5823178291320801,1.4964168071746826,-0.38760995864868164,0.4802251160144806,-0.399637907743454
708.0,-0.4108363389968872,-0.5847557187080383,1.5135554075241089,-0.5316682457923889,0.41375818848609924,-0.2748604118824005
709.0,-0.41284459829330444,-0.5872319936752319,1.5316795110702515,-0.6839451789855957,0.3435022234916687,-0.14296706020832062
710.0,-0.4146953821182251,-0.5896998643875122,1.5505949258804321,-0.8427996039390564,0.27021580934524536,-0.005381574854254723
711.0,-0.41632336378097534,-0.5921145081520081,1.5701059103012085,-1.0065879821777344,0.1946587711572647,0.13647301495075226
712.0,-0.41766756772994995,-0.5944337844848633,1.5900163650512695,-1.1736680269241333,0.1175902709364891,0.28117403388023376
713.0,-0.4186842739582062,-0.5966222882270813,1.6101298332214355,-1.3424017429351807,0.03976907208561897,0.42729803919792175
714.0,-0.4193933308124542,-0.5986703038215637,1.6302508115768433,-1.5111489295959473,-0.03804858401417732,0.5734206438064575
715.0,-0.41982415318489075,-0.6005732417106628,1.6501805782318115,-1.678267240524292,-0.11510571092367172,0.7181183099746704
716.0,-0.4200073182582855,-0.6023287177085876,1.6697254180908203,-1.842111349105835,-0.1906449943780899,0.859968364238739
717.0,-0.41997572779655457,-0.6039348244667053,1.688689112663269,-2.001035690307617,-0.2639084458351135,0.99754798412323
718.0,-0.4197654724121094,-0.605388879776001,1.7068750858306885,-2.153394937515259,-0.33413827419281006,1.1294339895248413
719.0,-0.41941386461257935,-0.6066892147064209,1.7240873575210571,-2.2975432872772217,-0.40057724714279175,1.2542035579681396
720.0,-0.41895899176597595,-0.6078380942344666,1.7401288747787476,-2.431833505630493,-0.46246635913848877,1.3704328536987305
721.0,-0.4184388518333435,-0.6088380813598633,1.7548000812530518,-2.554621458053589,-0.519048273563385,1.4766978025436401
722.0,-0.41789016127586365,-0.6096906661987305,1.7679030895233154,-2.6642603874206543,-0.5695641040802002,1.5715737342834473
723.0,-0.4173499345779419,-0.6103957295417786,1.7792421579360962,-2.759105920791626,-0.6132580637931824,1.6536375284194946
724.0,-0.41685399413108826,-0.6109533905982971,1.7886199951171875,-2.837510824203491,-0.6493728756904602,1.721467137336731
725.0,-0.4164382815361023,-0.6113632321357727,1.7958405017852783,-2.8978283405303955,-0.6771525144577026,1.7736425399780273
726.0,-0.41613736748695374,-0.611627459526062,1.8007044792175293,-2.9384450912475586,-0.6958556175231934,1.8087725639343262
727.0,-0.4159829318523407,-0.6117494106292725,1.8030530214309692,-2.9580538272857666,-0.7048846483230591,1.8257333040237427
728.0,-0.4159829318523407,-0.6117494106292725,1.8030530214309692,-2.9580538272857666,-0.7048846483230591,1.8257333040237427
729.0,-0.36496487259864807,-0.6657522916793823,1.8111188411712646,-2.9185633659362793,-0.9684023857116699,1.9182697534561157
730.0,-0.3254721760749817,-0.688988983631134,1.836328148841858,-2.960336685180664,-1.1275925636291504,2.0934548377990723
731.0,-0.2695494592189789,-0.7134327292442322,1.7486425638198853,-2.6986773014068604,-1.3731077909469604,2.0127713680267334
732.0,-0.2857035994529724,-0.7056313157081604,1.7303903102874756,-2.674978017807007,-1.3213661909103394,1.8826937675476074
733.0,-0.22763410210609436,-0.7095083594322205,1.6913868188858032,-2.575334072113037,-1.5269922018051147,1.3430582284927368
734.0,-0.23761090636253357,-0.7039697766304016,1.6768763065338135,-2.564068555831909,-1.5081380605697632,1.3328540325164795
735.0,-0.274834007024765,-0.6987966895103455,1.6817163228988647,-2.5865478515625,-1.3746155500411987,1.7377222776412964
736.0,-0.23359838128089905,-0.6947857737541199,1.6484757661819458,-2.5351552963256836,-1.5267808437347412,1.3370176553726196
737.0,-0.21893921494483948,-0.6963032484054565,1.6540775299072266,-2.544609785079956,-1.5440192222595215,1.351828694343567
738.0,-0.2162114530801773,-0.6869189143180847,1.6277738809585571,-2.522162675857544,-1.5519975423812866,1.3545684814453125
739.0,-0.20706312358379364,-0.6776227951049805,1.6022850275039673,-2.5012004375457764,-1.56298828125,1.3637322187423706
740.0,-0.21699102222919464,-0.6704950332641602,1.5827736854553223,-2.4846246242523193,-1.5665065050125122,1.3538039922714233
741.0,-0.22029417753219604,-0.6621014475822449,1.5593994855880737,-2.4629664421081543,-1.5639901161193848,1.3504983186721802
742.0,-0.23827460408210754,-0.6708569526672363,1.580482006072998,-2.4699723720550537,-1.5134618282318115,1.3321233987808228
743.0,-0.303090363740921,-0.6564506888389587,1.5494630336761475,-2.358130693435669,-1.245826244354248,1.250043272972107
744.0,-0.34139177203178406,-0.65301114320755,1.5761024951934814,-2.3600380420684814,-1.0818469524383545,1.2916008234024048
745.0,-0.36110764741897583,-0.6553075313568115,1.62251877784729,-2.4357597827911377,-0.9958065748214722,1.3843151330947876
746.0,-0.26463592052459717,-0.6860101819038391,1.6306381225585938,-2.516641855239868,-1.417233943939209,1.5787568092346191
747.0,-0.3305571973323822,-0.6815330386161804,1.6801234483718872,-2.577662706375122,-1.1418755054473877,1.590693473815918
748.0,-0.38859421014785767,-0.646260678768158,1.6603920459747314,-2.4928314685821533,-0.8634145259857178,1.4296196699142456
749.0,-0.387067973613739,-0.6542151570320129,1.7431906461715698,-2.7175612449645996,-0.8723618984222412,1.6605267524719238
750.0,-0.4330219626426697,-0.6055697202682495,1.7132431268692017,-2.6106293201446533,-0.6007277965545654,1.488616943359375
751.0,-0.44041046500205994,-0.5843102931976318,1.764548897743225,-2.829714298248291,-0.5534880757331848,1.6632118225097656
752.0,-0.4393761157989502,-0.5939603447914124,1.6543229818344116,-2.3971498012542725,-0.5674197673797607,1.2953097820281982
753.0,-0.43113037943840027,-0.582850992679596,1.551209807395935,-2.1127328872680664,-0.6112047433853149,1.0643309354782104
754.0,-0.41191810369491577,-0.5503897070884705,1.4027987718582153,-1.8076379299163818,-0.694357693195343,0.8268640041351318
755.0,-0.4026843309402466,-0.5224738717079163,1.3274413347244263,-1.6904581785202026,-0.7425835728645325,0.7334885597229004
756.0,-0.37925851345062256,-0.4756653308868408,1.1908608675003052,-1.4985387325286865,-0.836396336555481,0.5885055661201477
757.0,-0.3683869242668152,-0.46695923805236816,1.1498525142669678,-1.4383939504623413,-0.8684216141700745,0.5466555953025818
758.0,-0.3910468518733978,-0.5146411061286926,1.2776210308074951,-1.6030713319778442,-0.776836633682251,0.6721395254135132
759.0,-0.3901865780353546,-0.5606120228767395,1.3804404735565186,-1.8299202919006348,-0.7999254465103149,0.8373098373413086
760.0,-0.4163389503955841,-0.5950268507003784,1.5334876775741577,-2.1064701080322266,-0.6830049753189087,1.0684890747070312
761.0,-0.39655330777168274,-0.5914918184280396,1.4737375974655151,-2.02409291267395,-0.7862536907196045,0.9962902665138245
762.0,-0.3460552990436554,-0.5996022820472717,1.4191360473632812,-2.0376312732696533,-1.0222004652023315,0.9561594128608704
763.0,-0.3586813509464264,-0.5433170795440674,1.2954182624816895,-1.754911184310913,-0.9352622628211975,0.7492666244506836
764.0,-0.349761962890625,-0.4468628466129303,1.0836403369903564,-1.372499704360962,-0.9373707175254822,0.49190762639045715
765.0,-0.32295385003089905,-0.40598878264427185,0.9771250486373901,-1.2702683210372925,-1.033043384552002,0.4066607654094696
766.0,-0.30159181356430054,-0.3459677994251251,0.8486649394035339,-1.1320202350616455,-1.1037728786468506,0.316765159368515
767.0,-0.3393571376800537,-0.4076136350631714,1.00473153591156,-1.2831623554229736,-0.977638304233551,0.42919182777404785
768.0,-0.2830353081226349,-0.3066558241844177,0.7669355869293213,-1.071892499923706,-1.1682133674621582,0.2681572735309601
769.0,-0.3043104410171509,-0.33465948700904846,0.8412548899650574,-1.1394151449203491,-1.1022533178329468,0.3198409080505371
770.0,-0.32495078444480896,-0.3668827712535858,0.9243232607841492,-1.2190932035446167,-1.03397536277771,0.379006564617157
771.0,-0.36480608582496643,-0.4452510476112366,1.1142771244049072,-1.4103224277496338,-0.8922362327575684,0.5215450525283813
772.0,-0.3799721300601959,-0.4618910253047943,1.1765769720077515,-1.4950448274612427,-0.8450019359588623,0.5813319683074951
773.0,-0.35519060492515564,-0.4108528196811676,1.047994613647461,-1.3513342142105103,-0.9374980926513672,0.47399696707725525
774.0,-0.2923469543457031,-0.30042144656181335,0.778203010559082,-1.1006886959075928,-1.1449990272521973,0.28842151165008545
775.0,-0.31037843227386475,-0.3281361162662506,0.8470096588134766,-1.1602485179901123,-1.0897083282470703,0.33268094062805176
776.0,-0.3397129476070404,-0.38011258840560913,0.973961591720581,-1.2781469821929932,-0.9923076033592224,0.4195586144924164
777.0,-0.37113648653030396,-0.4365435838699341,1.1217929124832153,-1.438993215560913,-0.8824959993362427,0.5376440286636353
778.0,-0.39908888936042786,-0.4817819893360138,1.2618026733398438,-1.62531316280365,-0.7849617600440979,0.6733182668685913
779.0,-0.350210577249527,-0.3833487033843994,1.003871202468872,-1.3234713077545166,-0.9650427103042603,0.44951820373535156
780.0,-0.368360698223114,-0.41571277379989624,1.0889756679534912,-1.4152352809906006,-0.9034632444381714,0.5160642266273499
781.0,-0.3857867419719696,-0.4475514888763428,1.175698161125183,-1.516526460647583,-0.8430084586143494,0.589753270149231
782.0,-0.4085107147693634,-0.4843840003013611,1.2952128648757935,-1.684808373451233,-0.7628225088119507,0.7124565243721008
783.0,-0.4203776717185974,-0.5026320219039917,1.365373134613037,-1.8008337020874023,-0.7194684743881226,0.7981158494949341
784.0,-0.42803114652633667,-0.5247087478637695,1.428576946258545,-1.900920033454895,-0.6823144555091858,0.8764373064041138
785.0,-0.44421231746673584,-0.5518861413002014,1.5642433166503906,-2.188354969024658,-0.6122128367424011,1.0998575687408447
786.0,-0.43512579798698425,-0.5449624061584473,1.4972032308578491,-2.0282649993896484,-0.6454231142997742,0.9767775535583496
787.0,-0.4461578130722046,-0.5635613799095154,1.610921859741211,-2.3010618686676025,-0.5909720063209534,1.1944403648376465
788.0,-0.41817569732666016,-0.5174086689949036,1.378804087638855,-1.806763768196106,-0.7104958295822144,0.8096494674682617
789.0,-0.4259181022644043,-0.5399362444877625,1.4446104764938354,-1.9138659238815308,-0.6725996136665344,0.8933923840522766
790.0,-0.4092758595943451,-0.5117761492729187,1.3369803428649902,-1.7275669574737549,-0.7364887595176697,0.7534750699996948
791.0,-0.39637449383735657,-0.4921303391456604,1.2665340900421143,-1.6183807849884033,-0.782028079032898,0.67345130443573
792.0,-0.41647258400917053,-0.5349459648132324,1.3980880975723267,-1.8213456869125366,-0.6977953314781189,0.8285799026489258
793.0,-0.42855405807495117,-0.5650078654289246,1.5018360614776611,-2.012583017349243,-0.6393969655036926,0.9785687923431396
794.0,-0.4378325045108795,-0.564188539981842,1.551096796989441,-2.137190580368042,-0.6151843070983887,1.0698140859603882
795.0,-0.44133260846138,-0.5764228701591492,1.6096181869506836,-2.2816200256347656,-0.5886223912239075,1.1889007091522217
796.0,-0.44734203815460205,-0.5755951404571533,1.6916327476501465,-2.5421955585479736,-0.5624286532402039,1.4002907276153564
797.0,-0.4467557370662689,-0.5628020167350769,1.773306965827942,-2.8866078853607178,-0.5598214864730835,1.6948943138122559
798.0,-0.44576510787010193,-0.5456413626670837,1.8046629428863525,-3.058729887008667,-0.5746971368789673,1.8415676355361938
