Sungjin-Park-dev/vision_inspection/data/trajectory/675/joint_trajectory_dp.csv
time,ur20-shoulder_pan_joint,ur20-shoulder_lift_joint,ur20-elbow_joint,ur20-wrist_1_joint,ur20-wrist_2_joint,ur20-wrist_3_joint,target-POS_X,target-POS_Y,target-POS_Z,target-ROT_X,target-ROT_Y,target-ROT_Z,target-ROT_W
0.0,-0.3799050748348236,-0.5702388286590576,1.4859600067138672,-1.5363389253616333,-1.1708343029022217,0.27147579193115234,1.1616325378417969,-0.18271678686141968,-0.08846744894981384,-0.3052527606487274,0.8213653564453125,0.4516673982143402,-0.16785798966884613
1.0,-0.4270296096801758,-0.6101880073547363,1.5843547582626343,-1.6332849264144897,-1.0559362173080444,0.3644300103187561,1.1225459575653076,-0.20648691058158875,-0.08073870837688446,-0.22617743909358978,0.8457880616188049,0.46680182218551636,-0.12483039498329163
2.0,-0.4026291072368622,-0.6009037494659424,1.5412473678588867,-1.5773916244506836,-1.1101206541061401,0.31780412793159485,1.13996422290802,-0.19247913360595703,-0.07521826773881912,-0.2650028467178345,0.8343749046325684,0.46063855290412903,-0.1463017761707306
3.0,-0.34485530853271484,-0.5610830187797546,1.4379165172576904,-1.4765114784240723,-1.2460243701934814,0.21478717029094696,1.1810917854309082,-0.1583685278892517,-0.07922707498073578,-0.35668379068374634,0.800133228302002,0.4404654800891876,-0.19635091722011566
4.0,-0.3667190968990326,-0.5796263813972473,1.4780192375183105,-1.5103548765182495,-1.192724585533142,0.253497451543808,1.16530442237854,-0.17125564813613892,-0.07442643493413925,-0.32170647382736206,0.8145287036895752,0.4489986002445221,-0.17733658850193024
5.0,-0.3439366817474365,-0.5748805999755859,1.447709560394287,-1.47010338306427,-1.2434719800949097,0.21528436243534088,1.177061676979065,-0.15539176762104034,-0.06718455255031586,-0.355829656124115,0.7997817993164062,0.4417160153388977,-0.19652317464351654
6.0,-0.3053976893424988,-0.549183189868927,1.390451431274414,-1.4240597486495972,-1.333289384841919,0.153862863779068,1.1999863386154175,-0.12949100136756897,-0.07252225279808044,-0.4135254919528961,0.7723018527030945,0.4251244068145752,-0.22763089835643768
7.0,-0.2814233899116516,-0.542792022228241,1.367200255393982,-1.4012950658798218,-1.3851078748703003,0.11956644058227539,1.2094810009002686,-0.11077135056257248,-0.06965530663728714,-0.44639086723327637,0.7541590332984924,0.41447776556015015,-0.24533164501190186
8.0,-0.2541082799434662,-0.5478378534317017,1.3529094457626343,-1.3734848499298096,-1.4456642866134644,0.07954920828342438,1.214522123336792,-0.08787378668785095,-0.056699637323617935,-0.48308229446411133,0.7305305004119873,0.40259280800819397,-0.2662249505519867
9.0,-0.27806252241134644,-0.5595939755439758,1.3774161338806152,-1.39018976688385,-1.390706181526184,0.11490002274513245,1.2046312093734741,-0.1061004251241684,-0.053948018699884415,-0.44989845156669617,0.7510151863098145,0.4145894944667816,-0.24836140871047974
10.0,-0.30206099152565,-0.5655154585838318,1.400281548500061,-1.4136639833450317,-1.336396336555481,0.15065324306488037,1.1956355571746826,-0.12448626756668091,-0.05731864646077156,-0.4160996675491333,0.7700203657150269,0.42551079392433167,-0.22993536293506622
11.0,-0.32485416531562805,-0.5731880068778992,1.4276840686798096,-1.4435656070709229,-1.2828820943832397,0.1875108778476715,1.185225486755371,-0.1408415585756302,-0.060490455478429794,-0.3822660744190216,0.7875480651855469,0.43484562635421753,-0.21106864511966705
12.0,-0.3601880967617035,-0.5975232124328613,1.4841203689575195,-1.4923040866851807,-1.1995216608047485,0.24616310000419617,1.1627620458602905,-0.1633150279521942,-0.0562545470893383,-0.3278576135635376,0.8110395669937134,0.4491713047027588,-0.18157467246055603
13.0,-0.33325105905532837,-0.5900216698646545,1.4484614133834839,-1.448630452156067,-1.2601648569107056,0.2019498348236084,1.1765507459640503,-0.14466530084609985,-0.04971181973814964,-0.3681051731109619,0.793373167514801,0.43979498744010925,-0.20405377447605133
14.0,-0.38591036200523376,-0.6212145090103149,1.534020185470581,-1.534205675125122,-1.1363956928253174,0.2926957309246063,1.1428375244140625,-0.17726409435272217,-0.04956737533211708,-0.28586727380752563,0.8260336518287659,0.45903414487838745,-0.15885895490646362
15.0,-0.42271557450294495,-0.6347857117652893,1.5974183082580566,-1.616926670074463,-1.0525524616241455,0.36309343576431274,1.1179250478744507,-0.19866982102394104,-0.05854974314570427,-0.22684642672538757,0.8443239331245422,0.4688200056552887,-0.12595891952514648
16.0,-0.4014459550380707,-0.6194359064102173,1.5541819334030151,-1.5699033737182617,-1.1032103300094604,0.32073891162872314,1.1351523399353027,-0.18795549869537354,-0.05939808115363121,-0.2622518837451935,0.834286093711853,0.46264585852622986,-0.14542941749095917
17.0,-0.38267746567726135,-0.6013380289077759,1.514195442199707,-1.5328369140625,-1.1520259380340576,0.28252437710762024,1.1506474018096924,-0.17885065078735352,-0.06417080760002136,-0.2949228882789612,0.8236666321754456,0.45599886775016785,-0.16327540576457977
18.0,-0.4196016788482666,-0.6199711561203003,1.5805290937423706,-1.6112233400344849,-1.067118525505066,0.3521083891391754,1.124230146408081,-0.19987356662750244,-0.06865311414003372,-0.2356303483247757,0.8424521684646606,0.4666055142879486,-0.13050761818885803
19.0,-0.45600977540016174,-0.6451848149299622,1.660609245300293,-1.7079030275344849,-0.9783207178115845,0.4337872564792633,1.0926241874694824,-0.2160734236240387,-0.06884903460741043,-0.17210854589939117,0.8574345111846924,0.4754745066165924,-0.09543963521718979
20.0,-0.48961642384529114,-0.659065842628479,1.736070156097412,-1.8204388618469238,-0.900456428527832,0.5189617276191711,1.0624147653579712,-0.2297767698764801,-0.07658405601978302,-0.11285113543272018,0.8674366474151611,0.4805310368537903,-0.06251577287912369
21.0,-0.4520508348941803,-0.626350998878479,1.6372020244598389,-1.6953519582748413,-0.9987209439277649,0.4160444140434265,1.1008652448654175,-0.21825918555259705,-0.08126135170459747,-0.18469688296318054,0.8553909659385681,0.4730340540409088,-0.102137990295887
22.0,-0.47547170519828796,-0.6396822929382324,1.691515326499939,-1.7700892686843872,-0.9424416422843933,0.4745810031890869,1.07935631275177,-0.22763392329216003,-0.0839836597442627,-0.1427973359823227,0.8635959029197693,0.4770623445510864,-0.07888322323560715
23.0,-0.5108749270439148,-0.6622958779335022,1.7844281196594238,-1.9044864177703857,-0.8546509146690369,0.5781288743019104,1.0424401760101318,-0.2377532422542572,-0.08524707704782486,-0.07557787746191025,0.871880292892456,0.4820445477962494,-0.04178544878959656
24.0,-0.48665300011634827,-0.6306013464927673,1.7039602994918823,-1.8046842813491821,-0.9269760251045227,0.4940590560436249,1.0729001760482788,-0.23548275232315063,-0.0968119278550148,-0.12854009866714478,0.8663464188575745,0.477393239736557,-0.07083098590373993
25.0,-0.5065803527832031,-0.646571934223175,1.7603691816329956,-1.8834047317504883,-0.8751543164253235,0.5556828379631042,1.0508085489273071,-0.2401098906993866,-0.09513472020626068,-0.08910510689020157,0.8712884783744812,0.4801102876663208,-0.04910002276301384
26.0,-0.5240234136581421,-0.6587233543395996,1.8109571933746338,-1.9600176811218262,-0.8297656774520874,0.6147207021713257,1.0308750867843628,-0.24330496788024902,-0.09422751516103745,-0.053757693618535995,0.8739140033721924,0.4821873903274536,-0.029661139473319054
27.0,-0.5489072799682617,-0.6687195897102356,1.884948492050171,-2.0898373126983643,-0.7693822979927063,0.70896315574646,1.0009021759033203,-0.24661505222320557,-0.09722531586885452,-0.0032407494727522135,0.8755946159362793,0.4830327033996582,-0.0017877998761832714
28.0,-0.5372293591499329,-0.6734662652015686,1.8599026203155518,-2.0342462062835693,-0.7898317575454712,0.6734074354171753,1.0124037265777588,-0.2426682412624359,-0.08917514234781265,-0.022478749975562096,0.8750848770141602,0.4832877814769745,-0.012414458207786083
29.0,-0.5614963173866272,-0.6814268231391907,1.9394681453704834,-2.1862730979919434,-0.7288527488708496,0.7836593985557556,0.9806104898452759,-0.24340328574180603,-0.09180615842342377,0.03072953037917614,0.8750134110450745,0.48282477259635925,0.016956286504864693
30.0,-0.57307368516922,-0.6893178820610046,1.990158200263977,-2.288770914077759,-0.6901848912239075,0.8634385466575623,0.9620225429534912,-0.23997962474822998,-0.08746789395809174,0.06405328959226608,0.8727402687072754,0.4826663136482239,0.03542447090148926
31.0,-0.5246328711509705,-0.6808364987373352,1.8356170654296875,-1.976698875427246,-0.8097354173660278,0.6383606195449829,1.0237407684326172,-0.23728008568286896,-0.0779571384191513,-0.0419500358402729,0.8737428784370422,0.48401814699172974,-0.023238617926836014
32.0,-0.547834575176239,-0.6906260848045349,1.9074307680130005,-2.1053388118743896,-0.7520483136177063,0.7322177886962891,0.9950482845306396,-0.2396484613418579,-0.08036574721336365,0.006526220124214888,0.8746798634529114,0.4846436679363251,0.0036160561721771955
33.0,-0.5638272166252136,-0.7032290101051331,1.9758721590042114,-2.236953020095825,-0.7004711627960205,0.8339369893074036,0.969833493232727,-0.23583900928497314,-0.07532761245965958,0.050633519887924194,0.8730674982070923,0.4841498136520386,0.028078250586986542
34.0,-0.5807284116744995,-0.7005086541175842,2.0449447631835938,-2.405958652496338,-0.6535098552703857,0.9578443765640259,0.9432394504547119,-0.23202207684516907,-0.07773151248693466,0.09752682596445084,0.869425356388092,0.481324166059494,0.053992003202438354
35.0,-0.5957580804824829,-0.6883066296577454,2.127840280532837,-2.6515164375305176,-0.6032683253288269,1.1434270143508911,0.9120984077453613,-0.22199177742004395,-0.07646822184324265,0.15595406293869019,0.8609768748283386,0.47639361023902893,0.08629211783409119
36.0,-0.601116418838501,-0.6713334918022156,2.1914024353027344,-2.886322021484375,-0.5725354552268982,1.3288300037384033,0.8887601494789124,-0.20850679278373718,-0.06948094815015793,0.20408372581005096,0.8506382703781128,0.4711545407772064,0.11303862184286118
37.0,-0.5915302038192749,-0.7015956044197083,2.136779308319092,-2.663766384124756,-0.596107542514801,1.1642978191375732,0.9120362997055054,-0.21671557426452637,-0.06440426409244537,0.1598312258720398,0.8595868945121765,0.4771713316440582,0.0887250304222107
38.0,-0.584298849105835,-0.7102658748626709,2.0877788066864014,-2.509460687637329,-0.6225691437721252,1.0468789339065552,0.9302945137023926,-0.22397029399871826,-0.06591251492500305,0.1255435049533844,0.8649699687957764,0.48082783818244934,0.06978835165500641
39.0,-0.5680732727050781,-0.716387152671814,2.0124850273132324,-2.3057737350463867,-0.6729247570037842,0.8937905430793762,0.9582276344299316,-0.22999539971351624,-0.0652279406785965,0.0728684812784195,0.8709427714347839,0.48425954580307007,0.04051615670323372
40.0,-0.5510400533676147,-0.7127484083175659,1.9446030855178833,-2.153472423553467,-0.7243407964706421,0.7787842750549316,0.9832441210746765,-0.23268115520477295,-0.06501581519842148,0.026165353134274483,0.8736356496810913,0.4856589436531067,0.014545466750860214
41.0,-0.536166787147522,-0.6982298493385315,1.8835586309432983,-2.0468556880950928,-0.7703498601913452,0.6964213252067566,1.006166696548462,-0.23527388274669647,-0.0700700581073761,-0.011988019570708275,0.8741158246994019,0.48552393913269043,-0.0066586947068572044
42.0,-0.5057523846626282,-0.6804707050323486,1.7904647588729858,-1.889739990234375,-0.850773811340332,0.577772319316864,1.0420881509780884,-0.23103342950344086,-0.06889607757329941,-0.07661308348178864,0.8708743453025818,0.4836302399635315,-0.042546212673187256
43.0,-0.5203956961631775,-0.6978790163993835,1.8422549962997437,-1.9649730920791626,-0.805230975151062,0.6393460631370544,1.0229490995407104,-0.23133674263954163,-0.06322316825389862,-0.042192257940769196,0.8728924989700317,0.48551803827285767,-0.023468071594834328
44.0,-0.48511746525764465,-0.6716658473014832,1.7379872798919678,-1.8048367500305176,-0.9012641906738281,0.5142816305160522,1.0625897645950317,-0.22465814650058746,-0.06445569545030594,-0.11603892594575882,0.8662929534912109,0.48157086968421936,-0.06450585275888443
45.0,-0.5023531913757324,-0.6937625408172607,1.7954084873199463,-1.8801491260528564,-0.8471704125404358,0.5785080790519714,1.041481375694275,-0.22625219821929932,-0.05708936229348183,-0.07674910128116608,0.8701912760734558,0.48481783270835876,-0.04275994375348091
46.0,-0.48171114921569824,-0.6844037771224976,1.742199182510376,-1.793561339378357,-0.8994523882865906,0.5128953456878662,1.061784029006958,-0.21997204422950745,-0.05280977115035057,-0.11715921014547348,0.865463137626648,0.4826778173446655,-0.06534092128276825
47.0,-0.5189986228942871,-0.712718665599823,1.8537743091583252,-1.9667819738388062,-0.795901894569397,0.6489035487174988,1.0199306011199951,-0.22680914402008057,-0.05153100565075874,-0.03780971094965935,0.8724459409713745,0.48678910732269287,-0.021096274256706238
48.0,-0.5399655699729919,-0.7229611873626709,1.9216868877410889,-2.0908312797546387,-0.7401431798934937,0.741328239440918,0.9938672184944153,-0.2285376489162445,-0.05323721840977669,0.008448141627013683,0.8731558918952942,0.48734530806541443,0.004715265240520239
49.0,-0.5668656229972839,-0.7290025949478149,2.0281684398651123,-2.327324390411377,-0.6614086031913757,0.9182934165000916,0.9543987512588501,-0.22492098808288574,-0.05490436777472496,0.08054579049348831,0.8697757124900818,0.4847550392150879,0.04489085450768471
50.0,-0.5475645661354065,-0.7409194111824036,1.9694668054580688,-2.1738390922546387,-0.7018114328384399,0.813267171382904,0.9782846570014954,-0.22308555245399475,-0.04234287515282631,0.0383622907102108,0.87190181016922,0.48770397901535034,0.021458197385072708
51.0,-0.5602820515632629,-0.7485457062721252,2.0314109325408936,-2.3128750324249268,-0.6556813716888428,0.9224485158920288,0.9567687511444092,-0.21856524050235748,-0.03840873762965202,0.07982801645994186,0.8688938021659851,0.4864705502986908,0.04469358175992966
52.0,-0.5740064382553101,-0.7379857897758484,2.0861334800720215,-2.4714550971984863,-0.6198363900184631,1.0380197763442993,0.9360118508338928,-0.2163296937942505,-0.04419710114598274,0.11941849440336227,0.8646337985992432,0.48341500759124756,0.0667666420340538
53.0,-0.5858051776885986,-0.7185264229774475,2.1441423892974854,-2.6688857078552246,-0.5889981389045715,1.1828842163085938,0.9133116006851196,-0.2107882797718048,-0.049708399921655655,0.16243453323841095,0.8582619428634644,0.47833651304244995,0.0905299186706543
54.0,-0.5933725833892822,-0.5764827728271484,1.7667217254638672,0.4213065505027771,0.5540279150009155,-1.618703007698059,0.8746124505996704,-0.18916603922843933,-0.04503237083554268,0.24480003118515015,0.8383991122245789,0.46747103333473206,0.13649454712867737
55.0,-0.593284010887146,-0.5358167290687561,1.713045597076416,0.5658529996871948,0.5643891096115112,-1.7739068269729614,0.8896322250366211,-0.20022843778133392,-0.05060379579663277,0.20989517867565155,0.8481948375701904,0.47208279371261597,0.11682210117578506
56.0,-0.6000030636787415,-0.5407976508140564,1.737317681312561,0.4887397587299347,0.5618610382080078,-1.7058207988739014,0.8786531686782837,-0.19937191903591156,-0.061652082949876785,0.22827331721782684,0.8441144227981567,0.4683189392089844,0.12664717435836792
57.0,-0.5976617932319641,-0.580429196357727,1.7880545854568481,0.35693246126174927,0.5568510890007019,-1.5634475946426392,0.8654165267944336,-0.18749159574508667,-0.05470668151974678,0.2589936852455139,0.8349699974060059,0.4637413024902344,0.14384478330612183
58.0,-0.5967523455619812,-0.6197174787521362,1.851283311843872,0.18146033585071564,0.5655446648597717,-1.3845484256744385,0.8477773666381836,-0.17546826601028442,-0.056905392557382584,0.2982531189918518,0.8219825029373169,0.45607513189315796,0.16548508405685425
59.0,-0.5855029821395874,-0.6783376336097717,1.9423112869262695,-0.057547375559806824,0.6037650108337402,-1.1369274854660034,0.8260437250137329,-0.15414148569107056,-0.05608385428786278,0.3513004183769226,0.8011394739151001,0.4437372386455536,0.19457922875881195
60.0,-0.5359597206115723,-0.7655652761459351,2.1033878326416016,-0.45553529262542725,0.7633940577507019,-0.7205585837364197,0.7910833358764648,-0.10642144083976746,-0.05898965522646904,0.4511021673679352,0.7506301999092102,0.4137905240058899,0.2486734539270401
61.0,-0.49959617853164673,-0.7983589172363281,2.1545186042785645,-0.5738856196403503,0.8589989542961121,-0.5757614374160767,0.7830416560173035,-0.08355721086263657,-0.05365387722849846,0.4900279641151428,0.7257698178291321,0.4001641869544983,0.27018433809280396
62.0,-0.5634732246398926,-0.7339303493499756,2.021260976791382,-0.2533973753452301,0.6655616164207458,-0.9230403900146484,0.8110774755477905,-0.13112002611160278,-0.04930612072348595,0.39825356006622314,0.7789152264595032,0.4313335418701172,0.22053760290145874
63.0,-0.5447211265563965,-0.7630209922790527,2.072239875793457,-0.37666845321655273,0.7230478525161743,-0.7907423973083496,0.8007203340530396,-0.11484535038471222,-0.04878352954983711,0.43052297830581665,0.7618127465248108,0.4213999807834625,0.2381456345319748
64.0,-0.513947069644928,-0.7992531061172485,2.126279592514038,-0.5033884048461914,0.8080762028694153,-0.6408451795578003,0.7920050024986267,-0.09388913214206696,-0.043034691363573074,0.4691251218318939,0.7383166551589966,0.4089937210083008,0.2598738670349121
65.0,-0.535179853439331,-0.7833431959152222,2.077772378921509,-0.3860715627670288,0.7355127930641174,-0.7600778937339783,0.8039959669113159,-0.11000422388315201,-0.03608505800366402,0.4356098473072052,0.7581368088722229,0.4207475185394287,0.24175287783145905
66.0,-0.5608195066452026,-0.7419852018356323,2.006696939468384,-0.21313278377056122,0.6538549065589905,-0.9467509388923645,0.8183821439743042,-0.1320311427116394,-0.0365605391561985,0.3896883726119995,0.7824237942695618,0.4348088204860687,0.21655777096748352
67.0,-0.5764694213867188,-0.7031171321868896,1.958272933959961,-0.09320993721485138,0.6132614612579346,-1.08358633518219,0.826331377029419,-0.14697594940662384,-0.04384898021817207,0.36012527346611023,0.7964674234390259,0.442605197429657,0.20012536644935608
68.0,-0.5904946327209473,-0.6380508542060852,1.8590216636657715,0.1672390252351761,0.565401017665863,-1.3555107116699219,0.8494129776954651,-0.17051684856414795,-0.04504809156060219,0.3017359673976898,0.8199878334999084,0.456466943025589,0.1679689586162567
69.0,-0.5627888441085815,-0.70648193359375,1.9171277284622192,0.039369381964206696,0.6566666960716248,-1.1735941171646118,0.8414630889892578,-0.14868056774139404,-0.025692513212561607,0.3465408682823181,0.8182781338691711,0.4223078787326813,0.17884744703769684
70.0,-0.5865297317504883,-0.6334202289581299,1.8336714506149292,0.24175702035427094,0.5579502582550049,-1.4193094968795776,0.8592934608459473,-0.17253366112709045,-0.034197721630334854,0.28565308451652527,0.8251873850822449,0.4604964256286621,0.15940891206264496
71.0,-0.5754575133323669,-0.596189022064209,1.7513036727905273,0.4681518077850342,0.6116165518760681,-1.6348553895950317,0.886056125164032,-0.18461273610591888,-0.02645902894437313,0.2360215038061142,0.8549821972846985,0.4451916217803955,0.12289705127477646
72.0,-0.5746507048606873,-0.5549939274787903,1.693286418914795,0.6234325170516968,0.6114811301231384,-1.8026096820831299,0.9038485288619995,-0.19530877470970154,-0.027820562943816185,0.1939847469329834,0.8626670241355896,0.4557131826877594,0.10247454047203064
73.0,-0.5763289332389832,-0.49951398372650146,1.63075590133667,0.8034064173698425,0.5936405062675476,-2.001445770263672,0.9231049418449402,-0.20769387483596802,-0.03420456126332283,0.14789558947086334,0.8599462509155273,0.48141902685165405,0.08279558271169662
74.0,-0.5208078622817993,-0.7800546288490295,2.022087335586548,-2.3878307342529297,-0.8065358400344849,0.9916030168533325,0.9748073220252991,-0.20436474680900574,-0.014273752458393574,0.052137915045022964,0.9089107513427734,0.4130394458770752,0.023693211376667023
75.0,-0.4765882194042206,-0.7977062463760376,1.9868478775024414,-2.3869149684906006,-0.960519015789032,0.9716649055480957,0.9997046589851379,-0.19040387868881226,0.001206631655804813,-0.0017877760110422969,0.9389160871505737,0.3441411852836609,-0.0006552740815095603
76.0,-0.4508601725101471,-0.8263625502586365,2.1006765365600586,-2.7157998085021973,-1.0819730758666992,1.3006503582000732,0.9628406763076782,-0.16231000423431396,0.017735982313752174,0.1029404029250145,0.9628918766975403,0.24807097017765045,0.026520658284425735
77.0,-0.43678396940231323,-0.8264043927192688,2.054328441619873,-2.6191678047180176,-1.1169958114624023,1.1782479286193848,0.9844054579734802,-0.16310027241706848,0.019113803282380104,0.04162623733282089,0.9697610139846802,0.24025923013687134,0.010312939062714577
78.0,-0.40014901757240295,-0.8291274905204773,2.0169057846069336,-2.580336332321167,-1.222723126411438,1.0848720073699951,1.0066250562667847,-0.1503867506980896,0.024997660890221596,-0.02666204236447811,0.9807440042495728,0.19339781999588013,-0.005257620941847563
79.0,-0.3965352475643158,-0.8200036287307739,1.9712389707565308,-2.484145164489746,-1.2148493528366089,0.962881863117218,1.026012659072876,-0.15340480208396912,0.022957587614655495,-0.0822027400135994,0.9740138053894043,0.21029698848724365,-0.017748193815350533
80.0,-0.3604722321033478,-0.8125308156013489,1.9206492900848389,-2.423255205154419,-1.2987933158874512,0.799135684967041,1.053581953048706,-0.1380322277545929,0.02597230114042759,-0.18369317054748535,0.9655154943466187,0.18123972415924072,-0.034481581300497055
81.0,-0.4096928536891937,-0.7968886494636536,1.8980486392974854,-2.291306495666504,-1.1461787223815918,0.7999342083930969,1.0482432842254639,-0.16677898168563843,0.013265754096210003,-0.13318690657615662,0.9514458775520325,0.27483069896698,-0.03847181424498558
82.0,-0.46809208393096924,-0.7844460606575012,1.9261366128921509,-2.248042106628418,-0.9698023796081543,0.845772922039032,1.0213325023651123,-0.19335779547691345,-0.002525736577808857,-0.05152783542871475,0.9306169152259827,0.3617951273918152,-0.020032430067658424
83.0,-0.5315271615982056,-0.7442029714584351,1.9204504489898682,-2.060347557067871,-0.7388787865638733,0.733762264251709,0.9971821308135986,-0.2208264172077179,-0.03386346623301506,0.00338049978017807,0.8720073103904724,0.4894775152206421,0.001897551235742867
84.0,-0.5094256401062012,-0.7250693440437317,1.8413996696472168,-1.923873782157898,-0.80740886926651,0.6257942318916321,1.025776743888855,-0.22057539224624634,-0.03744198754429817,-0.05064506456255913,0.8709022402763367,0.48801562190055847,-0.0283792857080698
85.0,-0.5273842811584473,-0.7289801836013794,1.8927018642425537,-2.0234837532043457,-0.7621867656707764,0.6985316276550293,1.0064218044281006,-0.22438523173332214,-0.0433562733232975,-0.0129931028932333,0.8725964426994324,0.4882149398326874,-0.007269598543643951
86.0,-0.49564772844314575,-0.7070826888084412,1.7927281856536865,-1.855635404586792,-0.8517759442329407,0.568359911441803,1.0435672998428345,-0.2201904058456421,-0.04352713003754616,-0.08334832638502121,0.8688810467720032,0.4857240319252014,-0.04659358784556389
87.0,-0.47277161478996277,-0.6919561624526978,1.7308082580566406,-1.7618931531906128,-0.9124332666397095,0.4950641989707947,1.0668764114379883,-0.2138625532388687,-0.04191518947482109,-0.12916043400764465,0.8631371259689331,0.48279669880867004,-0.07224602997303009
88.0,-0.46089911460876465,-0.6718531250953674,1.6920233964920044,-1.7230983972549438,-0.9509364366531372,0.457402765750885,1.0814212560653687,-0.21250402927398682,-0.050884101539850235,-0.15546458959579468,0.8596073389053345,0.478959858417511,-0.0866224616765976
89.0,-0.4389919638633728,-0.654626727104187,1.6392629146575928,-1.6572182178497314,-1.0071027278900146,0.4023458659648895,1.1017941236495972,-0.20421133935451508,-0.051783185452222824,-0.19583603739738464,0.8514449596405029,0.4741280674934387,-0.10905151069164276
90.0,-0.41883382201194763,-0.6460101008415222,1.6000937223434448,-1.6040213108062744,-1.055079460144043,0.35864168405532837,1.116957426071167,-0.1939295530319214,-0.04728398844599724,-0.23015287518501282,0.8427608609199524,0.469414621591568,-0.12819427251815796
91.0,-0.40013283491134644,-0.6434140205383301,1.5704654455184937,-1.5592405796051025,-1.0957250595092773,0.32328081130981445,1.1285203695297241,-0.182438462972641,-0.039007220417261124,-0.25937074422836304,0.8339449167251587,0.46511954069137573,-0.14465990662574768
92.0,-0.42518702149391174,-0.6642045378684998,1.6244053840637207,-1.6174638271331787,-1.0317193269729614,0.3771935999393463,1.1076602935791016,-0.19396108388900757,-0.03637706860899925,-0.21536993980407715,0.8460320830345154,0.47262081503868103,-0.12031260877847672
93.0,-0.45030146837234497,-0.6809145212173462,1.679794192314148,-1.6874232292175293,-0.9683208465576172,0.43634143471717834,1.0863829851150513,-0.20481114089488983,-0.037595268338918686,-0.17033374309539795,0.8560117483139038,0.47870326042175293,-0.09525489807128906
94.0,-0.4502755105495453,-0.7323352694511414,1.7743626832962036,-1.9074422121047974,-0.9846853613853455,0.5760704278945923,1.0668590068817139,-0.1976662278175354,-0.017689643427729607,-0.14545637369155884,0.8921816349029541,0.422042578458786,-0.06880750507116318
95.0,-0.4129348397254944,-0.7565290331840515,1.7917455434799194,-2.0323398113250732,-1.1025471687316895,0.6096976399421692,1.0775153636932373,-0.17661142349243164,-0.0007881867932155728,-0.1893373429775238,0.915916919708252,0.34657570719718933,-0.07164375483989716
96.0,-0.3552666902542114,-0.7855960726737976,1.8292659521102905,-2.2221803665161133,-1.2735284566879272,0.6160566210746765,1.0857973098754883,-0.1402461975812912,0.018937015905976295,-0.2588401734828949,0.9352843165397644,0.23259738087654114,-0.06437137722969055
97.0,-0.2987672686576843,-0.811771810054779,1.9216296672821045,-2.5296809673309326,-1.4517769813537598,0.6627383828163147,1.069764256477356,-0.09998483210802078,0.03361358866095543,-0.2942924499511719,0.950898289680481,0.09155100584030151,-0.02833402343094349
98.0,-0.30586856603622437,-0.819348931312561,1.9569758176803589,-2.5951318740844727,-1.4572707414627075,0.7832108736038208,1.0530400276184082,-0.10341352224349976,0.03443482145667076,-0.23465099930763245,0.968780517578125,0.07777131348848343,-0.018837207928299904
99.0,-0.27205967903137207,-0.8176551461219788,1.9807966947555542,-2.698676109313965,-1.541282296180725,1.2987096309661865,1.049483060836792,-0.07937908917665482,0.036428745836019516,0.00024667548132129014,0.9997357130050659,0.018948594108223915,-0.013014702126383781
100.0,-0.2587909698486328,-0.8195151090621948,1.9897215366363525,-2.7124722003936768,-1.5560001134872437,1.3120512962341309,1.0451900959014893,-0.06640499085187912,0.03648820146918297,0.00012851286737713963,0.999871015548706,0.010801097378134727,-0.011896595358848572
101.0,-0.244455948472023,-0.8226077556610107,2.0022363662719727,-2.727482795715332,-1.5630300045013428,1.3263846635818481,1.0385907888412476,-0.05067688226699829,0.03651272878050804,6.668334390269592e-05,0.9999266862869263,0.006543464958667755,-0.010190082713961601
102.0,-0.24647250771522522,-0.815841019153595,1.976688265800476,-2.6997270584106445,-1.5591070652008057,1.3244060277938843,1.0536084175109863,-0.05595150962471962,0.03648146614432335,0.0001343331823591143,0.9998556971549988,0.009559988975524902,-0.01404957752674818
103.0,-0.24621571600437164,-0.8067626357078552,1.9434806108474731,-2.6632080078125,-1.550929307937622,1.3247137069702148,1.0730656385421753,-0.059266332536935806,0.03641536459326744,0.0002865775895770639,0.9997053146362305,0.015028957277536392,-0.019062740728259087
104.0,-0.26210007071495056,-0.8100720643997192,1.9512985944747925,-2.6628215312957764,-1.539041519165039,1.3087681531906128,1.0668278932571411,-0.0730200707912445,0.0363142155110836,0.00042648124508559704,0.9995713829994202,0.021701958030462265,-0.01964331790804863
105.0,-0.29670554399490356,-0.7995712161064148,1.8663578033447266,-2.402103900909424,-1.428924560546875,0.5325314998626709,1.0903147459030151,-0.10034380108118057,0.0306145790964365,-0.3511687219142914,0.9262813329696655,0.12781073153018951,-0.04845518618822098
106.0,-0.34008803963661194,-0.7691022157669067,1.7775613069534302,-2.125356912612915,-1.2952436208724976,0.508723795413971,1.1048141717910767,-0.1331789791584015,0.01603093184530735,-0.3119736909866333,0.913833737373352,0.2460206300020218,-0.0839889869093895
107.0,-0.37890326976776123,-0.6860944032669067,1.622323751449585,-1.7056924104690552,-1.1595311164855957,0.3694472908973694,1.1267541646957397,-0.1658688336610794,-0.017273670062422752,-0.2873178720474243,0.8580886125564575,0.4035741984844208,-0.13513065874576569
108.0,-0.3512100279331207,-0.6881042122840881,1.6082713603973389,-1.7247198820114136,-1.2294142246246338,0.33477360010147095,1.1396572589874268,-0.1484871208667755,-0.011319589801132679,-0.3339228332042694,0.853209376335144,0.3731040954589844,-0.1460227370262146
109.0,-0.3271087110042572,-0.6549212336540222,1.5353995561599731,-1.6051033735275269,-1.2789411544799805,0.24941818416118622,1.1608790159225464,-0.13474610447883606,-0.017746901139616966,-0.37776121497154236,0.8214064240455627,0.38821643590927124,-0.17853902280330658
110.0,-0.28579336404800415,-0.7536187767982483,1.7212035655975342,-2.0718557834625244,-1.4059066772460938,0.31508076190948486,1.1343334913253784,-0.0974137932062149,0.018460998311638832,-0.4351673424243927,0.8666836619377136,0.21796967089176178,-0.10944395512342453
111.0,-0.2306535542011261,-0.7803005576133728,1.8015966415405273,-2.3279592990875244,-1.529412031173706,0.15179835259914398,1.1248250007629395,-0.0511205680668354,0.03087606467306614,-0.5525715947151184,0.8227460384368896,0.11061131954193115,-0.07428862899541855
112.0,-0.24412095546722412,-0.7954093217849731,1.8674331903457642,-2.4810824394226074,-1.5225703716278076,0.28728166222572327,1.1025969982147217,-0.059837255626916885,0.034212853759527206,-0.49315962195396423,0.8658488988876343,0.07321435213088989,-0.041700538247823715
113.0,-0.22802147269248962,-0.8016918301582336,1.9270519018173218,-2.6487417221069336,-1.5592119693756104,1.3429795503616333,1.0835497379302979,-0.043269701302051544,0.0364140085875988,0.00023962088744156063,0.9997022151947021,0.010996910743415356,-0.02178334817290306
114.0,-0.2220369577407837,-0.808351993560791,1.9507297277450562,-2.6744368076324463,-1.5654700994491577,1.348907470703125,1.069942593574524,-0.03464832156896591,0.03646093234419823,0.0001256206596735865,0.9998089075088501,0.006860921625047922,-0.01830609142780304
115.0,-0.23425059020519257,-0.8111639618873596,1.9601842164993286,-2.683201551437378,-1.5614666938781738,1.336668848991394,1.0639173984527588,-0.04576047882437706,0.03646649047732353,0.0001469442358938977,0.9998215436935425,0.00878472812473774,-0.016724251210689545
116.0,-0.22831180691719055,-0.8160601258277893,1.9782695770263672,-2.702944040298462,-1.5656216144561768,1.3425731658935547,1.0534894466400146,-0.03761765733361244,0.03649383410811424,8.323048677993938e-05,0.999883770942688,0.005921127274632454,-0.01405489444732666
117.0,-0.2150251865386963,-0.8133296966552734,1.9688160419464111,-2.6939456462860107,-1.5692710876464844,1.3558776378631592,1.059480905532837,-0.025413503870368004,0.03648736700415611,6.557203596457839e-05,0.9998691082000732,0.004193901550024748,-0.01563304290175438
118.0,-0.21264661848545074,-0.8009289503097534,1.9252678155899048,-2.648756980895996,-1.5667392015457153,1.3583614826202393,1.085123062133789,-0.02801772765815258,0.03642581030726433,0.0001528918364783749,0.9997291564941406,0.006873546168208122,-0.022237492725253105
119.0,-0.19127480685710907,-0.8011410236358643,1.9294925928115845,-2.659830093383789,-1.5966657400131226,1.3796401023864746,1.0829933881759644,-0.009044680744409561,0.0364232175052166,-0.00019499301561154425,0.9997231364250183,-0.008960479870438576,-0.02175542525947094
120.0,-0.15360596776008606,-0.7959296703338623,1.9303852319717407,-2.6826789379119873,-1.7047063112258911,1.4159353971481323,1.0818887948989868,0.015044686384499073,0.035312261432409286,-0.0013811487006023526,0.9976952075958252,-0.06437668204307556,-0.021404732018709183
121.0,-0.15163064002990723,-0.787394642829895,1.8957992792129517,-2.636340618133545,-1.7042871713638306,1.4180960655212402,1.100773572921753,0.014356068335473537,0.03525153920054436,-0.0019626750145107508,0.9975433349609375,-0.06266919523477554,-0.031241079792380333
122.0,-0.11712464690208435,-0.7806528806686401,1.9124423265457153,-2.6843035221099854,-1.8087966442108154,-1.4933968782424927,1.0905178785324097,0.03744411841034889,0.030488738790154457,0.9882991313934326,-0.09533790498971939,-0.011432343162596226,0.11851083487272263
123.0,-0.11536987870931625,-0.7858847975730896,1.9348077774047852,-2.7090377807617188,-1.8175650835037231,-1.527094841003418,1.0770204067230225,0.039591800421476364,0.02999376691877842,0.9892987608909607,-0.07819154113531113,-0.009705856442451477,0.12280090898275375
124.0,-0.11450059711933136,-0.7906602621078491,1.954965353012085,-2.7310373783111572,-1.822076439857483,-1.5544531345367432,1.064806580543518,0.04124956950545311,0.029603594914078712,0.9900100231170654,-0.0646057277917862,-0.00816110335290432,0.12505970895290375
125.0,-0.14264702796936035,-0.8037163615226746,1.9732154607772827,-2.7365105152130127,-1.7455949783325195,-1.5490355491638184,1.0558027029037476,0.024315793067216873,0.03352951630949974,0.9928309321403503,-0.08163317292928696,-0.007154575549066067,0.08701468259096146
126.0,-0.17035110294818878,-0.8047453165054321,1.9525023698806763,-2.6974480152130127,-1.6623194217681885,1.3998363018035889,1.069243311882019,0.005713297054171562,0.03606022521853447,-0.0007868445827625692,0.9988974332809448,-0.04328831285238266,-0.01815679296851158
127.0,-0.19325169920921326,-0.8130671381950378,1.9725494384765625,-2.7057573795318604,-1.603298306465149,1.3775311708450317,1.0575389862060547,-0.007250642403960228,0.03645385429263115,-0.00020598177798092365,0.9997928142547607,-0.013592190109193325,-0.015151279978454113
128.0,-0.2094355970621109,-0.8199827671051025,1.9934844970703125,-2.720273494720459,-1.572243332862854,1.361420750617981,1.0449177026748657,-0.01683781109750271,0.03651314601302147,2.1294956241035834e-05,0.9999275803565979,0.0017893760232254863,-0.011899911798536777
129.0,-0.22744564712047577,-0.8221759796142578,2.001389741897583,-2.728017568588257,-1.569190263748169,1.3434017896652222,1.0397719144821167,-0.03408797085285187,0.03651825711131096,3.435222606640309e-05,0.9999393224716187,0.0032615207601338625,-0.010531940497457981
130.0,-0.235178604722023,-0.8272448182106018,2.0205929279327393,-2.7479658126831055,-1.5675240755081177,1.3356432914733887,1.0280215740203857,-0.03911806643009186,0.036530014127492905,2.601945561764296e-05,0.9999659657478333,0.003475902834907174,-0.007485413458198309
131.0,-0.21669580042362213,-0.8252286911010742,2.0133261680603027,-2.741161346435547,-1.5719937086105347,1.3541343212127686,1.0329005718231201,-0.021771550178527832,0.03652762994170189,1.1612832167884335e-05,0.9999605417251587,0.0013214591890573502,-0.008787538856267929
132.0,-0.22659023106098175,-0.832168459892273,2.0404133796691895,-2.7696709632873535,-1.5701040029525757,1.3442153930664062,1.0163544416427612,-0.027937663719058037,0.03654014691710472,6.237088200578e-06,0.9999889731407166,0.0013898438774049282,-0.004487568978220224
133.0,-0.2043924331665039,-0.828813910484314,2.030193567276001,-2.7635204792022705,-1.5898702144622803,1.3663820028305054,1.0228787660598755,-0.009762154892086983,0.036520879715681076,-5.222701656748541e-05,0.9999451637268066,-0.008459726348519325,-0.006173267494887114
134.0,-0.1724465936422348,-0.8190948367118835,2.0076711177825928,-2.757161855697632,-1.6699297428131104,1.3975226879119873,1.0361464023590088,0.008052527904510498,0.036004673689603806,-0.0004677759134210646,0.9987711310386658,-0.04861811175942421,-0.00960960891097784
135.0,-0.11331495642662048,-0.7964349985122681,1.9803084135055542,-2.7586593627929688,-1.8220723867416382,-1.5868405103683472,1.0493597984313965,0.04426484555006027,0.02886783517897129,0.9909306764602661,-0.04848260432481766,-0.006124275270849466,0.1251733899116516
136.0,-0.09971605986356735,-0.7938026189804077,1.9848326444625854,-2.7649643421173096,-1.8232358694076538,-1.5833593606948853,1.0453168153762817,0.05869029089808464,0.02523709274828434,0.9910933971405029,-0.0434134379029274,-0.005509341135621071,0.12577377259731293
137.0,-0.10713972896337509,-0.8004993200302124,2.0051064491271973,-2.7860803604125977,-1.8221441507339478,-1.6137006282806396,1.033586859703064,0.052398063242435455,0.026832247152924538,0.9915662407875061,-0.03252724930644035,-0.004113151226192713,0.12538599967956543
138.0,-0.11678611487150192,-0.8067737817764282,2.0213708877563477,-2.8026373386383057,-1.8189723491668701,-1.6408897638320923,1.0244312286376953,0.04403068125247955,0.02895256318151951,0.9919787645339966,-0.024230722337961197,-0.003029481042176485,0.12402357906103134
139.0,-0.10291020572185516,-0.8072064518928528,2.0403263568878174,-2.8238255977630615,-1.8166084289550781,-1.6524407863616943,1.0112544298171997,0.05988401919603348,0.02496390976011753,0.9923383593559265,-0.011772283352911472,-0.0014589278725907207,0.1229795515537262
140.0,-0.11447883397340775,-0.814056932926178,2.0586094856262207,-2.8431029319763184,-1.8156158924102783,-1.684834599494934,1.00095796585083,0.04958678036928177,0.02755785919725895,0.9924213290214539,-0.0019130256259813905,-0.00023684202460572124,0.1228666678071022
141.0,-0.1134495735168457,-0.8189060091972351,2.085526704788208,-2.8735263347625732,-1.8162592649459839,-1.7183749675750732,0.9838777780532837,0.05246027559041977,0.026829266920685768,0.9922094345092773,0.01472274400293827,0.0018354218918830156,0.1236945241689682
142.0,-0.12675654888153076,-0.8235534429550171,2.0911898612976074,-2.878781795501709,-1.8127269744873047,-1.7377369403839111,0.9815547466278076,0.040270689874887466,0.029905105009675026,0.9923391938209534,0.017506025731563568,0.0021571216639131308,0.12227769941091537
143.0,-0.13710685074329376,-0.8229468464851379,2.0692543983459473,-2.847787618637085,-1.7801169157028198,-1.717445969581604,0.9962683320045471,0.033079952001571655,0.03163224086165428,0.9944074153900146,0.0031420583836734295,0.0003335564979352057,0.1055648922920227
144.0,-0.13194803893566132,-0.8164972066879272,2.044811487197876,-2.822408676147461,-1.7894233465194702,-1.6778236627578735,1.0111294984817505,0.0348067507147789,0.031228715553879738,0.9938707947731018,-0.013655574060976505,-0.0015071308007463813,0.10969099402427673
145.0,-0.18377353250980377,-0.6450555324554443,1.5284641981124878,0.6789082884788513,1.6501532793045044,-1.7551531791687012,1.0109516382217407,0.004094848874956369,0.03619487211108208,-0.00012321640679147094,0.9992039203643799,-0.03977298364043236,-0.0030955267138779163
146.0,-0.18008947372436523,-0.6666333079338074,1.5779166221618652,0.634566605091095,1.670378565788269,-1.7517882585525513,0.9861213564872742,0.009176569059491158,0.03596597537398338,0.0001701277360552922,0.9986832737922668,-0.05119466409087181,0.0033187787048518658
147.0,-0.20294296741485596,-0.6578826308250427,1.5588924884796143,0.6607950925827026,1.6067137718200684,-1.773871898651123,0.9959279298782349,-0.005383380223065615,0.03646961972117424,1.4466553693637252e-05,0.9998287558555603,-0.01849503442645073,0.0007820519967935979
148.0,-0.22011679410934448,-0.6477740406990051,1.537677526473999,0.6847166419029236,1.5710676908493042,-1.7909115552902222,1.0062848329544067,-0.019221510738134384,0.03654420003294945,5.402910119300941e-07,0.9999982714653015,0.0002850513847079128,-0.0018954132683575153
149.0,-0.2280348390340805,-0.6580275297164917,1.5612496137619019,0.6653684377670288,1.5699222087860107,-1.7988306283950806,0.9944310784339905,-0.0242988932877779,0.036544691771268845,-2.0698406899555266e-07,0.9999992847442627,0.0001764324406394735,0.0011731626000255346
150.0,-0.23462221026420593,-0.6703313589096069,1.589905858039856,0.6423344612121582,1.5656377077102661,-1.8054101467132568,0.9798932671546936,-0.026737825945019722,0.036539193242788315,-7.262259259732673e-06,0.9999868869781494,0.0014755907468497753,0.004921530373394489
151.0,-0.2212519347667694,-0.6739276647567749,1.5979838371276855,0.6349858641624451,1.5690397024154663,-1.7920328378677368,0.9760624766349792,-0.013250038027763367,0.03653722628951073,2.5652248041296843e-06,0.9999823570251465,-0.00043282657861709595,0.005926575977355242
152.0,-0.20256631076335907,-0.6853789687156677,1.6217563152313232,0.6053302884101868,1.6227190494537354,-1.773606300354004,0.9640142917633057,-0.0009720539674162865,0.036350276321172714,0.0002557376283220947,0.9995574355125427,-0.028351128101348877,0.009016376920044422
153.0,-0.24613195657730103,-0.7009618282318115,1.6619858741760254,0.5836949348449707,1.555275559425354,-1.816852331161499,0.9426546096801758,-0.027103979140520096,0.03649437054991722,-6.323059642454609e-05,0.9998849034309387,0.004349575378000736,0.014535515569150448
154.0,-0.24417224526405334,-0.6869698166847229,1.628922700881958,0.6107233762741089,1.5598697662353516,-1.8149324655532837,0.9597821831703186,-0.03024151735007763,0.03652038797736168,-3.1458497687708586e-05,0.9999441504478455,0.003110934980213642,0.010111670009791851
155.0,-0.2662762999534607,-0.6877931952476501,1.631457805633545,0.6100216507911682,1.5525556802749634,-1.837056040763855,0.9576146602630615,-0.04993286728858948,0.036510732024908066,-6.97551149642095e-05,0.9999219179153442,0.006547518540173769,0.010652839206159115
156.0,-0.26378315687179565,-0.6763072609901428,1.6042736768722534,0.6316519379615784,1.557985782623291,-1.8345746994018555,0.9715379476547241,-0.05214057117700577,0.036529120057821274,-3.339566683280282e-05,0.9999638795852661,0.0047263796441257,0.007065548561513424
157.0,-0.25081583857536316,-0.6695440411567688,1.588166356086731,0.6439784169197083,1.5639206171035767,-1.8216062784194946,0.9802358746528625,-0.04255976900458336,0.03653891012072563,-1.1156376785947941e-05,0.9999856948852539,0.002313224831596017,0.004822799004614353
158.0,-0.24687664210796356,-0.6589627861976624,1.5634188652038574,0.6636183857917786,1.5685310363769531,-1.8176723718643188,0.992763102054596,-0.04254847764968872,0.036544378846883774,-1.2224531928950455e-06,0.9999985098838806,0.0007657388923689723,0.0015964340418577194
159.0,-0.25877052545547485,-0.650307834148407,1.5433244705200195,0.6796363592147827,1.570156455039978,-1.8295665979385376,1.0021367073059082,-0.05724623054265976,0.0365447960793972,4.459688227598235e-07,0.9999995231628418,0.0005468424642458558,-0.000815533974673599
160.0,-0.2450559288263321,-0.6464964747428894,1.5347224473953247,0.6870684027671814,1.5698742866516113,-1.8158502578735352,1.0070017576217651,-0.04449641332030296,0.036543842405080795,2.0551992747641634e-06,0.9999973773956299,0.0009928662329912186,-0.0020699601154774427
161.0,-0.24728713929653168,-0.6349268555641174,1.5084837675094604,0.7091094255447388,1.5673162937164307,-1.818070650100708,1.0196770429611206,-0.049561671912670135,0.03653658553957939,1.6730744391679764e-05,0.9999809861183167,0.0031397759448736906,-0.005328542087227106
162.0,-0.2580755949020386,-0.6262769103050232,1.4892170429229736,0.725935161113739,1.5615772008895874,-1.828852891921997,1.0283570289611816,-0.06209145113825798,0.03652235493063927,5.115975727676414e-05,0.9999485015869141,0.006763625890016556,-0.0075635649263858795
163.0,-0.26786667108535767,-0.6366557478904724,1.5125752687454224,0.7061324119567871,1.5639568567276,-1.8386582136154175,1.0165413618087769,-0.0694751888513565,0.03653546795248985,2.1648247638950124e-05,0.9999784231185913,0.004787225741893053,-0.0045219892635941505
164.0,-0.27347713708877563,-0.6203269362449646,1.4765560626983643,0.7383198738098145,1.551637887954712,-1.8442809581756592,1.0333186388015747,-0.078023262321949,0.036493804305791855,0.00010998126526828855,0.9998837113380432,0.012429825030267239,-0.008847146295011044
165.0,-0.3038475811481476,-0.6047518253326416,1.4569376707077026,0.7878199815750122,1.4863810539245605,-1.875503420829773,1.0366380214691162,-0.10076145082712173,0.035522814840078354,0.0010307636111974716,0.9985118508338928,0.05058910697698593,-0.020344888791441917
166.0,-0.3065856099128723,-0.6263716220855713,1.4989089965820312,0.7382255792617798,1.5014276504516602,-1.8780986070632935,1.0186949968338013,-0.10043584555387497,0.03601425513625145,0.00033486681059002876,0.9991992115974426,0.03908386081457138,-0.008561044000089169
167.0,-0.28017276525497437,-0.6324615478515625,1.503549575805664,0.714852511882782,1.5573272705078125,-1.8509782552719116,1.0199772119522095,-0.08217164874076843,0.03652241453528404,4.6379522245842963e-05,0.9999486804008484,0.00856549758464098,-0.005414413753896952
168.0,-0.2726878523826599,-0.6485885977745056,1.5393635034561157,0.6828417778015137,1.568880319595337,-1.8434840440750122,1.0032405853271484,-0.07154147326946259,0.03654436394572258,1.432705289516889e-06,0.9999985694885254,0.0013024138752371073,-0.0011000368976965547
169.0,-0.2870631814002991,-0.6502714157104492,1.5430011749267578,0.6792575120925903,1.5694175958633423,-1.85785973072052,1.000421166419983,-0.08554379642009735,0.036544810980558395,3.1192095661936037e-07,0.9999995827674866,0.0008297741878777742,-0.0003759105456992984
170.0,-0.34724435210227966,-0.6389177441596985,1.543296217918396,0.7193410396575928,1.4030122756958008,-1.8779624700546265,0.9942612648010254,-0.11867013573646545,0.034052249044179916,0.022176912054419518,0.9958899617195129,0.0877939760684967,0.001955034676939249
171.0,-0.3673558533191681,-0.6494102478027344,1.5747709274291992,0.6939632892608643,1.3527345657348633,-1.7916256189346313,0.9786881804466248,-0.1254863440990448,0.03271162137389183,0.07537460327148438,0.9909103512763977,0.11110337823629379,0.008451192639768124
172.0,-0.3651326894760132,-0.6709321141242981,1.6154569387435913,0.6415614485740662,1.36509370803833,-1.6455200910568237,0.9616883397102356,-0.11870189756155014,0.033219482749700546,0.14470255374908447,0.984105110168457,0.101853147149086,0.014976458624005318
173.0,-0.292111873626709,-0.6702738404273987,1.590970516204834,0.6442601680755615,1.54982590675354,-1.862954020500183,0.9763930439949036,-0.08034516125917435,0.036518942564725876,-5.350536957848817e-05,0.9999408721923828,0.009199896827340126,0.005815522279590368
174.0,-0.2797284722328186,-0.6617972254753113,1.570219874382019,0.6586677432060242,1.5625340938568115,-1.850529670715332,0.9876040816307068,-0.07324434071779251,0.03654048964381218,-1.0105446563102305e-05,0.9999897480010986,0.003458936233073473,0.0029215174727141857
175.0,-0.26671937108039856,-0.6612443327903748,1.5688226222991943,0.6595256924629211,1.5650911331176758,-1.8375166654586792,0.9891176223754883,-0.06097572669386864,0.03654245659708977,-5.736978437198559e-06,0.9999942183494568,0.002265096874907613,0.0025327596813440323
176.0,-0.2763165533542633,-0.6714109778404236,1.5928958654403687,0.6410279273986816,1.557724952697754,-1.8471182584762573,0.976547122001648,-0.06589837372303009,0.036531832069158554,-2.974847848236095e-05,0.9999700784683228,0.005157767329365015,0.005767532158643007
177.0,-0.27795928716659546,-0.6819824576377869,1.6181401014328003,0.6216529011726379,1.5502320528030396,-1.8487690687179565,0.9637376666069031,-0.06267652660608292,0.03651246055960655,-7.347855716943741e-05,0.9999260902404785,0.008105522021651268,0.009064576588571072
178.0,-0.2999195158481598,-0.6888375282287598,1.636043906211853,0.6107571125030518,1.5323773622512817,-1.8708579540252686,0.9531261920928955,-0.07815708965063095,0.03645479306578636,-0.0001942800299730152,0.9997949600219727,0.016454288735985756,0.011804834008216858
179.0,-0.3333241641521454,-0.6871069073677063,1.6370561122894287,0.6105031967163086,1.4566272497177124,-1.9060008525848389,0.9527810215950012,-0.09858468919992447,0.03541998192667961,-0.001233723945915699,0.9983570575714111,0.05220102146267891,0.02359526790678501
180.0,-0.42788150906562805,-0.6738759875297546,1.6649469137191772,0.5897166728973389,1.1678401231765747,-1.5962705612182617,0.93832927942276,-0.14051508903503418,0.024221966043114662,0.1967833787202835,0.9597948789596558,0.19609598815441132,0.04020487144589424
181.0,-0.4918685555458069,-0.6113767623901367,1.6324846744537354,0.6828103065490723,0.9447554349899292,-1.7954823970794678,0.9415608644485474,-0.17387650907039642,0.006943206302821636,0.14674018323421478,0.9381147623062134,0.30993184447288513,0.048479631543159485
182.0,-0.489886075258255,-0.6630895733833313,1.7140529155731201,0.5253435969352722,0.9582825303077698,-1.580381155014038,0.9139766693115234,-0.1590438187122345,0.009098435752093792,0.2275875359773636,0.925905168056488,0.2927870750427246,0.07196707278490067
183.0,-0.4921416938304901,-0.6963635683059692,1.7769123315811157,0.4039691090583801,0.9479573369026184,-1.4235974550247192,0.8923640847206116,-0.1482374668121338,0.00775607954710722,0.28631481528282166,0.9069873690605164,0.2945381700992584,0.09297884255647659
184.0,-0.39664560556411743,-0.7061185836791992,1.7034231424331665,0.5262801051139832,1.2647377252578735,-1.4152544736862183,0.9248847961425781,-0.11906011402606964,0.02903919853270054,0.26587697863578796,0.9515999555587769,0.1484788954257965,0.04148499667644501
185.0,-0.37753671407699585,-0.7341294288635254,1.7500746250152588,0.4564146399497986,1.30949068069458,-1.20566987991333,0.9067909121513367,-0.10048645734786987,0.030413547530770302,0.3533555567264557,0.92510986328125,0.12981848418712616,0.049585551023483276
186.0,-0.303970068693161,-0.7008397579193115,1.6652755737304688,0.5883241295814514,1.523236870765686,-1.8749662637710571,0.9378951191902161,-0.0758642628788948,0.036402758210897446,-0.00031430498347617686,0.9996765851974487,0.019986510276794434,0.01572076976299286
187.0,-0.28036725521087646,-0.6944146752357483,1.6477618217468262,0.598156213760376,1.5438849925994873,-1.8511706590652466,0.9485101103782654,-0.059637587517499924,0.03648471459746361,-0.00013331806985661387,0.9998629689216614,0.010260233655571938,0.012991887517273426
188.0,-0.2920457720756531,-0.707678496837616,1.6803635358810425,0.5735710859298706,1.5308504104614258,-1.8628978729248047,0.9309781193733215,-0.06356945633888245,0.03642415627837181,-0.0002729049592744559,0.9997252821922302,0.015592102892696857,0.01749795861542225
189.0,-0.2756097912788391,-0.7073241472244263,1.6783125400543213,0.5728440284729004,1.5412213802337646,-1.8463664054870605,0.9330060482025146,-0.05023561790585518,0.0364571176469326,-0.00017949265020433813,0.9997997879981995,0.01055951975286007,0.0169947799295187
190.0,-0.2600060999393463,-0.7098612189292908,1.683538794517517,0.5668092370033264,1.5483253002166748,-1.830706000328064,0.9309685826301575,-0.03608529269695282,0.036467116326093674,-0.00012206961400806904,0.9998220801353455,0.006961585953831673,0.0175316222012043
191.0,-0.2701592743396759,-0.7201036214828491,1.7085633277893066,0.5471682548522949,1.5403447151184082,-1.8408395051956177,0.9174222350120544,-0.04062162712216377,0.03642689809203148,-0.0002096885727951303,0.9997295141220093,0.009979764930903912,0.021005691960453987
192.0,-0.29066312313079834,-0.7172526717185974,1.703209400177002,0.5545324087142944,1.5286756753921509,-1.8614721298217773,0.9191765189170837,-0.05837593972682953,0.03639696165919304,-0.00032542270491831005,0.9996634721755981,0.01583126001060009,0.020548786967992783
193.0,-0.3664008677005768,-0.7490295767784119,1.776962399482727,0.41658884286880493,1.3282853364944458,-1.084493637084961,0.8961890935897827,-0.08891463279724121,0.03066890873014927,0.40274879336357117,0.9051507711410522,0.12425331771373749,0.05528678372502327
194.0,-0.4355858564376831,-0.7785499095916748,1.8838186264038086,0.1973954141139984,1.1040524244308472,-1.0226354598999023,0.8608862161636353,-0.10237075388431549,0.01540681254118681,0.42810577154159546,0.8644589781761169,0.2361370474100113,0.11694209277629852
195.0,-0.4872054159641266,-0.7267215251922607,1.829712986946106,0.29798170924186707,0.957885205745697,-1.2810956239700317,0.8753844499588013,-0.13586600124835968,0.00730277132242918,0.3361302316188812,0.888887882232666,0.29115787148475647,0.11010047048330307
196.0,-0.509035050868988,-0.7817691564559937,1.9929165840148926,-0.10166209936141968,0.8448979258537292,-0.9280409812927246,0.8262848854064941,-0.11366261541843414,-0.012714569456875324,0.4275509715080261,0.8075040578842163,0.35913705825805664,0.1901530921459198
197.0,-0.4627612829208374,-0.8178849816322327,2.0212929248809814,-0.14131015539169312,0.9820713996887207,-0.7832863926887512,0.8210306167602539,-0.08922666311264038,-0.0044309841468930244,0.4828225076198578,0.7937600612640381,0.31602901220321655,0.19223178923130035
198.0,-0.4193825423717499,-0.801419734954834,1.9230788946151733,0.1160753071308136,1.1357753276824951,-0.8834434151649475,0.8492982387542725,-0.08737678825855255,0.014763678424060345,0.47563979029655457,0.8380211591720581,0.23252823948860168,0.13197720050811768
199.0,-0.36094003915786743,-0.8100451827049255,1.9058080911636353,0.16757556796073914,1.284691572189331,-0.7265920042991638,0.8540615439414978,-0.06099946051836014,0.023349756374955177,0.5363732576370239,0.8182206749916077,0.17305728793144226,0.11344531178474426
200.0,-0.30366602540016174,-0.7479103207588196,1.763077735900879,0.45599091053009033,1.4706292152404785,-1.8735860586166382,0.8978480100631714,-0.05454041808843613,0.03486132249236107,-0.002055997960269451,0.9975079298019409,0.03286806866526604,0.06239715963602066
201.0,-0.2739053964614868,-0.7353208661079407,1.7406728267669678,0.5072479248046875,1.5271815061569214,-1.8443228006362915,0.9030369520187378,-0.03795263543725014,0.03611522540450096,-0.0004450943961273879,0.99933922290802,0.013122429139912128,0.03389618918299675
202.0,-0.2531066834926605,-0.7251614928245544,1.7196983098983765,0.5357799530029297,1.5481027364730835,-1.82370924949646,0.9121271371841431,-0.024693811312317848,0.03642658516764641,-0.00013277666585054249,0.9997309446334839,0.005917356815189123,0.022432474419474602
203.0,-0.26027125120162964,-0.7460227608680725,1.7609175443649292,0.4750073552131653,1.530591368675232,-1.8302401304244995,0.8952464461326599,-0.023991188034415245,0.035839926451444626,-0.00039949361234903336,0.9989805221557617,0.009022734127938747,0.04423120245337486
204.0,-0.2812274098396301,-0.8008415699005127,1.8648223876953125,0.2622746527194977,1.4560329914093018,-0.4302304983139038,0.8641344308853149,-0.02202363684773445,0.030774826183915138,0.6412755250930786,0.7554460763931274,0.10247180610895157,0.08698525279760361
205.0,-0.21957740187644958,-0.7462983131408691,1.7590327262878418,0.4704318940639496,1.6108994483947754,-1.7898945808410645,0.8950279951095581,-0.00014214543625712395,0.03586408123373985,0.001117501757107675,0.9988391995429993,-0.029079513624310493,0.0383845716714859
206.0,-0.22313109040260315,-0.7252780795097351,1.7163357734680176,0.5292473435401917,1.595504641532898,-1.7937792539596558,0.9144198298454285,-0.005289885681122541,0.03637128695845604,0.00038590937037952244,0.9996050596237183,-0.017627552151679993,0.021883750334382057
207.0,-0.2083771675825119,-0.7132577300071716,1.6867879629135132,0.5495806932449341,1.6241286993026733,-1.7793402671813965,0.930105447769165,0.0003695148043334484,0.03626374527812004,0.0005523257423192263,0.9993604421615601,-0.03101050667464733,0.017799532040953636
208.0,-0.16630873084068298,-0.7203046083450317,1.7082844972610474,0.51279616355896,1.7341524362564087,1.163641333580017,0.9173783659934998,0.02437674254179001,0.0334659181535244,0.989185094833374,0.11682333797216415,0.010401698760688305,0.08807491511106491
209.0,-0.12861807644367218,-0.7206718325614929,1.7261990308761597,0.48542776703834534,1.817168116569519,1.2537922859191895,0.904733419418335,0.047717876732349396,0.027908915653824806,0.9876970052719116,0.08838444948196411,0.011498323641717434,0.12849386036396027
210.0,-0.1355065405368805,-0.7889296412467957,1.8503508567810059,0.22224532067775726,1.8069133758544922,0.6699680685997009,0.8668773770332336,0.048238541930913925,0.022792750969529152,0.9180320501327515,0.3513436019420624,0.06568858027458191,0.1716388612985611
211.0,-0.1725291907787323,-0.7480611205101013,1.764491319656372,0.4358886778354645,1.7251251935958862,0.9118757247924805,0.8927230834960938,0.02438567951321602,0.03285623714327812,0.9670869708061218,0.2352382242679596,0.022922534495592117,0.09423675388097763
212.0,-0.1858157366514206,-0.8094423413276672,1.8775442838668823,0.19094884395599365,1.686655879020691,0.3444269299507141,0.8605220317840576,0.02460644021630287,0.02701454795897007,0.8601925373077393,0.482470840215683,0.08081407845020294,0.14408262073993683
213.0,-0.2588162422180176,-0.8494971990585327,1.9664721488952637,0.013154572807252407,1.4980487823486328,-0.15291905403137207,0.8375821709632874,-0.002226906828582287,0.021539324894547462,0.7197687029838562,0.6580049991607666,0.14930066466331482,0.16331477463245392
214.0,-0.3601457476615906,-0.8525705337524414,2.0176689624786377,-0.09970555454492569,1.2481589317321777,-0.5203375220298767,0.8239262104034424,-0.04320862889289856,0.0106446398422122,0.5889487266540527,0.7536946535110474,0.22984130680561066,0.17960157990455627
215.0,-0.21581238508224487,-0.8748812079429626,2.0525975227355957,-0.23293878138065338,1.5965808629989624,0.03564248979091644,0.8168166875839233,0.022632934153079987,0.006396542303264141,0.7541698813438416,0.5798934698104858,0.18782909214496613,0.2442777305841446
216.0,-0.30202874541282654,-0.8853102326393127,2.123607635498047,-0.39764535427093506,1.3709180355072021,-0.21826620399951935,0.7999573349952698,-0.006616723258048296,-0.004130919463932514,0.6600408554077148,0.6553382277488708,0.2587600350379944,0.26061689853668213
217.0,-0.4472721219062805,-0.8479090929031372,2.1491799354553223,-0.5082585215568542,0.9907745122909546,-0.5077833533287048,0.791941225528717,-0.06317188590765,-0.02341490052640438,0.5287762880325317,0.7199782729148865,0.3622678816318512,0.2660617530345917
218.0,-0.40468886494636536,-0.8587741255760193,2.2183923721313477,-0.7187504768371582,1.0906261205673218,-0.33181193470954895,0.7786045074462891,-0.03729911148548126,-0.0331546775996685,0.5632721781730652,0.6692265868186951,0.3707725703716278,0.31207048892974854
219.0,-0.4458785057067871,-0.8329718112945557,2.2001845836639404,-0.6784135699272156,0.9932318925857544,-0.42245474457740784,0.7777847051620483,-0.05561170354485512,-0.04467594251036644,0.5351706743240356,0.6927106380462646,0.3825916647911072,0.29558065533638
220.0,-0.40503790974617004,-0.8379720449447632,2.227315664291382,-0.7478856444358826,1.100515604019165,-0.32631075382232666,0.7712956070899963,-0.03591914474964142,-0.04966197535395622,0.567590057849884,0.6667419075965881,0.36778876185417175,0.3130945563316345
221.0,-0.32211029529571533,-0.8613632321357727,2.2418313026428223,-0.7879335284233093,1.3063716888427734,-0.17416921257972717,0.772599458694458,-0.003430581884458661,-0.04053482040762901,0.6223383545875549,0.6182413101196289,0.3383418619632721,0.34058403968811035
222.0,-0.17843368649482727,-0.8653804659843445,2.2118968963623047,-0.7619097828865051,1.6625189781188965,0.06054040789604187,0.7822469472885132,0.04880213737487793,-0.035513315349817276,0.7053556442260742,0.5265446305274963,0.28389298915863037,0.3803011178970337
223.0,-0.21506644785404205,-0.854902982711792,2.2341108322143555,-0.8106556534767151,1.5735487937927246,0.0017586412141099572,0.7742936611175537,0.03616461530327797,-0.04599759355187416,0.6840383410453796,0.548905074596405,0.3006693422794342,0.3746901750564575
224.0,-0.15149736404418945,-0.8505085706710815,2.206226348876953,-0.7707746624946594,1.7232904434204102,0.10026189684867859,0.7813489437103271,0.060332268476486206,-0.044741202145814896,0.7162687182426453,0.5097365379333496,0.2763293981552124,0.38829100131988525
225.0,-0.10922220349311829,-0.8342089056968689,2.182978868484497,-0.7402635216712952,1.8196287155151367,0.16992303729057312,0.784339189529419,0.07796771824359894,-0.052167002111673355,0.7370273470878601,0.48353809118270874,0.2590298056602478,0.39482322335243225
226.0,-0.16508620977401733,-0.8379976749420166,2.2166595458984375,-0.7932448387145996,1.6871700286865234,0.07682313770055771,0.7753170728683472,0.05643778294324875,-0.055717069655656815,0.7094137668609619,0.5207082033157349,0.2810445725917816,0.3828956186771393
227.0,-0.2163577526807785,-0.836899995803833,2.2391304969787598,-0.8281676769256592,1.5666865110397339,-0.002657858422026038,0.768621563911438,0.03750569373369217,-0.059532102197408676,0.6831753849983215,0.5520808100700378,0.30043530464172363,0.3717752993106842
228.0,-0.29049381613731384,-0.8477234840393066,2.24769926071167,-0.8169758915901184,1.3881465196609497,-0.11921447515487671,0.768099308013916,0.009417874738574028,-0.05200718715786934,0.6429233551025391,0.5977759957313538,0.3260726034641266,0.35069939494132996
229.0,-0.3671947419643402,-0.8351073861122131,2.2423675060272217,-0.7917194962501526,1.1954444646835327,-0.25367358326911926,0.7666667699813843,-0.018927671015262604,-0.05657011643052101,0.5938454866409302,0.644940197467804,0.3538755476474762,0.32584014534950256
230.0,-0.29188358783721924,-0.8271514773368835,2.253753185272217,-0.8414090275764465,1.3875256776809692,-0.12017735838890076,0.7619360089302063,0.010304294526576996,-0.06699556857347488,0.6433899998664856,0.598000168800354,0.32539358735084534,0.350091814994812
231.0,-0.23372595012187958,-0.8234462141990662,2.2465715408325195,-0.8452973365783691,1.5247268676757812,-0.030020764097571373,0.7634260058403015,0.03216830641031265,-0.06982650607824326,0.6746163964271545,0.5636540055274963,0.3056096136569977,0.36577269434928894
232.0,-0.1543227881193161,-0.8219414949417114,2.214600086212158,-0.7978956699371338,1.7076008319854736,0.09199618548154831,0.7720341086387634,0.062023818492889404,-0.06707397848367691,0.714634358882904,0.5165621042251587,0.27630504965782166,0.3822523355484009
233.0,-0.09587548673152924,-0.8153077363967896,2.177051067352295,-0.7381399869918823,1.8438129425048828,0.19158817827701569,0.781571090221405,0.08496637642383575,-0.065138079226017,0.7434422373771667,0.4779762029647827,0.2529821991920471,0.3934875428676605
234.0,-0.02694934979081154,-0.8009447455406189,2.1104342937469482,-0.6260877847671509,2.013657331466675,0.33573922514915466,0.799095630645752,0.1133870929479599,-0.06029194965958595,0.7787464261054993,0.42286407947540283,0.2211316078901291,0.40723586082458496
235.0,0.008181219920516014,-0.7825228571891785,2.0672740936279297,-0.5540180206298828,2.098898410797119,0.42419198155403137,0.8087824583053589,0.12987013161182404,-0.06260079890489578,0.7966337203979492,0.3919438123703003,0.20314669609069824,0.41289976239204407
236.0,0.04442866891622543,-0.7639067769050598,2.0013487339019775,-0.43460381031036377,2.2030606269836426,0.5491628646850586,0.8271037936210632,0.1466926783323288,-0.05619586631655693,0.8181628584861755,0.3474888503551483,0.17908331751823425,0.42165181040763855
237.0,-0.05710216239094734,-0.8193864226341248,2.140254497528076,-0.6727778911590576,1.9449130296707153,0.2699620723724365,0.7940055131912231,0.09945830702781677,-0.05357540026307106,0.7633470296859741,0.44525977969169617,0.235812708735466,0.40427401661872864
238.0,0.012007446028292179,-0.7938064336776733,2.0537755489349365,-0.5248386859893799,2.1240363121032715,0.4435368478298187,0.8162888884544373,0.12973424792289734,-0.0490606315433979,0.8001625537872314,0.3808644115924835,0.19913411140441895,0.4183633029460907
239.0,0.06916575878858566,-0.7467917799949646,1.9390729665756226,-0.3175433278083801,2.2835018634796143,0.6640139818191528,0.8455330729484558,0.15892112255096436,-0.047000717371702194,0.8339443802833557,0.30795007944107056,0.1586310714483261,0.4295809268951416
240.0,-0.022512992843985558,-0.8170472383499146,2.0977132320404053,-0.5975483059883118,2.0396313667297363,0.35237932205200195,0.8073592185974121,0.11313410103321075,-0.04387790337204933,0.7821466326713562,0.4120658338069916,0.21785232424736023,0.4135078489780426
241.0,-0.06526710093021393,-0.8396357297897339,2.1010265350341797,-0.5298290848731995,1.9353984594345093,0.30980437994003296,0.8061460256576538,0.09360189735889435,-0.030966704711318016,0.7839003205299377,0.44447749853134155,0.2138284146785736,0.3771173655986786
242.0,-0.10138051211833954,-0.8536376357078552,2.0895447731018066,-0.4408443570137024,1.8534860610961914,0.27706941962242126,0.8079758882522583,0.07658006250858307,-0.019581368193030357,0.7882997393608093,0.47049927711486816,0.20321054756641388,0.3404698073863983
243.0,-0.045734189450740814,-0.8043529987335205,1.9437239170074463,-0.09933890402317047,1.97262704372406,0.5877759456634521,0.8426370024681091,0.10223567485809326,-0.007768710143864155,0.8672717809677124,0.380397766828537,0.12899787724018097,0.2941032350063324
244.0,-0.01771111600100994,-0.7780042290687561,1.8960075378417969,-0.016009343788027763,2.0280399322509766,0.7169524431228638,0.8554672002792358,0.11774816364049911,-0.00945188570767641,0.8871263265609741,0.33651143312454224,0.1120251938700676,0.29532575607299805
245.0,0.02407326176762581,-0.7402274012565613,1.8403809070587158,0.056296661496162415,2.119377613067627,0.8701528310775757,0.8708935976028442,0.1415402889251709,-0.01644325815141201,0.9006108045578003,0.28183507919311523,0.09881355613470078,0.31576108932495117
246.0,0.03663752228021622,-0.7714231014251709,1.957411527633667,-0.28704404830932617,2.1869056224823,0.6283717155456543,0.840564489364624,0.14272063970565796,-0.03587722405791283,0.8409973978996277,0.3348209857940674,0.15719933807849884,0.394850492477417
247.0,0.08059325069189072,-0.7093958854675293,1.834856390953064,-0.054961927235126495,2.2967381477355957,0.8818743824958801,0.8727178573608398,0.16937829554080963,-0.03750937804579735,0.8725188970565796,0.25849220156669617,0.11776944249868393,0.3975209891796112
248.0,0.059040650725364685,-0.6855897903442383,1.7474952936172485,0.20954401791095734,2.1925179958343506,1.0835318565368652,0.8988908529281616,0.16445700824260712,-0.021131394430994987,0.9188275933265686,0.21004702150821686,0.07446008920669556,0.3257174789905548
249.0,0.005262802820652723,-0.6946375370025635,1.7201138734817505,0.3482666015625,2.0282182693481445,1.1462342739105225,0.910407304763794,0.13764867186546326,-0.0018838840769603848,0.951694905757904,0.1849120557308197,0.04675213247537613,0.24062123894691467
250.0,0.029049251228570938,-0.6715866923332214,1.6881886720657349,0.37634822726249695,2.081094264984131,1.218176245689392,0.9212812781333923,0.15245722234249115,-0.0076704444363713264,0.9505573511123657,0.16080579161643982,0.044314298778772354,0.2619512677192688
251.0,0.009927744045853615,-0.6527249217033386,1.6344937086105347,0.4911402463912964,2.00500226020813,1.341474175453186,0.9433769583702087,0.1454601287841797,-0.0009419071720913053,0.9696434140205383,0.10593587160110474,0.023935096338391304,0.21908074617385864
252.0,-0.010384459048509598,-0.640830934047699,1.597076177597046,0.5646945238113403,1.9332377910614014,1.4309818744659424,0.9606964588165283,0.13632290065288544,0.004250015132129192,0.9815509915351868,0.05910812318325043,0.010930135846138,0.18150611221790314
253.0,-0.015736157074570656,-0.6189780831336975,1.5448325872421265,0.625484824180603,1.9056644439697266,1.5116541385650635,0.9859426617622375,0.1347925215959549,0.005304689519107342,0.9857720732688904,0.01977595128118992,0.0033479887060821056,0.16688720881938934
254.0,0.004161439836025238,-0.5928723812103271,1.5026013851165771,0.6678141355514526,1.960330843925476,1.5885608196258545,1.0014220476150513,0.14657197892665863,0.0010857087327167392,0.9810689091682434,-0.0060199834406375885,-0.0011877233628183603,0.19356176257133484
255.0,-0.047785501927137375,-0.6194165945053101,1.527080774307251,0.6513543725013733,1.816571831703186,1.5224246978759766,0.9995827078819275,0.11584232747554779,0.01094892155379057,0.9924417734146118,-0.0004309928335715085,-5.329243867890909e-05,0.12271583080291748
256.0,-0.04472437873482704,-0.6317952871322632,1.5590474605560303,0.6255923509597778,1.8332905769348145,1.5017176866531372,0.982472836971283,0.11715197563171387,0.010601128451526165,0.9913003444671631,0.010897048749029636,0.001441796077415347,0.13115963339805603
257.0,-0.0474805012345314,-0.6453616619110107,1.5907336473464966,0.6002127528190613,1.8409932851791382,1.476602554321289,0.966250479221344,0.11408179998397827,0.011344010941684246,0.9905787706375122,0.021442530676722527,0.0029271109960973263,0.13522349298000336
258.0,-0.042305320501327515,-0.6668137907981873,1.6414501667022705,0.5400649309158325,1.877509593963623,1.386912226676941,0.9413899183273315,0.11470138281583786,0.010637904517352581,0.9857041239738464,0.06559953093528748,0.010305304080247879,0.1548483520746231
259.0,-0.06952522695064545,-0.6723062992095947,1.6434825658798218,0.5573999285697937,1.8361433744430542,1.4110773801803589,0.9416698217391968,0.09534899890422821,0.01607767678797245,0.9901092648506165,0.04188596457242966,0.005659493617713451,0.1337803155183792
260.0,-0.06753840297460556,-0.6901845932006836,1.6832008361816406,0.506478488445282,1.8538014888763428,1.3203918933868408,0.9229361414909363,0.09584513306617737,0.015568087808787823,0.985702395439148,0.08532983809709549,0.012530657462775707,0.14475007355213165
261.0,-0.03654385358095169,-0.6907306909561157,1.6920419931411743,0.4547320604324341,1.9148837327957153,1.2415587902069092,0.920536994934082,0.11539334058761597,0.009244765155017376,0.9745329022407532,0.1337234526872635,0.024471402168273926,0.17833957076072693
262.0,-0.02194967493414879,-0.7235170602798462,1.7649292945861816,0.2934819757938385,1.979611873626709,1.0269360542297363,0.89510178565979,0.12004553526639938,0.0031162602826952934,0.9456199407577515,0.22779865562915802,0.054377924650907516,0.22572937607765198
263.0,-0.043537575751543045,-0.7384845614433289,1.7854219675064087,0.2777525782585144,1.941490650177002,0.964503288269043,0.8879719376564026,0.10655590891838074,0.007296915166079998,0.9433611035346985,0.2491292953491211,0.055943310260772705,0.21183674037456512
264.0,-0.07310035079717636,-0.7283254265785217,1.754822015762329,0.3801638185977936,1.879388689994812,1.0715469121932983,0.8963866233825684,0.0889059454202652,0.015604565851390362,0.9651877284049988,0.1959369033575058,0.034470848739147186,0.16980385780334473
265.0,-0.08481967449188232,-0.8173497319221497,1.9452639818191528,-0.05606763809919357,1.8906420469284058,0.5233222842216492,0.8421597480773926,0.08143162727355957,0.0017489296151325107,0.8661820292472839,0.4080502390861511,0.12294348329305649,0.26097628474235535
266.0,-0.14035917818546295,-0.8536686897277832,2.0172369480133057,-0.19244223833084106,1.777481198310852,0.2916184961795807,0.8245974183082581,0.05451100692152977,0.002306814305484295,0.816778302192688,0.486671507358551,0.15861621499061584,0.2662047743797302
267.0,-0.1019148901104927,-0.7231947779655457,1.7381808757781982,0.4431791603565216,1.8366012573242188,1.1642009019851685,0.9008771777153015,0.06917253136634827,0.02190389670431614,0.979280948638916,0.1428028643131256,0.020718779414892197,0.14208051562309265
268.0,-0.0888444036245346,-0.6912795901298523,1.6782140731811523,0.5276473760604858,1.830352783203125,1.3549509048461914,0.9258490800857544,0.07956408709287643,0.020015472546219826,0.9894320368766785,0.05926966667175293,0.007912779226899147,0.13209381699562073
269.0,-0.10241978615522385,-0.6963919401168823,1.6822569370269775,0.5237782597541809,1.8246067762374878,1.3316137790679932,0.9255657196044922,0.06798182427883148,0.022866571322083473,0.9894418716430664,0.06388665735721588,0.008382231928408146,0.12981943786144257
270.0,-0.11514545977115631,-0.7099618911743164,1.7079541683197021,0.5012941360473633,1.822435736656189,1.2906726598739624,0.9131787419319153,0.058048732578754425,0.025327319279313087,0.9884594082832336,0.07722143828868866,0.010150532238185406,0.12993010878562927
271.0,-0.12761707603931427,-0.7021515965461731,1.680431842803955,0.525246798992157,1.8146377801895142,1.2986717224121094,0.929555356502533,0.045814163982868195,0.02844368852674961,0.989722490310669,0.06753533333539963,0.00858126301318407,0.12575742602348328
272.0,-0.1524236798286438,-0.6998222470283508,1.6632746458053589,0.5481316447257996,1.760551929473877,1.2662787437438965,0.9405726194381714,0.029426224529743195,0.03242246434092522,0.9924034476280212,0.0728025957942009,0.007255849428474903,0.09890760481357574
273.0,-0.19536806643009186,-0.7009867429733276,1.657557725906372,0.5703827142715454,1.6494001150131226,-1.766701102256775,0.9453548789024353,0.005468461196869612,0.036099981516599655,0.0005931961932219565,0.9989879727363586,-0.04279068857431412,0.013848711736500263
274.0,-0.159332737326622,-0.8412928581237793,2.1364383697509766,-2.9151010513305664,-1.737056851387024,-1.8597570657730103,0.9553799033164978,0.024190416559576988,0.03357478603720665,0.9942861199378967,0.06248902156949043,0.0054286266677081585,0.08637689799070358
275.0,-0.1496431976556778,-0.8344744443893433,2.111992597579956,-2.891200065612793,-1.7564263343811035,-1.799240231513977,0.9702527523040771,0.028186045587062836,0.032727863639593124,0.9947726130485535,0.03722593933343887,0.0035558559466153383,0.09502159059047699
276.0,-0.11976383626461029,-0.8243194222450256,2.106736660003662,-2.897456645965576,-1.8149245977401733,-1.751948595046997,0.9710484743118286,0.048029422760009766,0.027940118685364723,0.9919319152832031,0.02776157483458519,0.0034605576656758785,0.12364709377288818
277.0,-0.11505895107984543,-0.8273429274559021,2.1331381797790527,-2.9281461238861084,-1.8191323280334473,-1.777726411819458,0.9535802006721497,0.05395513027906418,0.026427382603287697,0.9910717010498047,0.04236200079321861,0.005398811772465706,0.12630683183670044
278.0,-0.10546208173036575,-0.821867048740387,2.1143548488616943,-2.906566858291626,-1.8168822526931763,-1.7467414140701294,0.9646270275115967,0.062213584780693054,0.024365300312638283,0.9916849732398987,0.03230540081858635,0.004055849742144346,0.12450318783521652
279.0,-0.10007176548242569,-0.8129258155822754,2.0721616744995117,-2.858783483505249,-1.814038872718811,-1.6896398067474365,0.9909045100212097,0.06516657769680023,0.023637646809220314,0.992483377456665,0.007571499794721603,0.00093180121621117,0.12214187532663345
280.0,-0.09746899455785751,-0.8157029747962952,2.090299606323242,-2.8789238929748535,-1.8173059225082397,-1.707401990890503,0.9790059328079224,0.06840056926012039,0.022836962714791298,0.992124617099762,0.017355194315314293,0.0021696079056710005,0.12402751296758652
281.0,-0.10657726973295212,-0.8271446228027344,2.1464993953704834,-2.9438085556030273,-1.820021390914917,-1.7852011919021606,0.943993330001831,0.06288035213947296,0.024173343554139137,0.9906272888183594,0.05012127012014389,0.006420688703656197,0.12690241634845734
282.0,-0.09714514762163162,-0.822228193283081,2.1292166709899902,-2.923280715942383,-1.8219424486160278,-1.7519851922988892,0.9539481997489929,0.07046070694923401,0.02230686880648136,0.991113543510437,0.03882165253162384,0.004979680757969618,0.12713082134723663
283.0,-0.08962158858776093,-0.8225448131561279,2.143791437149048,-2.9402456283569336,-1.825968623161316,-1.7596358060836792,0.9435038566589355,0.07792036235332489,0.020460033789277077,0.9905160069465637,0.0461086742579937,0.006018456071615219,0.12928970158100128
284.0,-0.08188658952713013,-0.8176267147064209,2.124940872192383,-2.9186136722564697,-1.8279911279678345,-1.7287858724594116,0.954631507396698,0.0839480385184288,0.018946567550301552,0.9909204244613647,0.03512536361813545,0.0045974599197506905,0.1296987682580948
285.0,-0.08086203038692474,-0.8116356730461121,2.091895580291748,-2.881631374359131,-1.8217899799346924,-1.6933228969573975,0.9758524298667908,0.0841284915804863,0.018920982256531715,0.9918442964553833,0.01875152625143528,0.0023829927667975426,0.12604615092277527
286.0,-0.06866319477558136,-0.8105165362358093,2.1029679775238037,-2.8940975666046143,-1.8280839920043945,-1.691482663154602,0.966912031173706,0.09562327712774277,0.016052598133683205,0.991334855556488,0.02381252497434616,0.003102164715528488,0.12914563715457916
287.0,-0.06845953315496445,-0.806161642074585,2.079949140548706,-2.8690834045410156,-1.822886347770691,-1.6687248945236206,0.9817525148391724,0.09557924419641495,0.016079092398285866,0.9919074177742004,0.013076288625597954,0.0016647086013108492,0.12627717852592468
288.0,-0.061932336539030075,-0.7999922633171082,2.0581307411193848,-2.8464009761810303,-1.8203836679458618,-1.641397476196289,0.9947829842567444,0.10151203721761703,0.014570171944797039,0.9921809434890747,0.0032135487999767065,0.00040410083602182567,0.12476584315299988
289.0,-0.0682748407125473,-0.7980777025222778,2.041193723678589,-2.828295946121216,-1.819666862487793,-1.6291303634643555,1.0065088272094727,0.09454888850450516,0.016338849440217018,0.9922255873680115,-0.005824415944516659,-0.0007297296542674303,0.12431398034095764
290.0,-0.0760321393609047,-0.8041132092475891,2.0596935749053955,-2.8466968536376953,-1.8160475492477417,-1.6543036699295044,0.9958067536354065,0.08815023303031921,0.017914259806275368,0.9924373626708984,0.0024665938690304756,0.00030502385925501585,0.12272677570581436
291.0,-0.08795168995857239,-0.8078715205192566,2.0624780654907227,-2.8488576412200928,-1.8148581981658936,-1.6675736904144287,0.9956033229827881,0.07655777782201767,0.020842814818024635,0.9924918413162231,0.0029522168915718794,0.0003637121117208153,0.12227465212345123
292.0,-0.0844336673617363,-0.8001245260238647,2.030625820159912,-2.815582752227783,-1.8193343877792358,-1.6288076639175415,1.0152883529663086,0.07769827544689178,0.020554060116410255,0.9921649694442749,-0.013993828557431698,-0.0017508610617369413,0.12413635849952698
293.0,-0.08863727003335953,-0.7977266311645508,2.014528274536133,-2.797605037689209,-1.820273995399475,-1.6113063097000122,1.0257900953292847,0.07238359749317169,0.02185521461069584,0.9919155240058899,-0.024496393278241158,-0.003074042731896043,0.12447509169578552
294.0,-0.08927817642688751,-0.7930783629417419,1.993848443031311,-2.775923490524292,-1.8231959342956543,-1.588241457939148,1.0386934280395508,0.07013674825429916,0.02239357866346836,0.9913954734802246,-0.035897161811590195,-0.004555090796202421,0.12580092251300812
295.0,-0.07462593913078308,-0.7843368053436279,1.9752874374389648,-2.760335683822632,-1.832023024559021,-1.5653315782546997,1.0485692024230957,0.08320330083370209,0.019129255786538124,0.9906907677650452,-0.03960177302360535,-0.005202211905270815,0.13014021515846252
296.0,-0.07316046953201294,-0.7903452515602112,2.001746416091919,-2.7874224185943604,-1.8272697925567627,-1.5913901329040527,1.0319653749465942,0.08665865659713745,0.0182721558958292,0.9914342761039734,-0.026398373767733574,-0.0034046180080622435,0.1278659999370575
297.0,-0.05616150051355362,-0.7850115299224854,1.999263882637024,-2.787594795227051,-1.8334481716156006,-1.5806022882461548,1.0312038660049438,0.10321640968322754,0.014117027632892132,0.9911181926727295,-0.02314279042184353,-0.003056983230635524,0.13091903924942017
298.0,-0.06319980323314667,-0.7827548980712891,1.9821079969406128,-2.769665479660034,-1.834462285041809,-1.5689396858215332,1.0429412126541138,0.09510615468025208,0.016162240877747536,0.9907993078231812,-0.03220848739147186,-0.004270919598639011,0.1313822865486145
299.0,-0.03492358699440956,-0.7718204259872437,1.9605157375335693,-2.731848955154419,-1.8777282238006592,-1.4795362949371338,1.0493837594985962,0.11781156063079834,0.009910072200000286,0.9863199591636658,-0.0601944699883461,-0.009348091669380665,0.15317369997501373
300.0,-0.05132339894771576,-0.7740976214408875,1.9615944623947144,-2.751986265182495,-1.8466787338256836,-1.5476469993591309,1.054032802581787,0.10503479093313217,0.013609985820949078,0.9898258447647095,-0.03644063323736191,-0.005060095340013504,0.13744580745697021
301.0,-0.017232481390237808,-0.7563678622245789,1.8952090740203857,-2.594536066055298,-1.9538004398345947,-1.2707698345184326,1.0761489868164062,0.12481149286031723,0.005640248768031597,0.9695181250572205,-0.1440102756023407,-0.029125330969691277,0.19607998430728912
302.0,-0.022558920085430145,-0.7511739730834961,1.8581106662750244,-2.5135483741760254,-1.9607540369033813,-1.1597983837127686,1.0928128957748413,0.11772232502698898,0.006078655831515789,0.9582812190055847,-0.19478315114974976,-0.04166671261191368,0.20498912036418915
303.0,-0.03845788910984993,-0.7543043494224548,1.8536958694458008,-2.51700758934021,-1.9318935871124268,-1.1588126420974731,1.09934401512146,0.10429474711418152,0.010395209304988384,0.9591579437255859,-0.20565475523471832,-0.04071803390979767,0.1899057775735855
304.0,-0.06283769011497498,-0.7750733494758606,1.9519274234771729,-2.7391433715820312,-1.8403035402297974,-1.5388559103012085,1.061476707458496,0.09344418346881866,0.016536707058548927,0.9898401498794556,-0.046370621770620346,-0.0062898010946810246,0.134263813495636
305.0,-0.06975563615560532,-0.7691946625709534,1.9145957231521606,-2.6848487854003906,-1.8491027355194092,-1.4571428298950195,1.0830557346343994,0.08332417905330658,0.018831903114914894,0.9862504601478577,-0.08851487189531326,-0.012474625371396542,0.13899476826190948
306.0,-0.07763520628213882,-0.777840793132782,1.9458510875701904,-2.729358434677124,-1.833870530128479,-1.5344796180725098,1.0669294595718384,0.07836218178272247,0.020328590646386147,0.9897770285606384,-0.055834002792835236,-0.00739159993827343,0.13103190064430237
307.0,-0.08568138629198074,-0.7858079075813293,1.9679476022720337,-2.7495880126953125,-1.8274465799331665,-1.5576075315475464,1.0542317628860474,0.07187831401824951,0.021944398060441017,0.9905753135681152,-0.04879463464021683,-0.006296704988926649,0.12782882153987885
308.0,-0.09602239727973938,-0.7849423885345459,1.9530400037765503,-2.7324137687683105,-1.827373743057251,-1.545266032218933,1.064375400543213,0.0600728914141655,0.02486124075949192,0.9899711012840271,-0.05982574075460434,-0.0077197859063744545,0.12774376571178436
309.0,-0.08709751814603806,-0.7766359448432922,1.9306989908218384,-2.7113356590270996,-1.8321973085403442,-1.518511176109314,1.077043890953064,0.0676909014582634,0.022927993908524513,0.9891029596328735,-0.0681602954864502,-0.0089715039357543,0.13018929958343506
310.0,-0.08831464499235153,-0.7716032862663269,1.9105496406555176,-2.6906630992889404,-1.8344943523406982,-1.4977182149887085,1.0892783403396606,0.06496024876832962,0.02358139492571354,0.9881507158279419,-0.07865544408559799,-0.01045810617506504,0.13138550519943237
311.0,-0.10010407119989395,-0.7800639867782593,1.9298659563064575,-2.708167314529419,-1.830363154411316,-1.5223979949951172,1.0787819623947144,0.05385648459196091,0.02639412321150303,0.9888983368873596,-0.07275550812482834,-0.009506593458354473,0.1292143315076828
312.0,-0.10001660138368607,-0.7745537161827087,1.9090732336044312,-2.686624526977539,-1.8315328359603882,-1.4984089136123657,1.0912092924118042,0.05252799764275551,0.02670069970190525,0.9878939986228943,-0.08415057510137558,-0.011061126366257668,0.12985315918922424
313.0,-0.0928506851196289,-0.7503135204315186,1.7641030550003052,-2.307140350341797,-1.8730167150497437,-0.8074572086334229,1.138134479522705,0.04976360872387886,0.0202138964086771,0.8993925452232361,-0.3875277042388916,-0.08004187047481537,0.18576495349407196
314.0,-0.1286083608865738,-0.7578824758529663,1.7550932168960571,-2.2718048095703125,-1.774476408958435,-0.5853241086006165,1.1421929597854614,0.023492081090807915,0.02571863867342472,0.8431127667427063,-0.5074459314346313,-0.09175464510917664,0.15244875848293304
315.0,-0.16856786608695984,-0.7750658392906189,1.7963132858276367,-2.358743667602539,-1.6564288139343262,-0.34548869729042053,1.1315276622772217,-0.0020633754320442677,0.03169118985533714,0.7640997767448425,-0.6331062316894531,-0.07899053394794464,0.09533416479825974
316.0,-0.21104128658771515,-0.7828804850578308,1.8172916173934937,-2.3871240615844727,-1.558118224143982,0.05714590474963188,1.123578667640686,-0.03314442187547684,0.032827939838171005,-0.6020632386207581,0.7909725904464722,0.08673746138811111,-0.06602180749177933
317.0,-0.1964365690946579,-0.7535325288772583,1.7159466743469238,-2.1425085067749023,-1.5827170610427856,-0.028933720663189888,1.1507235765457153,-0.02593127451837063,0.024815330281853676,-0.6340715289115906,0.7484927773475647,0.1481746882200241,-0.1255233883857727
318.0,-0.16380997002124786,-0.7091625332832336,1.608361840248108,-1.911595106124878,-1.67179274559021,-0.160011425614357,1.1760636568069458,-0.006433920003473759,0.012588108889758587,0.6874228715896606,-0.6703288555145264,-0.19511866569519043,0.20009440183639526
319.0,-0.152886763215065,-0.5780196189880371,1.3641465902328491,-1.4041078090667725,-1.7002146244049072,-0.09148629754781723,1.217973232269287,-0.004452887456864119,-0.026866113767027855,0.6291132569313049,-0.6256909370422363,-0.3252437710762024,0.3270227611064911
320.0,-0.11849496513605118,-0.5943418741226196,1.3981833457946777,-1.4777659177780151,-1.7984235286712646,-0.17831693589687347,1.213033676147461,0.02293824963271618,-0.02397691272199154,0.6854796409606934,-0.5780116319656372,-0.2854069173336029,0.33847177028656006
321.0,-0.06335240602493286,-0.6555502414703369,1.5378557443618774,-1.7714394330978394,-1.9427388906478882,-0.42109930515289307,1.1862496137619019,0.06996223330497742,-0.012932759709656239,0.7962498068809509,-0.47718048095703125,-0.19115623831748962,0.3189738988876343
322.0,-0.08524645864963531,-0.6772305965423584,1.569967269897461,-1.8444066047668457,-1.8941044807434082,-0.41939324140548706,1.1823722124099731,0.05149408057332039,-0.002638791687786579,0.7944222092628479,-0.5049648284912109,-0.1810465008020401,0.28482645750045776
323.0,-0.07027847319841385,-0.7353562712669373,1.7332849502563477,-2.2290186882019043,-1.9160269498825073,-0.7637300491333008,1.1436985731124878,0.06864096224308014,0.012232120148837566,0.8913598656654358,-0.3861197829246521,-0.09438937902450562,0.21789845824241638
324.0,-0.06384986639022827,-0.7533340454101562,1.8148943185806274,-2.4364514350891113,-1.9068315029144287,-1.0290346145629883,1.1192126274108887,0.07886777818202972,0.015839675441384315,0.9414283037185669,-0.2769808769226074,-0.05428793653845787,0.18451887369155884
325.0,-0.046422384679317474,-0.7132026553153992,1.6880675554275513,-2.1135313510894775,-1.968479037284851,-0.6984992027282715,1.151307225227356,0.08790971338748932,0.0012829554034397006,0.8770211935043335,-0.3865734338760376,-0.11507100611925125,0.26106223464012146
326.0,-0.040570199489593506,-0.738293468952179,1.7768222093582153,-2.3287978172302246,-1.960081696510315,-0.9214532375335693,1.1257619857788086,0.09685876965522766,0.0072793615981936455,0.9233954548835754,-0.3030647933483124,-0.07345987856388092,0.22382183372974396
327.0,-0.014428751543164253,-0.7038662433624268,1.6933566331863403,-2.1116182804107666,-2.0352439880371094,-0.749383270740509,1.1427600383758545,0.1154085174202919,-0.008247618563473225,0.8878945708274841,-0.3382791578769684,-0.11100398004055023,0.29135647416114807
328.0,-0.023888204246759415,-0.6692150235176086,1.5968366861343384,-1.888749122619629,-2.0284574031829834,-0.5640731453895569,1.1672852039337158,0.10497063398361206,-0.016740432009100914,0.8419398665428162,-0.3985859751701355,-0.15561585128307343,0.32870998978614807
329.0,-0.03912273049354553,-0.5951535105705261,1.4368622303009033,-1.5398447513580322,-1.9999358654022217,-0.33591097593307495,1.1985931396484375,0.08998612314462662,-0.036103155463933945,0.7653802633285522,-0.4543629586696625,-0.2326691448688507,0.39193421602249146
330.0,-0.027564022690057755,-0.575222909450531,1.4185270071029663,-1.5155396461486816,-2.0211222171783447,-0.33348408341407776,1.201606273651123,0.10076092183589935,-0.0501287616789341,0.7655221819877625,-0.44079747796058655,-0.23387813568115234,0.40617042779922485
331.0,-0.05886854976415634,-0.5591356158256531,1.3749840259552002,-1.4489930868148804,-1.9415725469589233,-0.2599199712276459,1.2148305177688599,0.07374482601881027,-0.0506821908056736,0.7317764759063721,-0.49014395475387573,-0.26353850960731506,0.39345845580101013
332.0,-0.08302121609449387,-0.545804500579834,1.3474997282028198,-1.4132243394851685,-1.8792884349822998,-0.20976723730564117,1.223247766494751,0.05289437621831894,-0.05466302111744881,0.7047397494316101,-0.5261659026145935,-0.2847186326980591,0.38134849071502686
333.0,-0.1168723925948143,-0.5425633192062378,1.3288508653640747,-1.3744615316390991,-1.7947466373443604,-0.14704136550426483,1.2273833751678467,0.023773882538080215,-0.05035256966948509,0.6655474901199341,-0.5723112225532532,-0.31235262751579285,0.36323854327201843
334.0,-0.09233467280864716,-0.5520794987678528,1.3454655408859253,-1.3920347690582275,-1.861315369606018,-0.19297148287296295,1.2220100164413452,0.04431597888469696,-0.045890409499406815,0.6943023800849915,-0.536563515663147,-0.29328739643096924,0.37950801849365234
335.0,-0.13968047499656677,-0.5485511422157288,1.327668309211731,-1.3581361770629883,-1.7332314252853394,-0.10533703118562698,1.2264326810836792,0.005346227902919054,-0.04288702830672264,0.6369080543518066,-0.6036125421524048,-0.32989585399627686,0.3480930030345917
336.0,-0.17428521811962128,-0.5510770082473755,1.327952265739441,-1.3425054550170898,-1.6383129358291626,-0.04280221089720726,1.224164366722107,-0.02201874926686287,-0.04020843282341957,-0.5895171761512756,0.6479451656341553,0.3567604422569275,-0.3245898187160492
337.0,-0.2137792408466339,-0.576437771320343,1.3653206825256348,-1.378967523574829,-1.5416690111160278,0.019500732421875,1.2130217552185059,-0.05306234210729599,-0.029118267819285393,-0.5415142178535461,0.6963189840316772,0.3718537390232086,-0.28918367624282837
338.0,-0.18824325501918793,-0.6186783909797668,1.4324567317962646,-1.5292054414749146,-1.6023151874542236,-0.027378777042031288,1.2064144611358643,-0.03015579655766487,-0.01486100722104311,-0.594545841217041,0.6887106895446777,0.3141086995601654,-0.2711617946624756
339.0,-0.2223959118127823,-0.6891442537307739,1.5661262273788452,-1.7882728576660156,-1.525457739830017,0.05839129164814949,1.1799567937850952,-0.053586095571517944,0.004767785780131817,-0.562799334526062,0.760262131690979,0.2607611417770386,-0.19303368031978607
340.0,-0.26837170124053955,-0.6820752620697021,1.561329960823059,-1.7367950677871704,-1.422013521194458,0.16968105733394623,1.1725138425827026,-0.09026440978050232,-0.001209740643389523,-0.47952592372894287,0.802493155002594,0.30478134751319885,-0.1821206510066986
341.0,-0.24702614545822144,-0.6084210276603699,1.4250516891479492,-1.4725223779678345,-1.464421033859253,0.08152496814727783,1.1990816593170166,-0.07819202542304993,-0.021928800269961357,-0.502280056476593,0.742242693901062,0.3673953711986542,-0.24861861765384674
342.0,-0.2981691360473633,-0.5956071019172668,1.4224424362182617,-1.4095677137374878,-1.3397496938705444,0.14979656040668488,1.1871380805969238,-0.1176011860370636,-0.031945277005434036,-0.4193349778652191,0.769415557384491,0.4230743646621704,-0.23057745397090912
343.0,-0.3452026844024658,-0.608680248260498,1.474833607673645,-1.4600281715393066,-1.22927987575531,0.22238926589488983,1.1656444072723389,-0.1506490409374237,-0.03935665264725685,-0.34850630164146423,0.8013571500778198,0.4458419680595398,-0.19389449059963226
344.0,-0.31309133768081665,-0.5872797966003418,1.4267284870147705,-1.420011043548584,-1.3065463304519653,0.16968294978141785,1.18467116355896,-0.12989386916160583,-0.04331446811556816,-0.39789071679115295,0.7787237167358398,0.4319320619106293,-0.22069670259952545
345.0,-0.2822946310043335,-0.5749574303627014,1.3920174837112427,-1.3879612684249878,-1.3786412477493286,0.1220422312617302,1.1982097625732422,-0.10756360739469528,-0.04215225949883461,-0.4427047669887543,0.7544764876365662,0.4179076850414276,-0.2452160269021988
346.0,-0.25596049427986145,-0.56011962890625,1.3630955219268799,-1.3691402673721313,-1.4405455589294434,0.08236293494701385,1.209842324256897,-0.08813188225030899,-0.04648483917117119,-0.4799281358718872,0.7318446636199951,0.40457603335380554,-0.2653123438358307
347.0,-0.20009538531303406,-0.5470555424690247,1.3289637565612793,-1.3441556692123413,-1.5733941793441772,-0.0016368598444387317,1.223414421081543,-0.04343680292367935,-0.04580925777554512,-0.5551984906196594,0.676977276802063,0.3736014664173126,-0.3063957393169403
348.0,-0.23224706947803497,-0.5478211045265198,1.3409733772277832,-1.3569817543029785,-1.497979998588562,0.045968472957611084,1.2187474966049194,-0.07017115503549576,-0.05088082328438759,-0.5131268501281738,0.7093702554702759,0.3915199637413025,-0.28320810198783875
349.0,-0.1787734031677246,-0.5347903370857239,1.3153091669082642,-1.3462498188018799,-1.6230518817901611,-0.03315303102135658,1.2296782732009888,-0.026140624657273293,-0.05419846251606941,-0.5822883248329163,0.6546686291694641,0.3601723909378052,-0.32035163044929504
350.0,-0.1436023712158203,-0.5244535803794861,1.3076937198638916,-1.3627533912658691,-1.7159987688064575,-0.09441589564085007,1.2350029945373535,0.001953595317900181,-0.063116654753685,0.6299211978912354,-0.6116587519645691,-0.3334183990955353,0.3433733284473419
351.0,-0.04616681486368179,-0.5523260235786438,1.3823280334472656,-1.483654260635376,-1.9646137952804565,-0.285869836807251,1.214613914489746,0.08582907170057297,-0.06227608397603035,0.7451612949371338,-0.47487396001815796,-0.2516321539878845,0.39485540986061096
352.0,-0.08537096530199051,-0.5321222543716431,1.3355435132980347,-1.4169557094573975,-1.866036057472229,-0.20210114121437073,1.228599190711975,0.05153178423643112,-0.06606665253639221,0.7010018229484558,-0.5329362154006958,-0.2868049144744873,0.3772510588169098
353.0,-0.10157188028097153,-0.5174264907836914,1.31398606300354,-1.3977197408676147,-1.8204154968261719,-0.16783298552036285,1.2356412410736084,0.03778655827045441,-0.07424214482307434,0.6806169748306274,-0.557490348815918,-0.301215797662735,0.3677419424057007
354.0,-0.12406697124242783,-0.5148237943649292,1.3041738271713257,-1.3773746490478516,-1.767870306968689,-0.12980608642101288,1.2376751899719238,0.01776348426938057,-0.07304807752370834,0.6549243927001953,-0.5857172012329102,-0.31831592321395874,0.3559274971485138
355.0,-0.17527061700820923,-0.5186432003974915,1.3024868965148926,-1.3535423278808594,-1.6304967403411865,-0.03819938376545906,1.2356722354888916,-0.02404453232884407,-0.06809031218290329,-0.5869597792625427,0.6516801118850708,0.35696208477020264,-0.32151105999946594
356.0,-0.23052184283733368,-0.5261626839637756,1.3234783411026,-1.3652055263519287,-1.5032823085784912,0.04301435500383377,1.2266795635223389,-0.07074038684368134,-0.06925790011882782,-0.516491174697876,0.7082028985023499,0.3888997435569763,-0.28362393379211426
357.0,-0.20510761439800262,-0.5155898332595825,1.3063052892684937,-1.3597456216812134,-1.5595903396606445,0.007167091127485037,1.234071969985962,-0.0496583953499794,-0.07402591407299042,-0.5489450693130493,0.6841417551040649,0.37455111742019653,-0.30053412914276123
358.0,-0.25747498869895935,-0.5251573920249939,1.3373156785964966,-1.3856501579284668,-1.4419476985931396,0.08280429244041443,1.2215389013290405,-0.09330134093761444,-0.07724636048078537,-0.4806917905807495,0.7334650158882141,0.4019562304019928,-0.26343056559562683
359.0,-0.29358789324760437,-0.5325257778167725,1.3684362173080444,-1.418536901473999,-1.3614575862884521,0.13608764111995697,1.2092573642730713,-0.12210419774055481,-0.08274504542350769,-0.43120846152305603,0.7636509537696838,0.418418824672699,-0.2362672984600067
360.0,-0.26974260807037354,-0.5175366997718811,1.3385037183761597,-1.3981949090957642,-1.4164541959762573,0.09977870434522629,1.2212140560150146,-0.10449111461639404,-0.08719078451395035,-0.4650598168373108,0.7438598871231079,0.4069958031177521,-0.25445297360420227
361.0,-0.22821131348609924,-0.5098446607589722,1.3093724250793457,-1.3701801300048828,-1.5097815990447998,0.039120450615882874,1.2328044176101685,-0.07031866163015366,-0.08275920897722244,-0.5204139351844788,0.7062275409698486,0.38642755150794983,-0.2847556471824646
362.0,-0.214949369430542,-0.49565720558166504,1.2934843301773071,-1.371354341506958,-1.539520025253296,0.02019708976149559,1.2397119998931885,-0.05998329073190689,-0.09285002946853638,-0.537935733795166,0.6941121220588684,0.37810757756233215,-0.2930327355861664
363.0,-0.1940147876739502,-0.4940958619117737,1.2856303453445435,-1.3643234968185425,-1.5857603549957275,-0.009649830870330334,1.2429531812667847,-0.04173310846090317,-0.09082193672657013,-0.5638308525085449,0.6730924248695374,0.36687329411506653,-0.30731961131095886
364.0,-0.1657111644744873,-0.49264639616012573,1.2809362411499023,-1.3649309873580933,-1.6516989469528198,-0.05251161754131317,1.2454299926757812,-0.01714290864765644,-0.09015759825706482,-0.5992842316627502,0.6423179507255554,0.34935063123703003,-0.32594501972198486
365.0,-0.12676933407783508,-0.5000920295715332,1.2912203073501587,-1.380123257637024,-1.7551567554473877,-0.12186791747808456,1.2430721521377563,0.01567816734313965,-0.0853012278676033,0.6501917243003845,-0.5918669700622559,-0.3206847310066223,0.3522861897945404
366.0,-0.10774686187505722,-0.5002774000167847,1.2978770732879639,-1.3994423151016235,-1.7967714071273804,-0.1526944637298584,1.242295265197754,0.03302496671676636,-0.0881904661655426,0.6718443632125854,-0.5696571469306946,-0.3061620891094208,0.36108261346817017
367.0,-0.07134983688592911,-0.5109120607376099,1.3278051614761353,-1.4509000778198242,-1.8815670013427734,-0.22116215527057648,1.2345606088638306,0.06597308814525604,-0.08881127089262009,0.7138144373893738,-0.5219864249229431,-0.27560240030288696,0.37688520550727844
368.0,-0.0808863490819931,-0.49592822790145874,1.3093003034591675,-1.4418845176696777,-1.8513935804367065,-0.19862905144691467,1.2412924766540527,0.058165766298770905,-0.0990278348326683,0.7016674280166626,-0.5386434197425842,-0.28400248289108276,0.36995768547058105
369.0,-0.125521719455719,-0.4854721128940582,1.2796622514724731,-1.3878521919250488,-1.7490736246109009,-0.11911160498857498,1.2483701705932617,0.01748845726251602,-0.09823820739984512,0.6495439410209656,-0.594440758228302,-0.32004889845848083,0.34971657395362854
370.0,-0.15527576208114624,-0.47938889265060425,1.269389271736145,-1.370829463005066,-1.675531029701233,-0.0685100331902504,1.2505559921264648,-0.008636603131890297,-0.101127490401268,-0.6121782064437866,0.6309462785720825,0.34205397963523865,-0.33187928795814514
371.0,-0.1896335631608963,-0.4786503314971924,1.2715588808059692,-1.3684903383255005,-1.5962556600570679,-0.01651657558977604,1.248854160308838,-0.03903552517294884,-0.1033974140882492,-0.5699173212051392,0.6687806844711304,0.3633725345134735,-0.3096565306186676
372.0,-0.172674298286438,-0.6217827200889587,1.5970388650894165,-2.1324474811553955,-1.615172266960144,-0.10072651505470276,1.2089639902114868,-0.01377091184258461,-0.07002358883619308,-0.6698733568191528,0.7132026553153992,0.15046438574790955,-0.14132316410541534
373.0,-0.18332405388355255,-0.6384218335151672,1.7098082304000854,-2.5113298892974854,-1.5815163850784302,1.3890409469604492,1.19558846950531,-0.01892571896314621,-0.06346731632947922,0.0004322160966694355,0.9978461265563965,0.0066083683632314205,-0.06526347994804382
374.0,-0.1685684323310852,-0.6372402906417847,1.7083995342254639,-2.516023874282837,-1.5900371074676514,1.40357506275177,1.1971019506454468,-0.0028483360074460506,-0.06350646913051605,6.685775588266551e-05,0.997972309589386,0.001048414851538837,-0.0636410117149353
375.0,-0.15530048310756683,-0.6375249624252319,1.7118072509765625,-2.525932788848877,-1.5971794128417969,1.4166010618209839,1.1959044933319092,0.012096259742975235,-0.06342658400535583,-0.0002337745827389881,0.998139500617981,-0.003834628500044346,-0.06085064634680748
