Sungjin-Park-dev/vision_inspection/data/trajectory/675/joint_trajectory_dp.csv
time,ur20-shoulder_pan_joint,ur20-shoulder_lift_joint,ur20-elbow_joint,ur20-wrist_1_joint,ur20-wrist_2_joint,ur20-wrist_3_joint,target-POS_X,target-POS_Y,target-POS_Z,target-ROT_X,target-ROT_Y,target-ROT_Z,target-ROT_W
0.0,-0.05958212539553642,-0.6897312998771667,1.6901501417160034,-0.3728426992893219,1.8987903594970703,0.22956694662570953,1.0902117490768433,0.08652791380882263,-0.043246835470199585,0.7488628625869751,0.4659886956214905,0.2489638328552246,0.40009498596191406
1.0,-0.023293934762477875,-0.6673926115036011,1.6342109441757202,-0.293510764837265,2.017591714859009,0.3318987488746643,1.1031715869903564,0.10866498947143555,-0.04126165062189102,0.7761369943618774,0.42283886671066284,0.2237902283668518,0.4107755720615387
2.0,0.0023836225736886263,-0.6409525275230408,1.5865275859832764,-0.22408270835876465,2.0982892513275146,0.41686639189720154,1.1119954586029053,0.1259811520576477,-0.04678219556808472,0.7953984141349792,0.39077308773994446,0.20428791642189026,0.415817528963089
3.0,0.020575128495693207,-0.6167570948600769,1.5456156730651855,-0.16341333091259003,2.1531858444213867,0.4861857295036316,1.119413137435913,0.1391916573047638,-0.0529196634888649,0.8091747164726257,0.3668197989463806,0.1895122230052948,0.418048620223999
4.0,0.0476146899163723,-0.5777124166488647,1.456946849822998,-0.02851325087249279,2.252335786819458,0.6228243112564087,1.139858365058899,0.15822547674179077,-0.04936777800321579,0.8312413096427917,0.317720502614975,0.1628677248954773,0.4261052906513214
5.0,0.06012291833758354,-0.5538084506988525,1.3962863683700562,0.06626509130001068,2.3087973594665527,0.7121312022209167,1.1547781229019165,0.16687366366386414,-0.0421372652053833,0.842581033706665,0.2860329747200012,0.14669132232666016,0.43211567401885986
6.0,0.03468053415417671,-0.6033695936203003,1.4942666292190552,-0.08626352250576019,2.217751979827881,0.5596100687980652,1.1340906620025635,0.147405743598938,-0.04041879624128342,0.821223258972168,0.33626556396484375,0.17468668520450592,0.42661747336387634
7.0,0.023580949753522873,-0.5468738079071045,1.3286094665527344,0.32365185022354126,2.1442995071411133,0.8240229487419128,1.1661553382873535,0.14481696486473083,-0.016140177845954895,0.8894391059875488,0.29022178053855896,0.10952777415513992,0.3356683850288391
8.0,-0.017442019656300545,-0.6356125473976135,1.5109360218048096,0.008404924534261227,2.0333049297332764,0.49811848998069763,1.1271352767944336,0.1125107854604721,-0.019213296473026276,0.8307361006736755,0.3947393596172333,0.1684546321630478,0.35451579093933105
9.0,-0.0053602540865540504,-0.5859276056289673,1.391782522201538,0.2559603154659271,2.057859182357788,0.697917640209198,1.1508501768112183,0.12261556088924408,-0.009435862302780151,0.8777676820755005,0.33966249227523804,0.12193053960800171,0.3150971829891205
10.0,-0.05219925940036774,-0.6449994444847107,1.4989029169082642,0.10046391189098358,1.9294843673706055,0.46000564098358154,1.1272944211959839,0.08813641965389252,-0.004782035946846008,0.8366195559501648,0.4267054796218872,0.15606817603111267,0.3059948682785034
11.0,-0.05352602154016495,-0.5746423602104187,1.3304065465927124,0.4564659893512726,1.9142365455627441,0.731986403465271,1.1619977951049805,0.08699998259544373,0.013099253177642822,0.9073815941810608,0.3428076207637787,0.08594779670238495,0.22749626636505127
12.0,-0.07705412805080414,-0.6414909958839417,1.4690569639205933,0.19928403198719025,1.863731026649475,0.44544294476509094,1.1325780153274536,0.0694664865732193,0.006734475493431091,0.8446196913719177,0.44297707080841064,0.13964051008224487,0.2662510573863983
13.0,-0.11033111065626144,-0.7018557190895081,1.626115083694458,-0.13092656433582306,1.7591980695724487,0.18803717195987701,1.1023616790771484,0.0510333850979805,-0.008559562265872955,0.7622207403182983,0.5187113881111145,0.21786655485630035,0.32014408707618713
14.0,-0.1716206967830658,-0.7052831053733826,1.5998942852020264,-0.017327766865491867,1.5640007257461548,-0.00817485898733139,1.1070325374603271,0.013183817267417908,0.006243810057640076,0.7163359522819519,0.6093904376029968,0.22021710872650146,0.25886431336402893
15.0,-0.12171844393014908,-0.633433997631073,1.4247193336486816,0.33402854204177856,1.7426472902297974,0.34390079975128174,1.1416027545928955,0.03627081215381622,0.02240729331970215,0.8370292782783508,0.4939000606536865,0.1196618378162384,0.20279499888420105
16.0,-0.16767928004264832,-0.6357201933860779,1.4192560911178589,0.3746360242366791,1.590144157409668,0.04416627436876297,1.14302396774292,0.00735338544473052,0.0286053866147995,0.7626152634620667,0.6134885549545288,0.12853394448757172,0.1597779393196106
17.0,-0.12445656210184097,-0.5428128242492676,1.2394245862960815,0.6916438937187195,1.7408558130264282,0.7420308589935303,1.180651307106018,0.02854613959789276,0.03554770350456238,0.9340178370475769,0.3349786400794983,0.041893575340509415,0.11681146174669266
18.0,-0.16786165535449982,-0.5426133275032043,1.2343858480453491,0.7234808802604675,1.5989367961883545,0.17754358053207397,1.1823545694351196,-0.0008953395299613476,0.03952072560787201,0.8161758780479431,0.5723854899406433,0.045326508581638336,0.06463197618722916
19.0,-0.13931457698345184,-0.4935063123703003,1.1434593200683594,0.8542651534080505,1.6923500299453735,-1.7109837532043457,1.20429265499115,0.015204383991658688,0.04025149345397949,0.0015861836727708578,0.9976014494895935,-0.0647415965795517,0.02444145828485489
20.0,-2.9048988819122314,-2.416823387145996,-1.7484149932861328,-0.5614438652992249,1.314861536026001,-1.5143911838531494,1.2049462795257568,0.04370514303445816,0.03392098844051361,0.9876890182495117,0.09019218385219574,0.01162295788526535,0.1272822767496109
21.0,-2.901411771774292,-2.427541732788086,-1.7207032442092896,-0.5881398320198059,1.3139036893844604,-1.4766144752502441,1.2195175886154175,0.05136718600988388,0.03202305734157562,0.988937497138977,0.07386131584644318,0.00958079844713211,0.12827838957309723
22.0,-2.8873190879821777,-2.4296770095825195,-1.723587155342102,-0.5884516835212708,1.3094215393066406,-1.457757830619812,1.2162232398986816,0.06722066551446915,0.028032392263412476,0.9887603521347046,0.07185573130846024,0.009503052569925785,0.1307653784751892
23.0,-2.889343500137329,-2.4198081493377686,-1.7598159313201904,-0.5314313769340515,1.2958118915557861,-1.5757075548171997,1.20004403591156,0.05846293270587921,0.029848366975784302,0.982397198677063,0.12692546844482422,0.017562270164489746,0.13593116402626038
24.0,-2.8691537380218506,-2.43904185295105,-1.8820149898529053,-0.13225051760673523,1.199776291847229,-2.202030658721924,1.1542259454727173,0.05569041147828102,0.021493658423423767,0.8872056007385254,0.40409594774246216,0.09228827059268951,0.20262184739112854
25.0,-2.8609743118286133,-2.4313838481903076,-1.837345838546753,-0.2923619747161865,1.2027101516723633,-1.971570611000061,1.1717960834503174,0.0707753449678421,0.02185460925102234,0.9285762906074524,0.31452488899230957,0.06320954114198685,0.18661437928676605
26.0,-2.858891487121582,-2.4315617084503174,-1.7768152952194214,-0.45948323607444763,1.2327312231063843,-1.7043448686599731,1.1950855255126953,0.08455057442188263,0.021782368421554565,0.9650104641914368,0.19996589422225952,0.03441541641950607,0.16608449816703796
27.0,-2.877634286880493,-2.441925525665283,-1.695850133895874,-0.6160118579864502,1.307675838470459,-1.412864327430725,1.2295867204666138,0.08252956718206406,0.024268701672554016,0.9896098375320435,0.05523049458861351,0.007397225126624107,0.13254213333129883
28.0,-2.852663993835449,-2.438267469406128,-1.751075267791748,-0.5073524117469788,1.233208179473877,-1.6181474924087524,1.2058054208755493,0.09541355073451996,0.019457951188087463,0.9720770120620728,0.163665771484375,0.027920732274651527,0.16583247482776642
29.0,-2.810560464859009,-2.4581406116485596,-1.79766845703125,-0.35654518008232117,1.084689736366272,-1.7824182510375977,1.1874725818634033,0.11934404075145721,0.0067395418882369995,0.9371544718742371,0.24821507930755615,0.0627831444144249,0.23704242706298828
30.0,-2.8327016830444336,-2.45052170753479,-1.738824486732483,-0.5109153985977173,1.1847988367080688,-1.6029993295669556,1.2117258310317993,0.11470495164394379,0.013426855206489563,0.9673746228218079,0.16542109847068787,0.03234399855136871,0.18914614617824554
31.0,-2.857891082763672,-2.4531795978546143,-1.6810697317123413,-0.6256484985351562,1.2839547395706177,-1.4043045043945312,1.235859990119934,0.10549268126487732,0.018273085355758667,0.9875561594963074,0.06134262681007385,0.008977665565907955,0.14453160762786865
32.0,-2.8716025352478027,-2.460056781768799,-1.6514712572097778,-0.6550945043563843,1.310910940170288,-1.362599492073059,1.2519311904907227,0.0967727079987526,0.02074621617794037,0.9906232953071594,0.034131649881601334,0.004555324092507362,0.13221190869808197
33.0,-2.8726844787597656,-2.4508554935455322,-1.6750081777572632,-0.6351931691169739,1.3076460361480713,-1.3856964111328125,1.2398215532302856,0.09154768288135529,0.022011756896972656,0.9900592565536499,0.044706933200359344,0.006015697959810495,0.13322089612483978
34.0,-2.8841538429260254,-2.4582507610321045,-1.6489059925079346,-0.6543294191360474,1.316228985786438,-1.3780966997146606,1.2552032470703125,0.08244054019451141,0.024330198764801025,0.9909912347793579,0.03520672768354416,0.004587754141539335,0.12913508713245392
35.0,-2.894101142883301,-2.4629249572753906,-1.6308424472808838,-0.6675482988357544,1.3226686716079712,-1.373996376991272,1.265942096710205,0.07346519827842712,0.026583492755889893,0.9916217923164368,0.028166718780994415,0.0035794691648334265,0.12601681053638458
36.0,-2.894166946411133,-2.4516098499298096,-1.6604992151260376,-0.6423166394233704,1.3189340829849243,-1.4035910367965698,1.250532627105713,0.06891244649887085,0.02768230438232422,0.9909583926200867,0.042410675436258316,0.005442731082439423,0.12717366218566895
37.0,-2.8909199237823486,-2.4430360794067383,-1.6852526664733887,-0.621506929397583,1.3149632215499878,-1.4239686727523804,1.2370954751968384,0.06897860765457153,0.027644455432891846,0.9901961088180542,0.0538487508893013,0.006998805794864893,0.12869732081890106
38.0,-2.9028406143188477,-2.4472761154174805,-1.6666992902755737,-0.6354791522026062,1.3199315071105957,-1.4225122928619385,1.248390793800354,0.05756127089262009,0.030515044927597046,0.9908539056777954,0.047171637415885925,0.0060119773261249065,0.12628331780433655
39.0,-2.9056408405303955,-2.460131883621216,-1.6311583518981934,-0.6656062602996826,1.3249279260635376,-1.3898193836212158,1.2672532796859741,0.05933142080903053,0.03009144961833954,0.9917575716972351,0.029997391626238823,0.0037660368252545595,0.12451066821813583
40.0,-2.9128122329711914,-2.440138816833496,-1.6795657873153687,-0.6224866509437561,1.322179913520813,-1.4502317905426025,1.242701768875122,0.0440114289522171,0.033921390771865845,0.9906215667724609,0.05550304427742958,0.006984379608184099,0.12465761601924896
41.0,-2.9164657592773438,-2.4308650493621826,-1.703188419342041,-0.5984220504760742,1.3321692943572998,-1.486008882522583,1.230416178703308,0.038157086819410324,0.035365015268325806,0.9903134107589722,0.0708027258515358,0.008517768234014511,0.11913751065731049
42.0,-2.9361183643341064,-2.4375526905059814,-1.6777399778366089,-0.607649564743042,1.3895275592803955,-1.512322187423706,1.2453703880310059,0.025821072980761528,0.038215845823287964,0.9931578040122986,0.07360776513814926,0.006700986530631781,0.09041351079940796
43.0,-2.9145374298095703,-2.4538071155548096,-1.6420528888702393,-0.6555154919624329,1.3251523971557617,-1.4117509126663208,1.2625610828399658,0.04689508303999901,0.03321892023086548,0.99162358045578,0.03612249717116356,0.004514336585998535,0.12392617017030716
44.0,-2.918025493621826,-2.462977647781372,-1.6156638860702515,-0.6785239577293396,1.3275808095932007,-1.3868457078933716,1.2765374183654785,0.04600606858730316,0.03345489501953125,0.9921177625656128,0.02237086556851864,0.002779463306069374,0.12326546013355255
45.0,-2.9104392528533936,-2.4741768836975098,-1.5916584730148315,-0.6990253329277039,1.3296196460723877,-1.3543497323989868,1.2880420684814453,0.05880102142691612,0.030236437916755676,0.9923463463783264,0.010453082621097565,0.001296021044254303,0.12303565442562103
46.0,-2.898015022277832,-2.472057580947876,-1.604958176612854,-0.6883471608161926,1.3274229764938354,-1.3542131185531616,1.2797825336456299,0.0726136714220047,0.02680385112762451,0.9921234846115112,0.016606824472546577,0.0020779629703611135,0.12414149194955826
47.0,-2.905988931655884,-2.4826526641845703,-1.5730483531951904,-0.7138845324516296,1.333472728729248,-1.3318977355957031,1.2969805002212524,0.06733843684196472,0.02810440957546234,0.9925661683082581,0.0017499483656138182,0.0002145524340448901,0.12169358879327774
48.0,-2.918379783630371,-2.4856462478637695,-1.556874394416809,-0.7292729616165161,1.330302119255066,-1.3260990381240845,1.3064030408859253,0.05274762585759163,0.03175915777683258,0.9923221468925476,-0.007097403984516859,-0.0008831192390061915,0.1234731525182724
49.0,-2.9127137660980225,-2.4949660301208496,-1.5370692014694214,-0.7452205419540405,1.332888126373291,-1.3018442392349243,1.3156931400299072,0.06278553605079651,0.029233232140541077,0.9922890067100525,-0.01603567972779274,-0.0019859052263200283,0.12288794666528702
50.0,-2.9101884365081787,-2.505223274230957,-1.5127226114273071,-0.7657479643821716,1.3312689065933228,-1.2783615589141846,1.327458143234253,0.06866903603076935,0.027765125036239624,0.9918739795684814,-0.026015959680080414,-0.0032653401140123606,0.12449303269386292
51.0,-2.9211413860321045,-2.5020864009857178,-1.5132232904434204,-0.7668604254722595,1.3295413255691528,-1.2861955165863037,1.3282980918884277,0.05389779806137085,0.0314580500125885,0.9917534589767456,-0.02762129157781601,-0.003484158543869853,0.12510009109973907
52.0,-2.9293041229248047,-2.510213851928711,-1.4875010251998901,-0.7888810038566589,1.3302754163742065,-1.26828134059906,1.3415758609771729,0.045942727476358414,0.03345426917076111,0.9912855625152588,-0.04029553756117821,-0.005093964282423258,0.12531347572803497
53.0,-2.9472317695617676,-2.5010271072387695,-1.5035384893417358,-0.7633779048919678,1.384731650352478,-1.2787744998931885,1.3351012468338013,0.02885976992547512,0.03757433593273163,0.994231104850769,-0.046004172414541245,-0.004478528629988432,0.09678888320922852
54.0,-2.951605796813965,-2.511247396469116,-1.4757999181747437,-0.7852622270584106,1.3936671018600464,-1.2426363229751587,1.3488432168960571,0.02702145278453827,0.03796403110027313,0.9934415221214294,-0.06608696281909943,-0.006193508394062519,0.09310290217399597
55.0,-2.9584176540374756,-2.5244154930114746,-1.4400129318237305,-0.8128020167350769,1.410614013671875,-1.1841799020767212,1.3662402629852295,0.02364886738359928,0.03864969313144684,0.9913842082023621,-0.09858676046133041,-0.008534400723874569,0.08582157641649246
56.0,-2.934882164001465,-2.529705286026001,-1.4353876113891602,-0.8330021500587463,1.3322697877883911,-1.2220263481140137,1.366816520690918,0.044007807970047,0.03390434384346008,0.9898454546928406,-0.06531692296266556,-0.008312948048114777,0.12597855925559998
57.0,-2.924685478210449,-2.531437397003174,-1.4376840591430664,-0.8304299712181091,1.3292601108551025,-1.2205345630645752,1.364900827407837,0.05717264488339424,0.030588299036026,0.9899197220802307,-0.06084270402789116,-0.0078459233045578,0.12765434384346008
58.0,-2.9181628227233887,-2.52473521232605,-1.4586206674575806,-0.8120923042297363,1.3292406797409058,-1.2358872890472412,1.3544119596481323,0.06377919018268585,0.02894704043865204,0.9905975461006165,-0.05026276409626007,-0.006447871681302786,0.12707708775997162
59.0,-2.910677433013916,-2.532674551010132,-1.4437681436538696,-0.8236592411994934,1.3257780075073242,-1.2230095863342285,1.3607667684555054,0.07499833405017853,0.0261668860912323,0.9901712536811829,-0.052560459822416306,-0.006870219949632883,0.12942607700824738
60.0,-2.9015614986419678,-2.542006731033325,-1.426576852798462,-0.8374486565589905,1.3174571990966797,-1.2122747898101807,1.3679569959640503,0.08805949240922928,0.02286270260810852,0.98951256275177,-0.05276929959654808,-0.00716054392978549,0.13427215814590454
61.0,-2.9008772373199463,-2.530060052871704,-1.4565504789352417,-0.8124722242355347,1.3206405639648438,-1.2331595420837402,1.3537153005599976,0.08600431680679321,0.023409992456436157,0.9903541207313538,-0.04261854663491249,-0.005668409168720245,0.1317204087972641
62.0,-2.891693592071533,-2.5266175270080566,-1.4710707664489746,-0.7994975447654724,1.319274663925171,-1.2416819334030151,1.3456881046295166,0.09638909250497818,0.02084130048751831,0.990644097328186,-0.033937063068151474,-0.004525648429989815,0.13210651278495789
63.0,-2.9049787521362305,-2.5141963958740234,-1.4934978485107422,-0.781539261341095,1.3282418251037598,-1.260574460029602,1.3363264799118042,0.0773460790514946,0.02562659978866577,0.9914215803146362,-0.03185441717505455,-0.004070761147886515,0.1266964226961136
64.0,-2.8951821327209473,-2.507422924041748,-1.5169841051101685,-0.7611321210861206,1.3278591632843018,-1.2750943899154663,1.3236968517303467,0.08740450441837311,0.023089826107025146,0.9917758703231812,-0.020015880465507507,-0.0025507155805826187,0.12638653814792633
65.0,-2.9033308029174805,-2.498222827911377,-1.5348938703536987,-0.7464658617973328,1.3321144580841064,-1.2934916019439697,1.3157577514648438,0.07518097758293152,0.026175782084465027,0.9922161102294922,-0.015372049994766712,-0.0019142943201586604,0.12356150895357132
66.0,-2.8966588973999023,-2.489650011062622,-1.5612539052963257,-0.7233285903930664,1.3331072330474854,-1.313631296157837,1.3018399477005005,0.08076529204845428,0.02477899193763733,0.9924755096435547,-0.002404011320322752,-0.00029652920784428716,0.1224195584654808
67.0,-2.890746831893921,-2.4820163249969482,-1.5842983722686768,-0.7049316763877869,1.3297991752624512,-1.3287467956542969,1.2894086837768555,0.08489120006561279,0.02373310923576355,0.9922939538955688,0.007901298813521862,0.000984590849839151,0.12365102022886276
68.0,-2.8835017681121826,-2.470554828643799,-1.6178182363510132,-0.6790578961372375,1.3219716548919678,-1.350688099861145,1.2712515592575073,0.08839729428291321,0.022837474942207336,0.9916512966156006,0.022250404581427574,0.002849195385351777,0.12698234617710114
69.0,-2.8808867931365967,-2.4823009967803955,-1.5895323753356934,-0.7016221880912781,1.326151967048645,-1.3235270977020264,1.2853543758392334,0.09619377553462982,0.020930588245391846,0.9920179843902588,0.010389941744506359,0.0013161184033378959,0.12566125392913818
70.0,-2.884960174560547,-2.491725444793701,-1.5635530948638916,-0.7210021018981934,1.3323748111724854,-1.3062435388565063,1.2991305589675903,0.09543611854314804,0.021123304963111877,0.9924035668373108,-0.00013143406249582767,-1.6293555745505728e-05,0.1230258047580719
71.0,-2.8741846084594727,-2.4938817024230957,-1.5651257038116455,-0.7195429801940918,1.331122636795044,-1.298607587814331,1.29673433303833,0.10888046026229858,0.01769348978996277,0.9922916293144226,0.001582167693413794,0.00019757705740630627,0.12391483783721924
72.0,-2.8713228702545166,-2.474860191345215,-1.6139719486236572,-0.6843343377113342,1.3170273303985596,-1.3329946994781494,1.2713690996170044,0.10346290469169617,0.01905737817287445,0.9913099408149719,0.01993984915316105,0.0026149237528443336,0.13000096380710602
73.0,-2.8592538833618164,-2.471004009246826,-1.6302906274795532,-0.6759248375892639,1.3037068843841553,-1.3296010494232178,1.2609038352966309,0.11408433318138123,0.016330689191818237,0.9902772307395935,0.024690736085176468,0.003412283957004547,0.1368572860956192
74.0,-2.8388843536376953,-2.479862928390503,-1.6247490644454956,-0.6782156825065613,1.2382733821868896,-1.357927680015564,1.2631537914276123,0.1311493068933487,0.011082172393798828,0.9843429327011108,0.050079621374607086,0.008586980402469635,0.16878190636634827
75.0,-2.8004679679870605,-2.473910331726074,-1.7109535932540894,-0.5400155782699585,1.0828553438186646,-1.5441582202911377,1.223527193069458,0.1443055272102356,0.002113044261932373,0.9581596851348877,0.15344573557376862,0.03820908069610596,0.23858857154846191
76.0,-2.7868189811706543,-2.475752353668213,-1.7685319185256958,-0.4062314033508301,1.0129643678665161,-1.6873016357421875,1.1988521814346313,0.1426609754562378,-0.00234348326921463,0.9363285303115845,0.2160545438528061,0.06223168596625328,0.2696971893310547
77.0,-2.748833179473877,-2.5083301067352295,-1.7689611911773682,-0.37035825848579407,0.8518630266189575,-1.6689189672470093,1.1953352689743042,0.16764786839485168,-0.01995675265789032,0.910321056842804,0.21629095077514648,0.08157599717378616,0.34333541989326477
78.0,-2.75618052482605,-2.5028815269470215,-1.726493239402771,-0.4895119369029999,0.8971678614616394,-1.5603808164596558,1.2135558128356934,0.1715535819530487,-0.016772717237472534,0.9270656704902649,0.17698204517364502,0.061974041163921356,0.32463183999061584
79.0,-2.766777515411377,-2.501572608947754,-1.6803010702133179,-0.5946210026741028,0.9514161944389343,-1.460666298866272,1.2333314418792725,0.17295458912849426,-0.013025134801864624,0.9423259496688843,0.1352960169315338,0.04350731894373894,0.3030250072479248
80.0,-2.808288335800171,-2.48210072517395,-1.659722089767456,-0.6285708546638489,1.1221413612365723,-1.437710165977478,1.2459888458251953,0.14785543084144592,0.003159850835800171,0.9690099954605103,0.10381519794464111,0.023877449333667755,0.22287189960479736
81.0,-2.8108553886413574,-2.4940526485443115,-1.6147078275680542,-0.697295606136322,1.1330468654632568,-1.3527085781097412,1.2656186819076538,0.1528748869895935,0.0023182928562164307,0.9729535579681396,0.06504089385271072,0.014784429222345352,0.2211618274450302
82.0,-2.8249642848968506,-2.5029053688049316,-1.5710102319717407,-0.7517130970954895,1.182332992553711,-1.279106616973877,1.2862331867218018,0.14842145144939423,0.005134254693984985,0.9794116616249084,0.023136653006076813,0.004736120346933603,0.20048756897449493
83.0,-2.8475747108459473,-2.4878792762756348,-1.5957797765731812,-0.7052653431892395,1.2669872045516968,-1.3198620080947876,1.277958869934082,0.1287161409854889,0.012178108096122742,0.9874070882797241,0.027064437046647072,0.004270667210221291,0.15580914914608002
84.0,-2.854067802429199,-2.4989566802978516,-1.5622881650924683,-0.7342576384544373,1.2825435400009155,-1.2857348918914795,1.2951464653015137,0.12765341997146606,0.012653976678848267,0.9887693524360657,0.007184875663369894,0.0010846928926184773,0.14927347004413605
85.0,-2.866729497909546,-2.507075786590576,-1.5352741479873657,-0.7484025955200195,1.3140071630477905,-1.2709393501281738,1.3105032444000244,0.12000679224729538,0.014877498149871826,0.9909928441047668,-0.00736895902082324,-0.0009942458709701896,0.13370825350284576
86.0,-2.857337474822998,-2.524620532989502,-1.4897515773773193,-0.818773090839386,1.2646608352661133,-1.1880148649215698,1.3285959959030151,0.13032247126102448,0.011511296033859253,0.9857633709907532,-0.03938961774110794,-0.006526400335133076,0.16332946717739105
87.0,-2.8636884689331055,-2.534054756164551,-1.4605426788330078,-0.8498773574829102,1.268064260482788,-1.1515709161758423,1.3424522876739502,0.12612751126289368,0.012489482760429382,0.9846521019935608,-0.059715934097766876,-0.009927548468112946,0.16369467973709106
88.0,-2.8796839714050293,-2.5083303451538086,-1.5245678424835205,-0.7548429369926453,1.3218674659729004,-1.2734465599060059,1.3179035186767578,0.10583244264125824,0.01844988763332367,0.9914873242378235,-0.012894710525870323,-0.0016848830273374915,0.12955236434936523
89.0,-2.8791511058807373,-2.521015167236328,-1.4930026531219482,-0.7814358472824097,1.315913200378418,-1.2518607378005981,1.3333431482315063,0.10977624356746674,0.017435848712921143,0.9907886385917664,-0.022715125232934952,-0.0030598239973187447,0.13346344232559204
90.0,-2.8771610260009766,-2.5379481315612793,-1.446775197982788,-0.8417738676071167,1.2910761833190918,-1.1773326396942139,1.3529573678970337,0.1139712929725647,0.015993446111679077,0.9870799779891968,-0.05580506846308708,-0.00847787968814373,0.14995673298835754
91.0,-2.8867204189300537,-2.5436158180236816,-1.4275200366973877,-0.8541690111160278,1.3007378578186035,-1.1688835620880127,1.3635538816452026,0.1050085574388504,0.018365979194641113,0.9872040152549744,-0.06509368866682053,-0.00957780983299017,0.14525605738162994
92.0,-2.8844025135040283,-2.5668985843658447,-1.355594277381897,-0.9919068217277527,1.2682439088821411,-0.9686042666435242,1.3854551315307617,0.10902098566293716,0.015660196542739868,0.9715521931648254,-0.15385153889656067,-0.028160328045487404,0.17782875895500183
93.0,-2.8803374767303467,-2.614325761795044,-1.2269843816757202,-1.248892903327942,1.2306455373764038,-0.6990286707878113,1.4146227836608887,0.11687450855970383,0.006786644458770752,0.9328385591506958,-0.2606174945831299,-0.06694063544273376,0.23960328102111816
94.0,-2.893136978149414,-2.6477527618408203,-1.1381860971450806,-1.3947415351867676,1.2520315647125244,-0.5546907186508179,1.4353995323181152,0.10690121352672577,0.004530549049377441,0.9042947292327881,-0.3254919648170471,-0.09355267882347107,0.25991180539131165
95.0,-2.9062273502349854,-2.7150282859802246,-0.9824705123901367,-1.645646572113037,1.2837117910385132,-0.36989402770996094,1.4623242616653442,0.099051333963871,-0.005054108798503876,0.8539674282073975,-0.39749810099601746,-0.1416894644498825,0.3043994605541229
96.0,-2.8894078731536865,-2.7591588497161865,-0.9029250741004944,-1.796983003616333,1.2389768362045288,-0.3384740352630615,1.4666030406951904,0.11842766404151917,-0.01967451721429825,0.8385937809944153,-0.3791002929210663,-0.16115021705627441,0.35647445917129517
97.0,-2.87070894241333,-2.6999928951263428,-1.0379048585891724,-1.6049689054489136,1.1922154426574707,-0.468763142824173,1.4434268474578857,0.1330588012933731,-0.014244884252548218,0.8778168559074402,-0.3235929310321808,-0.12215294688940048,0.3313666880130768
98.0,-2.8576364517211914,-2.643902063369751,-1.1712983846664429,-1.3914105892181396,1.1680727005004883,-0.6288615465164185,1.4170600175857544,0.14117681980133057,-0.007285900413990021,0.9148871302604675,-0.26064467430114746,-0.08446995168924332,0.2964974045753479
99.0,-2.84474515914917,-2.593782663345337,-1.302802562713623,-1.16945219039917,1.1566810607910156,-0.8284171223640442,1.384240984916687,0.14829915761947632,-0.0018048211932182312,0.9475648403167725,-0.17756867408752441,-0.04893682524561882,0.2611429989337921
100.0,-2.8527426719665527,-2.560744047164917,-1.3869930505752563,-0.9984846711158752,1.207007646560669,-0.9808927178382874,1.3637553453445435,0.13829222321510315,0.006272867321968079,0.9689074754714966,-0.1256156712770462,-0.027406679466366768,0.21139509975910187
101.0,-2.8274357318878174,-2.585035800933838,-1.3384276628494263,-1.1385377645492554,1.116236686706543,-0.8778074383735657,1.3680837154388428,0.1619357019662857,-0.0065937042236328125,0.9496536254882812,-0.14215999841690063,-0.04133365675806999,0.2761160433292389
102.0,-2.819941282272339,-2.6510655879974365,-1.1854281425476074,-1.4473862648010254,1.056266188621521,-0.6532029509544373,1.3981194496154785,0.17398032546043396,-0.023354068398475647,0.908043384552002,-0.20384851098060608,-0.0801529660820961,0.35704144835472107
103.0,-2.830904960632324,-2.6969125270843506,-1.0758655071258545,-1.6242207288742065,1.0781419277191162,-0.5251290798187256,1.420447587966919,0.16833040118217468,-0.028954647481441498,0.8819595575332642,-0.25183093547821045,-0.10938769578933716,0.3830963969230652
104.0,-2.8480982780456543,-2.7808682918548584,-0.8915706276893616,-1.895226001739502,1.1175122261047363,-0.36369621753692627,1.4510892629623413,0.15798304975032806,-0.03960181027650833,0.8368686437606812,-0.3074606657028198,-0.15618571639060974,0.42511749267578125
105.0,-2.8687808513641357,-2.828270435333252,-0.7888271808624268,-1.9944891929626465,1.18307626247406,-0.2919331192970276,1.4712494611740112,0.14234070479869843,-0.04519276320934296,0.8146412968635559,-0.35268303751945496,-0.1829177737236023,0.4225107729434967
106.0,-2.8899691104888916,-2.868501663208008,-0.7009868621826172,-2.0672969818115234,1.2492458820343018,-0.234091117978096,1.4879746437072754,0.12463094294071198,-0.04892652481794357,0.793512225151062,-0.39504602551460266,-0.20630085468292236,0.4143877327442169
107.0,-2.851762056350708,-2.805905342102051,-0.850500226020813,-1.927222490310669,1.136662244796753,-0.3402066230773926,1.4593818187713623,0.15775354206562042,-0.0505518764257431,0.830371618270874,-0.32024624943733215,-0.16407963633537292,0.42544475197792053
108.0,-2.832350015640259,-2.771540403366089,-0.932636559009552,-1.846185564994812,1.0778297185897827,-0.402652770280838,1.4413472414016724,0.17283296585083008,-0.049952924251556396,0.8467800617218018,-0.27860820293426514,-0.14162547886371613,0.43044543266296387
109.0,-2.8112761974334717,-2.731567859649658,-1.0292928218841553,-1.7454801797866821,1.0107614994049072,-0.4812532961368561,1.4183458089828491,0.18718212842941284,-0.048291780054569244,0.8628115057945251,-0.22918666899204254,-0.11567729711532593,0.4354865252971649
110.0,-2.7852232456207275,-2.6798698902130127,-1.1586298942565918,-1.597854495048523,0.9252971410751343,-0.5974889397621155,1.3847745656967163,0.20197579264640808,-0.045256711542606354,0.8791475892066956,-0.1622464805841446,-0.08131980895996094,0.4406389892101288
111.0,-2.7898764610290527,-2.6183245182037354,-1.2905641794204712,-1.3258835077285767,0.9700069427490234,-0.7762515544891357,1.3626313209533691,0.19303129613399506,-0.028591856360435486,0.9170738458633423,-0.12811574339866638,-0.05223995819687843,0.37394237518310547
112.0,-2.7776172161102295,-2.5935182571411133,-1.3655779361724854,-1.2105516195297241,0.9392877817153931,-0.8759877681732178,1.339523196220398,0.19771930575370789,-0.02817901223897934,0.924778163433075,-0.08303013443946838,-0.033206507563591,0.3698495030403137
113.0,-2.7900826930999756,-2.549912214279175,-1.4693080186843872,-0.9717729687690735,1.0225484371185303,-1.0688555240631104,1.3155571222305298,0.18271973729133606,-0.013865679502487183,0.9534666538238525,-0.034156616777181625,-0.010724350810050964,0.29936543107032776
114.0,-2.8168323040008545,-2.552063226699829,-1.4355889558792114,-0.9819770455360413,1.1113708019256592,-1.0353516340255737,1.3355010747909546,0.16535568237304688,-0.004290163516998291,0.963406503200531,-0.07249581068754196,-0.0193637628108263,0.2573276460170746
115.0,-2.826524496078491,-2.527665138244629,-1.497307300567627,-0.8600114583969116,1.167118787765503,-1.153102993965149,1.3166446685791016,0.15397337079048157,0.002531960606575012,0.9756553769111633,-0.032805901020765305,-0.007287071086466312,0.21671926975250244
116.0,-2.8099186420440674,-2.5205259323120117,-1.5326684713363647,-0.8277769684791565,1.1165697574615479,-1.200764536857605,1.2987940311431885,0.16310948133468628,-0.0015431642532348633,0.9710462689399719,0.00033468974288553,8.233851986005902e-05,0.23889142274856567
117.0,-2.792015314102173,-2.5153379440307617,-1.5712451934814453,-0.7849031686782837,1.0530295372009277,-1.257299780845642,1.2800129652023315,0.17140302062034607,-0.006694093346595764,0.9630957245826721,0.037722986191511154,0.010430501773953438,0.26629841327667236
118.0,-2.7347629070281982,-2.559657096862793,-1.5356366634368896,-0.9566848278045654,0.7688739895820618,-1.113930344581604,1.2771364450454712,0.2106625735759735,-0.03843378275632858,0.9088122844696045,0.043232694268226624,0.01971754990518093,0.4144907593727112
119.0,-2.7384214401245117,-2.5329816341400146,-1.6289418935775757,-0.7294356822967529,0.8060644865036011,-1.3152157068252563,1.2478562593460083,0.1975947916507721,-0.02984493225812912,0.9190989136695862,0.10138341784477234,0.04174749180674553,0.3784649968147278
120.0,-2.718651294708252,-2.5622358322143555,-1.5775859355926514,-0.8941632509231567,0.6921300292015076,-1.1623879671096802,1.258481502532959,0.2157539576292038,-0.04802326112985611,0.8928420543670654,0.0745885968208313,0.03697583079338074,0.44260892271995544
121.0,-2.7111682891845703,-2.553760051727295,-1.6655027866363525,-0.6664798855781555,0.6585258841514587,-1.3529024124145508,1.227959156036377,0.20834195613861084,-0.04803713411092758,0.8853017091751099,0.13278061151504517,0.06610183417797089,0.4407275319099426
122.0,-2.707982063293457,-2.556265354156494,-1.7299175262451172,-0.4611043632030487,0.6436014771461487,-1.5271801948547363,1.2032357454299927,0.1995789110660553,-0.049074217677116394,0.8758528232574463,0.18094004690647125,0.09051031619310379,0.438121497631073
123.0,-2.7085530757904053,-2.5615651607513428,-1.7733964920043945,-0.2972303628921509,0.6395660042762756,-1.6706302165985107,1.1853487491607666,0.19015949964523315,-0.047730401158332825,0.8660629391670227,0.21771426498889923,0.10971898585557938,0.43645989894866943
124.0,-2.7120602130889893,-2.5732028484344482,-1.8156813383102417,-0.10678012669086456,0.6493286490440369,-1.8405020236968994,1.1656466722488403,0.1776696741580963,-0.04746730625629425,0.8530728220939636,0.2598471939563751,0.13184793293476105,0.43285396695137024
125.0,-2.706178665161133,-2.563021183013916,-1.6982648372650146,-0.5535990595817566,0.6580842137336731,-1.4415150880813599,1.2136012315750122,0.20823195576667786,-0.05831366777420044,0.8825623989105225,0.15899677574634552,0.07845448702573776,0.43548667430877686
126.0,-2.7042770385742188,-2.569376230239868,-1.7487467527389526,-0.3795347809791565,0.6519908308982849,-1.5893282890319824,1.1926714181900024,0.20030856132507324,-0.060990869998931885,0.8738508224487305,0.19934089481830597,0.09862524271011353,0.43234357237815857
127.0,-2.7074153423309326,-2.5843505859375,-1.812294840812683,-0.11393225938081741,0.6587570309638977,-1.8239800930023193,1.163640022277832,0.18351563811302185,-0.06111534684896469,0.8559572100639343,0.2592162787914276,0.12966661155223846,0.42817172408103943
128.0,-2.7123894691467285,-2.593916654586792,-1.8404943943023682,0.027997273951768875,0.6724275350570679,-1.9545719623565674,1.1493252515792847,0.17219528555870056,-0.05924202501773834,0.8438994884490967,0.29122447967529297,0.14698609709739685,0.42593079805374146
129.0,-2.73279070854187,-2.631037712097168,-1.8953189849853516,0.36295804381370544,0.7560363411903381,-2.269912004470825,1.1136800050735474,0.14106020331382751,-0.06577473878860474,0.8081128001213074,0.3735891282558441,0.1910960078239441,0.4133608341217041
130.0,-2.750936985015869,-2.6518962383270264,-1.9181065559387207,0.5214588046073914,0.8279913067817688,-2.4286880493164062,1.096047043800354,0.12113335728645325,-0.07094122469425201,0.7839242815971375,0.41897058486938477,0.21596494317054749,0.40408605337142944
131.0,-2.7179267406463623,-2.614386796951294,-1.8671672344207764,0.18455266952514648,0.705242931842804,-2.0957984924316406,1.1316657066345215,0.1609729826450348,-0.06661166250705719,0.8297244310379028,0.3287925124168396,0.16616825759410858,0.41933393478393555
132.0,-2.703047513961792,-2.5875062942504883,-1.7959060668945312,-0.17943526804447174,0.6611650586128235,-1.7594183683395386,1.169266939163208,0.19186824560165405,-0.06972189992666245,0.8622688055038452,0.24512119591236115,0.12118329107761383,0.426289439201355
133.0,-2.7097487449645996,-2.6097922325134277,-1.8470858335494995,0.07358948886394501,0.6884303689002991,-1.9871814250946045,1.1416971683502197,0.17363634705543518,-0.07291938364505768,0.8417862057685852,0.30333319306373596,0.15137504041194916,0.42008402943611145
134.0,-2.7214457988739014,-2.6319682598114014,-1.8820735216140747,0.2818088233470917,0.7341554760932922,-2.182544469833374,1.119431495666504,0.1544947326183319,-0.0756886750459671,0.8196814060211182,0.35387033224105835,0.1785363405942917,0.4135495126247406
135.0,-2.7345378398895264,-2.6456410884857178,-1.9026894569396973,0.41527387499809265,0.7797008752822876,-2.3145370483398438,1.1054561138153076,0.1382252424955368,-0.07598719000816345,0.8018315434455872,0.38889503479003906,0.197982057929039,0.4082033336162567
136.0,-2.7445216178894043,-2.6626391410827637,-1.916287899017334,0.5125923752784729,0.826177716255188,-2.4094417095184326,1.0933711528778076,0.12715217471122742,-0.08335845172405243,0.7868992686271667,0.4175693392753601,0.2129690945148468,0.40133509039878845
137.0,-2.763821601867676,-2.6712164878845215,-1.931096076965332,0.6173269152641296,0.8863990306854248,-2.5240917205810547,1.0832123756408691,0.10865433514118195,-0.08068247139453888,0.7662192583084106,0.44973182678222656,0.23232658207416534,0.3958205580711365
138.0,-2.7947120666503906,-2.6879801750183105,-1.9474364519119263,0.7424315214157104,0.9900380969047546,-2.66795015335083,1.0694084167480469,0.08283843100070953,-0.08415809273719788,0.7349219918251038,0.4952337145805359,0.2588943541049957,0.3841967284679413
139.0,-2.773505687713623,-2.689382553100586,-1.9391095638275146,0.6814498901367188,0.9343065023422241,-2.587534189224243,1.073110580444336,0.10013359785079956,-0.09230474382638931,0.7527689933776855,0.47255197167396545,0.24366293847560883,0.38815179467201233
140.0,-2.75441312789917,-2.678473949432373,-1.9267154932022095,0.5895418524742126,0.8711255788803101,-2.4856531620025635,1.0829963684082031,0.1172296404838562,-0.09143579006195068,0.7732982039451599,0.4420231878757477,0.2255786806344986,0.39463895559310913
141.0,-2.7370240688323975,-2.6689465045928955,-1.9122575521469116,0.48836857080459595,0.8162062168121338,-2.376392364501953,1.0931143760681152,0.1344326138496399,-0.09273923933506012,0.792097270488739,0.4112820327281952,0.20784230530261993,0.40028810501098633
142.0,-2.8258044719696045,-2.527416706085205,-1.9128271341323853,0.008536698296666145,1.2506744861602783,-2.3124568462371826,1.1173871755599976,0.10253692418336868,-0.06542514264583588,0.8552794456481934,0.4738386571407318,0.10162341594696045,0.18343040347099304
143.0,-2.873511791229248,-2.6595635414123535,-1.2958911657333374,2.449547290802002,-1.50530207157135,-1.3030033111572266,1.131277322769165,0.091836117208004,-0.05779510736465454,0.0009182459907606244,0.9989380240440369,-0.022973131388425827,0.03992798179388046
144.0,-2.843397617340088,-2.6418349742889404,-1.324930191040039,2.550757884979248,-1.368161916732788,0.9112749695777893,1.1357423067092896,0.10631465911865234,-0.05986428260803223,0.8839303851127625,0.4500903785228729,0.05754952132701874,0.11302123218774796
145.0,-2.7597434520721436,-2.609358787536621,-1.4429004192352295,2.8491318225860596,-0.9792941212654114,0.9662862420082092,1.1156750917434692,0.13869187235832214,-0.07866314053535461,0.8536154627799988,0.3983137011528015,0.14194609224796295,0.3042008578777313
146.0,-2.8599424362182617,-2.694899320602417,-1.2138620615005493,2.3750243186950684,-1.5042088031768799,-1.2889277935028076,1.1619764566421509,0.11627589911222458,-0.05687342584133148,0.000725806865375489,0.9992741942405701,-0.026820583269000053,0.02704191766679287
147.0,-2.856342077255249,-2.683232545852661,-1.2423681020736694,2.3988826274871826,-1.50601327419281,-1.2854673862457275,1.150089144706726,0.11738712340593338,-0.05768193304538727,0.0007528557325713336,0.9992327094078064,-0.024870464578270912,0.030247846618294716
148.0,-2.8468923568725586,-2.700920820236206,-1.2019611597061157,2.3638272285461426,-1.5101535320281982,-1.275887131690979,1.1642541885375977,0.13356801867485046,-0.05770839750766754,0.0005855098133906722,0.9994145035743713,-0.024396179243922234,0.02398601360619068
149.0,-2.8550655841827393,-2.716278076171875,-1.1656725406646729,2.3310651779174805,-1.522194743156433,-1.2840800285339355,1.1783002614974976,0.1298101246356964,-0.056837454438209534,0.00033650826662778854,0.9996551871299744,-0.020492324605584145,0.01641552336513996
150.0,-2.7613635063171387,-2.688047409057617,-1.2624614238739014,2.530658721923828,-1.0599339008331299,1.2691926956176758,1.1617459058761597,0.16662070155143738,-0.07027702033519745,0.9156443476676941,0.3046269416809082,0.08280069380998611,0.24888138473033905
151.0,-2.8359129428863525,-2.730639696121216,-1.1309893131256104,2.31857967376709,-1.4547765254974365,-1.2635806798934937,1.1940877437591553,0.14731794595718384,-0.05748213082551956,0.001570990076288581,0.9982209205627441,-0.05109283700585365,0.0306930560618639
152.0,-2.7509591579437256,-2.6557281017303467,-1.3452500104904175,2.6734533309936523,-0.9787144660949707,1.1523518562316895,1.1396312713623047,0.15879099071025848,-0.07575393468141556,0.8867300152778625,0.3411507308483124,0.11201998591423035,0.29116594791412354
153.0,-2.715106248855591,-2.625086784362793,-1.4590063095092773,2.9782049655914307,-0.741570770740509,0.9734908938407898,1.1154720783233643,0.16108980774879456,-0.09212648868560791,0.8219448924064636,0.3553661108016968,0.1766393929719925,0.4085584878921509
154.0,-2.7110555171966553,-2.64742374420166,-1.4029736518859863,2.8671822547912598,-0.7111011147499084,1.07658052444458,1.1299107074737549,0.1691064089536667,-0.08307395875453949,0.8341471552848816,0.3260789215564728,0.16195417940616608,0.4142972230911255
155.0,-2.70422625541687,-2.680588722229004,-1.3440427780151367,2.753830671310425,-0.6911129355430603,1.1890414953231812,1.1423444747924805,0.18098852038383484,-0.08432047814130783,0.8460047841072083,0.29789215326309204,0.1468653529882431,0.4170931875705719
156.0,-2.6973023414611816,-2.7431421279907227,-1.2331745624542236,2.544245481491089,-0.6746320724487305,1.3938778638839722,1.1668484210968018,0.19939057528972626,-0.08677926659584045,0.8652661442756653,0.24620988965034485,0.11951415985822678,0.42001381516456604
157.0,-2.697291612625122,-2.7763400077819824,-1.168602705001831,2.422534227371216,-0.6709962487220764,1.5090445280075073,1.1826462745666504,0.2065373957157135,-0.08377289772033691,0.8741967678070068,0.21517308056354523,0.10403719544410706,0.4226781725883484
158.0,-2.697964906692505,-2.818082571029663,-1.0898816585540771,2.2804970741271973,-0.6745515465736389,1.6433098316192627,1.2017501592636108,0.21513229608535767,-0.08223564922809601,0.8831706047058105,0.17827551066875458,0.08584526926279068,0.42527443170547485
159.0,-2.7011399269104004,-2.8601551055908203,-1.009644865989685,2.143167495727539,-0.6871725916862488,1.771301507949829,1.2214826345443726,0.22165219485759735,-0.08123496174812317,0.8907739520072937,0.14090856909751892,0.06750505417585373,0.4267430007457733
160.0,-2.701824426651001,-2.892758846282959,-0.9540278315544128,2.061304807662964,-0.7041044235229492,1.8494316339492798,1.233605980873108,0.228299081325531,-0.08739772439002991,0.8957946300506592,0.1174616813659668,0.05573206767439842,0.42502784729003906
161.0,-2.697324275970459,-2.8546829223632812,-1.0309332609176636,2.190253496170044,-0.6916617751121521,1.7319631576538086,1.2143055200576782,0.22378990054130554,-0.09113826602697372,0.8904111981391907,0.1536419838666916,0.07285171002149582,0.4222021698951721
162.0,-2.7180094718933105,-2.764350414276123,-1.1597950458526611,2.399503707885742,-0.8396857976913452,1.5017319917678833,1.186355710029602,0.201401025056839,-0.08206944167613983,0.907505452632904,0.21966834366321564,0.08422937989234924,0.34797289967536926
163.0,-2.842909097671509,-2.764913320541382,-1.0518966913223267,2.2511119842529297,-1.514007329940796,-1.271687626838684,1.2199243307113647,0.15613263845443726,-0.056974396109580994,0.00028490726253949106,0.9995936155319214,-0.02638152800500393,0.01079510897397995
164.0,-2.837642192840576,-2.7367513179779053,-1.1182007789611816,2.2995195388793945,-1.5156906843185425,-1.2665215730667114,1.1947427988052368,0.15519200265407562,-0.0575215145945549,0.0003737388760782778,0.9995909333229065,-0.02398499846458435,0.01557581964880228
165.0,-2.8373055458068848,-2.7500922679901123,-1.0868030786514282,2.2770745754241943,-1.5186203718185425,-1.266188383102417,1.2062842845916748,0.15970845520496368,-0.05742904543876648,0.00030346514540724456,0.9996446371078491,-0.0232405923306942,0.013052908703684807
166.0,-2.835360527038574,-2.7704598903656006,-1.0391888618469238,2.2439653873443604,-1.522446870803833,-1.2642542123794556,1.2230827808380127,0.16808296740055084,-0.05741070955991745,0.000216750951949507,0.9997045993804932,-0.022275688126683235,0.009727507829666138
167.0,-2.8361289501190186,-2.7881622314453125,-0.9977005124092102,2.2162563800811768,-1.5258952379226685,-1.2650483846664429,1.2377156019210815,0.1722739040851593,-0.05734819918870926,0.00015546978102065623,0.9997479319572449,-0.02122950553894043,0.007321442011743784
168.0,-2.8139467239379883,-2.7935521602630615,-0.9967065453529358,2.207817792892456,-1.366752028465271,1.6282023191452026,1.2392780780792236,0.1759103685617447,-0.0591682568192482,0.9856362342834473,0.13459405303001404,0.013801678083837032,0.1010701060295105
169.0,-2.835843086242676,-2.80570912361145,-0.9568033218383789,2.1898205280303955,-1.528440237045288,-1.2647823095321655,1.2515615224838257,0.1774253249168396,-0.05738699436187744,0.00011211261880816892,0.9997752904891968,-0.020478837192058563,0.005473329219967127
170.0,-2.8281097412109375,-2.8272922039031982,-0.914914608001709,2.146925687789917,-1.434875249862671,-1.2543525695800781,1.265072226524353,0.17682448029518127,-0.05796697735786438,0.000645503110717982,0.9976170659065247,-0.06834647804498672,0.009422063827514648
171.0,-2.7070553302764893,-2.599064350128174,-1.574438214302063,-0.8341036438941956,0.7269130945205688,-1.1842916011810303,1.2531572580337524,0.23291631042957306,-0.08853055536746979,0.900668203830719,0.08188354223966599,0.03863576799631119,0.4249695837497711
172.0,-2.714733123779297,-2.614217519760132,-1.5033117532730103,-0.9783575534820557,0.7613804340362549,-1.0623093843460083,1.277435064315796,0.23749077320098877,-0.0917399600148201,0.9046807289123535,0.038158006966114044,0.017883697524666786,0.4240010678768158
173.0,-2.828333854675293,-2.565784454345703,-1.5524563789367676,-0.6442829370498657,1.4160863161087036,-1.2559980154037476,1.289251685142517,0.1813448667526245,-0.058398179709911346,0.9966976046562195,0.001169671188108623,9.52859700191766e-05,0.08119485527276993
174.0,-2.8447413444519043,-2.559019088745117,-1.5806254148483276,-0.5791448950767517,1.5362874269485474,1.8678275346755981,1.2777067422866821,0.17507678270339966,-0.057085491716861725,3.467712667770684e-05,0.9998460412025452,-0.01743464171886444,0.0019886719528585672
175.0,-2.840545654296875,-2.568331241607666,-1.5538676977157593,-0.6004458069801331,1.5318974256515503,1.8720779418945312,1.2909225225448608,0.18406210839748383,-0.05741116404533386,1.7539528926135972e-05,0.9997977018356323,-0.020093435421586037,0.0008727218955755234
176.0,-2.847452163696289,-2.574742317199707,-1.5351248979568481,-0.6136789917945862,1.5361114740371704,1.8651190996170044,1.3018099069595337,0.17874324321746826,-0.057182684540748596,-5.628137387247989e-06,0.9998340606689453,-0.01821363903582096,-0.00030895546660758555
177.0,-2.812011241912842,-2.5794451236724854,-1.5129317045211792,-0.7204386591911316,1.3043948411941528,-1.2052416801452637,1.3047585487365723,0.19093658030033112,-0.06139618158340454,0.9898524284362793,-0.01113905105739832,-0.0015940568409860134,0.14165307581424713
178.0,-2.784586191177368,-2.605003595352173,-1.4423354864120483,-0.8975223302841187,1.1289567947387695,-1.0651366710662842,1.3238993883132935,0.2088540941476822,-0.06887310743331909,0.9683239459991455,-0.04662155359983444,-0.011797008104622364,0.24502243101596832
179.0,-2.8524532318115234,-2.592156410217285,-1.4858589172363281,-0.6508241295814514,1.536483645439148,1.8601056337356567,1.3276231288909912,0.17970812320709229,-0.057293012738227844,-5.6178250815719366e-05,0.9998190402984619,-0.018787896260619164,-0.002989588538184762
180.0,-2.856374502182007,-2.6029021739959717,-1.4555593729019165,-0.6751632690429688,1.5345737934112549,1.856191635131836,1.3432128429412842,0.17856132984161377,-0.05739964544773102,-0.00010367907088948414,0.9997796416282654,-0.020365094766020775,-0.005089896731078625
181.0,-2.8620052337646484,-2.610842704772949,-1.4333350658416748,-0.6922788023948669,1.5341135263442993,1.8505526781082153,1.3550366163253784,0.17403356730937958,-0.05733712017536163,-0.00013622833648696542,0.9997594356536865,-0.020947689190506935,-0.006501698400825262
182.0,-2.781679153442383,-2.6295015811920166,-1.372351884841919,-1.0370010137557983,1.0754858255386353,-0.9518337845802307,1.34520423412323,0.21308542788028717,-0.07335592806339264,0.9537348747253418,-0.08405494689941406,-0.025342093780636787,0.28754568099975586
183.0,-2.8376011848449707,-2.613603353500366,-1.4031527042388916,-0.835852861404419,1.3582816123962402,-0.9810438752174377,1.3563618659973145,0.18074379861354828,-0.06042421609163284,0.982867419719696,-0.13388994336128235,-0.017097491770982742,0.1255103051662445
184.0,-2.8633556365966797,-2.6189746856689453,-1.4000166654586792,-0.7601799368858337,1.4690039157867432,1.8503321409225464,1.3685449361801147,0.16557420790195465,-0.05764978379011154,-0.0010502933291718364,0.9981493353843689,-0.05805983766913414,-0.018056366592645645
185.0,-2.8674211502075195,-2.619429588317871,-1.409438967704773,-0.711500883102417,1.5337527990341187,1.8451207876205444,1.3673367500305176,0.169834703207016,-0.05736333131790161,-0.00018267988343723118,0.99973064661026,-0.021614909172058105,-0.008449291810393333
186.0,-2.8763110637664795,-2.631469488143921,-1.3758786916732788,-0.7394199371337891,1.5326392650604248,1.83620285987854,1.3844281435012817,0.16174249351024628,-0.057337768375873566,-0.00026547571178525686,0.9996703267097473,-0.022913793101906776,-0.011582027189433575
187.0,-2.8833224773406982,-2.6453945636749268,-1.3381168842315674,-0.7706113457679749,1.5326781272888184,1.8291347026824951,1.402642846107483,0.1565593183040619,-0.05756770074367523,-0.0003635839093476534,0.9996007084846497,-0.023750565946102142,-0.015302320010960102
188.0,-2.8561031818389893,-2.6520907878875732,-1.2857893705368042,-1.0039843320846558,1.3518840074539185,-0.7489818930625916,1.4009950160980225,0.16680079698562622,-0.06215319037437439,0.9555003643035889,-0.2495834231376648,-0.039741095155477524,0.15214404463768005
189.0,-2.847428321838379,-2.6388068199157715,-1.3251640796661377,-0.9527201056480408,1.3439521789550781,-0.8263638615608215,1.3858765363693237,0.17357470095157623,-0.061835601925849915,0.9660286903381348,-0.2093963921070099,-0.032086435705423355,0.1480274647474289
190.0,-2.770242691040039,-2.711341619491577,-1.1701297760009766,-1.5000920295715332,0.9409872889518738,-0.6400993466377258,1.3817988634109497,0.22486427426338196,-0.09207236021757126,0.8912792205810547,-0.1501571238040924,-0.07108339667320251,0.42192572355270386
191.0,-2.744439125061035,-2.657212018966675,-1.318820834159851,-1.30486261844635,0.8516839146614075,-0.8006974458694458,1.337978720664978,0.23302030563354492,-0.08580579608678818,0.9012084007263184,-0.06960973143577576,-0.032942187041044235,0.4264889061450958
192.0,-2.7800793647766113,-2.7202436923980713,-1.1299864053726196,-1.5632432699203491,0.9605582356452942,-0.5964024066925049,1.3931987285614014,0.21738851070404053,-0.08476941287517548,0.8851947784423828,-0.17187921702861786,-0.08240219950675964,0.4243794083595276
193.0,-2.763911247253418,-2.6838011741638184,-1.2205315828323364,-1.4572463035583496,0.903832197189331,-0.6838822960853577,1.367572546005249,0.22362454235553741,-0.07906114310026169,0.8929867148399353,-0.12454008311033249,-0.059741631150245667,0.42836397886276245
194.0,-2.7566304206848145,-2.661923885345459,-1.271181344985962,-1.3971575498580933,0.8703304529190063,-0.7366422414779663,1.3532172441482544,0.22411005198955536,-0.07275021821260452,0.8955840468406677,-0.09758538007736206,-0.0470178984105587,0.4315039813518524
195.0,-2.745701313018799,-2.6454029083251953,-1.3287386894226074,-1.3092403411865234,0.8390098810195923,-0.8051040768623352,1.3355803489685059,0.22862079739570618,-0.07498516142368317,0.8992584943771362,-0.06568307429552078,-0.031503405421972275,0.4313090145587921
196.0,-2.7370681762695312,-2.6260719299316406,-1.387607455253601,-1.2191119194030762,0.8047663569450378,-0.8800181150436401,1.3177721500396729,0.22917461395263672,-0.07237743586301804,0.900868833065033,-0.03268449753522873,-0.0156942717730999,0.4325745105743408
197.0,-2.732106924057007,-2.637166976928711,-1.3923369646072388,-1.1855759620666504,0.8134134411811829,-0.8958919048309326,1.3147997856140137,0.23597247898578644,-0.08738240599632263,0.9042074680328369,-0.027942245826125145,-0.01316368579864502,0.42597514390945435
198.0,-2.721905469894409,-2.6170990467071533,-1.4637553691864014,-1.0655912160873413,0.7752801179885864,-0.9951165318489075,1.2915698289871216,0.23551613092422485,-0.08515878766775131,0.9040666222572327,0.013005176559090614,0.006144631188362837,0.42714953422546387
199.0,-2.710721015930176,-2.5903213024139404,-1.568869948387146,-0.8650014996528625,0.7207385897636414,-1.1655405759811401,1.2568095922470093,0.2289167046546936,-0.07801119238138199,0.8990839719772339,0.07554680109024048,0.03610565885901451,0.42969417572021484
200.0,-2.7202582359313965,-2.601261615753174,-1.496835708618164,-1.0205429792404175,0.7523612380027771,-1.0383356809616089,1.281615972518921,0.23067647218704224,-0.0755617618560791,0.9016417264938354,0.030241696164011955,0.014462171122431755,0.4311826825141907
201.0,-2.728304147720337,-2.61254620552063,-1.441084623336792,-1.1275160312652588,0.7773784399032593,-0.9530656933784485,1.3002760410308838,0.23066353797912598,-0.07338316738605499,0.9015935063362122,-0.0022797349374741316,-0.00109379761852324,0.4325769543647766
202.0,-2.7055652141571045,-2.578092098236084,-1.6356526613235474,-0.7114912867546082,0.6891676783561707,-1.2977594137191772,1.233963131904602,0.221824049949646,-0.07278665900230408,0.8926135897636414,0.1183788850903511,0.057189565151929855,0.43122708797454834
203.0,-2.7007949352264404,-2.581763505935669,-1.7592171430587769,-0.32657134532928467,0.6612387299537659,-1.6275842189788818,1.1852651834487915,0.20226189494132996,-0.07247689366340637,0.8729039430618286,0.21160723268985748,0.10357053577899933,0.427240252494812
204.0,-2.702559471130371,-2.574636697769165,-1.6935460567474365,-0.5510300397872925,0.6703571677207947,-1.4347957372665405,1.2125777006149292,0.21378932893276215,-0.0710291862487793,0.8852607607841492,0.1586683988571167,0.07713053375482559,0.43033546209335327
205.0,-2.717658519744873,-2.5875980854034424,-1.5328810214996338,-0.9600359797477722,0.7287834286689758,-1.0936046838760376,1.270556926727295,0.22659623622894287,-0.068143330514431,0.8989347219467163,0.05088207125663757,0.02458944357931614,0.4344222843647003
206.0,-2.7085890769958496,-2.566427230834961,-1.6444289684295654,-0.7070086002349854,0.676093578338623,-1.3097018003463745,1.23307204246521,0.2159702181816101,-0.06077778339385986,0.8897224068641663,0.121193066239357,0.059402257204055786,0.43609362840652466
207.0,-2.7144217491149902,-2.5726842880249023,-1.5826079845428467,-0.8632392883300781,0.7009228467941284,-1.178635835647583,1.2547060251235962,0.22073304653167725,-0.060740575194358826,0.8950308561325073,0.07992460578680038,0.039027344435453415,0.4370453953742981
208.0,-2.7229301929473877,-2.581562042236328,-1.5161337852478027,-1.012524962425232,0.7284635901451111,-1.0578947067260742,1.2775352001190186,0.22244083881378174,-0.057521969079971313,0.8974295258522034,0.03855856508016586,0.018864650279283524,0.43906447291374207
209.0,-2.7339680194854736,-2.601966619491577,-1.432649850845337,-1.1682441234588623,0.7704779505729675,-0.931041955947876,1.304526925086975,0.22376498579978943,-0.058262310922145844,0.8983845710754395,-0.009520475752651691,-0.004653093870729208,0.4390818774700165
210.0,-2.7315378189086914,-2.585294246673584,-1.4675450325012207,-1.1218914985656738,0.7457598447799683,-0.9746819734573364,1.294084072113037,0.21977388858795166,-0.0491526797413826,0.896421492099762,0.008620819076895714,0.004261243622750044,0.4430982768535614
211.0,-2.744356155395508,-2.613361358642578,-1.3750619888305664,-1.2757591009140015,0.79835444688797,-0.8479834198951721,1.3227111101150513,0.22017991542816162,-0.05279439687728882,0.8961533308029175,-0.0431966707110405,-0.021263254806399345,0.44112512469291687
212.0,-2.762204885482788,-2.646796703338623,-1.2695256471633911,-1.4356517791748047,0.8601775765419006,-0.7198880314826965,1.3539804220199585,0.21509376168251038,-0.0530366376042366,0.8909314274787903,-0.10155197232961655,-0.05012909695506096,0.4397905170917511
213.0,-2.7867636680603027,-2.6990668773651123,-1.1328307390213013,-1.6074498891830444,0.9471362233161926,-0.5809962749481201,1.3920037746429443,0.2053002119064331,-0.058046817779541016,0.8791826963424683,-0.17408597469329834,-0.08615309000015259,0.4350971579551697
214.0,-2.7557435035705566,-2.647116184234619,-1.2918733358383179,-1.3855019807815552,0.852285623550415,-0.7532191872596741,1.3474159240722656,0.22075454890727997,-0.062632255256176,0.8946282863616943,-0.08772903680801392,-0.04275725036859512,0.4360225796699524
215.0,-2.770096778869629,-2.679955005645752,-1.2059457302093506,-1.4965629577636719,0.9064357876777649,-0.6612504124641418,1.3720996379852295,0.21673551201820374,-0.06756673753261566,0.8891581892967224,-0.1339232176542282,-0.06516998261213303,0.43268394470214844
216.0,-2.782582998275757,-2.707958698272705,-1.13588285446167,-1.5799448490142822,0.9511628746986389,-0.5928827524185181,1.3914543390274048,0.21177777647972107,-0.07135841995477676,0.8827009797096252,-0.17075088620185852,-0.08315034955739975,0.4298478364944458
217.0,-2.7956156730651855,-2.736585855484009,-1.0678900480270386,-1.653335452079773,0.9952976107597351,-0.532740592956543,1.4098204374313354,0.20527814328670502,-0.07565366476774216,0.8751651644706726,-0.20568452775478363,-0.10019318759441376,0.42631104588508606
218.0,-2.8233025074005127,-2.786388874053955,-0.9404820203781128,-1.7940261363983154,1.0762473344802856,-0.4255026578903198,1.4415115118026733,0.18622881174087524,-0.07547319680452347,0.8549848198890686,-0.27003422379493713,-0.13336209952831268,0.4222523272037506
219.0,-2.8072564601898193,-2.749178647994995,-1.0211098194122314,-1.7203915119171143,1.022111415863037,-0.4866030514240265,1.421324610710144,0.19575832784175873,-0.06818433105945587,0.8664044737815857,-0.23051106929779053,-0.11388808488845825,0.42806246876716614
220.0,-2.8301572799682617,-2.7869699001312256,-0.9219251871109009,-1.8304612636566162,1.0872505903244019,-0.4042319357395172,1.4450221061706543,0.17864800989627838,-0.06568129360675812,0.8489454984664917,-0.2811264991760254,-0.14067718386650085,0.42481687664985657
221.0,-2.8137447834014893,-2.7481861114501953,-1.0056365728378296,-1.7539067268371582,1.0294573307037354,-0.46774983406066895,1.4248285293579102,0.18832606077194214,-0.058371588587760925,0.8616341352462769,-0.23991931974887848,-0.11996914446353912,0.43085119128227234
222.0,-2.844926118850708,-2.805772066116333,-0.8671975135803223,-1.8936821222305298,1.1246169805526733,-0.3595031201839447,1.4569718837738037,0.16557127237319946,-0.060425981879234314,0.8368628025054932,-0.3096766471862793,-0.15665607154369354,0.423343688249588
223.0,-2.8659660816192627,-2.8408732414245605,-0.7812097668647766,-1.9787578582763672,1.1855279207229614,-0.29636815190315247,1.474401593208313,0.14785191416740417,-0.05898787081241608,0.8174067139625549,-0.35219404101371765,-0.1803826540708542,0.4186498820781708
224.0,-2.897792339324951,-2.9025869369506836,-0.647588849067688,-2.0865514278411865,1.2839381694793701,-0.21035660803318024,1.499208927154541,0.12081252783536911,-0.06545595824718475,0.7851340174674988,-0.4152577221393585,-0.21482470631599426,0.4061723053455353
225.0,-2.944084882736206,-2.9767906665802,-0.47867506742477417,-2.2253592014312744,1.4213438034057617,-0.10202702134847641,1.5225846767425537,0.0762791633605957,-0.06497874110937119,0.7308341264724731,-0.4960019588470459,-0.263314425945282,0.38798069953918457
226.0,-2.962453603744507,-3.0198140144348145,-0.398128867149353,-2.269118070602417,1.4799766540527344,-0.06145552918314934,1.5329463481903076,0.05909544602036476,-0.07590590417385101,0.7076534032821655,-0.5280052423477173,-0.2807728052139282,0.3763028085231781
227.0,-2.9448816776275635,-2.995016098022461,-0.4535473585128784,-2.2272891998291016,1.4291809797286987,-0.09777504205703735,1.527227759361267,0.07719928026199341,-0.07598301023244858,0.7295306921005249,-0.5002680420875549,-0.2637616693973541,0.3846382796764374
228.0,-2.925859212875366,-2.9628825187683105,-0.5247415900230408,-2.1725680828094482,1.3731409311294556,-0.14015516638755798,1.5185056924819946,0.09598219394683838,-0.0752713531255722,0.7527496218681335,-0.46842512488365173,-0.2443801462650299,0.3927139937877655
229.0,-2.876251459121704,-2.8745832443237305,-0.7221419811248779,-2.0114173889160156,1.2257864475250244,-0.264394074678421,1.4870392084121704,0.14173400402069092,-0.07169301807880402,0.8073500394821167,-0.37714487314224243,-0.1920711249113083,0.41116461157798767
230.0,-2.8514721393585205,-2.8302559852600098,-0.8251663446426392,-1.9178053140640259,1.1536617279052734,-0.3350718915462494,1.4667102098464966,0.16287146508693695,-0.07057073712348938,0.8309016823768616,-0.3279613256454468,-0.1650274246931076,0.41810286045074463
231.0,-2.8882410526275635,-2.907665967941284,-0.658107340335846,-2.0548627376556396,1.2685081958770752,-0.22822241485118866,1.4990001916885376,0.13303518295288086,-0.08001034706830978,0.794094979763031,-0.40377238392829895,-0.20590448379516602,0.40495020151138306
232.0,-2.8714194297790527,-2.884486675262451,-0.7205229997634888,-1.9905885457992554,1.2246034145355225,-0.27178284525871277,1.488582730293274,0.14936159551143646,-0.08546653389930725,0.811518132686615,-0.37409666180610657,-0.18791888654232025,0.4076474905014038
233.0,-2.855159282684326,-2.8510117530822754,-0.7934006452560425,-1.9300694465637207,1.1746081113815308,-0.31949329376220703,1.474108338356018,0.16256186366081238,-0.08147718012332916,0.8272454738616943,-0.3404146432876587,-0.17009180784225464,0.41334202885627747
234.0,-2.839327335357666,-2.8242194652557373,-0.8596924543380737,-1.8644483089447021,1.130934476852417,-0.36732158064842224,1.4601349830627441,0.1759309470653534,-0.08258970826864243,0.841436505317688,-0.3087119460105896,-0.1527535617351532,0.41635069251060486
235.0,-2.81149959564209,-2.77404522895813,-0.9835265874862671,-1.7372318506240845,1.0505119562149048,-0.46372926235198975,1.4312602281570435,0.19683608412742615,-0.08222879469394684,0.8639266490936279,-0.24761880934238434,-0.12082872539758682,0.42156389355659485
236.0,-2.795069932937622,-2.753077745437622,-1.0512679815292358,-1.6487587690353394,1.0111597776412964,-0.5260132551193237,1.4142931699752808,0.20989713072776794,-0.08952143788337708,0.8760846853256226,-0.2125513106584549,-0.10203850269317627,0.4205778241157532
237.0,-2.830937147140503,-2.820950746536255,-0.8826741576194763,-1.8270729780197144,1.1159121990203857,-0.3902530074119568,1.4554888010025024,0.18497930467128754,-0.0913689136505127,0.848406970500946,-0.29526978731155396,-0.14440782368183136,0.41493096947669983
238.0,-2.8685989379882812,-2.668652296066284,-1.2381432056427002,-1.0624210834503174,1.3667702674865723,-0.6571112871170044,1.419100284576416,0.1561301052570343,-0.062420204281806946,0.9405248165130615,-0.29830050468444824,-0.04914960265159607,0.15496595203876495
239.0,-0.0363030768930912,-0.4881759285926819,1.318236231803894,-2.362837314605713,-1.6255545616149902,1.5344678163528442,1.4124500751495361,0.14138317108154297,-0.05718115717172623,-0.0005330894491635263,0.9994446039199829,-0.026662778109312057,-0.01998266763985157
240.0,-0.019727511331439018,-0.44173064827919006,1.1685816049575806,-2.057344675064087,-1.8150763511657715,-0.778867781162262,1.445833683013916,0.1351867914199829,-0.06275644898414612,0.9111217856407166,-0.37559622526168823,-0.06466119736433029,0.15685519576072693
241.0,-0.02126968838274479,-0.463590532541275,1.2339375019073486,-2.1835451126098633,-1.770341157913208,-0.8950178623199463,1.4308745861053467,0.14001385867595673,-0.06006668508052826,0.9349793791770935,-0.3313887417316437,-0.04225052148103714,0.11920551210641861
242.0,-0.04181903228163719,-0.4751327931880951,1.283300518989563,-2.3330864906311035,-1.6249359846115112,1.5289644002914429,1.4287989139556885,0.13303306698799133,-0.05745658278465271,-0.0006272806786000729,0.9993706345558167,-0.0260770320892334,-0.024039769545197487
243.0,-0.048633843660354614,-0.46730372309684753,1.2604904174804688,-2.3077807426452637,-1.6285531520843506,1.5221658945083618,1.4388633966445923,0.1222877949476242,-0.057399630546569824,-0.0008096142555586994,0.9991884827613831,-0.027463547885417938,-0.029455672949552536
244.0,-0.05417395383119583,-0.4635324478149414,1.2451419830322266,-2.276028633117676,-1.6479610204696655,1.5166363716125488,1.4434887170791626,0.11110704392194748,-0.057150907814502716,-0.0014656835701316595,0.9985272884368896,-0.03642264008522034,-0.04018174111843109
245.0,-0.056682273745536804,-0.45445600152015686,1.2274487018585205,-2.2820334434509277,-1.6222349405288696,1.5141572952270508,1.4542299509048462,0.11085963249206543,-0.057775452733039856,-0.0007723384187556803,0.9991927742958069,-0.02391519770026207,-0.03226880729198456
246.0,-0.06385095417499542,-0.44788894057273865,1.2086520195007324,-2.2608249187469482,-1.6227644681930542,1.5070337057113647,1.4621444940567017,0.09989258646965027,-0.0577840656042099,-0.0008745758095756173,0.9990373253822327,-0.023658135905861855,-0.03693164139986038
247.0,-0.07187825441360474,-0.44418391585350037,1.1949230432510376,-2.2352466583251953,-1.627038836479187,1.4990965127944946,1.4666489362716675,0.08722216635942459,-0.05759604275226593,-0.0011236269492655993,0.9986746311187744,-0.02492655999958515,-0.04501776024699211
248.0,-0.045564569532871246,-0.42676857113838196,1.1258440017700195,-2.0272746086120605,-1.7557272911071777,-0.6390255689620972,1.4670073986053467,0.10591701418161392,-0.06131264567375183,0.8779721856117249,-0.4541449546813965,-0.06955202668905258,0.13446089625358582
249.0,0.01383510697633028,-0.26690441370010376,0.7649869322776794,-1.3114732503890991,-2.071413278579712,-0.4697243571281433,1.4924917221069336,0.1476033627986908,-0.0922853946685791,0.8177886009216309,-0.3872327506542206,-0.18220844864845276,0.3848021924495697
250.0,0.0012101678876206279,-0.22338128089904785,0.6584118604660034,-1.1631191968917847,-2.047438383102417,-0.38824930787086487,1.504916787147522,0.1320287585258484,-0.08998741209506989,0.7902731895446777,-0.4136488437652588,-0.20964059233665466,0.40051689743995667
251.0,-0.013257784768939018,-0.1869071125984192,0.5810097455978394,-1.0965179204940796,-1.997199296951294,-0.336746484041214,1.5172003507614136,0.11707790195941925,-0.09568112343549728,0.7717374563217163,-0.44556528329849243,-0.2268780618906021,0.39296209812164307
252.0,-0.03414630517363548,-0.20748764276504517,0.6156188249588013,-1.1776198148727417,-1.9232535362243652,-0.322703093290329,1.5233373641967773,0.09578446298837662,-0.09052073210477829,0.7674250602722168,-0.487398624420166,-0.2233133465051651,0.35161417722702026
253.0,-0.07135515660047531,-0.35639482736587524,0.9363759756088257,-1.7053477764129639,-1.7588388919830322,-0.37319767475128174,1.5042866468429565,0.06507377326488495,-0.06770697981119156,0.7943125367164612,-0.5588617324829102,-0.13706861436367035,0.1948162168264389
254.0,-0.08780966699123383,-0.4309699833393097,1.1611462831497192,-2.207335948944092,-1.6150161027908325,1.4833159446716309,1.4816558361053467,0.06449099630117416,-0.058009564876556396,-0.0008702587801963091,0.9986602067947388,-0.017903484404087067,-0.04854322597384453
255.0,-0.09945410490036011,-0.4249650835990906,1.143936038017273,-2.1857123374938965,-1.6091008186340332,1.4718436002731323,1.4881627559661865,0.04756609722971916,-0.05813547968864441,-0.0007456539897248149,0.9984639286994934,-0.013881519436836243,-0.053633078932762146
256.0,-0.10452265292406082,-0.42310279607772827,1.1242412328720093,-2.1074419021606445,-1.6333709955215454,-0.3602833151817322,1.4866420030593872,0.03644494339823723,-0.05785062909126282,0.7900206446647644,-0.6067559719085693,-0.05349987372756004,0.06965898722410202
257.0,-0.05547121912240982,-0.11400742083787918,0.406300812959671,-0.9293351173400879,-1.8736059665679932,-0.21717700362205505,1.536798119544983,0.06989040225744247,-0.0912722572684288,0.7165520191192627,-0.5200306177139282,-0.27305710315704346,0.3762463629245758
258.0,-0.028391903266310692,-0.17262689769268036,0.5332159399986267,-1.0345242023468018,-1.960106611251831,-0.2943342328071594,1.522325873374939,0.09925945103168488,-0.08629781752824783,0.7534387707710266,-0.47012099623680115,-0.24334625899791718,0.38999849557876587
259.0,-0.07125895470380783,-0.08951413631439209,0.34976035356521606,-0.8796362280845642,-1.8275400400161743,-0.17911067605018616,1.5413018465042114,0.05221210792660713,-0.09049801528453827,0.6952829957008362,-0.5452856421470642,-0.28895601630210876,0.3684420883655548
260.0,-0.08894161134958267,-0.0692078247666359,0.2986185550689697,-0.8293969631195068,-1.77645742893219,-0.1388079971075058,1.5438120365142822,0.03248997777700424,-0.0865633562207222,0.6704493761062622,-0.5717200040817261,-0.30684491991996765,0.3598334491252899
261.0,-0.14091861248016357,-0.013338243588805199,0.18727654218673706,-0.7511661648750305,-1.6117647886276245,-0.026665441691875458,1.5494707822799683,-0.023176737129688263,-0.09593478590250015,-0.5922881364822388,0.6494747996330261,0.35233211517333984,-0.32130905985832214
262.0,-0.11533315479755402,0.0068017723970115185,0.14937278628349304,-0.7398715615272522,-1.6888660192489624,-0.07764343917369843,1.5525437593460083,0.004188921768218279,-0.10027490556240082,0.6299431324005127,-0.6138481497764587,-0.33204275369644165,0.3407488465309143
263.0,-0.09854293614625931,-0.02993234433233738,0.22652938961982727,-0.7928144335746765,-1.7406007051467896,-0.11417721956968307,1.549623966217041,0.02257697656750679,-0.0974525436758995,0.655256450176239,-0.5893720388412476,-0.31599611043930054,0.3513205051422119
264.0,-0.12047214806079865,-0.42705538868904114,1.140565276145935,-2.154423475265503,-1.602890968322754,1.4513278007507324,1.4863961935043335,0.017539286985993385,-0.05714781582355499,-0.0005406508571468294,0.997763991355896,-0.008131788112223148,-0.06633743643760681
265.0,-0.11318926513195038,-0.4194687306880951,1.1282449960708618,-2.1655001640319824,-1.600752830505371,1.458329677581787,1.493880033493042,0.027826091274619102,-0.058304138481616974,-0.0004931279690936208,0.9982622265815735,-0.008440853096544743,-0.0583200566470623
266.0,-0.1271272748708725,-0.41747087240219116,1.1197153329849243,-2.1440956592559814,-1.5940284729003906,1.4447271823883057,1.4954630136489868,0.007876706309616566,-0.05835525691509247,-0.00022043331409804523,0.9978553056716919,-0.0033647732343524694,-0.06537158787250519
267.0,-0.13659235835075378,-0.4161762595176697,1.1175919771194458,-2.146336078643799,-1.5846052169799805,1.4352905750274658,1.4970258474349976,-0.005024485755711794,-0.05851636826992035,0.00010795085836434737,0.9979963898658752,0.0017033587209880352,-0.06324830651283264
268.0,-0.140628382563591,-0.41051408648490906,1.0810630321502686,-2.0133204460144043,-1.5827882289886475,-0.051628366112709045,1.4948903322219849,-0.010485594160854816,-0.05882386118173599,-0.6710600852966309,0.732598602771759,0.08400405198335648,-0.07694769650697708
269.0,-0.1526367962360382,-0.3767181932926178,0.9821106195449829,-1.7982323169708252,-1.5730801820755005,-0.005752179771661758,1.5050276517868042,-0.02851557731628418,-0.06348192691802979,-0.6418465375900269,0.743466317653656,0.14219823479652405,-0.1227620467543602
270.0,-0.15255647897720337,-0.41858047246932983,1.1184186935424805,-2.12602162361145,-1.572424292564392,-0.011178414337337017,1.4937115907669067,-0.026552073657512665,-0.058325253427028656,-0.6537294387817383,0.7532715797424316,0.054565008729696274,-0.04735443368554115
271.0,-0.16529454290866852,-0.42214685678482056,1.1260956525802612,-2.1265735626220703,-1.5601202249526978,0.07140124589204788,1.4898033142089844,-0.04307636618614197,-0.058278217911720276,-0.6166549324989319,0.7837281823158264,0.05831984430551529,-0.04588736593723297
272.0,-0.1762508600950241,-0.4254136383533478,1.1341791152954102,-2.131953477859497,-1.5508626699447632,0.13325904309749603,1.4862103462219238,-0.05740552023053169,-0.058283835649490356,-0.5874364376068115,0.80584317445755,0.060121700167655945,-0.043826982378959656
273.0,-0.18616360425949097,-0.4300902485847473,1.1449319124221802,-2.1357202529907227,-1.5405861139297485,0.19736610352993011,1.4809820652008057,-0.0696580782532692,-0.05824018269777298,-0.556804358959198,0.8271245360374451,0.06336091458797455,-0.04265335202217102
274.0,-0.18166492879390717,-0.30699455738067627,0.8132639527320862,-1.4762496948242188,-1.5057954788208008,0.09449628740549088,1.5167344808578491,-0.0640559196472168,-0.07363173365592957,-0.5680672526359558,0.7673761248588562,0.23901380598545074,-0.17693530023097992
275.0,-0.19327393174171448,-0.38127848505973816,0.991302490234375,-1.7691776752471924,-1.4938663244247437,0.17424938082695007,1.4950987100601196,-0.07571917027235031,-0.06513690203428268,-0.5471572279930115,0.810861349105835,0.1721363216638565,-0.11615503579378128
276.0,-0.20556685328483582,-0.407669335603714,1.0610225200653076,-1.8902256488800049,-1.480324149131775,0.2547753155231476,1.4830379486083984,-0.08966795355081558,-0.06227611005306244,-0.5128881335258484,0.8410682678222656,0.14676575362682343,-0.08949858695268631
277.0,-0.19540154933929443,-0.43292638659477234,1.1589137315750122,-2.1730198860168457,-1.5384992361068726,1.3766039609909058,1.4785575866699219,-0.08266802132129669,-0.05853625386953354,0.0016019491013139486,0.9979550242424011,0.027781229466199875,-0.05754508450627327
278.0,-0.20995502173900604,-0.44171398878097534,1.1814988851547241,-2.1906497478485107,-1.527462363243103,1.3618913888931274,1.4684900045394897,-0.100581094622612,-0.05854898691177368,0.0018223756924271584,0.9979674816131592,0.033610403537750244,-0.05411038175225258
279.0,-0.22064918279647827,-0.44969695806503296,1.1991186141967773,-2.1930103302001953,-1.5138721466064453,1.351184606552124,1.459038257598877,-0.11227298527956009,-0.0584116205573082,0.0023263241164386272,0.9975727200508118,0.04158875346183777,-0.055800601840019226
280.0,-0.2374853640794754,-0.3516945242881775,0.9218291640281677,-1.5724289417266846,-1.3737034797668457,0.2974230945110321,1.4884419441223145,-0.12239007651805878,-0.07333777844905853,-0.4489493668079376,0.8435883522033691,0.2600855827331543,-0.13841496407985687
281.0,-0.24171140789985657,-0.1578548103570938,0.5087949633598328,-0.9446494579315186,-1.316440463066101,0.16822503507137299,1.5146809816360474,-0.1264105588197708,-0.09428999572992325,-0.4305417239665985,0.7650841474533081,0.4172959327697754,-0.2348281592130661
282.0,-0.16798678040504456,-0.03534328192472458,0.2384403944015503,-0.7795376777648926,-1.531831979751587,0.02531861513853073,1.5457775592803955,-0.05217437818646431,-0.09781667590141296,-0.551342785358429,0.6843507885932922,0.3715772032737732,-0.2993587553501129
283.0,-0.1936626434326172,-0.08840486407279968,0.34593790769577026,-0.8349210619926453,-1.4554495811462402,0.07483513653278351,1.5354783535003662,-0.07821306586265564,-0.090330109000206,-0.5101248025894165,0.7147570848464966,0.38942140340805054,-0.2779315114021301
284.0,-0.21577686071395874,-0.1227555200457573,0.4223487675189972,-0.8818721175193787,-1.3915150165557861,0.11687780171632767,1.5264017581939697,-0.10063072293996811,-0.08975586295127869,-0.47419458627700806,0.7387129068374634,0.4030977487564087,-0.258756548166275
285.0,-0.17551010847091675,-0.07448439300060272,0.3081720471382141,-0.8076688051223755,-1.5087196826934814,0.04009147733449936,1.5390067100524902,-0.05906166881322861,-0.08568821847438812,-0.538831889629364,0.6932727098464966,0.37786397337913513,-0.29368695616722107
286.0,-0.20722343027591705,-0.13361194729804993,0.42843639850616455,-0.87256920337677,-1.4134109020233154,0.10183092206716537,1.5249221324920654,-0.09049445390701294,-0.0772809386253357,-0.48677486181259155,0.7298926711082458,0.3992581367492676,-0.26627039909362793
287.0,-0.2331303060054779,-0.1642063707113266,0.5051294565200806,-0.9287657141685486,-1.3372701406478882,0.15301400423049927,1.5146849155426025,-0.11637058854103088,-0.08224222809076309,-0.4432467818260193,0.7571587562561035,0.4140981137752533,-0.2424163520336151
288.0,-0.2571737766265869,-0.20792348682880402,0.6001032590866089,-0.9911966323852539,-1.2641490697860718,0.2032356709241867,1.499266505241394,-0.13830681145191193,-0.07877535372972488,-0.4000236392021179,0.7802214026451111,0.4279063045978546,-0.21938982605934143
289.0,-0.27481821179389954,-0.23922108113765717,0.6702293753623962,-1.0409268140792847,-1.2114019393920898,0.24099567532539368,1.4863802194595337,-0.1538674235343933,-0.07720774412155151,-0.3678183853626251,0.7954947352409363,0.4370952546596527,-0.20210275053977966
290.0,-0.2942984998226166,-0.26685819029808044,0.7416720986366272,-1.1021896600723267,-1.152959942817688,0.28615960478782654,1.4726616144180298,-0.17090848088264465,-0.08128037303686142,-0.3311575651168823,0.8115385174751282,0.4457131028175354,-0.18187834322452545
291.0,-0.2768571078777313,-0.22401884198188782,0.6545639634132385,-1.0436590909957886,-1.2109342813491821,0.24286609888076782,1.4897867441177368,-0.15788549184799194,-0.08972640335559845,-0.3667354881763458,0.7967336773872375,0.4363291561603546,-0.2008417695760727
292.0,-0.30756571888923645,-0.2699050307273865,0.7713140249252319,-1.1419389247894287,-1.1209917068481445,0.3133978843688965,1.4665348529815674,-0.18455028533935547,-0.09487851709127426,-0.3094331920146942,0.8205724954605103,0.4496266841888428,-0.16955161094665527
293.0,-0.2676226496696472,-0.19562891125679016,0.601980447769165,-1.0151516199111938,-1.241782546043396,0.22155329585075378,1.4996616840362549,-0.15109243988990784,-0.09835565090179443,-0.3852970004081726,0.7887653112411499,0.4303528964519501,-0.21021929383277893
294.0,-0.2666475772857666,-0.4174014925956726,1.0847984552383423,-1.802731990814209,-1.3282372951507568,0.47656890749931335,1.4533733129501343,-0.15020988881587982,-0.06828305125236511,-0.3657771348953247,0.8979277014732361,0.22672265768051147,-0.09235706925392151
295.0,-0.23648616671562195,-0.4513159692287445,1.183333396911621,-2.0812714099884033,-1.4564059972763062,0.4690364897251129,1.4505962133407593,-0.12471658736467361,-0.059329792857170105,-0.4102782607078552,0.9034733176231384,0.11302131414413452,-0.05132436007261276
296.0,-0.23285430669784546,-0.4584449231624603,1.2237001657485962,-2.2193057537078857,-1.5081218481063843,1.3386437892913818,1.4485927820205688,-0.1270352154970169,-0.05850834399461746,0.0021780196111649275,0.9978059530258179,0.04387284070253372,-0.04953498765826225
297.0,-0.24724328517913818,-0.4746880531311035,1.2600663900375366,-2.2269418239593506,-1.4839082956314087,0.5887510776519775,1.429416537284851,-0.1396816074848175,-0.057937562465667725,-0.355486124753952,0.9314450621604919,0.0726088434457779,-0.02771117351949215
298.0,-0.25799480080604553,-0.48242777585983276,1.2856899499893188,-2.264212131500244,-1.483192801475525,1.3127174377441406,1.4191185235977173,-0.1526286005973816,-0.05842732638120651,0.002361827529966831,0.9975345134735107,0.056269191205501556,-0.04187024012207985
299.0,-0.311454176902771,-0.367298424243927,0.9835501909255981,-1.5035628080368042,-1.1473348140716553,0.4672729969024658,1.445886492729187,-0.18770813941955566,-0.08500498533248901,-0.2903616428375244,0.8770031929016113,0.3634248375892639,-0.12032411247491837
300.0,-0.29885387420654297,-0.4743337631225586,1.2391456365585327,-2.014768600463867,-1.2883310317993164,0.6979080438613892,1.4069554805755615,-0.1781315803527832,-0.06539878249168396,-0.2551106810569763,0.9437165856361389,0.20322349667549133,-0.05493650212883949
301.0,-0.28705888986587524,-0.5082452297210693,1.3435570001602173,-2.256831169128418,-1.4043166637420654,0.8338124752044678,1.3846685886383057,-0.17253568768501282,-0.058713220059871674,-0.2156347632408142,0.9701057076454163,0.10868717730045319,-0.02415894903242588
302.0,-0.2699294686317444,-0.4953693449497223,1.3190534114837646,-2.2863411903381348,-1.4691790342330933,0.7515060305595398,1.4025993347167969,-0.1632819026708603,-0.058356814086437225,-0.26785165071487427,0.960609495639801,0.07133881747722626,-0.0198917668312788
303.0,-0.27620235085487366,-0.5027512907981873,1.342586636543274,-2.318234443664551,-1.4736384153366089,1.29380464553833,1.3926101922988892,-0.1702553927898407,-0.05851196497678757,0.0018488060450181365,0.9977554082870483,0.059261005371809006,-0.031127654016017914
304.0,-0.2856919467449188,-0.5147451162338257,1.3762624263763428,-2.34867787361145,-1.4668465852737427,1.283892273902893,1.3764108419418335,-0.17811088263988495,-0.05852513760328293,0.0015671722358092666,0.9977777004241943,0.06158335879445076,-0.025391431525349617
305.0,-0.2936133146286011,-0.5259038805961609,1.4077991247177124,-2.3766660690307617,-1.461145043373108,1.2756106853485107,1.360966682434082,-0.18386442959308624,-0.05852619558572769,0.0012980973115190864,0.9977774620056152,0.06341347843408585,-0.020424876362085342
306.0,-0.2996928095817566,-0.5351987481117249,1.4325062036514282,-2.3922388553619385,-1.4456403255462646,1.023845911026001,1.348361849784851,-0.18610653281211853,-0.058384694159030914,-0.12063071131706238,0.9900052547454834,0.0725240707397461,-0.008836953900754452
307.0,-0.3237500488758087,-0.5156170129776001,1.362050175666809,-2.1846890449523926,-1.2565181255340576,0.9170706868171692,1.3627803325653076,-0.19496288895606995,-0.0639147013425827,-0.14321348071098328,0.9706704020500183,0.19103528559207916,-0.028185492381453514
308.0,-0.3543790876865387,-0.5130038261413574,1.3660887479782104,-2.1084375381469727,-1.1157790422439575,0.9320713877677917,1.3488123416900635,-0.21243782341480255,-0.07075510919094086,-0.10126016288995743,0.9574511051177979,0.2687487006187439,-0.028422897681593895
309.0,-0.36884939670562744,-0.3729858100414276,1.0377862453460693,-1.3974472284317017,-0.9308239817619324,0.49302029609680176,1.4029359817504883,-0.228009432554245,-0.10033009946346283,-0.1809190958738327,0.8576191067695618,0.47104519605636597,-0.0993693619966507
310.0,-0.3880193531513214,-0.4142951965332031,1.14125657081604,-1.5094996690750122,-0.8621464967727661,0.574332058429718,1.3755359649658203,-0.2366117686033249,-0.09656676650047302,-0.13228902220726013,0.8661196231842041,0.4764869809150696,-0.07277747988700867
311.0,-0.40746527910232544,-0.4571349620819092,1.2560904026031494,-1.6529788970947266,-0.7875570058822632,0.6806462407112122,1.343902349472046,-0.2425537407398224,-0.09252704679965973,-0.07687444239854813,0.8724790215492249,0.48070448637008667,-0.042355045676231384
312.0,-0.42820653319358826,-0.4924595355987549,1.37956702709198,-1.8450748920440674,-0.7120386958122253,0.8222904205322266,1.3074814081192017,-0.2474503219127655,-0.09517119079828262,-0.01426844485104084,0.8758059740066528,0.48238837718963623,-0.007858969271183014
313.0,-0.41932594776153564,-0.48533809185028076,1.3362514972686768,-1.767504096031189,-0.7374139428138733,0.7677153944969177,1.3213365077972412,-0.24389082193374634,-0.08873336762189865,-0.03748235106468201,0.8748547434806824,0.48249030113220215,-0.02067185752093792
314.0,-0.39677324891090393,-0.45183292031288147,1.215777039527893,-1.5859897136688232,-0.8141323328018188,0.6362653970718384,1.3563719987869263,-0.23553326725959778,-0.08206155896186829,-0.09954337775707245,0.8697224855422974,0.4802630841732025,-0.05496811494231224
315.0,-0.3844958245754242,-0.426220566034317,1.1461831331253052,-1.498705267906189,-0.8611947894096375,0.5713793635368347,1.3750196695327759,-0.23110046982765198,-0.08340151607990265,-0.1340961903333664,0.865124523639679,0.47759562730789185,-0.0740283653140068
316.0,-0.37136924266815186,-0.4038528800010681,1.0829012393951416,-1.4246617555618286,-0.9043850302696228,0.5187021493911743,1.3922477960586548,-0.2241303026676178,-0.0819438174366951,-0.1653672605752945,0.859819233417511,0.4743841588497162,-0.09123732894659042
317.0,-0.3544865548610687,-0.3716318905353546,1.0004770755767822,-1.337202787399292,-0.9630350470542908,0.4549615681171417,1.4132168292999268,-0.21478429436683655,-0.08269280195236206,-0.2059522420167923,0.8512499928474426,0.469121515750885,-0.1134997084736824
318.0,-0.35235199332237244,-0.3526689112186432,0.9725544452667236,-1.3227429389953613,-0.978945255279541,0.44152340292930603,1.419947862625122,-0.21623381972312927,-0.09361489117145538,-0.21523113548755646,0.8496484756469727,0.46668729186058044,-0.11822023242712021
319.0,-0.3379625976085663,-0.32999464869499207,0.9100310802459717,-1.2578120231628418,-1.0238183736801147,0.3965066969394684,1.4350389242172241,-0.20622241497039795,-0.09047537297010422,-0.2460756003856659,0.840971827507019,0.46249234676361084,-0.1353292465209961
320.0,-0.3234035074710846,-0.3010718822479248,0.8435496687889099,-1.201905369758606,-1.0705640316009521,0.3559648394584656,1.4507527351379395,-0.19620737433433533,-0.09313005208969116,-0.2767825722694397,0.8319790363311768,0.45624953508377075,-0.1517849564552307
321.0,-0.3115043640136719,-0.2908119261264801,0.8047266602516174,-1.1576740741729736,-1.103066325187683,0.3262389004230499,1.4591736793518066,-0.18558728694915771,-0.08484037220478058,-0.29883742332458496,0.8237516283988953,0.4529159367084503,-0.16430708765983582
322.0,-0.33913764357566833,-0.3489108979701996,0.9355610609054565,-1.2673777341842651,-1.0109628438949585,0.406161367893219,1.4290730953216553,-0.2041003406047821,-0.07847379148006439,-0.2390194982290268,0.8423248529434204,0.46472418308258057,-0.13187091052532196
323.0,-0.3238980770111084,-0.3220488131046295,0.8698940873146057,-1.207966685295105,-1.0591226816177368,0.3632389008998871,1.4447476863861084,-0.19331252574920654,-0.07874494791030884,-0.27093005180358887,0.8330276608467102,0.4586998224258423,-0.1491854190826416
324.0,-0.3157293200492859,-0.3222639560699463,0.852073609828949,-1.1790424585342407,-1.0783600807189941,0.34452202916145325,1.4485878944396973,-0.18499605357646942,-0.06804651021957397,-0.2846314013004303,0.8278623223304749,0.45709022879600525,-0.15715442597866058
325.0,-0.285137802362442,-0.2721996307373047,0.7300626039505005,-1.0747945308685303,-1.1741982698440552,0.26742252707481384,1.474334955215454,-0.16059622168540955,-0.06633280217647552,-0.34556490182876587,0.8046114444732666,0.44370219111442566,-0.1905614137649536
326.0,-0.26598450541496277,-0.24085766077041626,0.6572136878967285,-1.0192437171936035,-1.2324060201644897,0.22466452419757843,1.4884655475616455,-0.1441015899181366,-0.0665365606546402,-0.3814530074596405,0.7886237502098083,0.434132844209671,-0.20998769998550415
327.0,-0.2404329776763916,-0.20170924067497253,0.565706729888916,-0.9515119194984436,-1.3107030391693115,0.16962023079395294,1.504132628440857,-0.12096700072288513,-0.06566935777664185,-0.42811319231987,0.7645550966262817,0.4204215407371521,-0.23541532456874847
328.0,-0.22008371353149414,-0.16518494486808777,0.4875465929508209,-0.9012570381164551,-1.3741458654403687,0.1270146518945694,1.516148567199707,-0.10231228917837143,-0.06895013153553009,-0.46449869871139526,0.7433158755302429,0.40822383761405945,-0.25509944558143616
329.0,-0.19989055395126343,-0.14306898415088654,0.43381375074386597,-0.8643664717674255,-1.4323234558105469,0.08894500136375427,1.5234814882278442,-0.0818370133638382,-0.06642445176839828,-0.49740925431251526,0.7220287919044495,0.39601635932922363,-0.2728176712989807
330.0,-0.17813853919506073,-0.126457080245018,0.38920125365257263,-0.8309834003448486,-1.4984748363494873,0.04610341042280197,1.5284446477890015,-0.05963130295276642,-0.06133592873811722,-0.5328956842422485,0.6959836483001709,0.3821290135383606,-0.29258573055267334
331.0,-0.15451641380786896,-0.08955075591802597,0.31757357716560364,-0.796183168888092,-1.5712686777114868,-0.000301573978504166,1.5368077754974365,-0.03602027893066406,-0.0686332955956459,-0.5705742239952087,0.665947675704956,0.36494937539100647,-0.3126833140850067
332.0,-0.17721247673034668,-0.10171061009168625,0.3516768217086792,-0.8211343884468079,-1.502487063407898,0.04383453354239464,1.5336945056915283,-0.059773657470941544,-0.07367263734340668,-0.5352708101272583,0.6950988173484802,0.38024261593818665,-0.29281124472618103
333.0,-0.14339375495910645,-0.06348440051078796,0.2733251452445984,-0.7823895812034607,-1.604323387145996,-0.021603135392069817,1.5419490337371826,-0.024775441735982895,-0.07824879884719849,-0.5878342390060425,0.6520635485649109,0.3556355834007263,-0.32060492038726807
334.0,-0.11429458111524582,-0.05389264598488808,0.25730472803115845,-0.7848542928695679,-1.6994471549987793,-0.08412136882543564,1.5446953773498535,0.005070798099040985,-0.08164159208536148,0.6335153579711914,-0.6091007590293884,-0.3306903541088104,0.3439454138278961
335.0,-0.0821416899561882,-0.09823998063802719,0.3491442799568176,-0.8524991869926453,-1.8034619092941284,-0.15698093175888062,1.5385152101516724,0.03932114690542221,-0.076381616294384,0.6810541152954102,-0.5581393241882324,-0.3004288971424103,0.36659008264541626
336.0,-0.10850327461957932,-0.08823572844266891,0.3163592219352722,-0.8109449744224548,-1.7237471342086792,-0.1000981330871582,1.539050579071045,0.010891100391745567,-0.0694691464304924,0.6438599228858948,-0.5978484153747559,-0.3249201476573944,0.349926620721817
337.0,-0.0855264887213707,-0.11583421379327774,0.3732525408267975,-0.8531871438026428,-1.8003246784210205,-0.15303835272789001,1.5345298051834106,0.034938640892505646,-0.06575928628444672,0.6778397560119629,-0.5601317286491394,-0.30335286259651184,0.36710047721862793
338.0,-0.06746768206357956,-0.14539678394794464,0.437112420797348,-0.9065921902656555,-1.8592027425765991,-0.19822382926940918,1.529007911682129,0.05415607616305351,-0.06383644789457321,0.704200267791748,-0.5297341346740723,-0.2841879725456238,0.37778425216674805
339.0,-0.09697339683771133,-0.12414032965898514,0.3779991865158081,-0.8401238322257996,-1.7690227031707764,-0.13005518913269043,1.5321928262710571,0.022369496524333954,-0.05636639893054962,0.6627787947654724,-0.5761371850967407,-0.3138039708137512,0.36099496483802795
340.0,-0.12268184125423431,-0.10743623971939087,0.342431902885437,-0.8105897903442383,-1.6757864952087402,-0.06789739429950714,1.534855842590332,-0.0030198816675692797,-0.05809761583805084,0.6214607357978821,-0.6200439929962158,-0.33823707699775696,0.3390099108219147
341.0,-0.15967227518558502,-0.11572153866291046,0.3608521819114685,-0.8114001154899597,-1.554936408996582,0.010081673972308636,1.5314464569091797,-0.04056066274642944,-0.05821786820888519,-0.5620667934417725,0.672525942325592,0.3694165050983429,-0.30874162912368774
342.0,-0.17223338782787323,-0.14285507798194885,0.40877261757850647,-0.8310807943344116,-1.5151751041412354,0.03524032607674599,1.5250699520111084,-0.0525711253285408,-0.04951299726963043,-0.5414786338806152,0.6885954141616821,0.37914326786994934,-0.2981402277946472
343.0,-0.20302195847034454,-0.1676950752735138,0.47151628136634827,-0.8754075169563293,-1.421186923980713,0.0955793634057045,1.5173803567886353,-0.08366933465003967,-0.05434460937976837,-0.4911901652812958,0.7253924608230591,0.3992929458618164,-0.270376056432724
344.0,-0.2277575433254242,-0.1948992758989334,0.5385628342628479,-0.9240691661834717,-1.3470993041992188,0.14445537328720093,1.5078564882278442,-0.10802467912435532,-0.058002978563308716,-0.4494026303291321,0.7519224286079407,0.4140262007713318,-0.24745164811611176
345.0,-0.26864299178123474,-0.2681911289691925,0.6951965689659119,-1.0290067195892334,-1.2174748182296753,0.23340727388858795,1.4803086519241333,-0.14367139339447021,-0.05034670978784561,-0.37326452136039734,0.791409969329834,0.4378359317779541,-0.20650312304496765
346.0,-0.24478095769882202,-0.2328895479440689,0.6115440726280212,-0.9644511342048645,-1.292731523513794,0.18014900386333466,1.4950960874557495,-0.12262814491987228,-0.048908255994319916,-0.4179999530315399,0.768823504447937,0.4251537621021271,-0.23115094006061554
347.0,-0.22120828926563263,-0.20324218273162842,0.5400577783584595,-0.9114965200424194,-1.36542809009552,0.13130222260951996,1.5064653158187866,-0.10051468014717102,-0.046352922916412354,-0.4598453640937805,0.744724452495575,0.41153016686439514,-0.2541077136993408
348.0,-0.24668726325035095,-0.2529812157154083,0.638874351978302,-0.9699134826660156,-1.283314824104309,0.18525005877017975,1.4892103672027588,-0.12261661887168884,-0.036705054342746735,-0.41281360387802124,0.7706893086433411,0.42789211869239807,-0.22919699549674988
349.0,-0.2224782258272171,-0.22733134031295776,0.572646975517273,-0.9175050854682922,-1.3580777645111084,0.1351442039012909,1.499902606010437,-0.09983474016189575,-0.03167681396007538,-0.4558805525302887,0.7461954951286316,0.41399654746055603,-0.2529270052909851
350.0,-0.20067957043647766,-0.1876743882894516,0.4957908093929291,-0.8757606148719788,-1.4273167848587036,0.09092476218938828,1.5125287771224976,-0.0800437331199646,-0.04028485715389252,-0.4943547546863556,0.7222704887390137,0.39913445711135864,-0.27318575978279114
351.0,-0.1586102545261383,-0.14532844722270966,0.4034267067909241,-0.8203667402267456,-1.5585511922836304,0.007715508341789246,1.5249332189559937,-0.0384504497051239,-0.04189006984233856,-0.5632587671279907,0.6702783107757568,0.36991509795188904,-0.3108527660369873
352.0,-0.12867754697799683,-0.1465345323085785,0.4010445475578308,-0.825736403465271,-1.6599615812301636,-0.05716822296380997,1.526334285736084,-0.008675075136125088,-0.0384068489074707,-0.6130743622779846,0.6272144913673401,0.34351304173469543,-0.33576875925064087
353.0,-0.10097330063581467,-0.15519331395626068,0.42170536518096924,-0.8492326736450195,-1.7591993808746338,-0.12281513959169388,1.5253480672836304,0.01843714341521263,-0.03879503905773163,0.6577188372612,-0.5811074376106262,-0.3173449635505676,0.35918280482292175
354.0,-0.07940229028463364,-0.15210291743278503,0.4304746687412262,-0.8728836178779602,-1.8296462297439575,-0.17136573791503906,1.5263800621032715,0.040561042726039886,-0.048844583332538605,0.6878971457481384,-0.5454537868499756,-0.2975020408630371,0.37519362568855286
355.0,-0.05338209867477417,-0.1833679974079132,0.5075051188468933,-0.951295018196106,-1.9108667373657227,-0.2371988147497177,1.5198272466659546,0.06853729486465454,-0.052955031394958496,0.7242835760116577,-0.5020281672477722,-0.2692447304725647,0.3884434700012207
356.0,-0.021392488852143288,-0.23544900119304657,0.6282963156700134,-1.0673528909683228,-2.012645721435547,-0.32946255803108215,1.504498839378357,0.10286049544811249,-0.05309770256280899,0.7658732533454895,-0.4423862099647522,-0.2333918958902359,0.40405556559562683
357.0,-0.04188090190291405,-0.2156549096107483,0.567704439163208,-0.9917658567428589,-1.9544684886932373,-0.27165308594703674,1.5110242366790771,0.08004680275917053,-0.04373117536306381,0.7404633164405823,-0.4780137538909912,-0.2562442421913147,0.39693307876586914
358.0,-0.021301614120602608,-0.2555674612522125,0.6539795398712158,-1.069032907485962,-2.0259010791778564,-0.3355026841163635,1.4985469579696655,0.10128037631511688,-0.039428211748600006,0.7673641443252563,-0.4361882507801056,-0.23225505650043488,0.40859466791152954
359.0,-0.057805631309747696,-0.20617789030075073,0.531276524066925,-0.9399023056030273,-1.9094328880310059,-0.23039981722831726,1.5134035348892212,0.062411028891801834,-0.03405514359474182,0.719795823097229,-0.503899335861206,-0.2738277018070221,0.3911495804786682
360.0,-0.07814530283212662,-0.1767423003911972,0.4656454026699066,-0.8796449303627014,-1.8425487279891968,-0.1781032234430313,1.5201934576034546,0.04103292152285576,-0.034838177263736725,0.6910256743431091,-0.5392144918441772,-0.2961401641368866,0.3795158863067627
361.0,-0.04220458120107651,-0.39330431818962097,0.9153090715408325,-1.4645838737487793,-1.9603755474090576,-0.48176801204681396,1.4775317907333374,0.08012823760509491,-0.005795754492282867,0.8198167085647583,-0.44958463311195374,-0.17052790522575378,0.3109573423862457
362.0,-0.10392030328512192,-0.20554320514202118,0.5093648433685303,-0.9232072234153748,-1.7531269788742065,-0.12856626510620117,1.5179182291030884,0.01564766839146614,-0.02357056736946106,0.6627683043479919,-0.5883826613426208,-0.30750855803489685,0.3463849723339081
363.0,-0.15147796273231506,-0.16369612514972687,0.4261004626750946,-0.8221496939659119,-1.581726312637329,-0.006848462857306004,1.5208790302276611,-0.03053576499223709,-0.029163628816604614,-0.5743387341499329,0.6600033044815063,0.3653271794319153,-0.3179098963737488
364.0,-0.19273091852664948,-0.2759634554386139,0.6503506898880005,-1.0449695587158203,-1.4552685022354126,0.09117969870567322,1.5009057521820068,-0.0699930489063263,-0.015369147062301636,-0.5192029476165771,0.7342194318771362,0.3571576178073883,-0.2525638937950134
365.0,-0.16385996341705322,-0.3353099226951599,0.7595380544662476,-1.2164247035980225,-1.5445579290390015,0.026588238775730133,1.496761441230774,-0.03964615985751152,-0.0016760528087615967,-0.5851422548294067,0.7165437340736389,0.2940986156463623,-0.24016611278057098
366.0,-0.133448988199234,-0.30855971574783325,0.705845296382904,-1.1594743728637695,-1.6477659940719604,-0.07327330112457275,1.50385320186615,-0.011055530048906803,-0.005323886871337891,-0.6407988667488098,0.6584891080856323,0.28285154700279236,-0.27525272965431213
367.0,-0.10974109172821045,-0.4112994372844696,0.9165323972702026,-1.4708925485610962,-1.7385010719299316,-0.23678943514823914,1.4825714826583862,0.012949541211128235,0.012487754225730896,0.7304472923278809,-0.6098276972770691,-0.19707125425338745,0.2360505610704422
368.0,-0.08413714915513992,-0.38802990317344666,0.8787526488304138,-1.4161297082901,-1.8333110809326172,-0.33190563321113586,1.4865469932556152,0.0361592136323452,0.004178941249847412,0.7673952579498291,-0.5448421239852905,-0.19568009674549103,0.2756100296974182
369.0,-0.06557904183864594,-0.43377846479415894,0.987473726272583,-1.5886180400848389,-1.8933354616165161,-0.4903036057949066,1.4710553884506226,0.05580931901931763,0.00825868546962738,0.8228120803833008,-0.48033609986305237,-0.15313158929347992,0.26231321692466736
370.0,-0.05505366250872612,-0.5148821473121643,1.1915758848190308,-1.9555739164352417,-1.9066030979156494,-0.8314427733421326,1.4351040124893188,0.07129356265068054,0.019088000059127808,0.9089135527610779,-0.354932576417923,-0.07961001992225647,0.20386582612991333
371.0,-0.05284873768687248,-0.5528762340545654,1.3063879013061523,-2.1840150356292725,-1.886167287826538,-1.143541932106018,1.4083658456802368,0.07885527610778809,0.02286440134048462,0.9595325589179993,-0.22353492677211761,-0.03885633125901222,0.16679233312606812
372.0,-0.05092710256576538,-0.5764387845993042,1.387137770652771,-2.3347880840301514,-1.8567529916763306,-1.4065834283828735,1.3832225799560547,0.08717572689056396,0.022676199674606323,0.9841638207435608,-0.10293002426624298,-0.015011564828455448,0.14353282749652863
373.0,-0.06468161195516586,-0.5885348916053772,1.4154785871505737,-2.380131959915161,-1.8329938650131226,-1.5029621124267578,1.3745954036712646,0.07230702042579651,0.02680005133152008,0.9892812967300415,-0.0644904151558876,-0.008522316813468933,0.13073211908340454
374.0,-0.06867378950119019,-0.5815455913543701,1.3938770294189453,-2.360771894454956,-1.8334434032440186,-1.484890103340149,1.3852314949035645,0.06603921949863434,0.02832026779651642,0.9884810447692871,-0.07508412003517151,-0.009952830150723457,0.13102883100509644
375.0,-0.07351170480251312,-0.572902262210846,1.3618943691253662,-2.3111958503723145,-1.8399403095245361,-1.3899078369140625,1.3976619243621826,0.05747387185692787,0.030142605304718018,0.9830763339996338,-0.12244023382663727,-0.016842037439346313,0.13522523641586304
376.0,-0.08411293476819992,-0.589837908744812,1.404415488243103,-2.366065740585327,-1.8263909816741943,-1.4945636987686157,1.3815089464187622,0.04608689248561859,0.03334954380989075,0.9887115955352783,-0.07820368558168411,-0.010077301412820816,0.1274050772190094
