Sungjin-Park-dev/vision_inspection/data/output/2369/joint_trajectory_dp_20251102_110838.csv
time,ur20-shoulder_pan_joint,ur20-shoulder_lift_joint,ur20-elbow_joint,ur20-wrist_1_joint,ur20-wrist_2_joint,ur20-wrist_3_joint,target-POS_X,target-POS_Y,target-POS_Z,target-ROT_X,target-ROT_Y,target-ROT_Z,target-ROT_W
0.0,-2.526850930362934,-1.2732928610046208,-2.201059570438089,-1.2478250188298416,1.4558501701374278,-0.9525773804264365,0.6112518459558487,0.16383543610572815,0.6675679460167885,0.9983360171318054,-0.0014546021120622754,0.029223663732409477,0.04969198256731033
1.0,-2.571190531585377,-1.293510315485588,-2.1885706181823474,-1.225141678209549,1.532926785324599,-1.0001313515349273,0.6259504109621048,0.1558220535516739,0.6686614826321602,0.999817430973053,-0.0001803173217922449,0.012399316765367985,0.014539864845573902
2.0,-2.523780840811045,-1.2974018746340454,-2.1811329695991826,-1.2654669565680996,1.438727661673448,-0.9476699271592341,0.6249262318015099,0.17257149517536163,0.6674600690603256,0.9976951479911804,-0.0016082113143056631,0.0255291610956192,0.06284987181425095
3.0,-2.5170223011456176,-1.302343698285944,-2.178176292741713,-1.2668990515970366,1.4171333603699967,-0.9390191388660218,0.6281896680593491,0.1759290099143982,0.6671827957034111,0.9968953728675842,-0.00224792817607522,0.030971167609095573,0.0723559781908989
4.0,-2.5325826280437465,-1.30857833471746,-2.174801031692191,-1.2527715595392588,1.4800346708705958,-0.9592730610848924,0.6304533034563065,0.177598774433136,0.6671890467405319,0.9988998770713806,-0.0007162807160057127,0.016270209103822708,0.04397563263773918
5.0,-2.5259796270856176,-1.3099539418474122,-2.1729505520330723,-1.260805283070937,1.438658484274068,-0.949886941685814,0.6330033913254738,0.17662975192070007,0.6673596799373627,0.9976951479911804,-0.0016082113143056631,0.0255291610956192,0.06284987181425095
6.0,-2.5179095365098445,-1.3111823487715186,-2.1724666485261324,-1.2636326967024296,1.4171023477060722,-0.9399164066301633,0.6337179988622665,0.1792311817407608,0.6670438051223755,0.9968953728675842,-0.00224792817607522,0.030971167609095573,0.0723559781908989
7.0,-2.518517607008616,-1.317275229786819,-2.168477387900579,-1.261434927235696,1.417081163387418,-0.9405313578479334,0.6375475712120533,0.1815153807401657,0.6669480055570602,0.9968953728675842,-0.00224792817607522,0.030971167609095573,0.0723559781908989
8.0,-2.573844631080835,-1.3323046826678528,-2.158351663688818,-1.2332405270322317,1.527370091903407,-1.0025059430437944,0.6501276716589928,0.16830186545848846,0.6686953529715538,0.9997478127479553,-0.00014618552813772112,0.006830527447164059,0.021396394819021225
9.0,-2.5756602812887444,-1.3325684897204109,-2.1581083060787205,-1.2331411673651316,1.5273492696822115,-1.0043231879218752,0.6506265066564083,0.16724082827568054,0.6687476113438606,0.9997478127479553,-0.00014618552813772112,0.006830527447164059,0.021396394819021225
10.0,-2.3431832215711528,-1.3926423246997734,-2.1193580812085213,-1.6803106922481101,0.9312393452227821,-0.5185561458688033,0.6360765919089317,0.2328527420759201,0.6375019699335098,0.9241450428962708,-0.042604852467775345,0.108192577958107,0.36391645669937134
11.0,-2.3440664737639594,-1.3914656438118982,-2.1190873219972435,-1.6811750059528523,0.9308317671468381,-0.5195329012181188,0.6359739005565643,0.23190292716026306,0.6383875384926796,0.9241450428962708,-0.042604852467775345,0.108192577958107,0.36391645669937134
12.0,-2.577804475560317,-1.3249504515530108,-2.165590425340114,-1.223415220589681,1.5245493252354116,-1.006504688989965,0.6471478119492531,0.1629096120595932,0.6688472032546997,0.9997324347496033,-0.00023355637677013874,0.011698816902935505,0.01995875872671604
13.0,-2.574368732404916,-1.3172828108125567,-2.170971313010137,-1.225860970048574,1.5245549825866054,-1.0030652735795615,0.6416405513882637,0.1619836688041687,0.668755292892456,0.9997324347496033,-0.00023355637677013874,0.011698816902935505,0.01995875872671604
14.0,-2.322858905172942,-1.328131298993548,-2.179627345384752,-1.576329152341316,0.8975198229317355,-0.49656693760163056,0.6118204668164253,0.2189679741859436,0.641892746090889,0.9278339147567749,-0.057640090584754944,0.16144153475761414,0.3312680721282959
15.0,-2.316830585612773,-1.3239898726786232,-2.184638571147616,-1.579925210069406,0.8997218485571814,-0.4893950786230427,0.6072195917367935,0.21950605511665344,0.6397738009691238,0.9278339147567749,-0.057640090584754944,0.16144153475761414,0.3312680721282959
16.0,-2.2954009693421,-1.2749038375047332,-2.240198875712612,-1.4701430469281356,0.8541175172967924,-0.4710527598508834,0.5903975889086723,0.21077468991279602,0.6399816200137138,0.9263641238212585,-0.0699881985783577,0.21550887823104858,0.3008440136909485
17.0,-2.29382839848639,-1.2695813027579932,-2.2430169654749648,-1.4739660362188964,0.854542297871925,-0.4690450000662347,0.587423138320446,0.2087833285331726,0.6401298642158508,0.9263641238212585,-0.0699881985783577,0.21550887823104858,0.3008440136909485
18.0,-2.29903986554299,-1.264198633956554,-2.2430031560759187,-1.470115761188395,0.8802334550525479,-0.49473319541823657,0.5847472697496414,0.2060495764017105,0.6410687454044819,0.9315940737724304,-0.06425587087869644,0.2033539116382599,0.2943655252456665
19.0,-2.3001903882909236,-1.2759107134500964,-2.237013450878963,-1.4682959067835173,0.8528361287609155,-0.47717670658983014,0.592887781560421,0.2093852162361145,0.6423308812081814,0.9263641238212585,-0.0699881985783577,0.21550887823104858,0.3008440136909485
20.0,-2.29734553374667,-1.2682901983452588,-2.2414233841302873,-1.4738994960938696,0.8535950175779654,-0.473537507967272,0.5883556380867958,0.2067771852016449,0.6422118991613388,0.9263641238212585,-0.0699881985783577,0.21550887823104858,0.3008440136909485
21.0,-2.2920024268280326,-1.2551762507515254,-2.2490497933929703,-1.4838672374915103,0.855038029383904,-0.4667155809409928,0.5804645642638206,0.2024630904197693,0.6418211869895458,0.9263641238212585,-0.0699881985783577,0.21550887823104858,0.3008440136909485
22.0,-2.2933867126004897,-1.2492179659002502,-2.25129183325441,-1.4813062966075814,0.8817259540727267,-0.48766443007845356,0.575968399643898,0.20099511742591858,0.640947975218296,0.9315940737724304,-0.06425587087869644,0.2033539116382599,0.2943655252456665
23.0,-2.282377935039315,-1.2093950941306977,-2.2996958446118336,-1.3558596269009675,0.8484629962352126,-0.5050585448166673,0.5658648461103439,0.19223083555698395,0.6421778686344624,0.9305720329284668,-0.06936220079660416,0.2483903467655182,0.25985923409461975
24.0,-2.2836264197309575,-1.2089187011232403,-2.299255531849739,-1.3556886424786454,0.8482739345020094,-0.5067035492526303,0.5661270022392273,0.19151689112186432,0.642827358096838,0.9305720329284668,-0.06936220079660416,0.2483903467655182,0.25985923409461975
25.0,-2.2853656874175186,-1.2070414912417866,-2.2991354752213,-1.3561696554830596,0.8480127905651149,-0.5089961199202714,0.5659717619419098,0.18992389738559723,0.6438510902225971,0.9305720329284668,-0.06936220079660416,0.2483903467655182,0.25985923409461975
26.0,-2.284612930719949,-1.2046027284627172,-2.300499364976412,-1.3579009052551536,0.8481254938779768,-0.5080037636025523,0.5646551102399826,0.1890149861574173,0.6437293030321598,0.9305720329284668,-0.06936220079660416,0.2483903467655182,0.25985923409461975
27.0,-2.2804065113318233,-1.1894621122774023,-2.308536515944026,-1.3686682394259668,0.8487642666474592,-0.5024621165989057,0.5567333251237869,0.1832098364830017,0.6432317234575748,0.9305720329284668,-0.06936220079660416,0.2483903467655182,0.25985923409461975
28.0,-2.283167125024108,-1.190102191425046,-2.3069362133894082,-1.3672246812420188,0.8483433307814932,-0.5060983184510097,0.5579902231693268,0.18246981501579285,0.6444712020456791,0.9305720329284668,-0.06936220079660416,0.2483903467655182,0.25985923409461975
29.0,-2.209464062894664,-1.313913480996721,-2.232526624062955,-1.8425515647764057,0.5449952488680582,0.19071158483808212,0.5802314653992653,0.2229660153388977,0.6208806894719601,0.8178882002830505,-0.182109072804451,0.3871012032032013,0.38476985692977905
30.0,-2.1785185314467603,-1.2227703526557885,-2.308831962646415,-1.7270136625010644,0.5087480789237481,0.1336590919646331,0.5480526089668274,0.19993999600410461,0.6225992441177368,0.8234139680862427,-0.17347607016563416,0.41939637064933777,0.3405909836292267
31.0,-2.1773082826960195,-1.212422701622013,-2.3107748667971584,-1.7372702457695335,0.5093777208161534,0.13577983505414595,0.5441341996192932,0.1953873336315155,0.6249363329261541,0.8234139680862427,-0.17347607016563416,0.41939637064933777,0.3405909836292267
32.0,-2.175431284855622,-1.21312222510695,-2.312757020544558,-1.7374510687790627,0.5103580208902642,0.13905947523255074,0.543332651257515,0.19591030478477478,0.6229461748152971,0.8234139680862427,-0.17347607016563416,0.41939637064933777,0.3405909836292267
33.0,-2.1699166304032858,-1.2100949319841718,-2.318805977850431,-1.7427724310201056,0.5132644910008177,0.14862868791380016,0.5394043922424316,0.19513458013534546,0.6188593730330467,0.8234139680862427,-0.17347607016563416,0.41939637064933777,0.3405909836292267
34.0,-2.140728060672619,-1.0323205991903783,-2.4920269445015344,-1.2859046050128289,0.4371327206528929,-0.18164393502166673,0.4952375441789627,0.14116336405277252,0.6235924605280161,0.8318341374397278,-0.13678881525993347,0.48375076055526733,0.23521535098552704
35.0,-2.1427231304026777,-1.0434990022975121,-2.4874583159092296,-1.275043805786224,0.43694200847975784,-0.18633596425146626,0.4992252588272095,0.14591112732887268,0.6246996726840734,0.8318341374397278,-0.13678881525993347,0.48375076055526733,0.23521535098552704
36.0,-2.1468597868340815,-1.040776336868334,-2.4850693579849654,-1.2713293742230223,0.4365735073324119,-0.19607635814015326,0.4998895227909088,0.14390060305595398,0.6283659674227238,0.8318341374397278,-0.13678881525993347,0.48375076055526733,0.23521535098552704
37.0,-2.1525768721593903,-1.009576209995643,-2.5694347142861487,-0.8922659059032435,0.44613222905921723,-0.47484262404622074,0.488598108291626,0.12378086149692535,0.6307824105024338,0.8352465629577637,-0.10891430824995041,0.5084143280982971,0.17892946302890778
38.0,-2.1556414113455644,-0.9861294650326776,-2.5715317666632633,-0.9350697767763594,0.44804312887774406,-0.45973236161315734,0.4827429950237274,0.11310137808322906,0.6300751883536577,0.8361291289329529,-0.11083810776472092,0.5048865675926208,0.18355600535869598
39.0,-2.1601419999830345,-0.9818474036578091,-2.5708865422215204,-0.9308794213915682,0.4490438143960598,-0.46985091752025343,0.48245346546173096,0.10986104607582092,0.6327352151274681,0.8361291289329529,-0.11083810776472092,0.5048865675926208,0.18355600535869598
40.0,-2.1538811476942623,-1.039577710151358,-2.4800609519772547,-1.262522618904214,0.4360314245752193,-0.21264194231970235,0.5019951164722443,0.142002135515213,0.6344260983169079,0.8318341374397278,-0.13678881525993347,0.48375076055526733,0.23521535098552704
41.0,-2.1639396801336552,-1.1119448133243721,-2.3899739235914934,-1.5417449807559989,0.4591728356969529,-0.007628964775536181,0.5208790302276611,0.16564208269119263,0.6357310116291046,0.8273038864135742,-0.15850158035755157,0.4556659758090973,0.28777432441711426
42.0,-2.165454622555591,-1.1131189760323577,-2.3883841694394135,-1.5392598499821173,0.458682180279206,-0.010864470266503794,0.5219267010688782,0.16597184538841248,0.6368993632495403,0.8273038864135742,-0.15850158035755157,0.4556659758090973,0.28777432441711426
43.0,-2.1636145722721403,-1.1266137722389196,-2.395523310117931,-1.4869535879638038,0.4466541410071189,-0.02853512980047778,0.5273931622505188,0.17404848337173462,0.6336834020912647,0.8257022500038147,-0.15733478963375092,0.46361926198005676,0.28021201491355896
44.0,-2.1749559183740277,-1.1273135397274117,-2.3844073927334093,-1.4745524380903439,0.4434620073963836,-0.05381477846678117,0.5328761339187622,0.17281562089920044,0.6444920338690281,0.8257022500038147,-0.15733478963375092,0.46361926198005676,0.28021201491355896
45.0,-2.1779007512947404,-1.049114996874193,-2.4661826299948055,-1.17908189112244,0.4294559018639805,-0.2966276424812111,0.5137860625982285,0.14143207669258118,0.6562467887997627,0.8306335806846619,-0.13491562008857727,0.48926785588264465,0.2290472388267517
46.0,-2.1810109104360835,-1.1113669107018391,-2.3820477406899636,-1.4805403663469872,0.44186019412107747,-0.06744703952178925,0.5303927958011627,0.1643671691417694,0.6528673432767391,0.8257022500038147,-0.15733478963375092,0.46361926198005676,0.28021201491355896
47.0,-2.1816218762499613,-1.1212852574214929,-2.3792732787994315,-1.4721484168451815,0.4417025704808386,-0.0688276552047571,0.5339468419551849,0.16895779967308044,0.6519321501255035,0.8257022500038147,-0.15733478963375092,0.46361926198005676,0.28021201491355896
48.0,-2.2324721525686786,-1.2876467410872083,-2.2040871765261554,-1.8668225569984236,0.530861413864607,0.15527307335307003,0.5854116529226303,0.20800183713436127,0.6557200364768505,0.8178882002830505,-0.182109072804451,0.3871012032032013,0.38476985692977905
49.0,-2.2607616471693133,-1.368801201585661,-2.12644287881984,-2.0242967612032623,0.6303777466772985,0.1394020683051604,0.6045079603791237,0.22088153660297394,0.6504422351717949,0.8220534920692444,-0.1674741804599762,0.30582505464553833,0.45016828179359436
50.0,-2.22767210106757,-1.291294772629206,-2.210080813338947,-1.8636711792644862,0.5337641137836954,0.162805580303089,0.5838086307048798,0.2104063630104065,0.6491817682981491,0.8178882002830505,-0.182109072804451,0.3871012032032013,0.38476985692977905
51.0,-2.2213405837045315,-1.2920050543418584,-2.2118835091632296,-1.8958378727594936,0.5627195934702686,0.16742311160840148,0.5757415592670441,0.20910939574241638,0.6420507468283176,0.8211560249328613,-0.1785484254360199,0.37094244360923767,0.3952530324459076
52.0,-2.22198413115051,-1.2980038687667144,-2.217134840087906,-1.857502174599878,0.5372355831783082,0.17163578184415537,0.5826732516288757,0.2142675220966339,0.6404378041625023,0.8178882002830505,-0.182109072804451,0.3871012032032013,0.38476985692977905
53.0,-2.2569785913432905,-1.3911959018940447,-2.1335729897447173,-1.9983403493738623,0.6331149946201453,0.1438238842186667,0.6100157201290131,0.23131163418293,0.633640319108963,0.8220534920692444,-0.1674741804599762,0.30582505464553833,0.45016828179359436
54.0,-2.2577436538871285,-1.3946750761064264,-2.1328776085641272,-1.9948376321061023,0.6325606793036159,0.14293230850104255,0.6117339134216309,0.23264436423778534,0.6323694735765457,0.8220534920692444,-0.1674741804599762,0.30582505464553833,0.45016828179359436
55.0,-2.297377461107273,-1.4593659170857987,-2.0593439154695345,-2.087118051334292,0.675472302228677,0.08341069239940184,0.6430194973945618,0.23965534567832947,0.6400179788470268,0.8209124803543091,-0.14846271276474,0.24727904796600342,0.49286386370658875
56.0,-2.301184987993455,-1.456920690115058,-2.0498818648419084,-2.110746950791803,0.7082253690986026,0.023946616433826146,0.6387412548065186,0.2362472116947174,0.6451873145997524,0.8268707990646362,-0.13092662394046783,0.21532592177391052,0.502769947052002
57.0,-2.4145686386015095,-1.6216731801340059,-1.8771812762985054,-2.2543257627595437,0.8755822625780639,-0.5508984694533456,0.7258996516466141,0.24443590641021729,0.645005077123642,0.8317147493362427,0.04853922873735428,-0.07364891469478607,0.5481519103050232
58.0,-2.508789987837957,-1.7281916337916245,-1.7590045910947167,-2.3344535770909953,1.0547272740054308,-1.0314868202582237,0.7860245704650879,0.23279401659965515,0.638389989733696,0.814773678779602,0.17264819145202637,-0.30424588918685913,0.4623536467552185
59.0,-2.4582976123905445,-1.6886041375095746,-1.8231368562143229,-2.2812758993895432,0.9685844616426672,-0.8277744704476192,0.7586468607187271,0.24573571979999542,0.6283103376626968,0.8231555819511414,0.12803904712200165,-0.2051527053117752,0.5137445330619812
60.0,-2.4598730262340847,-1.6910840173162456,-1.8217890798535477,-2.2796329802616406,0.9671947364485496,-0.8286753175609692,0.7607231736183167,0.24568431079387665,0.6273258589208126,0.8231555819511414,0.12803904712200165,-0.2051527053117752,0.5137445330619812
61.0,-2.4460326042946736,-1.6761430924602907,-1.8351959301240393,-2.2855512832044607,0.979367353686757,-0.8207264319244267,0.7453502155840397,0.24827873706817627,0.6294879857450724,0.8231642842292786,0.12800846993923187,-0.20510004460811615,0.5137590765953064
62.0,-2.344711924722779,-1.551787703714832,-1.9823908646429393,-2.153451973584549,0.7583915759964014,-0.12620642892289136,0.6840360350906849,0.25208917260169983,0.6279542967677116,0.8282848000526428,-0.08275597542524338,0.12707854807376862,0.5393948554992676
63.0,-2.345890955199224,-1.560076999900677,-1.9802069074456137,-2.1546217711838316,0.7915427377619774,-0.19969278716458339,0.6824740953743458,0.2544994354248047,0.6219213660806417,0.8329736590385437,-0.05961973965167999,0.09155596792697906,0.5424186587333679
64.0,-2.253147126501366,-1.4096736895531905,-2.1399378193207337,-1.9770774616953875,0.6358967039576753,0.1482687325079317,0.6138658970594406,0.23988521099090576,0.6192442774772644,0.8220534920692444,-0.1674741804599762,0.30582505464553833,0.45016828179359436
65.0,-2.2840965907343422,-1.4742452777373038,-2.07523160313695,-2.0801342684400237,0.721729577473602,0.03991950874083611,0.6333289593458176,0.2477332055568695,0.6167780235409737,0.8268707990646362,-0.13092662394046783,0.21532592177391052,0.502769947052002
66.0,-2.2853350729413497,-1.48410638534095,-2.075031642622825,-2.069616204979051,0.7207466495699381,0.03877845802219602,0.6375722363591194,0.2513343393802643,0.6111898422241211,0.8268707990646362,-0.13092662394046783,0.21532592177391052,0.502769947052002
67.0,-2.3538316437974083,-1.4137177715832894,-2.1027148584500344,-1.684140094474466,0.9011484391626282,-0.5058499329303321,0.6528014317154884,0.23519445955753326,0.6393323317170143,0.9186550974845886,-0.04795634374022484,0.11778492480516434,0.37403202056884766
68.0,-2.353552156937307,-1.4133893155966626,-2.10301040709931,-1.6843683830908056,0.9012795489281679,-0.5055351361981938,0.6525042355060577,0.2351667284965515,0.6392828226089478,0.9186550974845886,-0.04795634374022484,0.11778492480516434,0.37403202056884766
69.0,-2.3556720950398713,-1.4168386272639566,-2.1004858878032295,-1.6819597813790923,0.9002862729090118,-0.5079245357776211,0.6552094966173172,0.23582345247268677,0.6393256671726704,0.9186550974845886,-0.04795634374022484,0.11778492480516434,0.37403202056884766
70.0,-2.3550281781728697,-1.419033517104336,-2.1003197705490644,-1.6803821495076268,0.9005876798655325,-0.5071983741278839,0.6559009179472923,0.23714227974414825,0.6381755620241165,0.9186550974845886,-0.04795634374022484,0.11778492480516434,0.37403202056884766
71.0,-2.3523185503606725,-1.4167760396043954,-2.102939824294799,-1.6819137498650483,0.9018588204544987,-0.5041464585104036,0.6534409672021866,0.23730789124965668,0.6373671591281891,0.9186550974845886,-0.04795634374022484,0.11778492480516434,0.37403202056884766
72.0,-2.586780176101121,-1.355571241246637,-2.1415077379679737,-1.226113981442784,1.5177638268213798,-1.015220587628098,0.6683617904782295,0.16812151670455933,0.6689957529306412,0.9996339678764343,-0.00023827818222343922,0.009386129677295685,0.02537691406905651
73.0,-2.5819647754260595,-1.3533361192876614,-2.1433109325809965,-1.2268013793207972,1.5178164664687877,-1.0103987024286838,0.6660045050084591,0.17038287222385406,0.6688365712761879,0.9996339678764343,-0.00023827818222343922,0.009386129677295685,0.02537691406905651
74.0,-2.5818549495534167,-1.3537492215411586,-2.143019904525544,-1.2266851287087006,1.5178176813777116,-1.0102887289774547,0.6662533693015575,0.17062389850616455,0.6688289940357208,0.9996339678764343,-0.00023827818222343922,0.009386129677295685,0.02537691406905651
75.0,-2.5821428012127225,-1.349619316681562,-2.145942253408056,-1.2279743486703911,1.5272760965489227,-1.0108114279917173,0.6628311835229397,0.16997839510440826,0.6687971502542496,0.9997478127479553,-0.00014618552813772112,0.006830527447164059,0.021396394819021225
76.0,-2.5817266654807347,-1.3534796494872752,-2.143203885152049,-1.2268705037908332,1.527280738862237,-1.0103949238267018,0.6652691997587681,0.17182748019695282,0.6687512695789337,0.9997478127479553,-0.00014618552813772112,0.006830527447164059,0.021396394819021225
77.0,-2.5484277434758185,-1.357722365622135,-2.136494034991648,-1.2584284153608147,1.4628106065599846,-0.97392862759349,0.6644119322299957,0.18544745445251465,0.6674535423517227,0.9983407855033875,-0.0007621580152772367,0.013600064441561699,0.05594778433442116
78.0,-2.5455170577879014,-1.3577585134679107,-2.1369725844118674,-1.2572773391527392,1.4742486934092194,-0.9717026185654718,0.6628798097372055,0.18883080780506134,0.6670255362987518,0.9986394643783569,-0.0005511568742804229,0.010788766667246819,0.051016684621572495
79.0,-2.5298151872751227,-1.3632868642005647,-2.1300224014115905,-1.2828141465367262,1.4036829845442547,-0.9497911949597089,0.6670234464108944,0.19107748568058014,0.6667756885290146,0.9960069060325623,-0.0019362419843673706,0.02231536991894245,0.08642072230577469
80.0,-2.530946418264373,-1.3653083065773328,-2.1285072750823155,-1.2821173515107651,1.4036110424929662,-0.9509360923925009,0.668563861399889,0.19123657047748566,0.6668169051408768,0.9960069060325623,-0.0019362419843673706,0.02231536991894245,0.08642072230577469
81.0,-2.5393036906405912,-1.3784972906651267,-2.1130038267981,-1.3075384327851147,1.4152446481755825,-0.9601889774649309,0.675659665837884,0.19158831238746643,0.6669528931379318,0.9960468411445618,-0.0007775419508107007,0.008761610835790634,0.08839334547519684
82.0,-2.555835239193085,-1.377417268176467,-2.1179161043515577,-1.27508585767672,1.4712969845691264,-0.9817534749939029,0.6762765031307936,0.18905578553676605,0.6672868132591248,0.9983434677124023,-0.00019731330394279212,0.003429767210036516,0.05743435397744179
83.0,-2.531113909984211,-1.3846541244219948,-2.1070854577570115,-1.322201334373687,1.398779386270524,-0.9498972346611526,0.6777256727218628,0.19661526381969452,0.6660501956939697,0.9950287938117981,-0.0008243542397394776,0.008265247568488121,0.09924156963825226
84.0,-2.586660785666995,-1.3785689414410032,-2.1223738861757924,-1.2328565245721885,1.522357556798335,-1.0151530922865077,0.6822192221879959,0.1776370257139206,0.6686698272824287,0.9996495842933655,-9.631819557398558e-05,0.003672303631901741,0.026219088584184647
85.0,-2.5882285261529763,-1.3789580721208727,-2.1220210517789417,-1.2327442204438308,1.5223240530151467,-1.0167223165841415,0.6827819868922234,0.17673732340335846,0.6687211915850639,0.9996495842933655,-9.631819557398558e-05,0.003672303631901741,0.026219088584184647
86.0,-2.5868331936963607,-1.3681479423218132,-2.129952270299665,-1.2356907833930573,1.5223538664804255,-1.0153256632444199,0.6753807794302702,0.17326216399669647,0.6688492372632027,0.9996495842933655,-9.631819557398558e-05,0.003672303631901741,0.026219088584184647
87.0,-2.3820513764670546,-1.4679465019337803,-2.045664469846572,-1.7702269987962647,0.9703413048502741,-0.5901009211934157,0.6737674493342638,0.24238574504852295,0.6356249451637268,0.9201410412788391,-0.018296614289283752,0.0433061309158802,0.38875481486320496
88.0,-2.3836068066120792,-1.4689852923934468,-2.0442889933116724,-1.769666687336674,0.9695006349300919,-0.5916875029420423,0.6750834509730339,0.24207976460456848,0.6360652148723602,0.9201410412788391,-0.018296614289283752,0.0433061309158802,0.38875481486320496
89.0,-2.379905705497757,-1.4684119684726682,-2.0430739630140917,-1.792223953099738,0.9494162864509099,-0.5665037296791986,0.6737251654267311,0.24063348770141602,0.6373906880617142,0.9148961901664734,-0.021790746599435806,0.04983971640467644,0.4000077247619629
90.0,-2.3880756750221246,-1.477889550134393,-2.0346753665810007,-1.7862572145683056,0.9448784291792928,-0.5748731009332871,0.6826318688690662,0.24087466299533844,0.6381016969680786,0.9148961901664734,-0.021790746599435806,0.04983971640467644,0.4000077247619629
91.0,-2.3876428542392967,-1.4791426106611532,-2.0347059898026756,-1.7852340447783235,0.9451179964193333,-0.5744283438131966,0.6829982232302427,0.24165315926074982,0.6372950971126556,0.9148961901664734,-0.021790746599435806,0.04983971640467644,0.4000077247619629
92.0,-2.4284291776745555,-1.5362528580451924,-1.9693672688390476,-1.8652302551213717,1.0243662546941312,-0.7025936611137623,0.7107214126735926,0.24301917850971222,0.6365929581224918,0.9152114987373352,0.016413165256381035,-0.03747020661830902,0.4008922874927521
93.0,-2.3925248414762907,-1.490803430002099,-2.0280557925915947,-1.7772747173476822,0.9424212667849604,-0.5794539094922824,0.6912681041285396,0.24445617198944092,0.6351504363119602,0.9148961901664734,-0.021790746599435806,0.04983971640467644,0.4000077247619629
94.0,-2.6073551664850765,-1.4046604544461958,-2.098524160334427,-1.2440861163214605,1.5209655444244479,-1.0358297352575752,0.7025709620211273,0.17318491637706757,0.6690733805298805,0.9995377063751221,7.008884131209925e-05,-0.0023108432069420815,0.030316399410367012
95.0,-2.604978270926105,-1.405338677222048,-2.098131587565729,-1.2439188358433573,1.521048578523045,-1.0334513431513672,0.7025667943526059,0.17511281371116638,0.6689563393592834,0.9995377063751221,7.008884131209925e-05,-0.0023108432069420815,0.030316399410367012
96.0,-2.6006208845267436,-1.4062887431210542,-2.0976313987486215,-1.2436854407186344,1.5212015280416566,-1.0290912644225456,0.7023482383228838,0.17853109538555145,0.6687498092651367,0.9995377063751221,7.008884131209925e-05,-0.0023108432069420815,0.030316399410367012
97.0,-2.598645952662736,-1.3981343060956624,-2.106941249171231,-1.229362432525319,1.5132830925944458,-1.0268856801447455,0.698225166182965,0.1762184053659439,0.6688873171806335,0.9995259642601013,-0.0001647701283218339,0.00543410936370492,0.030307088047266006
98.0,-2.6003639914776207,-1.389286773560625,-2.1135056038610007,-1.2315466826597163,1.5132452995631775,-1.0286061497627301,0.6926143886521459,0.17145776748657227,0.6691152900457382,0.9995259642601013,-0.0001647701283218339,0.00543410936370492,0.030307088047266006
99.0,-2.3911514026471474,-1.4797793090331186,-2.0360509989982947,-1.7627294616465738,0.9654397191823489,-0.5994092143993313,0.684277480468154,0.2431618869304657,0.6358145736157894,0.9201410412788391,-0.018296614289283752,0.0433061309158802,0.38875481486320496
100.0,-2.592267264682802,-1.3842294473578882,-2.117957314647033,-1.2313405323921416,1.5222382913225103,-1.0207649010579531,0.6870653126388788,0.17615140974521637,0.6687834188342094,0.9996495842933655,-9.631819557398558e-05,0.003672303631901741,0.026219088584184647
101.0,-2.5599385793736684,-1.389202611811636,-2.1086928310992947,-1.274653449627355,1.4602752261922205,-0.9851388235210179,0.6854925630614161,0.18980860710144043,0.6672883629798889,0.9980231523513794,-0.0003366279124747962,0.005365384742617607,0.06261666119098663
102.0,-2.5385273289869508,-1.3961186700393569,-2.0983265539005345,-1.3182114388133244,1.3980325649858938,-0.9573839123014479,0.6868555536493659,0.1967441290616989,0.6661759093403816,0.9950287938117981,-0.0008243542397394776,0.008265247568488121,0.09924156963825226
103.0,-2.5509195461642062,-1.3979722555936493,-2.098203684580967,-1.3010428012815487,1.4142499110651672,-0.9719045189966892,0.6909109195694327,0.1923094391822815,0.6670921966433525,0.9960468411445618,-0.0007775419508107007,0.008761610835790634,0.08839334547519684
104.0,-2.5668502566670677,-1.4014135762982325,-2.099297954822422,-1.2710702746195193,1.459862315539149,-0.9920806681404791,0.6950234253890812,0.19032463431358337,0.6673258394002914,0.9980231523513794,-0.0003366279124747962,0.005365384742617607,0.06261666119098663
105.0,-2.5730443783951027,-1.4141980046354035,-2.0855849064235907,-1.2883032957406029,1.4703683031141277,-0.999038121475886,0.7024238337762654,0.19191250205039978,0.6671546101570129,0.9980261325836182,0.0002974839590024203,-0.004741120617836714,0.06262164562940598
106.0,-2.568077321833018,-1.4159177084832568,-2.084851542772832,-1.287815086603237,1.4707451708944317,-0.9940603954891385,0.702379247173667,0.19606050848960876,0.6666324138641357,0.9980261325836182,0.0002974839590024203,-0.004741120617836714,0.06262164562940598
107.0,-2.5727658788832235,-1.4239801919314863,-2.078569283841917,-1.2854729903375992,1.470458073202406,-0.9987632547889032,0.7087968625128269,0.19623303413391113,0.6665498614311218,0.9980295896530151,0.0002959833655040711,-0.004721252713352442,0.06256817281246185
108.0,-2.5738568049861805,-1.4248740208225306,-2.0778069769904306,-1.2852319061209896,1.4703757008800102,-0.9998565701026763,0.7096467688679695,0.1958504617214203,0.6665899753570557,0.9980295896530151,0.0002959833655040711,-0.004721252713352442,0.06256817281246185
109.0,-2.5581154820517287,-1.4260645891542179,-2.069031606283898,-1.3403385085436865,1.4135602125640006,-0.9791286678791761,0.7071569385007024,0.19702987372875214,0.6662250459194183,0.9950365424156189,0.0007538807694800198,-0.007560374680906534,0.09921980649232864
110.0,-2.561236353515772,-1.4305529362801361,-2.0654796693594504,-1.3388811411843726,1.4132066632699394,-0.9822678009994978,0.7108780993148685,0.1967965066432953,0.6662155240774155,0.9950385689735413,0.0007533201714977622,-0.0075562805868685246,0.09919993579387665
111.0,-2.5647017363614024,-1.4367704815180737,-2.060641385126959,-1.336954569735804,1.412784070388068,-0.9857505932454595,0.7158273234963417,0.19703465700149536,0.6660923808813095,0.9950385689735413,0.0007533201714977622,-0.0075562805868685246,0.09919993579387665
112.0,-2.567369591974837,-1.4364388763572435,-2.060431611002032,-1.3371026599747913,1.4124311086898056,-0.9884291956557162,0.7163143195211887,0.19503681361675262,0.6664873957633972,0.9950365424156189,0.0007538807694800198,-0.007560374680906534,0.09921980649232864
113.0,-2.5685452065074443,-1.4412455206836583,-2.056905823921451,-1.3356062853685258,1.412317576050658,-0.9896139195947438,0.7197615541517735,0.1962507665157318,0.6661905124783516,0.9950385689735413,0.0007533201714977622,-0.0075562805868685246,0.09919993579387665
114.0,-2.570600598587442,-1.4432704536928778,-2.0551536932339047,-1.3350071422189258,1.4120690606949309,-0.991680166175652,0.7216293811798096,0.19566765427589417,0.6662795841693878,0.9950385689735413,0.0007533201714977622,-0.0075562805868685246,0.09919993579387665
115.0,-2.5878582517616135,-1.4427168401778085,-2.063146971570492,-1.2806348552697158,1.4693291170437712,-1.0138902872031663,0.724862813949585,0.19346170127391815,0.6667467206716537,0.9980295896530151,0.0002959833655040711,-0.004721252713352442,0.06256817281246185
116.0,-2.598780195569982,-1.451877446827177,-2.0518488935865395,-1.2962514289294724,1.4805257536441403,-1.0257577390231623,0.7313011325895786,0.19017720222473145,0.6670375913381577,0.9980252981185913,0.0008645015768706799,-0.014096878468990326,0.06120464205741882
117.0,-2.6023326527631205,-1.4631535756335328,-2.0429717016361537,-1.29356655532356,1.4801957777377985,-1.029310395941911,0.7397935129702091,0.19219951331615448,0.6665484607219696,0.9980241060256958,0.0008653526892885566,-0.014106730930507183,0.06122204661369324
118.0,-2.6067912279247154,-1.4606201613204606,-2.044455039261831,-1.2941773827911371,1.4798278637606064,-1.0337711953914022,0.7391020208597183,0.18792057037353516,0.6670951098203659,0.9980252981185913,0.0008645015768706799,-0.014096878468990326,0.06120464205741882
119.0,-2.613871239966415,-1.4675912127023354,-2.0384101848225376,-1.2926055835808106,1.4792159157740075,-1.0408541955882173,0.7455094866454601,0.1855441927909851,0.6672067493200302,0.9980252981185913,0.0008645015768706799,-0.014096878468990326,0.06120464205741882
120.0,-2.6153349284152534,-1.4744140446155056,-2.0329814145704095,-1.291112193859844,1.4790697368483134,-1.0423178354850076,0.750552587211132,0.18719907104969025,0.6668603047728539,0.9980241060256958,0.0008653526892885566,-0.014106730930507183,0.06122204661369324
121.0,-2.6165613651067834,-1.4709584942921776,-2.0355397505192903,-1.2918622847671684,1.478984595928483,-1.043545664086586,0.7484465315937996,0.18491068482398987,0.6672017872333527,0.9980252981185913,0.0008645015768706799,-0.014096878468990326,0.06120464205741882
122.0,-2.6383613898669345,-1.454218639071232,-2.0567531904076533,-1.2420136094865877,1.525425273267647,-1.067049369330604,0.7417380101978779,0.17089766263961792,0.6688823997974396,0.9995368123054504,0.00020267543732188642,-0.006831290200352669,0.02965494617819786
123.0,-2.6375973888870368,-1.4495831859309267,-2.060533362629196,-1.2427885045734721,1.5255205718919533,-1.0662862972063876,0.7383340001106262,0.16967588663101196,0.6690013706684113,0.9995387196540833,0.00020126272283960134,-0.006796493194997311,0.02959907054901123
124.0,-2.5831492998971095,-1.4592430597505317,-2.0368163975240083,-1.358127297122609,1.4300659089431291,-1.0067495748977886,0.7315992563962936,0.19456511735916138,0.6662633791565895,0.9950293898582458,0.0021927617490291595,-0.02249751053750515,0.09698238968849182
125.0,-2.618587738965106,-1.4246258460674508,-2.0827563128513926,-1.2392171833461136,1.5206599938836083,-1.0470718971797965,0.7183735575526953,0.17324323952198029,0.6689968481659889,0.9995396733283997,6.913885590620339e-05,-0.0022842902690172195,0.030253170058131218
126.0,-2.6136321433259613,-1.4193067887056088,-2.0871122982046586,-1.2404283507681726,1.520830108255514,-1.0421130121629398,0.7137584360316396,0.1746457815170288,0.6689329594373703,0.9995396733283997,6.913885590620339e-05,-0.0022842902690172195,0.030253170058131218
127.0,-2.614318797955348,-1.4184420661000476,-2.0877168088723668,-1.2407639302344553,1.5207238997154466,-1.0427978642602473,0.7132977703586221,0.17379873991012573,0.668986514210701,0.9995377063751221,7.008884131209925e-05,-0.0023108432069420815,0.030316399410367012
128.0,-2.430875289092732,-1.544223331809562,-1.9657533047979998,-1.8600081293323154,1.0227773810414655,-0.7048078269187023,0.7159849312156439,0.24502456188201904,0.6339790672063828,0.9151555895805359,0.016448404639959335,-0.03753715753555298,0.40101200342178345
129.0,-2.434981916929261,-1.547839565787718,-1.9618568775964254,-1.858297299511863,1.0202705787140287,-0.7086215533883374,0.7200241703540087,0.24424275755882263,0.6344979666173458,0.9151555895805359,0.016448404639959335,-0.03753715753555298,0.40101200342178345
130.0,-2.436009768224724,-1.5506146258356546,-1.9604482190907344,-1.8564303291658215,1.0196441646145058,-0.7095779282247819,0.7219757195562124,0.24484330415725708,0.6336840279400349,0.9151555895805359,0.016448404639959335,-0.03753715753555298,0.40101200342178345
131.0,-2.473191647792885,-1.5930217014572075,-1.9078142497007076,-1.9170113635990484,1.0906058287201799,-0.8247002944631776,0.7447027638554573,0.24112404882907867,0.6344279311597347,0.9140174984931946,0.0466855950653553,-0.11007609218358994,0.3876541256904602
132.0,-2.4736147769974135,-1.5924524223098877,-1.907625424644158,-1.917601614984455,1.0903315060193322,-0.8250635573968882,0.7446324303746223,0.24062517285346985,0.6349762938916683,0.9140174984931946,0.0466855950653553,-0.11007609218358994,0.3876541256904602
133.0,-2.445754710372932,-1.554185991247961,-1.9521843956366214,-1.8563323099335183,1.0137256175367138,-0.718681962142091,0.7290925923734903,0.24076426029205322,0.6375384479761124,0.9151555895805359,0.016448404639959335,-0.03753715753555298,0.40101200342178345
134.0,-2.4461852735889535,-1.698442935355206,-1.841121182754485,-2.2573136686041146,0.9792816528679622,-0.8209052910678037,0.7541467994451523,0.2554594874382019,0.608186487108469,0.8231555819511414,0.12803904712200165,-0.2051527053117752,0.5137445330619812
135.0,-2.485114596928184,-1.5980002294151787,-1.8980647741383203,-1.9170001345948953,1.0828968436449564,-0.8349763704880275,0.7535961121320724,0.23557686805725098,0.6381605863571167,0.9140174984931946,0.0466855950653553,-0.11007609218358994,0.3876541256904602
136.0,-2.481361597978387,-1.5957413558535294,-1.9013026308078285,-1.9175381931562863,1.0853187101788215,-0.8317327641200202,0.7504337430000305,0.23705674707889557,0.6373578272759914,0.9140174984931946,0.0466855950653553,-0.11007609218358994,0.3876541256904602
137.0,-2.482631444488919,-1.6005329747544839,-1.8994372543419265,-1.913686340359382,1.0845879003322438,-0.832804904005608,0.7536489516496658,0.23823483288288116,0.6353182420134544,0.9140946269035339,0.04660975560545921,-0.10994496941566467,0.38751864433288574
138.0,-2.489047657091775,-1.6069930457397639,-1.8932563082287355,-1.9108004469507007,1.0804546262587122,-0.8383618001267121,0.7604508921504021,0.23672743141651154,0.6352618485689163,0.9140946269035339,0.04660975560545921,-0.10994496941566467,0.38751864433288574
139.0,-2.4908101296493856,-1.6039053456096368,-1.8925501009958232,-1.9142866929287108,1.0792297868334033,-0.839914803885602,0.7597159296274185,0.2343008816242218,0.6380234472453594,0.9140174984931946,0.0466855950653553,-0.11007609218358994,0.3876541256904602
140.0,-2.525429271300169,-1.640304818082449,-1.846963542465623,-1.9657120359927334,1.153406685942412,-0.9432016611795662,0.7789636701345444,0.22867268323898315,0.6377204209566116,0.9124069213867188,0.06976395845413208,-0.17524103820323944,0.3632318079471588
141.0,-2.5356338627045143,-1.6491393645601267,-1.8379736925859516,-1.9624911970784409,1.1465340793773033,-0.9514660105312323,0.7889081984758377,0.2248362898826599,0.6376620009541512,0.9124069213867188,0.06976395845413208,-0.17524103820323944,0.3632318079471588
142.0,-2.5378790704163023,-1.6528011197935355,-1.8355764939646249,-1.9605049981463465,1.145020903208831,-0.9532977124519088,0.7920432165265083,0.2246212512254715,0.6366306468844414,0.9124007821083069,0.06977079808712006,-0.17525312304496765,0.36323991417884827
143.0,-2.541741007357647,-1.6558510030696334,-1.8321467604276451,-1.9595820757245292,1.1424287234485346,-0.9564429280933237,0.7956690788269043,0.22301027178764343,0.6368254758417606,0.9124007821083069,0.06977079808712006,-0.17525312304496765,0.36323991417884827
144.0,-2.537756961065893,-1.654043272797617,-1.8353869457631986,-1.9594934142569758,1.1451029252378313,-0.9531983857391987,0.7926626950502396,0.22517819702625275,0.6358162015676498,0.9124007821083069,0.06977079808712006,-0.17525312304496765,0.36323991417884827
145.0,-2.5357887289513545,-1.652231283907859,-1.837181752690962,-1.9601703523239549,1.1464255168657036,-0.9515983959034175,0.7906749695539474,0.2258952558040619,0.6358786039054394,0.9124007821083069,0.06977079808712006,-0.17525312304496765,0.36323991417884827
146.0,-2.5333302933490933,-1.6496730873399352,-1.839473729711397,-1.9612568322554689,1.1480788572741358,-0.9496026005986904,0.7880346775054932,0.22667163610458374,0.6361408531665802,0.9124007821083069,0.06977079808712006,-0.17525312304496765,0.36323991417884827
147.0,-2.531612552676438,-1.6473739663466551,-1.8411815146879118,-1.962387877299043,1.1492393153492693,-0.9482032147428295,0.785917304456234,0.227017343044281,0.6366332098841667,0.9124069213867188,0.06976395845413208,-0.17524103820323944,0.3632318079471588
148.0,-2.52875030856596,-1.6444066575936716,-1.8438094972468266,-1.9636734574020045,1.1511672363880976,-0.9458856817399446,0.7828598544001579,0.22790715098381042,0.6369462385773659,0.9124069213867188,0.06976395845413208,-0.17524103820323944,0.3632318079471588
149.0,-2.4910987398322986,-1.6102117369424915,-1.8909880418058067,-1.9090100071028229,1.0791360437758057,-0.840143346190619,0.7632433325052261,0.2366984486579895,0.6346110887825489,0.9140946269035339,0.04660975560545921,-0.10994496941566467,0.38751864433288574
150.0,-2.52041447346886,-1.6419102564629884,-1.850100272436989,-1.962602467890225,1.156793318208483,-0.9391588512101192,0.7772961556911469,0.23279830813407898,0.6341829709708691,0.9124069213867188,0.06976395845413208,-0.17524103820323944,0.3632318079471588
151.0,-2.6507723448506106,-1.4640478574124436,-2.0467032531175566,-1.2480529376995675,1.531196166641083,-1.0796892702310534,0.7500323168933392,0.16601762175559998,0.6690517216920853,0.9995348453521729,0.0003161236527375877,-0.011128248646855354,0.028394097462296486
152.0,-2.654374279300217,-1.4675593028566998,-2.0436817060675185,-1.2474201799240057,1.5310292994518242,-1.0832901722440573,0.7532039247453213,0.1646520048379898,0.6690587624907494,0.9995348453521729,0.0003161236527375877,-0.011128248646855354,0.028394097462296486
153.0,-2.6483289385564066,-1.468513598875109,-2.0431909138198567,-1.2471961022726339,1.5313096547036824,-1.0772465914494047,0.7527533918619156,0.16955171525478363,0.6687901318073273,0.9995348453521729,0.0003161236527375877,-0.011128248646855354,0.028394097462296486
154.0,-2.652143028121657,-1.4703358513720144,-2.041522570414267,-1.246891333607617,1.531132606281223,-1.081059554994267,0.7547723986208439,0.16738241910934448,0.6688685417175293,0.9995348453521729,0.0003161236527375877,-0.011128248646855354,0.028394097462296486
155.0,-2.623048994283015,-1.503540437773213,-1.9943390209010148,-1.3705550318398576,1.4460182185416464,-1.0493351141774205,0.7679915130138397,0.18470653891563416,0.6661856323480606,0.9950242638587952,0.0034081616904586554,-0.03662361577153206,0.09259607642889023
156.0,-2.659065361073457,-1.4826275100008623,-2.0310485442766013,-1.2447966476450782,1.5308133618630007,-1.0879799668240202,0.7648938521742821,0.1668025255203247,0.6686761230230331,0.9995348453521729,0.00031610147561877966,-0.011127714067697525,0.028393471613526344
157.0,-2.666647557842436,-1.4877991766543948,-2.0263553884782466,-1.244013814314154,1.530465220504546,-1.095560277979756,0.7700421139597893,0.16294609010219574,0.6687808111310005,0.9995348453521729,0.00031610147561877966,-0.011127714067697525,0.028393471613526344
158.0,-2.645922287590697,-1.5223058877668607,-1.9731274742747245,-1.3872735502939524,1.4654484034594641,-1.0748236705798093,0.7830759137868881,0.1764594465494156,0.6665649190545082,0.9949949979782104,0.004327778704464436,-0.04975219815969467,0.08655130863189697
159.0,-2.6722281524937403,-1.4870780351209907,-2.026687759127849,-1.244176914446893,1.53021046182737,-1.1011396203883395,0.7705291956663132,0.15839417278766632,0.6690288484096527,0.9995348453521729,0.00031610147561877966,-0.011127714067697525,0.028393471613526344
160.0,-2.5392380309572635,-1.6574770745507137,-1.8335611248937524,-1.9573871817866195,1.1441083270322838,-0.9544036231416982,0.7952966317534447,0.22541674971580505,0.6345225870609283,0.9124007821083069,0.06977079808712006,-0.17525312304496765,0.36323991417884827
161.0,-2.679210896079807,-1.4934841948138204,-2.019722395344353,-1.2499908229841064,1.5366898483479043,-1.1083528928621658,0.7754675149917603,0.15604569017887115,0.6690182536840439,0.9995319843292236,0.000402332516387105,-0.01512571144849062,0.026586798951029778
162.0,-2.6836286397227527,-1.4958362248544859,-2.0175420756257894,-1.2496680794334314,1.536465819095604,-1.1127675367688246,0.7779591009020805,0.1534719169139862,0.669079914689064,0.9995319843292236,0.000402332516387105,-0.01512571144849062,0.026586798951029778
163.0,-2.5733670487692013,-1.6866081360835874,-1.793521663165737,-2.0028467544373485,1.219014339672743,-1.0428337979738378,0.8113560527563095,0.21647042036056519,0.635626781731844,0.9108814597129822,0.08411827683448792,-0.2313362956047058,0.3312138319015503
164.0,-2.5743518229659026,-1.6871531482986541,-1.79276998827473,-2.0027937608493764,1.2183284800547511,-1.043586657992279,0.8121264278888702,0.21590876579284668,0.6357441022992134,0.9108814597129822,0.08411827683448792,-0.2313362956047058,0.3312138319015503
165.0,-2.5749780495869685,-1.685746749123891,-1.7926539653608162,-2.0041507449430696,1.217892431394145,-1.0440656058854807,0.8116329908370972,0.21492546796798706,0.6369496919214725,0.9108814597129822,0.08411827683448792,-0.2313362956047058,0.3312138319015503
166.0,-2.5780504996181355,-1.6894033170997202,-1.7898897831510852,-2.002443059424936,1.2157541304044177,-1.0464176971806147,0.8151346743106842,0.21386250853538513,0.6360620595514774,0.9108814597129822,0.08411827683448792,-0.2313362956047058,0.3312138319015503
167.0,-2.5813021855219596,-1.6917993004538996,-1.7872483685594074,-2.0018190778437175,1.2134930560413588,-1.048911065325289,0.8180165141820908,0.21219918131828308,0.6360834985971451,0.9108814597129822,0.08411827683448792,-0.2313362956047058,0.3312138319015503
168.0,-2.587833869383537,-1.6963812927229924,-1.7819813565740323,-2.000518583001957,1.2089742336619247,-1.0538676476184763,0.8237098604440689,0.20875829458236694,0.6362739093601704,0.9109262228012085,0.08406827598810196,-0.23124045133590698,0.3311704099178314
169.0,-2.685809687824264,-1.498367258074641,-2.01530346168549,-1.2493007298187735,1.5363554616831352,-1.1149470795210479,0.7801945805549622,0.15268850326538086,0.6690539568662643,0.9995319843292236,0.000402332516387105,-0.01512571144849062,0.026586798951029778
170.0,-2.6867167205797817,-1.503748206937814,-2.0106850806514482,-1.2485130287261914,1.5363079666503439,-1.1158535365871103,0.7843145802617073,0.15392006933689117,0.6688636392354965,0.9995319247245789,0.00040242719114758074,-0.015128087252378464,0.02658887393772602
171.0,-2.6832485453146773,-1.502967811177975,-2.0115090223045877,-1.2485886845618437,1.53648344028484,-1.112387752749664,0.783134438097477,0.15635289251804352,0.6687697917222977,0.9995319247245789,0.00040242719114758074,-0.015128087252378464,0.02658887393772602
172.0,-2.682438245486022,-1.5046634112495276,-2.0100985966729277,-1.2483312724061923,1.536524497137297,-1.1115780176791679,0.7842400372028351,0.15760384500026703,0.6686696857213974,0.9995319247245789,0.00040242719114758074,-0.015128087252378464,0.02658887393772602
173.0,-2.652345350927511,-1.5289941490181416,-1.9672380904862212,-1.3858018101582241,1.4643618479222047,-1.0811898221507552,0.7892854809761047,0.1739484816789627,0.666384756565094,0.9949949979782104,0.004327778704464436,-0.04975219815969467,0.08655130863189697
174.0,-2.6584616194033135,-1.5191997363384022,-1.9879502450623703,-1.3117622680356498,1.5027893191273722,-1.0874858526036641,0.7873099148273468,0.1742008775472641,0.6666567400097847,0.9980048537254333,0.001720330910757184,-0.03134007006883621,0.05478285998106003
175.0,-2.660905850040154,-1.5200976077553032,-1.9870282242273904,-1.311495935507253,1.502565493296817,-1.0899200909251292,0.7884842231869698,0.17262870073318481,0.666756346821785,0.9980087876319885,0.0017163529992103577,-0.03129313141107559,0.05473838374018669
176.0,-2.662834376300138,-1.521997228935692,-1.9852837240463714,-1.3113341280449398,1.5023250444857916,-1.0918440357851957,0.7902496755123138,0.1718103587627411,0.6667356789112091,0.9980048537254333,0.001720330910757184,-0.03134007006883621,0.05478285998106003
177.0,-2.672318784425677,-1.5245584857469867,-1.9823486910478825,-1.310932147807199,1.5013597714836862,-1.1012960976547155,0.7940830811858177,0.16527661681175232,0.6672154068946838,0.9980087876319885,0.0017163529992103577,-0.03129313141107559,0.05473838374018669
178.0,-2.6770257970279925,-1.5273011963712817,-1.9796675138452966,-1.3105438981685078,1.5008650985111567,-1.105988432841616,0.7970336526632309,0.1625450849533081,0.6673313230276108,0.9980087876319885,0.0017163529992103577,-0.03129313141107559,0.05473838374018669
179.0,-2.6760347622779825,-1.5292370665154238,-1.9781455794736889,-1.3103230280885845,1.5009314029624665,-1.1050021125854492,0.7982316464185715,0.1640293002128601,0.667092390358448,0.9980048537254333,0.001720330910757184,-0.03134007006883621,0.05478285998106003
180.0,-2.675768074315799,-1.5335840002832775,-1.9745912793470555,-1.3095489497982913,1.5009594402260755,-1.1047362542022603,0.8013435304164886,0.16583342850208282,0.666697695851326,0.9980048537254333,0.001720330910757184,-0.03134007006883621,0.05478285998106003
181.0,-2.677182268028735,-1.5342272968007677,-1.9739259359556047,-1.309472515664224,1.50081082032018,-1.1061460607249354,0.8021031990647316,0.16493789851665497,0.6667487472295761,0.9980048537254333,0.001720330910757184,-0.03134007006883621,0.05478285998106003
182.0,-2.678643346818186,-1.5319069798692335,-1.9757034596788356,-1.3099133413262358,1.500657418809485,-1.1076026377133081,0.8007079660892487,0.16292314231395721,0.6670587509870529,0.9980048537254333,0.001720330910757184,-0.03134007006883621,0.05478285998106003
183.0,-2.6684540366093947,-1.5434246378039722,-1.9538843526216187,-1.3833779638548596,1.4614810503029294,-1.0971654580233443,0.8032299801707268,0.1664721667766571,0.6663032025098801,0.9949746131896973,0.0043467809446156025,-0.0498771145939827,0.08671184629201889
184.0,-2.668083877785835,-1.5417450811519475,-1.9552238271475038,-1.3837580863690369,1.4615430609210076,-1.0967983402367472,0.8019462749361992,0.16615401208400726,0.6664883941411972,0.9949746131896973,0.0043467809446156025,-0.0498771145939827,0.08671184629201889
185.0,-2.678110602799166,-1.5503274617551899,-1.9440871823119534,-1.3996071409021067,1.4841877344122152,-1.109295603411404,0.8070289790630341,0.16372008621692657,0.6663508638739586,0.9949411153793335,0.004911766853183508,-0.061851970851421356,0.07900992035865784
186.0,-2.6786800750068065,-1.5520516470712775,-1.9427019512558048,-1.3992195258888531,1.4840848809942038,-1.1098578201345872,0.8083903715014458,0.1638757884502411,0.6661558598279953,0.9949411153793335,0.004911766853183508,-0.061851970851421356,0.07900992035865784
187.0,-2.6809755045247092,-1.5523726508726232,-1.9421555352502924,-1.3992482035270204,1.4836705761146332,-1.1121241062520617,0.8091240227222443,0.16212710738182068,0.6663459539413452,0.9949411153793335,0.004911766853183508,-0.061851970851421356,0.07900992035865784
188.0,-2.6936891770745204,-1.5113917838097306,-2.003802259508845,-1.247510788576035,1.5359564473462648,-1.1228213122860227,0.7911722958087921,0.1511760950088501,0.6688021644949913,0.9995319247245789,0.00040242719114758074,-0.015128087252378464,0.02658887393772602
189.0,-2.6979054596851797,-1.5141758280537487,-2.0011978226726783,-1.2471839657771222,1.535744700641978,-1.127034846976547,0.793958954513073,0.1488276720046997,0.6688428819179535,0.9995319247245789,0.00040242719114758074,-0.015128087252378464,0.02658887393772602
190.0,-2.7032636790912576,-1.5154053439912345,-1.9988224354277568,-1.2528562633291653,1.5428490862434483,-1.1326169718218349,0.7948467135429382,0.14582908153533936,0.668961763381958,0.9995284676551819,0.0004568542935885489,-0.01883009262382984,0.02425048127770424
191.0,-2.699431994089631,-1.5101733953929912,-2.004587277700982,-1.2477434228436064,1.535668189397817,-1.1285604018730295,0.7912324815988541,0.14620454609394073,0.6690651476383209,0.9995319247245789,0.00040242719114758074,-0.015128087252378464,0.02658887393772602
192.0,-2.619836994094474,-1.7248546046655686,-1.7470004411735862,-2.0349529005934044,1.2854970663500227,-1.1255491277222198,0.8392878174781799,0.20056235790252686,0.6343786902725697,0.9100065231323242,0.08986541628837585,-0.27807947993278503,0.29408183693885803
193.0,-2.6200070099484836,-1.7216602978922937,-1.7475626658042371,-2.037550033366013,1.2853757694997034,-1.1256732805440408,0.8375182449817657,0.19936244189739227,0.6366159282624722,0.9100065231323242,0.08986541628837585,-0.27807947993278503,0.29408183693885803
194.0,-2.5671056970183947,-1.8060849998152344,-1.7049401254578846,-2.331235043906315,1.1319985153480994,-1.172511280562255,0.8350197821855545,0.22299592196941376,0.6077487245202065,0.8109269142150879,0.18860016763210297,-0.37600263953208923,0.4067549407482147
195.0,-2.6215903925336876,-1.7233598160974064,-1.7462763406401622,-2.036810537948387,1.2842463144341556,-1.1268299589886699,0.8391805291175842,0.19861504435539246,0.636145893484354,0.9100065231323242,0.08986541628837585,-0.27807947993278503,0.29408183693885803
196.0,-2.714365835150515,-1.5193934913005553,-1.994906830084106,-1.252470467006373,1.5422438859271763,-1.1437070452795917,0.7996087148785591,0.13834641873836517,0.6691458374261856,0.9995284676551819,0.0004568542935885489,-0.01883009262382984,0.02425048127770424
197.0,-2.710748686013999,-1.5182449556918522,-1.9960548794185573,-1.2525737512098394,1.5424406819569232,-1.1400937910302278,0.7981769219040871,0.14084552228450775,0.6690783798694611,0.9995284676551819,0.0004568542935885489,-0.01883009262382984,0.02425048127770424
198.0,-2.7115351387761235,-1.519726392939346,-1.9947362982207075,-1.2523886050666813,1.542397862334034,-1.1408793935109531,0.799413375556469,0.1407269388437271,0.6690375357866287,0.9995284676551819,0.0004568542935885489,-0.01883009262382984,0.02425048127770424
199.0,-2.7080491859750295,-1.523446789547722,-1.9916440048380135,-1.2518486355277665,1.542589318461925,-1.1373970847959156,0.8016478195786476,0.1448090374469757,0.668754979968071,0.999528706073761,0.00045669334940612316,-0.01882569119334221,0.024247612804174423
200.0,-2.709968994191187,-1.5251392687551248,-1.9900837196745187,-1.2516622551898984,1.5424846958960179,-1.1393148057940312,0.803230881690979,0.14385376870632172,0.6687417328357697,0.999528706073761,0.00045669334940612316,-0.01882569119334221,0.024247612804174423
201.0,-2.691205953923331,-1.5582387558654904,-1.936305300001163,-1.3983439815994105,1.4818295144479676,-1.1222266692952194,0.8155595436692238,0.15585701167583466,0.6665526330471039,0.9949411153793335,0.004911766853183508,-0.061851970851421356,0.07900992035865784
202.0,-2.6848882807873977,-1.5536928129518128,-1.9406317517856577,-1.3991142847903675,1.482965381874277,-1.1159875830816226,0.8109232410788536,0.15941457450389862,0.6665582954883575,0.9949411153793335,0.004911766853183508,-0.061851970851421356,0.07900992035865784
203.0,-2.6880622132289154,-1.5436255083672685,-1.9631190919646253,-1.3194342728411226,1.5148417966495185,-1.1179811273676215,0.8091880679130554,0.1612069010734558,0.6666196137666702,0.9979906678199768,0.0019476007437333465,-0.03887691721320152,0.049995921552181244
204.0,-2.696290490872914,-1.5509366151657122,-1.9563227844433313,-1.3184806207654722,1.5139053312811506,-1.1261700373269272,0.8161828890442848,0.15710188448429108,0.6664873212575912,0.9979898929595947,0.0019483375363051891,-0.03888637199997902,0.05000263825058937
205.0,-2.707285825664307,-1.5570955005889342,-1.9501870159491497,-1.3178284854521716,1.5126650894260811,-1.1371132937177897,0.822849951684475,0.15022189915180206,0.6666602343320847,0.9979898929595947,0.0019483375363051891,-0.03888637199997902,0.05000263825058937
206.0,-2.693650943288207,-1.560941423744985,-1.9339813414252758,-1.397349836536206,1.4815263497243427,-1.1246292037298298,0.8180724307894707,0.15483637154102325,0.6664033979177475,0.9949620962142944,0.00489063560962677,-0.06170092150568962,0.07886424660682678
207.0,-2.694286739180694,-1.561114789208258,-1.933672886533714,-1.397829162107189,1.4812768607499434,-1.1252695891519804,0.8182975053787231,0.15433451533317566,0.6664561256766319,0.9949411153793335,0.004911766853183508,-0.061851970851421356,0.07900992035865784
208.0,-2.694500531343508,-1.5619052970193719,-1.9331210029690105,-1.3971714193813922,1.4813743769021612,-1.1254684364097938,0.8189518675208092,0.15447412431240082,0.6663521379232407,0.9949620962142944,0.00489063560962677,-0.06170092150568962,0.07886424660682678
209.0,-2.7168298907921233,-1.5285592320489425,-1.9867926725266456,-1.251338051766884,1.5421116551738883,-1.146168336259552,0.8069038689136505,0.13949982821941376,0.6688148528337479,0.999528706073761,0.00045669334940612316,-0.01882569119334221,0.024247612804174423
210.0,-2.7256818714268833,-1.5318373507127026,-1.9835236251845805,-1.2510732454957945,1.5416323472550553,-1.1550110296121419,0.8107556104660034,0.13344073295593262,0.6689640656113625,0.999528706073761,0.00045669334940612316,-0.01882569119334221,0.024247612804174423
211.0,-2.7185292201750184,-1.5259359882922472,-1.9890222795631955,-1.2516933183819055,1.542017832547609,-1.1478659974841816,0.8051869422197342,0.13723330199718475,0.6689896658062935,0.9995284676551819,0.0004568542935885489,-0.01883009262382984,0.02425048127770424
212.0,-2.716326193104582,-1.5226934403688093,-1.99195156533203,-1.2520697728169534,1.542137385437982,-1.1456653092945261,0.8023981153964996,0.13790179789066315,0.6690623015165329,0.9995284676551819,0.0004568542935885489,-0.01883009262382984,0.02425048127770424
213.0,-2.7182156108914817,-1.5223190490354908,-1.9921984619734538,-1.2521430869683299,1.5420348428663393,-1.1475527202261575,0.8024087697267532,0.1362561732530594,0.6691418588161469,0.9995284676551819,0.0004568542935885489,-0.01883009262382984,0.02425048127770424
214.0,-2.631126668502346,-1.730401022904332,-1.7390085728678653,-2.0353416199542886,1.2774491706468227,-1.1339133452920163,0.8473130166530609,0.19296634197235107,0.6355798840522766,0.909943699836731,0.08992983400821686,-0.27821972966194153,0.29412388801574707
215.0,-2.6315418292763115,-1.7294257971862286,-1.7390434341887144,-2.0358929287479586,1.277156157300478,-1.1341173615379823,0.8469639420509338,0.1923249065876007,0.6363737434148788,0.9100065231323242,0.08986541628837585,-0.27807947993278503,0.29408183693885803
216.0,-2.6329017216793478,-1.7307409999872103,-1.7378622453026737,-2.035770554781886,1.2761855430741627,-1.1352158436272672,0.848269522190094,0.19159147143363953,0.6361318565905094,0.909943699836731,0.08992983400821686,-0.27821972966194153,0.29412388801574707
217.0,-2.638218306099475,-1.7331823302325442,-1.734091674990626,-2.035958199882303,1.2724035973193302,-1.1391230434537138,0.8519601374864578,0.18791982531547546,0.636839471757412,0.909943699836731,0.08992983400821686,-0.27821972966194153,0.29412388801574707
218.0,-2.6384710025584197,-1.73704089742528,-1.7330707307166306,-2.0330658993174686,1.2722239485078268,-1.1393089774477583,0.8543284684419632,0.18895161151885986,0.6343433894217014,0.909943699836731,0.08992983400821686,-0.27821972966194153,0.29412388801574707
219.0,-2.6737173171519393,-1.7608768660736556,-1.7012955506026939,-2.062043217580429,1.3464584831682989,-1.1996090381166362,0.8691695332527161,0.1755259484052658,0.6340450495481491,0.909765899181366,0.08826572448015213,-0.3164603114128113,0.25374794006347656
220.0,-2.6755845347153273,-1.761521296871057,-1.7001620065362157,-2.062238166475062,1.345103920793624,-1.2009274443964186,0.8702626675367355,0.1740603744983673,0.634310457855463,0.909765899181366,0.08826572448015213,-0.3164603114128113,0.25374794006347656
221.0,-2.7355726486702663,-1.5391085813919088,-1.9758344194128437,-1.2549780592916833,1.548681256008594,-1.1650898932468712,0.8169398456811905,0.1287071406841278,0.6689165458083153,0.9995251297950745,0.00047473330050706863,-0.022060129791498184,0.021509749814867973
222.0,-2.7337392755129923,-1.5422496958734708,-1.9731011308955817,-1.2546245393457396,1.54878623706906,-1.1632593372932982,0.8190727904438972,0.13124647736549377,0.6687128841876984,0.9995250105857849,0.0004749345243908465,-0.022066425532102585,0.021512724459171295
223.0,-2.713685016078993,-1.573000375464326,-1.9194251485677207,-1.4096742188884763,1.5031750487968594,-1.1466421606851462,0.8279992640018463,0.14526484906673431,0.6666329056024551,0.9949278831481934,0.005068921949714422,-0.07229068130254745,0.0697629526257515
224.0,-2.702103136426079,-1.5680693988186198,-1.9272912584381707,-1.3961612326267734,1.4800172376569478,-1.1329793970089814,0.8250363171100616,0.1503327190876007,0.6662603616714478,0.9949620962142944,0.00489063560962677,-0.06170092150568962,0.07886424660682678
225.0,-2.715516103714371,-1.576504709258088,-1.9164809104947134,-1.4089920252333148,1.5028298613868545,-1.148444557802761,0.8309294134378433,0.14489994943141937,0.6662568151950836,0.9949278831481934,0.005068921949714422,-0.07229068130254745,0.0697629526257515
226.0,-2.719168797884222,-1.577695914169981,-1.91511785607538,-1.408918440611868,1.5021419325577352,-1.1520402728081802,0.8325142115354538,0.14222468435764313,0.6664063185453415,0.9949278831481934,0.005068921949714422,-0.07229068130254745,0.0697629526257515
227.0,-2.72262807807657,-1.5782911277319118,-1.9142404800568522,-1.4089658695193574,1.501491246026889,-1.1554459043439502,0.8336152881383896,0.13950775563716888,0.6666324213147163,0.9949278831481934,0.005068921949714422,-0.07229068130254745,0.0697629526257515
228.0,-2.7365623984513756,-1.5429178953597436,-1.9723981275842781,-1.254597069849215,1.548623841106194,-1.1660784733951541,0.8199969753623009,0.12914513051509857,0.6687626466155052,0.9995250105857849,0.0004749345243908465,-0.022066425532102585,0.021512724459171295
229.0,-2.737114708930999,-1.5405019251279077,-1.9745364623579078,-1.2548485524059638,1.5485926132503691,-1.1666297816629951,0.8182281702756882,0.12789930403232574,0.6688944697380066,0.9995251297950745,0.00047473330050706863,-0.022060129791498184,0.021509749814867973
230.0,-2.7285200393095845,-1.5820145390628109,-1.9106079575966166,-1.408470040504753,1.5003848239054642,-1.1612471986136426,0.8374790102243423,0.1357472985982895,0.6666035577654839,0.9949278831481934,0.005068921949714422,-0.07229068130254745,0.0697629526257515
231.0,-2.7418277546504997,-1.572898013547169,-1.932355825537364,-1.3257170983082587,1.5245729313705563,-1.1723433204699116,0.8389303386211395,0.12851667404174805,0.6672020703554153,0.9979751110076904,0.002023999812081456,-0.04562000557780266,0.044276658445596695
232.0,-2.731936870693573,-1.5841235873556339,-1.9085293913918182,-1.408201767777067,1.4997442738674216,-1.1646118645039698,0.8396783471107483,0.13353322446346283,0.6665975973010063,0.9949278831481934,0.005068921949714422,-0.07229068130254745,0.0697629526257515
233.0,-2.7446088282082197,-1.5431016207054853,-1.9719326546163696,-1.2546849038828276,1.5481625796107013,-1.1741134328615834,0.8212814480066299,0.12257979810237885,0.6689889058470726,0.9995251297950745,0.00047473330050706863,-0.022060129791498184,0.021509749814867973
234.0,-2.7451231825831828,-1.5419578375692775,-1.9729351914032542,-1.2548145180331132,1.5481331107071543,-1.1746270740750624,0.8204734325408936,0.12178780883550644,0.6690587252378464,0.9995251297950745,0.00047473330050706863,-0.022060129791498184,0.021509749814867973
235.0,-2.746445484522735,-1.5407903678502504,-1.9739265173347644,-1.2549606882557571,1.5480573795195778,-1.175947545770461,0.8197575658559799,0.12032468616962433,0.6691534072160721,0.9995251297950745,0.00047473330050706863,-0.022060129791498184,0.021509749814867973
236.0,-2.680981596433878,-1.7661066611523224,-1.6962494320782928,-2.0607042867081256,1.3411907951028126,-1.2047428362715384,0.8750448822975159,0.17061747610569,0.6331814303994179,0.909765899181366,0.08826572448015213,-0.3164603114128113,0.25374794006347656
237.0,-2.7534607778327675,-1.5456828543636283,-1.9692810049067082,-1.2545530212458964,1.547656264103921,-1.182953205333361,0.824470654129982,0.11609425395727158,0.6691275984048843,0.9995251297950745,0.00047473330050706863,-0.022060129791498184,0.021509749814867973
238.0,-2.683637625398292,-1.7671639009687006,-1.694574571699165,-2.0608922229737083,1.3392662309081234,-1.2066230416038344,0.8766802400350571,0.1685546487569809,0.6334784142673016,0.909765899181366,0.08826572448015213,-0.3164603114128113,0.25374794006347656
239.0,-2.6837791017485424,-1.7669814804475152,-1.6945394243535699,-2.061086793478793,1.3391637389480326,-1.2067232405780368,0.8766241520643234,0.16837407648563385,0.6336620971560478,0.909765899181366,0.08826572448015213,-0.3164603114128113,0.25374794006347656
240.0,-2.6836799087535046,-1.764839641149073,-1.6950770298311508,-2.0627071525518246,1.3392355986703595,-1.2066529877893235,0.8753021955490112,0.16782976686954498,0.6351282596588135,0.909765899181366,0.08826572448015213,-0.3164603114128113,0.25374794006347656
241.0,-2.680255730492227,-1.760266318593113,-1.6978921519173271,-2.0651957667503873,1.3417264908358704,-1.2042885768139038,0.8712483942508698,0.16951687633991241,0.637035645544529,0.9097288250923157,0.08829846978187561,-0.31654539704322815,0.25376346707344055
242.0,-2.683886322921415,-1.7637344200055889,-1.695212300853964,-2.063643540930983,1.3390860645046088,-1.2067991819495254,0.8747162371873856,0.16731835901737213,0.6359865367412567,0.909765899181366,0.08826572448015213,-0.3164603114128113,0.25374794006347656
243.0,-2.6886899734103404,-1.764677801751103,-1.6923845492429628,-2.064740180028853,1.3356074765497272,-1.2102043271887202,0.8770760297775269,0.16329602897167206,0.6372217498719692,0.909765899181366,0.08826572448015213,-0.3164603114128113,0.25374794006347656
244.0,-2.732484622375211,-1.7880148061099488,-1.6608743349135069,-2.0878661317584286,1.4042512417162296,-1.2652612002982355,0.8945727944374084,0.1409016102552414,0.6373559385538101,0.9101245403289795,0.08054035156965256,-0.3473505973815918,0.21103104948997498
245.0,-2.7257856178355686,-1.786615180385574,-1.6642860667569983,-2.086606880272598,1.4091708197815351,-1.260652377860601,0.8915863931179047,0.14681679010391235,0.6361366361379623,0.9101245403289795,0.08054035156965256,-0.3473505973815918,0.21103104948997498
246.0,-2.7210684864740595,-1.7858215620676605,-1.6666140556066584,-2.085588496836247,1.4126369881435856,-1.2574115048528698,0.889585942029953,0.15101881325244904,0.6351623423397541,0.9101245403289795,0.08054035156965256,-0.3473505973815918,0.21103104948997498
247.0,-2.722034089200219,-1.787051557647686,-1.6659029029676884,-2.0849649801610393,1.4119273250406978,-1.258074621367926,0.8906482458114624,0.15045033395290375,0.6345868520438671,0.9101245403289795,0.08054035156965256,-0.3473505973815918,0.21103104948997498
248.0,-2.7556654786489845,-1.5470608080391193,-1.9679576257579232,-1.2544473652939312,1.5475304388331474,-1.185154905280707,0.8258263170719147,0.11470293998718262,0.6691277027130127,0.9995251297950745,0.00047473330050706863,-0.022060129791498184,0.021509749814867973
249.0,-2.7565068543483315,-1.5510849848946406,-1.9642919838590618,-1.2540831670658454,1.5474816583579425,-1.1859953489220674,0.8290518969297409,0.11526834964752197,0.668960839509964,0.9995250105857849,0.0004749345243908465,-0.022066425532102585,0.021512724459171295
250.0,-2.7605010999372395,-1.5542587264528545,-1.960609732900752,-1.2574306158644515,1.5553588996147136,-1.1901554847962104,0.8312866389751434,0.11397873610258102,0.6689060479402542,0.9995215535163879,0.00045642515760846436,-0.02493564784526825,0.01829536072909832
251.0,-2.7494855704444072,-1.5941153453066381,-1.8965601144950885,-1.4182295403433012,1.522618298099576,-1.183739123694632,0.8475720435380936,0.12493931502103806,0.6665654927492142,0.9948787093162537,0.00487492373213172,-0.0816187709569931,0.0594220906496048
252.0,-2.7654391923330097,-1.5574130790147227,-1.9575890539935592,-1.2572201127455715,1.5550634237276617,-1.1950853279315465,0.8343634307384491,0.11082029342651367,0.6688682436943054,0.9995215535163879,0.00045642515760846436,-0.02493564784526825,0.01829536072909832
253.0,-2.768044420171349,-1.5538040013339505,-1.9607771592961576,-1.2575999646768186,1.5549076908103703,-1.1976862220515538,0.8318723440170288,0.10753197222948074,0.6691131815314293,0.9995215535163879,0.00045642515760846436,-0.02493564784526825,0.01829536072909832
254.0,-2.775455179632592,-1.5582118387679764,-1.9565344358966832,-1.2573156665799028,1.5544652883965175,-1.20508472469278,0.8361954540014267,0.10265197604894638,0.6690762788057327,0.9995215535163879,0.00045642515760846436,-0.02493564784526825,0.01829536072909832
255.0,-2.775675301907088,-1.5599625919856692,-1.9549316911929346,-1.2571640678770877,1.5544521612370883,-1.205304484522286,0.8375917226076126,0.10299210250377655,0.6689940914511681,0.9995215535163879,0.00045642515760846436,-0.02493564784526825,0.01829536072909832
256.0,-2.778538372635813,-1.562190959831204,-1.9528335425908228,-1.2568421192354535,1.5542732162544508,-1.2081601755978861,0.8396854996681213,0.10124876350164413,0.6689535900950432,0.9995237588882446,0.000454617285868153,-0.024866515770554543,0.018273601308465004
257.0,-2.760719858283859,-1.5993581235509098,-1.891225525643814,-1.4177779798330292,1.5204277342236578,-1.1947711656322935,0.853357806801796,0.1168222650885582,0.6665960401296616,0.9948787093162537,0.00487492373213172,-0.0816187709569931,0.0594220906496048
258.0,-2.7559085901054594,-1.581489929304525,-1.922664804964862,-1.332027846977483,1.539476818405007,-1.1870671016263254,0.8460758477449417,0.12137185037136078,0.6670879125595093,0.9979612231254578,0.001944047398865223,-0.05146360397338867,0.0376981757581234
259.0,-2.7604061718529396,-1.5866485128677736,-1.9179018581522707,-1.3314911391184678,1.5389217814080312,-1.1915325327827184,0.8507001399993896,0.11911113560199738,0.6667816564440727,0.9979612231254578,0.001944047398865223,-0.05146360397338867,0.0376981757581234
260.0,-2.7614416412105225,-1.6016674094276349,-1.8892871423656157,-1.4174225822991924,1.5202808964649772,-1.1954828902209984,0.855209693312645,0.11688831448554993,0.6662820875644684,0.9948761463165283,0.0048772841691970825,-0.08164139837026596,0.059434227645397186
261.0,-2.7645836278654934,-1.6019622455905074,-1.8887330114604899,-1.4174738903653916,1.519675742295489,-1.1985659348127327,0.8559394478797913,0.11424558609724045,0.6664826646447182,0.9948787093162537,0.00487492373213172,-0.0816187709569931,0.0594220906496048
262.0,-2.7651831910891804,-1.6028135117059323,-1.8879740377509289,-1.4174026956972574,1.5195526245986057,-1.1991576341510604,0.8566720485687256,0.11397452652454376,0.6663945764303207,0.9948761463165283,0.0048772841691970825,-0.08164139837026596,0.059434227645397186
263.0,-2.7780459873028303,-1.5670847601995213,-1.9483553816824284,-1.2564345946685178,1.554302486903424,-1.207668594067595,0.84347203373909,0.1031266525387764,0.6686962991952896,0.9995237588882446,0.000454617285868153,-0.024866515770554543,0.018273601308465004
264.0,-2.781459330248971,-1.5676492248633913,-1.9477210096796846,-1.2564479515623825,1.5540996574916117,-1.2110763746486055,0.8443115949630737,0.10039900243282318,0.6687543839216232,0.9995237588882446,0.000454617285868153,-0.024866515770554543,0.018273601308465004
265.0,-2.7678400285048093,-1.6049313432975576,-1.8859868756356228,-1.417137687541109,1.5190359048369195,-1.2017671997138222,0.8586927056312561,0.11228746175765991,0.6662657260894775,0.9948761463165283,0.0048772841691970825,-0.08164139837026596,0.059434227645397186
266.0,-2.774335272931463,-1.592400319188695,-1.9119483400234931,-1.3312286425893431,1.5372066849790376,-1.205362626769148,0.8571227490901947,0.10883142054080963,0.6668993979692459,0.9979615807533264,0.0019437404116615653,-0.05145815759897232,0.037696219980716705
267.0,-2.785264871495433,-1.6008155818380658,-1.9029746007400492,-1.3354350755799997,1.5530539549008109,-1.2167744257673898,0.8637411147356033,0.10410512238740921,0.6665240079164505,0.9979491829872131,0.001712778932414949,-0.05633900314569473,0.0303389523178339
268.0,-2.7854548802070958,-1.6013925129524755,-1.9024556137456068,-1.3353716587751043,1.5530296148550065,-1.2169628396584673,0.8642149567604065,0.10410591214895248,0.6664702817797661,0.9979492425918579,0.0017127342289313674,-0.05633794888854027,0.030338726937770844
269.0,-2.7870344164644822,-1.5985543156423025,-1.9048719420935374,-1.3357676568660113,1.5528301411444994,-1.2185300393382277,0.8622020035982132,0.10190223157405853,0.6668332666158676,0.9979491829872131,0.001712778932414949,-0.05633900314569473,0.0303389523178339
270.0,-2.792361314148866,-1.6009957279532123,-1.9024322276381902,-1.3356692325596244,1.5521567269570995,-1.22381508496687,0.8647603243589401,0.09793579578399658,0.6667864173650742,0.9979491829872131,0.001712778932414949,-0.05633900314569473,0.0303389523178339
271.0,-2.791930469441517,-1.6162831444174681,-1.873258800959318,-1.4233786212146866,1.5415082454563334,-1.2267871468351914,0.8686090707778931,0.09797883033752441,0.6660689115524292,0.9948627948760986,0.0042777759954333305,-0.08917459100484848,0.04772436246275902
272.0,-2.7953015271588764,-1.6150592726688295,-1.8739041582966045,-1.42414784931436,1.5408308668596447,-1.2301094583911365,0.8680814057588577,0.09463128447532654,0.6664917021989822,0.994848370552063,0.004288805183023214,-0.08930923789739609,0.047774575650691986
273.0,-2.7959405766542265,-1.6151997226528652,-1.8737350768274625,-1.4241576702713854,1.540703460852683,-1.2307359612068376,0.8682721853256226,0.09410262107849121,0.6665088906884193,0.994848370552063,0.004288805183023214,-0.08930923789739609,0.047774575650691986
274.0,-2.7955760020661233,-1.6150083149223509,-1.8739221005554214,-1.424172795379959,1.5407761439088177,-1.2303785438502106,0.8680780678987503,0.09437348693609238,0.6665175259113312,0.994848370552063,0.004288805183023214,-0.08930923789739609,0.047774575650691986
275.0,-2.7993062490124645,-1.5749632164143887,-1.9399500068936786,-1.258796404406784,1.5613611990691296,-1.2290251955734315,0.8513538539409637,0.08842354267835617,0.6687634587287903,0.9995188117027283,0.0004021269269287586,-0.02729799412190914,0.014723916538059711
276.0,-2.7946508123948015,-1.5708783993821858,-1.943888399741523,-1.2588617568594203,1.5616243814836694,-1.2243757824010373,0.8476569205522537,0.0912446603178978,0.6688820421695709,0.9995206594467163,0.00040092068957164884,-0.02723580040037632,0.014713301323354244
277.0,-2.7959233889277706,-1.5694721899879023,-1.9451525474428975,-1.2589921186349147,1.5615465055578586,-1.225646027743852,0.8466732800006866,0.08975730091333389,0.6689795479178429,0.9995206594467163,0.00040092068957164884,-0.02723580040037632,0.014713301323354244
278.0,-2.7676458373090176,-1.8101793156453243,-1.6373798765053666,-2.0998737882336855,1.4803334050017478,-1.3055815367820878,0.9090899527072906,0.1258406788110733,0.632996778935194,0.9108163118362427,0.06792837381362915,-0.37158626317977905,0.16650310158729553
279.0,-2.7380018144647402,-1.793704793888922,-1.6569143969116278,-2.0857955414864926,1.4002347545440246,-1.2691540492410658,0.8997659087181091,0.13719110190868378,0.6351533979177475,0.9100626707077026,0.0805840715765953,-0.3474949896335602,0.21104352176189423
280.0,-2.7738382763147795,-1.8090393775176943,-1.6352913772219437,-2.1029468716285034,1.4757853110395662,-1.309822678005518,0.9099469780921936,0.1194966733455658,0.6355161964893341,0.9107682704925537,0.06795268505811691,-0.37169915437698364,0.16650331020355225
281.0,-2.773518443701819,-1.8062795666106042,-1.6360363621080627,-2.104982131342141,1.4760223801291146,-1.3096070192863978,0.9081384390592575,0.1191440224647522,0.6374741196632385,0.9107682704925537,0.06795268505811691,-0.37169915437698364,0.16650331020355225
282.0,-2.777059558357796,-1.8077768049485707,-1.634368950733028,-2.1049231769951997,1.4733978513657453,-1.311995291540106,0.9099792391061783,0.11603961884975433,0.6373150087893009,0.9107682704925537,0.06795268505811691,-0.37169915437698364,0.16650331020355225
283.0,-2.77898808138736,-1.8083842740284384,-1.6335010634704656,-2.1050561363725624,1.4719687406273956,-1.3132964793068433,0.9108488708734512,0.11429543793201447,0.6373868212103844,0.9107682704925537,0.06795268505811691,-0.37169915437698364,0.16650331020355225
284.0,-2.77734518077131,-1.8083776639053117,-1.6341246900439348,-2.104547820538061,1.4731861836299338,-1.3121879798961367,0.9104284793138504,0.1159035712480545,0.636947076767683,0.9107682704925537,0.06795268505811691,-0.37169915437698364,0.16650331020355225
285.0,-2.7787329109203878,-1.8126940921043988,-1.6326620527318525,-2.1013707401021837,1.472116857708471,-1.313058864648206,0.9135248959064484,0.1155792772769928,0.6340870074927807,0.9108163118362427,0.06792837381362915,-0.37158626317977905,0.16650310158729553
286.0,-2.7765381937928177,-1.8117840706441337,-1.6337036744079818,-2.1013838578202217,1.4737429251638534,-1.311577773275555,0.9123947322368622,0.11751709878444672,0.6341675817966461,0.9108163118362427,0.06792837381362915,-0.37158626317977905,0.16650310158729553
287.0,-2.8023051874475122,-1.5701489002575997,-1.9443560873234855,-1.259051703396053,1.5611561959811449,-1.2320161635629028,0.8478382676839828,0.08450343459844589,0.6690709516406059,0.9995206594467163,0.00040092068957164884,-0.02723580040037632,0.014713301323354244
288.0,-2.802762872508655,-1.573482502949947,-1.9412590942116679,-1.2588106833951687,1.5611282188945022,-1.2324730140260336,0.8505298942327499,0.08504579216241837,0.6689081639051437,0.9995206594467163,0.00040092068957164884,-0.02723580040037632,0.014713301323354244
289.0,-2.8072665359302906,-1.5730662253518026,-1.9415219413874945,-1.2589200332672592,1.56085303029963,-1.2369684782162351,0.8506245911121368,0.08107233792543411,0.6690201759338379,0.9995206594467163,0.00040092068957164884,-0.02723580040037632,0.014713301323354244
290.0,-2.8081708066358604,-1.5726008201467387,-1.9419283411808934,-1.258970038810187,1.5607978004399796,-1.237871105577746,0.8503374606370926,0.08016937226057053,0.669062465429306,0.9995206594467163,0.00040092068957164884,-0.02723580040037632,0.014713301323354244
291.0,-2.807883319637564,-1.575762189806418,-1.9389732350766078,-1.2588911774535199,1.5608359292624125,-1.2375865695039892,0.8528157323598862,0.0812872126698494,0.6688941568136215,0.9995188117027283,0.0004021269269287586,-0.02729799412190914,0.014723916538059711
292.0,-2.8116360586909233,-1.5745840765844008,-1.9399644192849477,-1.2590403663983765,1.5606063344578205,-1.2413324686404772,0.8522183448076248,0.07774180173873901,0.669031448662281,0.9995188117027283,0.0004021269269287586,-0.02729799412190914,0.014723916538059711
293.0,-2.8165255908208704,-1.5809453619887328,-1.9338949618127002,-1.2586980760301343,1.560307404964724,-1.2462131152276792,0.8577335327863693,0.07525933533906937,0.6688032373785973,0.9995188117027283,0.0004021269269287586,-0.02729799412190914,0.014723916538059711
294.0,-2.8032314622096073,-1.6179546392982769,-1.8708571066988449,-1.4240604591503294,1.5392507396354753,-1.2378840473281696,0.8713153898715973,0.08836976438760757,0.6665189117193222,0.994848370552063,0.004288805183023214,-0.08930923789739609,0.047774575650691986
295.0,-2.8003706824633636,-1.6163277412427057,-1.8724341215707931,-1.4241980088291275,1.5398205668948697,-1.2350792224208749,0.8697055280208588,0.09047465771436691,0.6666043773293495,0.994848370552063,0.004288805183023214,-0.08930923789739609,0.047774575650691986
296.0,-2.806824771384353,-1.610153983353285,-1.893493749182045,-1.3351667485950183,1.5503307097423185,-1.2381654971048957,0.8736238330602646,0.08774231374263763,0.6664067804813385,0.9979492425918579,0.0017127342289313674,-0.05633794888854027,0.030338726937770844
297.0,-2.8120173200883927,-1.609106651188942,-1.894135089033851,-1.3354656183596891,1.5496762609846593,-1.243317752347961,0.87336365878582,0.08285731077194214,0.6667354479432106,0.9979492425918579,0.0017127342289313674,-0.05633794888854027,0.030338726937770844
298.0,-2.825497456467209,-1.609595211187294,-1.8926227548209376,-1.3384759531845731,1.5656949353116207,-1.2570651721103339,0.8739524036645889,0.07353056222200394,0.667109988629818,0.9979388117790222,0.0013430999824777246,-0.06016721948981285,0.022276774048805237
299.0,-2.8222705651682065,-1.6263411633170206,-1.8618524987610978,-1.4272105178897505,1.5634023668657406,-1.25745512080294,0.8782164454460144,0.07746756076812744,0.6661834418773651,0.994840145111084,0.0033496457617729902,-0.09516070783138275,0.035018257796764374
300.0,-2.8220377470193383,-1.6242255284586409,-1.8636087740416138,-1.4275715582403026,1.5634493086729817,-1.257227077866425,0.8765514343976974,0.07713468372821808,0.6665288060903549,0.994840145111084,0.0033496457617729902,-0.09516070783138275,0.035018257796764374
301.0,-2.822780025618196,-1.6254644384440917,-1.8625423214556207,-1.427393704801028,1.563299648579796,-1.2579541325273484,0.8775887936353683,0.07678328454494476,0.6663537472486496,0.994840145111084,0.0033496457617729902,-0.09516070783138275,0.035018257796764374
302.0,-2.824831610799892,-1.6264670361818991,-1.8615848896636846,-1.4273330587131892,1.5628860236274642,-1.2599636488245303,0.8785765171051025,0.07518825680017471,0.6662775501608849,0.994840145111084,0.0033496457617729902,-0.09516070783138275,0.035018257796764374
303.0,-2.827773771191407,-1.6273509263075947,-1.860665726376309,-1.427344681151711,1.5622929038675264,-1.26284550172027,0.8795583099126816,0.0727548822760582,0.666262686252594,0.994840145111084,0.0033496457617729902,-0.09516070783138275,0.035018257796764374
304.0,-2.8292931403021835,-1.628552322506519,-1.8595617414339192,-1.427291038969216,1.5619912440658028,-1.2643371438070978,0.8806355446577072,0.07168195396661758,0.6661316901445389,0.9948374032974243,0.003351223189383745,-0.09518832713365555,0.0350244864821434
305.0,-2.8322087131403095,-1.5860430396549805,-1.9285300132217476,-1.259962438928332,1.5679004171495814,-1.2619544953045005,0.8625483959913254,0.06422417610883713,0.6687719225883484,0.9995161890983582,0.0003159073239658028,-0.0291554294526577,0.010830038227140903
306.0,-2.827609113704246,-1.5836256435883123,-1.9308990518394131,-1.2600202992249525,1.5681852106941185,-1.2573636932456482,0.8602592945098877,0.06759262084960938,0.6688324511051178,0.9995162487030029,0.0003158880863338709,-0.02915380150079727,0.010829984210431576
307.0,-2.8237885761803443,-1.8291431052801261,-1.6120099439239561,-2.110888501433727,1.5423603979145417,-1.3530256236349856,0.9267352968454361,0.08863913267850876,0.6330813840031624,0.9116358757019043,0.05143739655613899,-0.38959941267967224,0.12035997956991196
308.0,-2.8235814095009966,-1.8266232418330148,-1.612659703608534,-2.1128218198072592,1.5425289008051914,-1.3529019371219386,0.9250803887844086,0.08831976354122162,0.6349361538887024,0.9116237759590149,0.051440976560115814,-0.38962823152542114,0.12035784870386124
309.0,-2.820423226161882,-1.8262977656309294,-1.6136196580930466,-2.112244480613683,1.5448800821601607,-1.3507925924109634,0.9242770373821259,0.09145015478134155,0.6345590613782406,0.9116237759590149,0.051440976560115814,-0.38962823152542114,0.12035784870386124
310.0,-2.7765729426241883,-1.92578023045831,-1.5376080487199777,-2.4248957432250973,1.4501251934272048,-1.4173013686112925,0.9291762709617615,0.12001875042915344,0.6081201918423176,0.8223953247070312,0.12093726545572281,-0.5222800374031067,0.1904308795928955
311.0,-2.7742295497260856,-1.9210890952023139,-1.5375809504956186,-2.42972229480263,1.4522882750379562,-1.4163934581088389,0.9261842668056488,0.12150871008634567,0.6127744112163782,0.8223953247070312,0.12093726545572281,-0.5222800374031067,0.1904308795928955
312.0,-2.7783581089952434,-1.9218651430034828,-1.5351893475045397,-2.431145669620305,1.4484774519004449,-1.4179933222938756,0.9279128909111023,0.1175287514925003,0.6136752441525459,0.8223953247070312,0.12093726545572281,-0.5222800374031067,0.1904308795928955
313.0,-2.826312861101498,-1.9362657818915359,-1.5125035040878596,-2.4431714074964046,1.533154679918276,-1.4455602943461572,0.9396039545536041,0.08893145620822906,0.6149726305156946,0.826176643371582,0.08925647288560867,-0.5392249226570129,0.1367548257112503
314.0,-2.8242661195212246,-1.9421661020106578,-1.5154005033548636,-2.4344027410115787,1.535046771095896,-1.4447792928540066,0.9419547021389008,0.09199395030736923,0.6070372574031353,0.826176643371582,0.08925647288560867,-0.5392249226570129,0.1367548257112503
315.0,-2.8654258147569878,-1.8348857977049697,-1.5999816265760867,-2.117642115420269,1.616634653580963,-1.3854264009902413,0.9323575347661972,0.06267081201076508,0.636254046112299,0.9123082160949707,0.03209025040268898,-0.40168648958206177,0.07288321107625961
316.0,-2.865311766985134,-1.8371802361418306,-1.5994336703966814,-2.1158921386058442,1.616719587514289,-1.3853502082529994,0.9338292628526688,0.06321006268262863,0.6345179602503777,0.9123082160949707,0.03209025040268898,-0.40168648958206177,0.07288321107625961
317.0,-2.837113560798027,-1.831301487218518,-1.6076385553629147,-2.112804216531335,1.5324423874235282,-1.3619294045336983,0.9305596798658371,0.07553617656230927,0.634177066385746,0.9116358757019043,0.05143739655613899,-0.38959941267967224,0.12035997956991196
318.0,-2.838330382089362,-1.6293182420740762,-1.8583306862276192,-1.4276701683237516,1.5601694841292768,-1.2731892818009514,0.8820857107639313,0.06368841975927353,0.6664255708456039,0.9948374032974243,0.003351223189383745,-0.09518832713365555,0.0350244864821434
319.0,-2.8402623319226437,-1.6305196479483566,-1.8572051865271768,-1.4275737836748894,1.5597801378610794,-1.275081703261937,0.8831979483366013,0.06222919747233391,0.6663155406713486,0.9948374032974243,0.003351223189383745,-0.09518832713365555,0.0350244864821434
320.0,-2.84047467373822,-1.6314158658170619,-1.8564470179786308,-1.4274334386036271,1.559737346949981,-1.275289701469181,0.883917361497879,0.06225406751036644,0.6661748141050339,0.9948374032974243,0.003351223189383745,-0.09518832713365555,0.0350244864821434
321.0,-2.841296723616999,-1.6327021784729472,-1.8553221941490192,-1.4272629781774706,1.5595716928052967,-1.2760949375750201,0.8849964588880539,0.06181906536221504,0.665997639298439,0.9948374032974243,0.003351223189383745,-0.09518832713365555,0.0350244864821434
322.0,-2.8417274779631576,-1.6127930458097546,-1.8890768900861663,-1.3387251563904548,1.5636190026075385,-1.2731621886625082,0.8778587132692337,0.05987636744976044,0.6672515869140625,0.9979388117790222,0.0013430999824777246,-0.06016721948981285,0.022276774048805237
323.0,-2.841576416540198,-1.6164079939776594,-1.8859044501715796,-1.3379877950432457,1.5635713741817336,-1.2730009806430156,0.8807660490274429,0.060903482139110565,0.6668542325496674,0.997948169708252,0.0013390417443588376,-0.060016125440597534,0.022265587002038956
324.0,-2.836088740910748,-1.6130713864676416,-1.889070937091329,-1.3384908919919216,1.5643400528849782,-1.2675696137205295,0.8776291310787201,0.06498053669929504,0.6670497208833694,0.9979388117790222,0.0013430999824777246,-0.06016721948981285,0.022276774048805237
325.0,-2.8340182777121865,-1.6306957161738365,-1.8574761566183904,-1.427190273465203,1.561038638650111,-1.2689654602341292,0.8827608972787857,0.0679364874958992,0.6659901440143585,0.9948374032974243,0.003351223189383745,-0.09518832713365555,0.0350244864821434
326.0,-2.84754322339802,-1.5916802717333172,-1.9228736956131183,-1.2599299164333904,1.5669484204815554,-1.2772595135723017,0.8681373000144958,0.05226186662912369,0.6687052994966507,0.9995161890983582,0.0003159073239658028,-0.0291554294526577,0.010830038227140903
327.0,-2.8550738280851267,-1.5899693710368727,-1.9243570367837244,-1.2602486718020771,1.575232552976073,-1.2848209229945637,0.8667742311954498,0.0465451143682003,0.6688760071992874,0.9995142221450806,0.00020261420286260545,-0.030448991805315018,0.006650984287261963
328.0,-2.855085740637403,-1.5910972624494268,-1.9232884455844248,-1.2601894243293936,1.5752318126579188,-1.2848328126370425,0.8676921427249908,0.04680493474006653,0.6688165664672852,0.9995142221450806,0.00020261420286260545,-0.030448991805315018,0.006650984287261963
329.0,-2.866580264938811,-1.6243657005691232,-1.877816072069087,-1.3385055903855358,1.5785776414157708,-1.2979983252373228,0.8879460841417313,0.04294402897357941,0.666550412774086,0.9979353547096252,0.0008554978994652629,-0.06276525557041168,0.013601978309452534
330.0,-2.867886868040894,-1.637875313042131,-1.8496145209376962,-1.428097306537499,1.5827340485672752,-1.3026072662120807,0.8897200971841812,0.0429324135184288,0.6660404652357101,0.9948233962059021,0.002138703130185604,-0.0993117243051529,0.02142377197742462
331.0,-2.8627615531688684,-1.5933112268708967,-1.9210523499487204,-1.2603688873889098,1.5748046955636044,-1.2924961152237837,0.869859129190445,0.040599677711725235,0.6687669605016708,0.9995121955871582,0.0002028509188676253,-0.030516020953655243,0.006644115783274174
332.0,-2.866001799618575,-1.5882900106955402,-1.9257928924183891,-1.260536857437937,1.574553172521686,-1.295727847082807,0.8659219741821289,0.0365912951529026,0.6690607070922852,0.9995142221450806,0.00020261420286260545,-0.030448991805315018,0.006650984287261963
333.0,-2.861230910520852,-1.5886098236809032,-1.9255580848713765,-1.2604332567612488,1.5748498333863774,-1.2909661542342377,0.865971028804779,0.04083694517612457,0.6690011024475098,0.9995142221450806,0.00020261420286260545,-0.030448991805315018,0.006650984287261963
334.0,-2.8683588877261794,-1.8377388608175407,-1.5987648954454734,-2.116093426182211,1.6144502384690465,-1.3873857198669564,0.9345510005950928,0.060150496661663055,0.6344581805169582,0.9123082160949707,0.03209025040268898,-0.40168648958206177,0.07288321107625961
335.0,-2.870726156382402,-1.8368392593088443,-1.5985700016437108,-2.117255527528113,1.6126870854321143,-1.3889668028813968,0.9342428743839264,0.05753152817487717,0.635418463498354,0.9123082160949707,0.03209025040268898,-0.40168648958206177,0.07288321107625961
336.0,-2.876218872113649,-1.836443708274201,-1.5976714840880275,-2.1186956962550405,1.6085956890885387,-1.3926344678226532,0.9346064180135727,0.05176222324371338,0.6363952681422234,0.9123082160949707,0.03209025040268898,-0.40168648958206177,0.07288321107625961
337.0,-2.8806665179019038,-1.8370301168542416,-1.596694957860872,-2.119193098466073,1.605282366417293,-1.395603468331207,0.9354732930660248,0.04724857956171036,0.6365232355892658,0.9123082160949707,0.03209025040268898,-0.40168648958206177,0.07288321107625961
338.0,-2.885472901838912,-1.8372421680968047,-1.5957187064400697,-2.120062158273563,1.6017014572871406,-1.3988111813701536,0.9361195266246796,0.04229353740811348,0.6369973234832287,0.9123082160949707,0.03209025040268898,-0.40168648958206177,0.07288321107625961
339.0,-2.880891388899013,-1.8392449076882336,-1.5960806342380525,-2.1176808995688305,1.6051394689356844,-1.395770264303485,0.9369238466024399,0.047399550676345825,0.6349025703966618,0.9122910499572754,0.03209146112203598,-0.4017263948917389,0.07287735491991043
340.0,-2.878458594994243,-1.8412866224929227,-1.5960238067289663,-2.115638788196026,1.6069519885582848,-1.3941465234909731,0.9379847645759583,0.050285812467336655,0.6330560930073261,0.9122910499572754,0.03209146112203598,-0.4017263948917389,0.07287735491991043
341.0,-2.8753628124465416,-1.5888360199923366,-1.9251408093342568,-1.2606753110756197,1.5739708497838591,-1.3050707857778872,0.8667262047529221,0.028527025133371353,0.669119194149971,0.9995142221450806,0.00020261420286260545,-0.030448991805315018,0.006650984287261963
342.0,-2.8790125046420756,-1.5949808814248505,-1.9192274957165603,-1.2605808868561879,1.5737917279618239,-1.3087155655178622,0.8718648701906204,0.02668970823287964,0.668829657137394,0.9995121955871582,0.0002028509188676253,-0.030516020953655243,0.006644115783274174
343.0,-2.877020753418695,-1.595172277251546,-1.9190749956004498,-1.2605359131945237,1.5739159271620229,-1.3067276811091046,0.8719551712274551,0.028485381975769997,0.6688002198934555,0.9995121955871582,0.0002028509188676253,-0.030516020953655243,0.006644115783274174
344.0,-2.8797450594138048,-1.6216087641766315,-1.8799341311386761,-1.3392350671797077,1.5768926340567118,-1.3110551553941157,0.8863525539636612,0.03042389638721943,0.667095735669136,0.9979353547096252,0.0008554978994652629,-0.06276525557041168,0.013601978309452534
345.0,-2.8923146863917033,-1.641038040401647,-1.8466438407684271,-1.4253379139493634,1.6065829934478886,-1.326595487766609,0.8926580250263214,0.025532472878694534,0.6661290377378464,0.9948146939277649,0.0007335231639444828,-0.10144676268100739,0.007193129044026136
346.0,-2.89458087061661,-1.639307545771056,-1.8480608983521278,-1.4257303545506403,1.606131283258566,-1.3288176016520596,0.8913483023643494,0.023093372583389282,0.6664349809288979,0.9948146939277649,0.0007335231639444828,-0.10144676268100739,0.007193129044026136
347.0,-2.887792518821866,-1.591746879515112,-1.9224488955350818,-1.2597216699676477,1.5820897306744472,-1.3174843774318779,0.8691884726285934,0.019610201939940453,0.6690405309200287,0.9995110034942627,7.028511026874185e-05,-0.031191211193799973,0.0022522606886923313
348.0,-2.884844034420903,-1.5901399265200873,-1.9239921171852667,-1.259751897686596,1.5822709827812054,-1.314541278652021,0.8678019344806671,0.021853961050510406,0.6691170185804367,0.9995110034942627,7.028511026874185e-05,-0.031191211193799973,0.0022522606886923313
349.0,-2.9217444129737533,-1.8445230205641292,-1.591023083024201,-2.1131025234791303,1.6812213569794507,-1.4238926553828115,0.9413148462772369,0.021812358871102333,0.6340637691318989,0.9126676917076111,0.010879158973693848,-0.40783166885375977,0.024345966055989265
350.0,-2.9205931379620678,-1.8421926570070737,-1.5916989616651362,-2.1147422758866035,1.682101493300281,-1.423128054385282,0.9397259056568146,0.022683188319206238,0.6357686966657639,0.9126527905464172,0.010876983404159546,-0.4078654646873474,0.024338683113455772
351.0,-2.923539573266468,-1.8410793114106727,-1.591767734632622,-2.1160053606464158,1.6799146343824007,-1.4251147295397586,0.9390981197357178,0.01941772550344467,0.6367311365902424,0.9126527905464172,0.010876983404159546,-0.4078654646873474,0.024338683113455772
352.0,-2.9395667415101707,-1.957947549822674,-1.4888192182712419,-2.443704144417443,1.6914673127235473,-1.4937618728880127,0.9574150145053864,0.009885001927614212,0.6097634211182594,0.8304328322410583,0.0184007678180933,-0.556136429309845,0.02747635543346405
353.0,-2.925149649296879,-1.8442580644793323,-1.5908350861062615,-2.1138055793246178,1.6786939036483255,-1.4261883401033497,0.9412606954574585,0.018182873725891113,0.6344147101044655,0.9126676917076111,0.010879158973693848,-0.40783166885375977,0.024345966055989265
354.0,-2.9293703049083537,-1.8445527898286591,-1.5904200314524921,-2.114227709525088,1.675560444161552,-1.4290320095331597,0.9415917694568634,0.013774797320365906,0.6343977898359299,0.9126676917076111,0.010879158973693848,-0.40783166885375977,0.024345966055989265
355.0,-2.9301482620993067,-1.8465216464989753,-1.589836452984175,-2.1128970708943093,1.6749827879934562,-1.429555952504298,0.942913293838501,0.013233039528131485,0.6329654082655907,0.9126676917076111,0.010879158973693848,-0.40783166885375977,0.024345966055989265
356.0,-2.931809494469577,-1.846738837762338,-1.5896394499962532,-2.1129925291451213,1.673749179106992,-1.4306745571698503,0.9431061148643494,0.01150970533490181,0.6328880041837692,0.9126676917076111,0.010879158973693848,-0.40783166885375977,0.024345966055989265
357.0,-2.9317460601141847,-1.8456178508641943,-1.5899412286638157,-2.113807347146264,1.6737962869672265,-1.4306318483757674,0.942365288734436,0.011419296264648438,0.6337224990129471,0.9126676917076111,0.010879158973693848,-0.40783166885375977,0.024345966055989265
358.0,-2.9330120597737923,-1.84476956838515,-1.5900556277228375,-2.114628462535309,1.672856090350492,-1.4314841364376698,0.9418420195579529,0.00996509101241827,0.6344232261180878,0.9126676917076111,0.010879158973693848,-0.40783166885375977,0.024345966055989265
359.0,-2.9372660620460724,-1.8447812050763674,-1.589674246180481,-2.115285363724912,1.6696963137429552,-1.4343467947668787,0.9419622421264648,0.005480909254401922,0.6346478313207626,0.9126676917076111,0.010879158973693848,-0.40783166885375977,0.024345966055989265
360.0,-2.9682165281512547,-1.845668577171354,-1.5923148327791363,-2.1010759918041026,1.7526401620951924,-1.4535160058014418,0.9431093037128448,-0.010559496469795704,0.6331262961030006,0.9126676917076111,-0.010879158973693848,-0.40783166885375977,-0.024345966055989265
361.0,-2.914736878966021,-1.5912715752072293,-1.9231982968263075,-1.2577057999683483,1.5892125724049424,-1.344350621280063,0.8689628392457962,-0.002787190955132246,0.669139951467514,0.9995108842849731,-7.02863690094091e-05,-0.031191488727927208,-0.0022522807121276855
362.0,-2.914770909655915,-1.594840196569156,-1.919766902328282,-1.2576990190204216,1.5892094213514756,-1.3443864191412505,0.8719031810760498,-0.002138627925887704,0.6689588129520416,0.9995089769363403,-6.995616422500461e-05,-0.03125457465648651,-0.0022371704690158367
363.0,-2.9169015271788594,-1.5914474698826007,-1.9230333718062307,-1.2577344884156958,1.5890831894333663,-1.3465117631990913,0.8690978139638901,-0.004655964206904173,0.6691230833530426,0.9995108842849731,-7.02863690094091e-05,-0.031191488727927208,-0.0022522807121276855
364.0,-2.972959834712696,-1.845050305886209,-1.5926506499575237,-2.1019432163470655,1.7491496627445493,-1.4567805636876747,0.9424942433834076,-0.01566469483077526,0.6334045752882957,0.9126676917076111,-0.010879158973693848,-0.40783166885375977,-0.024345966055989265
365.0,-2.9203145379584465,-1.5977682141911238,-1.9169702323291737,-1.2576686554798402,1.5888771814549354,-1.3499210038319676,0.8743005841970444,-0.006479609292000532,0.6687892526388168,0.9995089769363403,-6.995616422500461e-05,-0.03125457465648651,-0.0022371704690158367
366.0,-2.9368090367569577,-1.6421267518257416,-1.8464561748899024,-1.4200069561768534,1.6260220609927418,-1.369974569472754,0.8938170671463013,-0.010949346236884594,0.666136123239994,0.9948160648345947,-0.0007334914989769459,-0.10143356770277023,-0.007193763740360737
367.0,-2.9322508546359156,-1.6421710471165143,-1.8464029488020928,-1.4197667385130102,1.6269100982523337,-1.3654967921460417,0.893914520740509,-0.006723126396536827,0.6661784499883652,0.9948160648345947,-0.0007334914989769459,-0.10143356770277023,-0.007193763740360737
368.0,-2.9288853705765505,-1.6427056975904826,-1.845933130751798,-1.419515387395552,1.6275650512953286,-1.3621903879359312,0.8943786919116974,-0.003514958545565605,0.6661301776766777,0.9948160648345947,-0.0007334914989769459,-0.10143356770277023,-0.007193763740360737
369.0,-2.9112476816385775,-1.5980538748474202,-1.9162416355627423,-1.2599859714122312,1.5807029729238686,-1.3408980111174977,0.874665692448616,0.00023261018213815987,0.6687851250171661,0.9995089769363403,6.995345756877214e-05,-0.03125457465648651,0.0022370838560163975
370.0,-2.9072283289056937,-1.59492394264345,-1.9192621783812116,-1.2600551187743696,1.580951501547303,-1.3368861476444394,0.8720600754022598,0.003167427144944668,0.6689350754022598,0.9995089769363403,6.995345756877214e-05,-0.03125457465648651,0.0022370838560163975
371.0,-2.911141025307012,-1.641872936700177,-1.8455577761878807,-1.4261892728911676,1.6028180987231297,-1.3450524045359984,0.8937617391347885,0.008310399949550629,0.6661559045314789,0.9948160648345947,0.000733491440769285,-0.10143356770277023,0.0071937632746994495
372.0,-2.90800230947384,-1.639961847730115,-1.847234440366563,-1.4263497794221822,1.603452538800478,-1.3419766094429018,0.892180010676384,0.010847100056707859,0.6664443984627724,0.9948146939277649,0.0007335231639444828,-0.10144676268100739,0.007193129044026136
373.0,-2.8989109190615108,-1.5989668300510522,-1.9154597023954303,-1.2597282677477895,1.5814652683577406,-1.3285841707910382,0.8753180801868439,0.01132272183895111,0.6686945408582687,0.9995089769363403,6.995345756877214e-05,-0.03125457465648651,0.0022370838560163975
374.0,-2.9060888709530546,-1.6417706138075299,-1.845755375222593,-1.425932924128681,1.6038275047482506,-1.340099495393733,0.8935932219028473,0.012958159670233727,0.6661219894886017,0.9948160648345947,0.000733491440769285,-0.10143356770277023,0.0071937632746994495
375.0,-2.906176232535172,-1.6229642352416482,-1.8787047241247457,-1.3377100004591338,1.5917358905594765,-1.3373009347060265,0.8876556754112244,0.009537671692669392,0.6671738922595978,0.9979303479194641,0.00029420555802062154,-0.06414029002189636,0.004577414598315954
376.0,-2.9172173901926315,-1.6268241716196363,-1.8749929500307045,-1.337906857691648,1.5903907797899581,-1.3482589006519972,0.890896275639534,0.0002515786327421665,0.6668410003185272,0.9979261755943298,0.0002936764503829181,-0.06420629471540451,0.004564465954899788
377.0,-2.9342115253710404,-1.6264535014616477,-1.8762150362540395,-1.3336288775219318,1.6061398836251217,-1.3650193460904703,0.8903335332870483,-0.012497644871473312,0.6668198704719543,0.9979261755943298,-0.0002936764794867486,-0.06420629471540451,-0.004564465954899788
378.0,-2.940227506159547,-1.64107737088083,-1.8473569647229675,-1.4203397769087556,1.6253553395717417,-1.3733324492034085,0.8929129987955093,-0.014285443350672722,0.6662731617689133,0.9948160648345947,-0.0007334914989769459,-0.10143356770277023,-0.007193763740360737
