Sungjin-Park-dev/vision_inspection/data/output/5000/joint_trajectory_dp_20251102_024257.csv
time,ur20-shoulder_pan_joint,ur20-shoulder_lift_joint,ur20-elbow_joint,ur20-wrist_1_joint,ur20-wrist_2_joint,ur20-wrist_3_joint,target-POS_X,target-POS_Y,target-POS_Z,target-ROT_X,target-ROT_Y,target-ROT_Z,target-ROT_W
0.0,-0.334867676390441,-1.7658891151352825,2.000336665272632,-1.7934954198938433,-1.554798171509004,-1.9057025967999635,0.7271704636514187,-0.03760050982236862,0.7565253376960754,0.9999507665634155,-2.768606282188557e-05,-0.002918767975643277,-0.009485062211751938
1.0,-0.3409657075856716,-1.7631108485064984,1.997855658582871,-1.7921327497216437,-1.5527698133819172,-1.9118119322225187,0.7289552334696054,-0.042421478778123856,0.7565197944641113,0.9999369382858276,-3.547129381331615e-05,-0.003303775331005454,-0.01073591597378254
2.0,-0.34608769030788644,-1.759455715621325,1.9947188327351006,-1.7911214662217867,-1.5509273544134694,-1.9169455680549317,0.7314272411167622,-0.046825654804706573,0.7565141320228577,0.9999228715896606,-4.3425956391729414e-05,-0.0036555256228893995,-0.011878623627126217
3.0,-0.34887219927552776,-1.7534243135336203,1.9894626920276672,-1.7892232890437973,-1.5500277500176483,-1.9197307368916003,0.7356254197657108,-0.05029001086950302,0.7565081566572189,0.9999073147773743,-6.033232784830034e-05,-0.004724747501313686,-0.012768246233463287
4.0,-0.3413422488595307,-1.7514383601409271,1.9880826300634857,-1.7906753866648684,-1.552221551291691,-1.9121835564649572,0.7374841943383217,-0.045641783624887466,0.7565140277147293,0.9999217391014099,-5.53570753254462e-05,-0.004789468366652727,-0.011557180434465408
5.0,-0.33487826367979534,-1.7488104089404013,1.986064509760818,-1.7915221362996894,-1.554161594960525,-1.9057048316288165,0.739707101136446,-0.04186691716313362,0.7565179765224457,0.999931275844574,-5.3610641771228984e-05,-0.005071144551038742,-0.010570978745818138
6.0,-0.3279014942239947,-1.7455650223961887,1.98388376114233,-1.7943204477038661,-1.5556968093145795,-1.8987223766918067,0.742596510797739,-0.03784504160284996,0.7565231025218964,0.9999441504478455,-4.3566269596340135e-05,-0.004571439232677221,-0.009529568254947662
7.0,-0.3228743359479245,-1.7490840224599493,1.9870388256471212,-1.7957613740197138,-1.5574045259293363,-1.8936897790304923,0.7401889637112617,-0.03352322056889534,0.7565279901027679,0.999956488609314,-3.393360020709224e-05,-0.0040345024317502975,-0.008410485461354256
8.0,-0.3300542703203921,-1.754651878853407,1.9915641211614523,-1.7954724332347625,-1.5552274765151777,-1.9008848159404903,0.7358523719012737,-0.03708511218428612,0.7565255165100098,0.9999510049819946,-3.0515790058416314e-05,-0.0032646567560732365,-0.009346861392259598
9.0,-0.32070841047702486,-1.7561985591490081,1.9934179870856468,-1.7987929616893856,-1.5578568299576694,-1.8915289207811985,0.7351913042366505,-0.03030983917415142,0.7565324008464813,0.9999685287475586,-1.7743355783750303e-05,-0.0023365928791463375,-0.007593448273837566
10.0,-0.3222579193485107,-1.7616488995455524,1.9976395114710452,-1.7976186620574244,-1.5579753804121192,-1.8930781041157956,0.7309670932590961,-0.030073795467615128,0.756532609462738,0.999968945980072,-1.7458276488468982e-05,-0.002317745704203844,-0.00753220496699214
11.0,-0.3154589529384746,-1.7610014891960872,1.9974627679328478,-1.7995755674574248,-1.5598976742563757,-1.8862721467242118,0.7317271269857883,-0.025602128356695175,0.756536141037941,0.9999778866767883,-1.2494045222410932e-05,-0.0019607162103056908,-0.006372044328600168
12.0,-0.31190384684608885,-1.7653960993064595,2.0010753500848204,-1.799899478607528,-1.561395778228845,-1.8827125848059092,0.7284941710531712,-0.022173216566443443,0.756538450717926,0.999983549118042,-9.248861715605017e-06,-0.0016869648825377226,-0.005482455715537071
13.0,-0.3049688465273756,-1.762399420497256,1.9990636126104564,-1.8021892711291254,-1.5631485945371983,-1.875773192845194,0.7310003750026226,-0.01815018430352211,0.7565407156944275,0.9999892115592957,-6.062579359422671e-06,-0.0013658071402460337,-0.004438777454197407
14.0,-0.30897320585630733,-1.7572719767585177,1.9948386329499734,-1.8018556852592247,-1.561435840201216,-1.879781719739488,0.7348078042268753,-0.022040199488401413,0.756538525223732,0.9999838471412659,-9.13278927328065e-06,-0.001676345826126635,-0.005447946488857269
15.0,-0.304717550082145,-1.7500913562177534,1.9889694886524452,-1.801932973609035,-1.5625192562890775,-1.875520865781711,0.7402527332305908,-0.020773250609636307,0.7565388232469559,0.9999839663505554,-1.2521296412160154e-05,-0.0024507197085767984,-0.0051091499626636505
16.0,-0.3110494678288544,-1.7474933815277045,1.9864917732712877,-1.8000407864255976,-1.560499245577515,-1.8818567818846934,0.7419820688664913,-0.025735650211572647,0.7565352320671082,0.9999748468399048,-1.9611557945609093e-05,-0.0030670936685055494,-0.006394022144377232
17.0,-0.31613300684924983,-1.7431602319784538,1.982672658113573,-1.7987036743651108,-1.5586693431141496,-1.88694476210158,0.745066799223423,-0.030265094712376595,0.7565312683582306,0.9999647736549377,-2.7466665414976887e-05,-0.003629745449870825,-0.007566838525235653
18.0,-0.31609534178350984,-1.737099484301434,1.977335865417413,-1.797067879340078,-1.5586653354690105,-1.8869009658079499,0.7494929246604443,-0.03168362379074097,0.7565280497074127,0.9999573230743408,-3.770086550503038e-05,-0.004750819876790047,-0.007935317233204842
19.0,-0.31175242481377347,-1.7305503998594498,1.972016919693279,-1.7980197582503181,-1.5595260034612344,-1.8825527805409663,0.7546396739780903,-0.030184397473931313,0.7565285265445709,0.9999587535858154,-3.811505303019658e-05,-0.005049684550613165,-0.007547695655375719
20.0,-0.3047181737695536,-1.7276442518318962,1.9701399616334554,-1.8012127194607799,-1.5610990182638598,-1.8755176090435965,0.7572716288268566,-0.025896672159433365,0.7565330266952515,0.999970018863678,-2.7723450330086052e-05,-0.004306626506149769,-0.006437200587242842
21.0,-0.29916548186914754,-1.7225426158893722,1.965764113691488,-1.8009228525175458,-1.5628666635995117,-1.8699555377772066,0.7612024731934071,-0.023148423060774803,0.7565333098173141,0.9999707937240601,-2.909599606937263e-05,-0.005088091362267733,-0.005718282889574766
22.0,-0.29680396996923436,-1.7280723784768697,1.9711044262903101,-1.8045706100939507,-1.563242739006876,-1.8676022628974585,0.7573385648429394,-0.020213652402162552,0.7565378844738007,0.9999821782112122,-1.6494666851940565e-05,-0.0033218704629689455,-0.004965387750416994
23.0,-0.30203909238863447,-1.733419144116162,1.9751403100583624,-1.8020150502336523,-1.5623184536150079,-1.8728378219100983,0.7529543712735176,-0.022698955610394478,0.7565359175205231,0.9999772310256958,-2.1048417693236843e-05,-0.0037525088991969824,-0.005609031766653061
24.0,-0.2985942430079912,-1.7377564716644054,1.979094479112723,-1.8038279513803224,-1.56345396048466,-1.869393727403842,0.7498424239456654,-0.019307786598801613,0.7565389424562454,0.9999847412109375,-1.3668442079506349e-05,-0.0028894059360027313,-0.004730464890599251
25.0,-0.3020559543252788,-1.7437373016557147,1.9840109860094832,-1.8035099463554558,-1.5626699701925373,-1.872858973251107,0.7452433593571186,-0.02036590315401554,0.7565390765666962,0.999984622001648,-1.2009651072730776e-05,-0.0024001263082027435,-0.005003680940717459
26.0,-0.3075523627901655,-1.7378866263176984,1.9786265085700028,-1.8006158395448215,-1.5609563025769893,-1.8783552927283107,0.7493615970015526,-0.025531521067023277,0.7565343379974365,0.9999729990959167,-2.3557824533781968e-05,-0.0037144781090319157,-0.006341991946101189
27.0,-0.2914880255319321,-1.7395220224475216,1.9812056324024814,-1.8073585930451872,-1.5653515383753493,-1.8622871143204551,0.7488555908203125,-0.013952916488051414,0.7565423548221588,0.9999930262565613,-5.5845171118562575e-06,-0.0016702875727787614,-0.003343423595651984
28.0,-0.2899725823952391,-1.745957930944582,1.9865399326960258,-1.8073379122822102,-1.566346539845048,-1.8607708547289024,0.7439385019242764,-0.01150504034012556,0.7565433382987976,0.9999955892562866,-3.5217410641052993e-06,-0.0012997065205127,-0.0027096313424408436
29.0,-0.2963260664615739,-1.7496247277622765,1.9891052807914698,-1.8048130957067496,-1.5648552879827975,-1.8671259130958764,0.7409132122993469,-0.01509402971714735,0.7565419226884842,0.9999919533729553,-6.351132469717413e-06,-0.0017453919863328338,-0.0036387715954333544
30.0,-0.2941101045730966,-1.7552231162342793,1.9939266165704128,-1.806075635463372,-1.5657110040244082,-1.8649098510219653,0.7367948554456234,-0.012333109974861145,0.7565431445837021,0.9999952912330627,-2.6411673843540484e-06,-0.0009014825336635113,-0.0029297908768057823
31.0,-0.2891170872607165,-1.7588543078926278,1.9970249139599179,-1.8068305406315666,-1.5675890655417024,-1.859914743726495,0.734095249325037,-0.008137885481119156,0.7565442770719528,0.999998152256012,-1.0435652484375169e-06,-0.0005666547804139555,-0.0018416210077703
32.0,-0.28719131713417284,-1.7509683556648696,1.9907309425856126,-1.8076833512490533,-1.5676116479310507,-1.8579886262060215,0.740144643932581,-0.008510307408869267,0.7565441876649857,0.9999977946281433,-1.7948169670489733e-06,-0.0009278466459363699,-0.0019343856256455183
33.0,-0.2828633454255455,-1.7430042251253002,1.984581441322467,-1.810010448967064,-1.568156319765649,-1.8536603391344728,0.7464147582650185,-0.007208195049315691,0.7565444707870483,0.9999984502792358,-1.2238224371685646e-06,-0.0007661698618903756,-0.0015973225235939026
34.0,-0.2781056360902715,-1.7365203255788584,1.9795058406226025,-1.811776645050647,-1.5690967651555308,-1.8489020711254631,0.7515150643885136,-0.005256591830402613,0.756544679403305,0.9999992251396179,-7.982895340319374e-07,-0.0007307814084924757,-0.0010923772351816297
35.0,-0.27350102590562836,-1.731402284227257,1.9756335192932841,-1.8140580408029159,-1.5699668787791106,-1.8442973686351811,0.7556296698749065,-0.003085274947807193,0.7565449476242065,0.9999998211860657,-1.8809058133228973e-07,-0.00035472403396852314,-0.0005302447243593633
36.0,-0.27784789550106986,-1.7279926294744878,1.9724795836524058,-1.8125200764893035,-1.568453073331165,-1.8486444250825285,0.7581539638340473,-0.00685281865298748,0.75654436647892,0.9999984502792358,-1.5165679769779672e-06,-0.0010072524892166257,-0.0015056461561471224
37.0,-0.2843725837391102,-1.7280113706967135,1.972001271381491,-1.8098095444558084,-1.5666315435772424,-1.855169538595383,0.7579115964472294,-0.01145347859710455,0.7565429210662842,0.9999947547912598,-4.865637038165005e-06,-0.001804172177799046,-0.00269686640240252
38.0,-0.29038135310975877,-1.7315245421397756,1.97446084074469,-1.80706169392545,-1.5652815546810666,-1.861178756679008,0.7549491114914417,-0.014929338358342648,0.7565412819385529,0.9999906420707703,-8.65545189299155e-06,-0.0024063230957835913,-0.0035969277378171682
39.0,-0.2891331329449272,-1.7239994607673952,1.9679729565628288,-1.8063176739750555,-1.5653974953236618,-1.8599273781634629,0.7606628686189651,-0.015699945390224457,0.7565400004386902,0.9999874234199524,-1.244252962351311e-05,-0.003280980046838522,-0.003792273811995983
40.0,-0.2810644665790313,-1.7207497871521307,1.9659407326526366,-1.8103278667662541,-1.5672477390289419,-1.851859743974124,0.763556644320488,-0.010665145702660084,0.7565427869558334,0.9999945163726807,-5.543065071833553e-06,-0.002226512413471937,-0.0024895595852285624
41.0,-0.2841003477667678,-1.71648816064519,1.9620399096264292,-1.8088668287103324,-1.5661370135473773,-1.8548947946406855,0.7667236253619194,-0.013739856891334057,0.7565411329269409,0.9999902844429016,-9.649545063439291e-06,-0.002937679411843419,-0.0032847190741449594
42.0,-0.285674638252415,-1.7102671995634124,1.9560854360247093,-1.8054758926314698,-1.565879810635129,-1.8564618002327573,0.7712131887674332,-0.01623077690601349,0.7565376162528992,0.9999814629554749,-1.826900552259758e-05,-0.004650857299566269,-0.003928021993488073
43.0,-0.2783159768353907,-1.7101616833666855,1.956860685814172,-1.8102528714227875,-1.5675356268559701,-1.8491085594239431,0.7717612162232399,-0.010949435643851757,0.7565418779850006,0.9999921321868896,-7.774518053338397e-06,-0.003033960936591029,-0.0025624779518693686
44.0,-0.2764341693949106,-1.7163654554042964,1.962658456567434,-1.8128423494985109,-1.568105878698368,-1.847229929515689,0.7671806737780571,-0.008283626288175583,0.756543755531311,0.9999968409538269,-3.1398160444950918e-06,-0.0016757207922637463,-0.0018737049540504813
45.0,-0.2687990265108939,-1.7160272753039942,1.9630892152369572,-1.8167760831999142,-1.5700991277307463,-1.839595305267702,0.7677581310272217,-0.002892728429287672,0.7565449476242065,0.9999998211860657,-2.0586577420544927e-07,-0.0004290826909709722,-0.00047978106886148453
46.0,-0.2614514093214626,-1.715295716113952,1.962503376455048,-1.816993877295105,-1.572793648830951,-1.832247971846796,0.7682396471500397,0.0021894003730267286,0.7565447688102722,0.999999463558197,6.223176001185493e-07,-0.000746027915738523,0.0008341743377968669
47.0,-0.26573604102780074,-1.7208174414279234,1.96717374594659,-1.8167536592531797,-1.5715936925514964,-1.8365323963743894,0.7639849409461021,0.00024830474285408854,0.7565449923276901,1.0,9.875496687072882e-08,-0.0002971860230900347,0.0003323001437820494
48.0,-0.273546704912997,-1.7229936617498247,1.968538669986756,-1.8141105775330233,-1.5693741000328503,-1.8443428683010354,0.7621366120874882,-0.004850552882999182,0.756544679403305,0.9999992251396179,-8.694483994986513e-07,-0.000881801825016737,-0.000985989929176867
49.0,-0.26771476608194417,-1.7274336492678877,1.9725934871812834,-1.815716512279528,-1.5715123954920458,-1.838511142449559,0.7587800547480583,0.00017701834440231323,0.7565449923276901,0.9999999403953552,6.59365397837064e-08,-0.00021026810281910002,0.00031358315027318895
50.0,-0.26247153259318867,-1.7294109070222494,1.974009583050183,-1.8143363815149334,-1.5739051652092413,-1.833268701433923,0.7570209056138992,0.004242740571498871,0.7565444856882095,0.9999987483024597,1.2472427215470816e-06,-0.0009145050426013768,0.0013638429809361696
51.0,-0.25803571215658905,-1.723570319352386,1.968999554013817,-1.8139403713349653,-1.5752768109267312,-1.828833201755254,0.7614243924617767,0.006212708540260792,0.756543755531311,0.9999968409538269,3.142487912555225e-06,-0.0016764337196946144,0.0018745020497590303
52.0,-0.25561021882355717,-1.7176075553502386,1.9640800127349578,-1.8147938289090855,-1.5756199283384162,-1.8264078711001046,0.7661034315824509,0.00677751749753952,0.7565435618162155,0.9999964237213135,3.6512753922579577e-06,-0.0018070575315505266,0.0020205567125231028
53.0,-0.24937416276363764,-1.7123218978124153,1.9591459037706696,-1.8125562634772445,-1.578075708746582,-1.820171505510671,0.7698730006814003,0.010189229622483253,0.7565410882234573,0.9999901652336121,9.728105396789033e-06,-0.0033519561402499676,0.0029021890368312597
54.0,-0.25036718743102665,-1.7069413280273744,1.9548153186065171,-1.814250314648285,-1.5769996657389773,-1.8211640952837354,0.7742893323302269,0.00846918299794197,0.7565421164035797,0.999992847442627,7.149998509703437e-06,-0.0029095516074448824,0.0024574054405093193
55.0,-0.25782859224059596,-1.707025684948978,1.955439467466119,-1.8172830898443932,-1.5735440275939367,-1.82862504084082,0.7746770083904266,0.0031518915202468634,0.7565444707870483,0.9999985694885254,1.3880662663723342e-06,-0.0012819672701880336,0.0010827610967680812
56.0,-0.25270057829687104,-1.6993255436837411,1.948464716456318,-1.8157032594975777,-1.5752990302202419,-1.823495995315481,0.7804819270968437,0.005338956601917744,0.7565431147813797,0.999995231628418,4.311493285058532e-06,-0.002611786825582385,0.0016507753171026707
57.0,-0.2449922353057757,-1.6956894667693063,1.9446606032784068,-1.812239351371396,-1.5786826561277547,-1.8157857177984216,0.7828402370214462,0.01021111011505127,0.7565390765666962,0.9999851584434509,1.3420731193036772e-05,-0.004608017858117819,0.0029124305583536625
58.0,-0.24061933414519074,-1.6984432330624208,1.9464447443152963,-1.8087753557052935,-1.5812039773671571,-1.8114106312373512,0.7802000343799591,0.013868763111531734,0.7565345913171768,0.9999738931655884,2.3570944904349744e-05,-0.006106846500188112,0.0038596568629145622
59.0,-0.24207610604800392,-1.705045261804888,1.9526431914741575,-1.8112967432538143,-1.5805844808325267,-1.8128737244197473,0.7752766385674477,0.014051089994609356,0.7565377205610275,0.9999818205833435,1.8015129171544686e-05,-0.004618428181856871,0.0039006350561976433
60.0,-0.2326228860558388,-1.6988060436128418,1.9458771252309628,-1.8038127104178574,-1.5851587892215047,-1.803409463503538,0.7791705802083015,0.019691718742251396,0.7565248310565948,0.9999496340751648,4.559109220281243e-05,-0.008493248373270035,0.005367651581764221
61.0,-0.2253414641475955,-1.6962397839693906,1.9429802687429851,-1.8000934170211778,-1.5883630438627603,-1.79612295646586,0.7805746793746948,0.024497969076037407,0.756514385342598,0.9999234080314636,6.919050792930648e-05,-0.01046315673738718,0.0066122692078351974
62.0,-0.2187136404627007,-1.695054577644583,1.9412804295877653,-1.7963048440340095,-1.5913841681274237,-1.7894893211927465,0.7808704078197479,0.029087824746966362,0.7565023750066757,0.9998933672904968,9.630565909901634e-05,-0.01234445534646511,0.007800700608640909
63.0,-0.21146002510497003,-1.6929228113628856,1.93872292728331,-1.792332260047855,-1.5945597835496523,-1.7822284841994187,0.7818459570407867,0.03399098291993141,0.7564873695373535,0.9998559355735779,0.00013021138147450984,-0.014354188926517963,0.009070008993148804
64.0,-0.20632177933091297,-1.6945033237390728,1.9395545635754714,-1.7891089488202692,-1.5970279204732534,-1.7770859794335916,0.7800062522292137,0.03796520456671715,0.7564748823642731,0.9998246431350708,0.00015927756612654775,-0.01577068120241165,0.010097828693687916
65.0,-0.2069324960741984,-1.7022796983183954,1.9476539973824925,-1.7965281871670253,-1.5959678470097862,-1.777732862734396,0.7745965719223022,0.03879644721746445,0.7564940601587296,0.9998726844787598,0.00012562301708385348,-0.012196460738778114,0.010298646055161953
66.0,-0.19984637457546187,-1.6989880745183994,1.9438274287638664,-1.7909960917114829,-1.5992271835682494,-1.7706346625090934,0.7762803807854652,0.04337069019675255,0.7564742714166641,0.9998230934143066,0.0001711058139335364,-0.014894743449985981,0.011485631577670574
67.0,-0.19835047005224427,-1.690530969531369,1.9351349103955338,-1.7836770922714305,-1.6005017157020003,-1.7690982318019841,0.7822071686387062,0.0431269146502018,0.7564506232738495,0.9997639656066895,0.00021129286324139684,-0.01847422681748867,0.011434468440711498
68.0,-0.19217305768576906,-1.691739460950513,1.9357598417117303,-1.7810506612067596,-1.603127662731595,-1.7629206693688757,0.7806151509284973,0.047800518572330475,0.7564357966184616,0.9997269511222839,0.0002485512522980571,-0.019655918702483177,0.012641656212508678
69.0,-0.18603782008077507,-1.6949164670321193,1.9387081524155796,-1.7818489495883223,-1.6052680101855816,-1.7568061178326153,0.7777758091688156,0.052729424089193344,0.756432056427002,0.9997175335884094,0.0002681071637198329,-0.019271237775683403,0.013908364810049534
70.0,-0.19299369325851357,-1.7013375985789339,1.9457682987703115,-1.7902763063803537,-1.60186277483107,-1.763793755991837,0.7739387005567551,0.04867103323340416,0.7564656585454941,0.9998015761375427,0.00019563634123187512,-0.015220864675939083,0.012850616127252579
71.0,-0.19941388472889662,-1.7064762704048397,1.9508667163146403,-1.7940103797168558,-1.5992822801583353,-1.7702217804254097,0.770601436495781,0.04484165832400322,0.7564820498228073,0.9998425245285034,0.00015658636402804404,-0.013198397122323513,0.011862174607813358
72.0,-0.19503751047104967,-1.7109767281134047,1.95509503707048,-1.7958788938496337,-1.6007593637944744,-1.7658633139066529,0.7669617086648941,0.04866023734211922,0.7564820349216461,0.9998425245285034,0.00015732523752376437,-0.01223964337259531,0.012851717881858349
73.0,-0.1936036262468631,-1.7163760440181388,1.9597376521379637,-1.795909625742462,-1.6015300803727248,-1.7644369256645085,0.7625996693968773,0.05048017576336861,0.7564811706542969,0.9998404383659363,0.00015869100752752274,-0.01190905086696148,0.013323119841516018
74.0,-0.1870287331438904,-1.7184229276329908,1.9614424050349086,-1.7955408776118926,-1.6039770336609394,-1.7578741696401121,0.7605211660265923,0.0554363988339901,0.7564733028411865,0.9998206496238708,0.0001761383900884539,-0.012061658315360546,0.014600546099245548
75.0,-0.18547948286947735,-1.7116679829516852,1.9553118009850252,-1.7935731774642865,-1.604502092106505,-1.7563153950672743,0.7655744552612305,0.05556771904230118,0.7564664632081985,0.9998036026954651,0.00019561505177989602,-0.013360831886529922,0.01463805790990591
76.0,-0.1845148639155436,-1.7035890801741678,1.947277061960251,-1.7875723193744548,-1.6053441735780933,-1.755322214423677,0.771332211792469,0.05508939549326897,0.7564491629600525,0.9997603297233582,0.000237933752941899,-0.01639408804476261,0.014509908854961395
77.0,-0.17595319608398188,-1.7055290147313158,1.9487890641043983,-1.7864277681710006,-1.6085567312208393,-1.7467746615826256,0.7690765559673309,0.061500199139118195,0.7564356029033661,0.9997264742851257,0.0002733581350184977,-0.01690276712179184,0.016167964786291122
78.0,-0.17738351619157416,-1.7132214924261169,1.9562204644852486,-1.791000552761304,-1.6077650883393555,-1.7482271913792613,0.7635184824466705,0.06153613328933716,0.7564507275819778,0.9997642636299133,0.00023432467423845083,-0.014478017576038837,0.016181044280529022
79.0,-0.17810453941475735,-1.7205621587798348,1.9631479890513819,-1.7947001821310378,-1.607292585788214,-1.748965190411356,0.7581229135394096,0.0620388500392437,0.7564609944820404,0.9997898936271667,0.00020259841403458267,-0.012424684129655361,0.016302695497870445
80.0,-0.18457695836577598,-1.7257788278466648,1.9682674415183705,-1.7987127014817779,-1.6046710945264482,-1.7554410378548988,0.7548636794090271,0.05822243541479111,0.7564770430326462,0.9998301267623901,0.00015727279242128134,-0.010270084254443645,0.015311077237129211
81.0,-0.19293834388050646,-1.7257237445328786,1.9685343324394293,-1.8006193373220625,-1.6014466564211973,-1.763792573909765,0.7556531950831413,0.052351146936416626,0.7564896196126938,0.999861478805542,0.0001284628815483302,-0.009311228059232235,0.013794644735753536
82.0,-0.19237141754396092,-1.7318999743776868,1.973665866722856,-1.8001789645059907,-1.6020088267983232,-1.7632306555591453,0.7507182136178017,0.05364663898944855,0.7564886510372162,0.9998591542243958,0.00012807684834115207,-0.009060616604983807,0.014133566059172153
83.0,-0.20150696194926465,-1.734828346992577,1.976552828241628,-1.8027277131255885,-1.5985373868683046,-1.7723584675772257,0.7492463290691376,0.047727134078741074,0.7565017640590668,0.9998919367790222,9.550376125844195e-05,-0.007573348935693502,0.012609143741428852
84.0,-0.20903761505156804,-1.7371103232340606,1.9788034958674505,-1.8047372531449197,-1.5956547774568375,-1.7798822703848607,0.7480946741998196,0.04285409301519394,0.7565111219882965,0.9999152421951294,7.234029908431694e-05,-0.006370925344526768,0.011353792622685432
85.0,-0.20710867115304465,-1.7299866651987832,1.9725320689815262,-1.8030680551500506,-1.5962483844058735,-1.7779485116990332,0.7533918879926205,0.04307276010513306,0.7565073668956757,0.9999059438705444,8.712433191249147e-05,-0.0076436446979641914,0.011397197842597961
86.0,-0.20390897832192587,-1.722524590702201,1.9659185037351143,-1.8013403425983663,-1.597308528292708,-1.774744658867707,0.7589007765054703,0.044147733598947525,0.756501629948616,0.9998915195465088,0.00010484486847417429,-0.008975683711469173,0.011679720133543015
87.0,-0.2120093574343322,-1.7255609024555605,1.9690614928562307,-1.8046164680333032,-1.5940147460521128,-1.7828415498899013,0.7572767063975334,0.038939863443374634,0.756513386964798,0.9999209046363831,7.412065315293148e-05,-0.007174481172114611,0.010330334305763245
88.0,-0.21803548797017225,-1.723861772327024,1.967682771507551,-1.8050329020087155,-1.591694935504615,-1.7888588650691222,0.7589476257562637,0.03442101180553436,0.7565186023712158,0.9999340176582336,6.35984688415192e-05,-0.00693884864449501,0.009164961986243725
89.0,-0.2240131746481035,-1.7205995414393236,1.9648420983319197,-1.804722672512533,-1.5894260871030021,-1.7948260684083202,0.7617443464696407,0.029649250209331512,0.7565223574638367,0.9999433159828186,5.63350877200719e-05,-0.007098240312188864,0.00793603714555502
90.0,-0.2248653007686128,-1.7153738936619838,1.9606591513831402,-1.8062799873641804,-1.5885326321698032,-1.79567672614798,0.7660423666238785,0.028164148330688477,0.7565244883298874,0.9999486804008484,5.101272472529672e-05,-0.006754594389349222,0.007551913149654865
91.0,-0.22665793367965711,-1.7086903043726414,1.954443478093209,-1.8036937006879827,-1.5879609757258206,-1.7974572722784925,0.7711241766810417,0.025720767676830292,0.7565220296382904,0.9999425411224365,5.667495497618802e-05,-0.008191804401576519,0.006918096914887428
92.0,-0.23381994608398413,-1.7118098805493125,1.9578467701818962,-1.8077279147222969,-1.5847702364523952,-1.8046221003489884,0.7693323567509651,0.021169329062104225,0.7565311193466187,0.9999653100967407,3.4725126170087606e-05,-0.0060474746860563755,0.00574188819155097
93.0,-0.24138279452578398,-1.7151565991883144,1.9613618933177983,-1.8113239419798952,-1.5814843717180938,-1.8121851615639475,0.7673072144389153,0.016405094414949417,0.7565377056598663,0.999981701374054,1.8195240045315586e-05,-0.004033961333334446,0.0045104315504431725
94.0,-0.24419160170093487,-1.721253796228014,1.9664350804068438,-1.8106136665858201,-1.5809626422446108,-1.8149934851261629,0.76254852861166,0.015529193915426731,0.7565384209156036,0.9999834895133972,1.641329981794115e-05,-0.0038313374388962984,0.004283890128135681
95.0,-0.2504920901452188,-1.7203904540626778,1.9660642949173346,-1.8126441051255626,-1.578160064878642,-1.821291429725704,0.7635977640748024,0.010923538357019424,0.7565415799617767,0.9999914169311523,8.554528903914616e-06,-0.0027659782208502293,0.0030927411280572414
96.0,-0.25082111294768616,-1.726740337427975,1.9714928837451466,-1.812866592431054,-1.578382398667428,-1.8216222384660592,0.7586816512048244,0.011897384189069271,0.7565417885780334,0.9999920129776001,7.486940830858657e-06,-0.0022405998315662146,0.0033414631616324186
97.0,-0.2505724107359648,-1.7333241364567968,1.9767404691296324,-1.8112362988516624,-1.5792074238656006,-1.8213746351321605,0.7534025497734547,0.013305100612342358,0.7565410435199738,0.9999900460243225,9.205625246977434e-06,-0.002484500641003251,0.003705184906721115
98.0,-0.25784357810549297,-1.7331626004303005,1.9768497505376568,-1.8126051781085986,-1.576229723607531,-1.8286424425941858,0.7538476139307022,0.008204727433621883,0.75654336810112,0.9999958872795105,3.821890913968673e-06,-0.0016008488601073623,0.0023874056059867144
99.0,-0.26429180503126226,-1.738530211434024,1.9813514784758954,-1.8126838242080006,-1.5741577460514797,-1.8350892310119402,0.7498504184186459,0.004766619764268398,0.7565444111824036,0.9999985694885254,1.3349248320082552e-06,-0.0008897182997316122,0.0015003884909674525
100.0,-0.26880170649626905,-1.7353629062018903,1.978940561310264,-1.8139723738442208,-1.5720006577145076,-1.8395981564814865,0.7524998635053635,0.001004048972390592,0.7565449476242065,0.9999998211860657,1.8637726384440612e-07,-0.00035351415863260627,0.0005272129201330245
101.0,-0.2737023960529132,-1.742136024303128,1.9844237874645825,-1.8130831508726395,-1.5708016841823909,-1.844498723052317,0.747280977666378,-0.0010275249369442463,0.7565450221300125,1.0,2.8844138449252155e-12,-1.176235628008726e-06,2.4522414605598897e-06
102.0,-0.26984775587039805,-1.7456614787955274,1.9871331524590279,-1.8119254919960637,-1.5727068107174336,-1.8406444809805933,0.7444023117423058,0.0023437589406967163,0.7565448433160782,0.9999995231628418,3.6725444374496874e-07,-0.00041970988968387246,0.0008750194101594388
103.0,-0.2772071209211483,-1.747732579915046,1.9887305713554904,-1.81131161171236,-1.570250876323354,-1.8480034690653788,0.7428709715604782,-0.002305703004822135,0.7565450221300125,0.9999999403953552,-5.17182598969157e-08,-0.00015750252350699157,-0.0003283646365161985
104.0,-0.27656613986790574,-1.7528626792660806,1.9928486891477113,-1.8107600987983046,-1.5709253531082679,-1.8473624665240973,0.7388954721391201,-0.0008089365437626839,0.7565450221300125,1.0,1.6711410033565244e-09,-2.831210076692514e-05,5.9025678638136014e-05
105.0,-0.2716191610032838,-1.7575682922713467,1.9964936725692493,-1.8096506241765447,-1.573269995086074,-1.8424162597054634,0.7351214326918125,0.0035204868763685226,0.7565447241067886,0.9999993443489075,4.3267934302093636e-07,-0.0003660711518023163,0.001181953470222652
106.0,-0.2652792980534613,-1.759243685283531,1.9977685947423773,-1.809146061397732,-1.575789561969523,-1.8360787090111579,0.7336642891168594,0.00816389825195074,0.7565437853336334,0.9999969005584717,1.7637006521908916e-06,-0.0007390865939669311,0.0023863171227276325
107.0,-0.26238472935373175,-1.7524051080996415,1.9922779929988277,-1.8096712945185838,-1.5763359171258702,-1.8331844067521448,0.7388641946017742,0.008796468377113342,0.756543442606926,0.9999961256980896,3.055522029171698e-06,-0.0012003247393295169,0.0025455697905272245
108.0,-0.25595766632163963,-1.7481301878477984,1.9888324092649445,-1.8100339124748286,-1.5783594369387262,-1.8267600281836303,0.7420121319591999,0.012379647232592106,0.7565420567989349,0.9999926686286926,5.7854322221828625e-06,-0.0016658470267429948,0.003472941927611828
109.0,-0.2630780497662823,-1.746807493713691,1.987920290900446,-1.8110398883068493,-1.5754627273814459,-1.8338767415339257,0.7433013841509819,0.007230299059301615,0.756543904542923,0.9999972581863403,2.1964469851809554e-06,-0.0010264234151691198,0.002139897784218192
110.0,-0.25733927460251127,-1.7419821315138195,1.9840340221191033,-1.8116243570021358,-1.5771632687250567,-1.828139892247973,0.7469316050410271,0.01025494933128357,0.7565429210662842,0.9999947547912598,4.097920282220002e-06,-0.0014020014787092805,0.002922892104834318
111.0,-0.24873017511371814,-1.742996403348793,1.9846787122447935,-1.8105046558459283,-1.5806089610803535,-1.8195363450772088,0.7457999885082245,0.01639433018863201,0.7565400153398514,0.9999874830245972,9.766726179805119e-06,-0.00216442602686584,0.0045123291201889515
112.0,-0.24155229343695464,-1.7440538175667568,1.985375154306061,-1.809469559591294,-1.5834878519077054,-1.8123645899452312,0.7446448504924774,0.02154051885008812,0.7565366178750992,0.9999790787696838,1.6386617062380537e-05,-0.0028035922441631556,0.005844742991030216
113.0,-0.24049242007864938,-1.7365837267345166,1.9790482950557613,-1.8088592049228978,-1.5835605715432024,-1.8113021610069795,0.7503256350755692,0.020919334143400192,0.7565359175205231,0.9999772310256958,2.0754270735778846e-05,-0.003657585009932518,0.00567418010905385
114.0,-0.23247763345520484,-1.7341530529321618,1.9767812117819248,-1.807512925795276,-1.586586615180338,-1.8032930307025619,0.7517819255590439,0.02606233023107052,0.7565308064222336,0.9999644756317139,3.287502840976231e-05,-0.004695167299360037,0.007001637481153011
115.0,-0.23092200203809737,-1.7401162061975919,1.9820298837208168,-1.8089686453983789,-1.5872209400108113,-1.8017436007681922,0.7472325004637241,0.028191158547997475,0.756530836224556,0.9999645352363586,2.8000036763842218e-05,-0.0037006258498877287,0.007566029671579599
116.0,-0.22334732465113835,-1.738154219151671,1.9800804187671357,-1.8071601404636504,-1.5901728012987904,-1.7941755752948814,0.7482452020049095,0.0330999493598938,0.7565247118473053,0.9999492168426514,4.290464494260959e-05,-0.004857976920902729,0.008831343613564968
117.0,-0.21730207571693524,-1.7402936852867739,1.9818788919368608,-1.8071735832187983,-1.5924574246950036,-1.788139697108792,0.7462918981909752,0.03764578327536583,0.7565202116966248,0.9999380707740784,4.884955342276953e-05,-0.004877761006355286,0.010014128871262074
118.0,-0.21687003245131423,-1.732426779919691,1.9748457717892414,-1.8046516942172253,-1.5926248154448372,-1.787700068448796,0.7521505542099476,0.03664730116724968,0.7565175294876099,0.999931275844574,6.35844116914086e-05,-0.006529809907078743,0.009736889973282814
119.0,-0.2263215605292572,-1.7452595791491015,1.9860154621158488,-1.8073635134510084,-1.589444898338017,-1.7971500587942195,0.7428900562226772,0.03224460035562515,0.7565267533063889,0.999954342842102,3.5615306842373684e-05,-0.004133270122110844,0.008616344071924686
120.0,-0.23201102045430666,-1.7504926256240776,1.9902723349372273,-1.8070915725904249,-1.587726976943246,-1.8028349402003312,0.7390719316899776,0.029232382774353027,0.7565300911664963,0.9999626278877258,2.854654667316936e-05,-0.0036420468240976334,0.007837758399546146
121.0,-0.24353280374937197,-1.7545089333344785,1.9939283880572454,-1.8091683733857618,-1.5834082563076257,-1.814346840102252,0.7366419546306133,0.022077025845646858,0.7565370202064514,0.9999799728393555,1.2160304322605953e-05,-0.002028857823461294,0.005993550643324852
122.0,-0.2509045664902994,-1.7591073464066689,1.9976029090782053,-1.8087835276213955,-1.5810694597816377,-1.8217132254100796,0.7333357855677605,0.017902614548802376,0.7565397322177887,0.9999867677688599,7.474864105461165e-06,-0.0015215518651530147,0.004912593401968479
123.0,-0.25774954923940485,-1.7614811955443546,1.9994626090223462,-1.8084368099865646,-1.5787948370298632,-1.8285535600335572,0.731697853654623,0.01370506826788187,0.7565418183803558,0.9999920725822449,4.528323643171461e-06,-0.001184275490231812,0.003823678009212017
124.0,-0.25472167947837054,-1.7659049278939674,2.0028376281899445,-1.8072924431680022,-1.5803582764023696,-1.8255288577762834,0.7281301226466894,0.016588494181632996,0.756540447473526,0.9999885559082031,6.473379471572116e-06,-0.001415957580320537,0.004571679979562759
125.0,-0.2593138370202048,-1.7711551995600532,2.0071286179421177,-1.8076679483320057,-1.5789255467814962,-1.8301187319025891,0.7243234217166901,0.014501390978693962,0.7565416842699051,0.9999916553497314,2.4593666694272542e-06,-0.0006081683677621186,0.004043857101351023
126.0,-0.2669628718717821,-1.7737316434718304,2.0090208735885837,-1.8067598854855131,-1.5764994412045323,-1.8377635369335403,0.7224920690059662,0.0098741315305233,0.7565433830022812,0.9999958872795105,1.2125659623052343e-06,-0.0004270354693289846,0.002839485416188836
127.0,-0.2649522962346303,-1.7672514058400732,2.003905999662192,-1.8072397662192392,-1.576759458767464,-1.8357530146539698,0.7273878306150436,0.00995100848376751,0.7565432488918304,0.9999956488609314,2.5154802187898895e-06,-0.0008826605626381934,0.0028498717583715916
128.0,-0.27611751858399786,-1.7655683130162252,2.0026533771767894,-1.8078402882082867,-1.5724923865162355,-1.8469142151773077,0.7289567664265633,0.002087503671646118,0.7565448880195618,0.9999996423721313,2.033581978366783e-07,-0.0002509649784769863,0.0008103047148324549
129.0,-0.28372689577717025,-1.7659630645901991,2.0028341338973217,-1.8070900179700369,-1.569919324284618,-1.8545233170330535,0.7286978866904974,-0.002971886657178402,0.7565449774265289,0.9999998807907104,-7.747286190351588e-08,-0.00015439496200997382,-0.0005017835646867752
130.0,-0.28728040738211874,-1.7718993050359788,2.0073246706317653,-1.8055362579278582,-1.5693272523521282,-1.858077043883649,0.7241176664829254,-0.004117276053875685,0.7565448880195618,0.9999997615814209,-9.662136335464311e-08,-0.00012054439866915345,-0.0008015415514819324
131.0,-0.2939987246370518,-1.7702663696388337,2.005840392304705,-1.8045764743493007,-1.5670180348282183,-1.8647971418666403,0.7253090869635344,-0.008983766660094261,0.7565441578626633,0.9999977946281433,-6.431695851460972e-07,-0.00031100946944206953,-0.0020680020097643137
132.0,-0.29523907102032526,-1.7756825792605933,2.0099496701212294,-1.8033416553427417,-1.5671814977343712,-1.8660373231418637,0.7211370170116425,-0.008644474670290947,0.7565442323684692,0.9999980926513672,-5.894162882214005e-07,-0.0002977295371238142,-0.001979700056836009
133.0,-0.2862282401024331,-1.7779179756301402,2.0119578406235403,-1.8045900633019525,-1.5702673531391678,-1.8570246095045233,0.7194972708821297,-0.0021456058602780104,0.7565450072288513,1.0,-1.251489223363933e-08,-4.3383435695432127e-05,-0.00028847166686318815
134.0,-0.27934448765718745,-1.7758989185707272,2.0105441135206235,-1.8056509162269025,-1.5723970633296358,-1.8501411760635724,0.7210110463202,0.0020305090583860874,0.7565448880195618,0.9999997615814209,9.582008431152644e-08,-0.00012004352174699306,0.0007982110255397856
135.0,-0.2790107130736799,-1.7824477808454606,2.0154698632590735,-1.8041335538612462,-1.573211747642536,-1.8498078447667419,0.7159454375505447,0.0035914096515625715,0.7565447390079498,0.9999992847442627,2.1815482398324093e-07,-0.00018113107944373041,0.0012044020695611835
136.0,-0.2683730616186787,-1.7806730150387542,2.0142403266117483,-1.805072443726625,-1.5767193800255848,-1.8391740967170553,0.7171356286853552,0.010296767577528954,0.7565432488918304,0.9999956488609314,1.3083337080388446e-06,-0.0004435786686372012,0.0029494839254766703
137.0,-0.26050190093274045,-1.7785347050822815,2.012700446963102,-1.8059058812522297,-1.579246338002371,-1.8313075251290263,0.7186116483062506,0.015116594731807709,0.7565414011478424,0.9999909400939941,2.658002586031216e-06,-0.0006322517292574048,0.004203988239169121
138.0,-0.25912539493608217,-1.7844173031731752,2.0171144489861845,-1.80454301391696,-1.5803115869882656,-1.829933443240074,0.7140099545940757,0.01714986003935337,0.756540447473526,0.9999885559082031,3.3693943350954214e-06,-0.0007118504727259278,0.0047332351095974445
139.0,-0.2697559104067219,-1.8005543910021762,2.037064129259071,-1.8435469612073019,-1.5686728515909087,-1.8403786830166355,0.7060609003528953,0.013659085147082806,0.7564791291952133,0.9998353719711304,-6.752317131031305e-05,0.017747407779097557,0.003804051084443927
140.0,-0.2630458869786461,-1.8043679516355295,2.042175397334452,-1.8547137920210495,-1.5690507054347067,-1.8335702655350399,0.7040409352630377,0.018851034343242645,0.7564385831356049,0.9997338652610779,-0.0001158120867330581,0.022487584501504898,0.005148674827069044
141.0,-0.25614019034037583,-1.8096364618862797,2.0492320774955552,-1.8700010531909976,-1.5688372213770025,-1.8264941651059596,0.7012351867742836,0.024442806839942932,0.7563672214746475,0.9995554685592651,-0.0001918862690217793,0.029077425599098206,0.006596216466277838
142.0,-0.26228963926800036,-1.827996195961776,2.072891789807237,-1.9177509938079202,-1.557151131020892,-1.8317126072912049,0.6919042710214853,0.024539021775126457,0.756015419960022,0.9986750483512878,-0.0003377686080057174,0.05103301256895065,0.00660985941067338
143.0,-0.2729586800744333,-1.8351767954645903,2.0818584003812397,-1.9346974244944886,-1.549088638819843,-1.8418500929339245,0.68838004861027,0.019496334716677666,0.7558353990316391,0.9982243180274963,-0.0003149966069031507,0.059330228716135025,0.005299781449139118
144.0,-0.2848814921922455,-1.842292803684776,2.091478245045386,-1.9526934963326215,-1.5398259883036967,-1.8531117494657388,0.6848343685269356,0.013868531212210655,0.7552265375852585,0.997680127620697,-0.00025331764481961727,0.06797412782907486,0.003718032268807292
145.0,-0.2954905759577929,-1.8496480283634733,2.1016760122115516,-1.9718527449474654,-1.530933861992146,-1.8629184491320585,0.6810411307960749,0.009223457425832748,0.7544720023870468,0.997028112411499,-0.00019553184392862022,0.07699666917324066,0.002531937323510647
146.0,-0.3025703914806126,-1.8652934495068578,2.1245092776637415,-2.017297410000024,-1.5180057043352688,-1.8679166538248924,0.6726313605904579,0.009129314683377743,0.7526768743991852,0.9952749609947205,-0.0002443211851641536,0.0970640778541565,0.002505218842998147
147.0,-0.312027912988377,-1.869512805650516,2.1303320023818504,-2.027698399708564,-1.5109787894927185,-1.8766503544649893,0.6704248301684856,0.00463492888957262,0.7521786242723465,0.9947569966316223,-0.0001435791200492531,0.10225725173950195,0.001396735431626439
148.0,-0.3242955624152855,-1.87795280025016,2.1424697471810483,-2.050582419440171,-1.4995470608693149,-1.8873429049962864,0.6658738628029823,-0.0002008154842769727,0.7511143833398819,0.9935896396636963,-2.3404434614349157e-05,0.11304773390293121,0.00020570430206134915
149.0,-0.3346309261308302,-1.8766992591026597,2.140116999905131,-2.0443715547380004,-1.495432234003201,-1.897788405267001,0.6666414886713028,-0.0066923294216394424,0.7512971460819244,0.9937862157821655,0.00015569201787002385,0.11129720509052277,-0.0013901927741244435
150.0,-0.33607121227096104,-1.8680369230920026,2.127088364377933,-2.017848049602819,-1.5008132927331799,-1.900722522420175,0.6713797301054001,-0.010188436135649681,0.7523954659700394,0.9949811697006226,0.00022661783441435546,0.10003645718097687,-0.0022539831697940826
151.0,-0.34734690180890204,-1.8736189615420957,2.1350500315049463,-2.032558409090666,-1.491452094399607,-1.9109210904085256,0.6683452613651752,-0.015184495598077774,0.7516968846321106,0.9942126870155334,0.0003759331302717328,0.10737363249063492,-0.003480905666947365
152.0,-0.3583396408537034,-1.8831298476298386,2.1490302450448286,-2.0594209310561102,-1.4790148756476822,-1.9199149327024243,0.6631147526204586,-0.018607420846819878,0.7504413276910782,0.9927723407745361,0.0005209685768932104,0.11993429809808731,-0.004312387201935053
153.0,-0.3676131568764435,-1.887734672658826,2.1541960539864586,-2.0640076610558493,-1.47302121811267,-1.928591105501673,0.6600328907370567,-0.022659901529550552,0.749666839838028,0.9924080967903137,0.0006566630909219384,0.12287287414073944,-0.005303675774484873
154.0,-0.37691614262632334,-1.8872295136938904,2.1534641832324257,-2.0621907628045504,-1.4682560149261996,-1.9377750188334775,0.6603041961789131,-0.028214436024427414,0.7497318983078003,0.9923803210258484,0.0008264501811936498,0.12302996963262558,-0.006666285917162895
155.0,-0.388918044384924,-1.887178982000406,2.1530861289263865,-2.0598068067176882,-1.4621876056176597,-1.949635616210684,0.6601298786699772,-0.03521764650940895,0.7496823966503143,0.9923374652862549,0.001041489071212709,0.12326798588037491,-0.00838424265384674
156.0,-0.4005975780375155,-1.8912168919204697,2.156468417057399,-2.0576436525320965,-1.4567089315254331,-1.9611405722985953,0.6568946838378906,-0.04083588346838951,0.7488601803779602,0.9922708868980408,0.0012169798137620091,0.12370004504919052,-0.009762112982571125
157.0,-0.40959357660459844,-1.8929724537433108,2.1578330520948956,-2.0558390487637563,-1.4523880134091316,-1.97003414420526,0.6553516462445259,-0.04552276059985161,0.7484654635190964,0.9922249913215637,0.0013633108465000987,0.12397020310163498,-0.010911582969129086
158.0,-0.41823748877374234,-1.8905181179467612,2.155386471596798,-2.0538330317562314,-1.4478420644796712,-1.9786556924959158,0.6568215265870094,-0.05126284807920456,0.7488296627998352,0.9921996593475342,0.0015401318669319153,0.1240389421582222,-0.012319664470851421
159.0,-0.4112595488876748,-1.8860148289986725,2.1514418549174046,-2.055075979265183,-1.450865210070393,-1.971793320087804,0.6603440530598164,-0.04857077822089195,0.7497225105762482,0.9922528266906738,0.0014533235225826502,0.12367837131023407,-0.011659792624413967
160.0,-0.4031921079215545,-1.8862725758230572,2.1518799838689127,-2.0568084663982025,-1.4549261892932217,-1.9637845594106598,0.6604229658842087,-0.04379415884613991,0.7497479617595673,0.9922858476638794,0.0013055610470473766,0.12351959198713303,-0.010488131083548069
161.0,-0.39039150248716503,-1.87660383977187,2.1386938796793324,-2.035345306691026,-1.4676502612418363,-1.952870431562109,0.6662512198090553,-0.03963730111718178,0.7511874884366989,0.9935709834098816,0.0010775469709187746,0.11280743032693863,-0.009490679949522018
162.0,-0.3825538386507636,-1.8584014872929948,2.1121970812631963,-1.9838671557216752,-1.485662166552485,-1.9483407439620513,0.6759973019361496,-0.041201598942279816,0.7534025460481644,0.9959329962730408,0.0008908183081075549,0.08954626321792603,-0.0099076759070158
163.0,-0.37243763822060366,-1.8548282833209528,2.1071089048680407,-1.974632501626267,-1.4931843361868478,-1.9388184419351446,0.6780669577419758,-0.03626229241490364,0.7538478672504425,0.9963836073875427,0.0007373138796538115,0.08452002704143524,-0.008691993542015553
164.0,-0.3593174136448416,-1.8430732269758792,2.09033515530394,-1.9422454871680057,-1.507561474946657,-1.9272683184994457,0.684348750859499,-0.031929679214954376,0.7551220059394836,0.9975757598876953,0.000542396039236337,0.06914521753787994,-0.007825286127626896
165.0,-0.36177119820578185,-1.8336726206140974,2.077254849254015,-1.916054207339111,-1.5129145637372814,-1.9306764462842878,0.6890561543405056,-0.03630218654870987,0.7558619678020477,0.9982907772064209,0.0005265356739982963,0.057726625353097916,-0.009105602279305458
166.0,-0.36862549033418385,-1.832416982876455,2.0755728603410373,-1.9122874446318001,-1.5107681088942628,-1.937638270274758,0.6895254189148545,-0.04095349460840225,0.7558826804161072,0.9983425736427307,0.0005846144049428403,0.05661682039499283,-0.01030869409441948
167.0,-0.359038216594534,-1.8149821571430624,2.0534699005779995,-1.8693009876167785,-1.5266609465299232,-1.9292357302952108,0.6983594563789666,-0.04013674706220627,0.7562677711248398,0.9993066787719727,0.0003628683916758746,0.0358307845890522,-0.01012025773525238
168.0,-0.3527820123606819,-1.8171290971872545,2.056235925383548,-1.875067495234037,-1.5277925070442326,-1.9228556331518742,0.6974472519941628,-0.03552951291203499,0.7562405169010162,0.9992384314537048,0.00033932007499970496,0.03798450529575348,-0.008926314301788807
169.0,-0.3460392660716493,-1.8011463539396788,2.036187568456013,-1.8358889808927867,-1.5408416427814278,-1.916731123225003,0.7054034573957324,-0.03575287014245987,0.7564550340175629,0.9997749924659729,0.00017280608881264925,0.019211629405617714,-0.008992846123874187
170.0,-0.34716765524686405,-1.7884134533218474,2.0202476897052306,-1.8041460575187367,-1.54867707504837,-1.9180380071946739,0.7114524710923433,-0.04003751650452614,0.7565204501152039,0.9999385476112366,4.539343717624433e-05,0.00447567505761981,-0.010141633450984955
171.0,-0.3413192842716467,-1.7793593997474506,2.0110717553055464,-1.7932012263404142,-1.553373471950848,-1.9121680015001234,0.7170594800263643,-0.038557760417461395,0.7565255165100098,0.9999512434005737,-1.434681598766474e-05,-0.0014689218951389194,-0.009766425006091595
172.0,-0.3355379683077902,-1.7824435277693387,2.0136345715733066,-1.7939113569530958,-1.555465620276137,-1.9063741107770427,0.7149723023176193,-0.0339520238339901,0.7565300166606903,0.999962568283081,-1.103986051020911e-05,-0.0012885472970083356,-0.008567359298467636
173.0,-0.3312119652918655,-1.7901607967690512,2.0225824135845456,-1.80951202953926,-1.5532272279909431,-1.902037979231613,0.7109832027927041,-0.029073581099510193,0.7565276026725769,0.9999565482139587,4.248355617164634e-05,0.0058325775898993015,-0.0072835227474570274
174.0,-0.33007691834671804,-1.8008844983724557,2.0360425854569226,-1.8364447341563683,-1.5469780250159573,-1.9007414098660675,0.7058293633162975,-0.02547059766948223,0.7564702033996582,0.99981290102005,0.00011564441228983924,0.01827959343791008,-0.006325238384306431
175.0,-0.31974880369163244,-1.7849721030497214,2.016272537520322,-1.7975347560316504,-1.5603371389643719,-1.8905630581618253,0.7136611798778176,-0.02286907657980919,0.7565385103225708,0.9999837279319763,-2.962990947708022e-06,-0.0005215097917243838,-0.00568147050216794
176.0,-0.31997391028008043,-1.7792828330389652,2.0118153961864462,-1.797778343398042,-1.5598493744999617,-1.8907895287236962,0.7178899236023426,-0.0243533942848444,0.7565374970436096,0.999981164932251,-5.538794084714027e-06,-0.0009126874501816928,-0.0060685500502586365
177.0,-0.32684960235724875,-1.778622696267847,2.0110593025095205,-1.796463209693088,-1.5576697028271427,-1.8976743058683305,0.7181767653673887,-0.029093431308865547,0.7565341293811798,0.9999727606773376,-8.02045724412892e-06,-0.0010982871754094958,-0.007302497513592243
178.0,-0.3211652312349572,-1.7712393955596344,2.005543154786674,-1.798564177743647,-1.5587118150966717,-1.891984897870996,0.7239292562007904,-0.027042647823691368,0.7565355896949768,0.999976396560669,-8.073109711403958e-06,-0.001193365198560059,-0.006764835212379694
179.0,-0.31363846843429605,-1.772107335363044,2.0065611643106385,-1.8003745383099161,-1.5610274428667172,-1.8844498459794965,0.7235256303101778,-0.0217784121632576,0.756539061665535,0.9999850988388062,-4.382739007269265e-06,-0.0008118698606267571,-0.005398246925324202
180.0,-0.31265749618726474,-1.7780287759266753,2.0111264087692136,-1.7995007640663438,-1.5619723212547043,-1.8834660603291518,0.7190349567681551,-0.019763410091400146,0.7565401643514633,0.9999878406524658,-3.5723928704101127e-06,-0.000732980843167752,-0.004873727913945913
181.0,-0.30609608094572105,-1.7807639886963036,2.0134376398159595,-1.8002906672900638,-1.5643039712503328,-1.8768988794137569,0.7170885875821114,-0.014771235175430775,0.7565424144268036,0.9999935626983643,-1.9213719042454613e-06,-0.0005375484470278025,-0.003574300790205598
182.0,-0.3059418956124803,-1.7730491118049196,2.0075606105110917,-1.8017531714306865,-1.563534689845897,-1.8767463166040987,0.7229827661067247,-0.016397204250097275,0.7565417587757111,0.9999918341636658,-2.403323378530331e-06,-0.0006011990481056273,-0.003997518215328455
183.0,-0.29621695746634696,-1.7652467594229804,2.001701047277882,-1.8040442240054428,-1.5660560447443015,-1.8670162689237093,0.7290366925299168,-0.011581731960177422,0.7565433830022812,0.9999960064888,-2.301450194863719e-06,-0.0008415114716626704,-0.00273488974198699
184.0,-0.27968371899902356,-1.7600132614971706,1.998368675005408,-1.8090246825636411,-1.5706016237766112,-1.8504800436008764,0.7333356589078903,-0.0014654340920969844,0.7565450221300125,1.0,-3.798306114077832e-09,-3.418639607843943e-05,-0.00011110577906947583
185.0,-0.2501995593987692,-1.7513765482045205,1.9912582982542817,-1.8086574514776739,-1.5809177162377461,-1.8210064221892315,0.7392174825072289,0.016937416046857834,0.7565397024154663,0.9999867677688599,1.0384913366578985e-05,-0.0022318752016872168,0.00465293787419796
186.0,-0.23922223250693728,-1.7603086956109908,1.9984616745864858,-1.8080506152709466,-1.5854794937877417,-1.8100425386738193,0.7319259196519852,0.026048555970191956,0.7565342038869858,0.9999730587005615,1.5290104784071445e-05,-0.0021761730313301086,0.007025956176221371
187.0,-0.24692294146014768,-1.7668513319307568,2.003519731366277,-1.806796032604706,-1.5833004589344546,-1.8177372409617938,0.7271007504314184,0.022019557654857635,0.7565371841192245,0.9999803900718689,1.1078683201048989e-05,-0.0018523820908740163,0.005980659741908312
188.0,-0.24115835238331632,-1.7689143301745158,2.0052648431402775,-1.8072054693920923,-1.5853940344765645,-1.8119794321242038,0.7253528889268637,0.026273658499121666,0.7565343677997589,0.999973475933075,1.2165891348558944e-05,-0.0017147748731076717,0.007094557862728834
189.0,-0.23549504348222527,-1.7738922716930794,2.0093615036210646,-1.80771580554188,-1.5875727456132875,-1.8063243809325225,0.7213797271251678,0.030950292944908142,0.7565308511257172,0.9999646544456482,1.0425906111777294e-05,-0.0012522038305178285,0.008325752802193165
190.0,-0.23829591773576328,-1.7797346282454458,2.0137492382728857,-1.8062684550941,-1.5871237973080978,-1.8091239040560503,0.7169302962720394,0.030102144926786423,0.7565315812826157,0.9999665021896362,9.880183824861888e-06,-0.0012189903063699603,0.00810494925826788
191.0,-0.24439917745936982,-1.7773084149015388,2.011890541998555,-1.8067110101874957,-1.5847612830425892,-1.8152192697347533,0.7190626543015242,0.025612367317080498,0.7565351873636246,0.9999755024909973,7.235808880068362e-06,-0.001043180120177567,0.0069361296482384205
192.0,-0.2515693095548653,-1.774163589050667,2.009469131079186,-1.8072463807401857,-1.5819448958849034,-1.822381243956159,0.7217596359550953,0.020253920927643776,0.7565387487411499,0.9999843835830688,4.618002549250377e-06,-0.0008333759033121169,0.005541234277188778
193.0,-0.2457026927959824,-1.7890736929297544,2.023295435032802,-1.818078948356525,-1.5825270222946015,-1.8165041917389526,0.7113645821809769,0.02696908824145794,0.7565296143293381,0.9999614953994751,-3.571551860659383e-05,0.0049074990674853325,0.0072774626314640045
194.0,-0.23897301491182013,-1.7950129384494262,2.0311516180164952,-1.8350942285320795,-1.5818895004871258,-1.8097098074534197,0.7082358179613948,0.03257105126976967,0.7564992308616638,0.9998854994773865,-0.00010785389167722315,0.012366320937871933,0.008720585145056248
195.0,-0.23039435600315109,-1.7840353819937373,2.0174714692700375,-1.8079075856406388,-1.5897853485441629,-1.8012328980678214,0.7134743668138981,0.03609383851289749,0.7565263211727142,0.9999532699584961,3.6663432183559053e-06,-0.00037939977482892573,0.009663083590567112
196.0,-0.22601757648953633,-1.7777752949157049,2.01233510551724,-1.8069291249942674,-1.5912493318461312,-1.7968609404494322,0.7179019879549742,0.037928447127342224,0.7565239816904068,0.9999474883079529,1.5472985978703946e-05,-0.0015254884492605925,0.010142439045011997
197.0,-0.2277542076676341,-1.7719726583641924,2.007877299081885,-1.8079273193444438,-1.5901901157816498,-1.798592958534327,0.7225007303059101,0.035798534750938416,0.7565261423587799,0.9999527931213379,1.526269807072822e-05,-0.0015923203900456429,0.009584740735590458
198.0,-0.23080663618881334,-1.7671309017925088,2.0037405432908337,-1.8066284857081178,-1.5890884709264406,-1.80163940253516,0.726210517808795,0.032920680940151215,0.7565282583236694,0.9999582171440125,2.1779902453999966e-05,-0.002470829989761114,0.008814443834125996
199.0,-0.22304947330996627,-1.7650168411965477,2.0019538907110164,-1.806104695337718,-1.5918215084386,-1.7938915230487424,0.7274006456136703,0.03778780251741409,0.7565227895975113,0.9999445080757141,3.142311470583081e-05,-0.0031197438947856426,0.010071779601275921
200.0,-0.21894228502191448,-1.7579680172723444,1.996502492536643,-1.8075439522939734,-1.5926944806523078,-1.7897872670438268,0.7327421233057976,0.03941265866160393,0.7565208971500397,0.9999397397041321,3.4109285479644313e-05,-0.0032503618858754635,0.010493365116417408
201.0,-0.2246351894698981,-1.755905574913073,1.9949481967042832,-1.8083209094044175,-1.59042969705161,-1.795471649348775,0.7346907667815685,0.035202302038669586,0.7565256357192993,0.9999516010284424,2.7514943212736398e-05,-0.0029267410282045603,0.009400767274200916
202.0,-0.2177122441743194,-1.750011914558077,1.9896885071941073,-1.805893450258964,-1.5930207565869474,-1.7885537025647074,0.7386519610881805,0.038944169878959656,0.7565192878246307,0.9999356269836426,4.800805254490115e-05,-0.004635920282453299,0.010355002246797085
203.0,-0.20854915118876308,-1.7459486886983449,1.9861645292910957,-1.8048164748594546,-1.5962526434403794,-1.7794004648129935,0.7411972880363464,0.04458045959472656,0.7565107047557831,0.9999142289161682,6.692350871162489e-05,-0.005665960721671581,0.011810489930212498
204.0,-0.20454377501674656,-1.749856082884351,1.989399669899849,-1.8048213500511563,-1.5978557854493205,-1.7754037398952425,0.7379330657422543,0.04793519526720047,0.7565068900585175,0.9999047517776489,6.914861296536401e-05,-0.00544998561963439,0.012686644680798054
205.0,-0.20291359722004793,-1.7553685794753295,1.9942331254675725,-1.8065099406603007,-1.5984208663177677,-1.7737807414194586,0.7337329536676407,0.049896981567144394,0.7565063834190369,0.9999033808708191,5.7167126215063035e-05,-0.0043268753215670586,0.01321082841604948
206.0,-0.2037635021301129,-1.761305900739312,1.9989279926170072,-1.8057327941356578,-1.5985089048500871,-1.77463217916364,0.7291278913617134,0.05021975189447403,0.7565062642097473,0.9999030828475952,5.477972445078194e-05,-0.004119202960282564,0.01329733431339264
207.0,-0.210486103228442,-1.761486210214313,1.9991347891708793,-1.806166070918936,-1.5960821762598194,-1.7813447224853507,0.729435034096241,0.04570276662707329,0.7565127909183502,0.9999194145202637,4.55471126770135e-05,-0.0037560395430773497,0.012125388719141483
208.0,-0.21101116143084736,-1.7546365998812135,1.9936834415929423,-1.8069014323942096,-1.5954589420054903,-1.781865722405533,0.7348160333931446,0.0442705899477005,0.7565141767263412,0.9999229907989502,4.724980317405425e-05,-0.0040211849845945835,0.011749313212931156
209.0,-0.19998062990979504,-1.7432484698800639,1.9838417542019278,-1.804204435503068,-1.5992528611119055,-1.7708427058581446,0.7427282892167568,0.05006427690386772,0.7565019577741623,0.9998923540115356,8.398725185543299e-05,-0.006347396411001682,0.013230339623987675
210.0,-0.1952715006227554,-1.7468045556870266,1.9865888905472515,-1.8030387456495072,-1.601253602101528,-1.7661420659774074,0.7395461052656174,0.05382790416479111,0.7564958035945892,0.9998769760131836,9.454435348743573e-05,-0.006654101889580488,0.01420668326318264
211.0,-0.18774822078194547,-1.7432525247618085,1.9835422351524052,-1.8023105220594726,-1.6038392759969744,-1.758627523563181,0.741733904927969,0.058487676084041595,0.7564865946769714,0.9998539090156555,0.00011396944319130853,-0.007394205313175917,0.015411093831062317
212.0,-0.19119203672955745,-1.7394560180687146,1.9805184427835305,-1.8031065465757627,-1.602342960614134,-1.7620641110776296,0.7450128421187401,0.055571459233760834,0.7564914375543594,0.9998661279678345,0.00010689018381526694,-0.007293610833585262,0.014653355814516544
213.0,-0.18065668102616547,-1.7401753635219803,1.9809256239565656,-1.8018392702115433,-1.6062528302966708,-1.7515447157164064,0.7435837164521217,0.06295081973075867,0.7564774602651596,0.9998311996459961,0.00013188667071517557,-0.007959790527820587,0.016566315665841103
214.0,-0.18061499484085133,-1.732047208057183,1.9735246192791303,-1.798474520505386,-1.6063776791191675,-1.7514905449791907,0.7496234737336636,0.061858877539634705,0.7564722150564194,0.999817967414856,0.00016234791837632656,-0.009982467629015446,0.01626034453511238
215.0,-0.17549535395918991,-1.7265459284043572,1.968511161083002,-1.7962574411806838,-1.608218164488342,-1.7463698480689904,0.7533574439585209,0.06468762457370758,0.7564613968133926,0.9997909069061279,0.00019346960471011698,-0.011391005478799343,0.016980867832899094
216.0,-0.16882701503655378,-1.7252373017930065,1.967176802028149,-1.794834425154442,-1.6106611392671333,-1.7397083109058358,0.75373325496912,0.06918725371360779,0.7564495652914047,0.9997613430023193,0.0002208712830906734,-0.012171152979135513,0.018142778426408768
217.0,-0.16169408133109306,-1.7224924441262872,1.9643906285566672,-1.792083132155543,-1.6133687312362555,-1.7325779498143083,0.7550482489168644,0.07384070754051208,0.7564331889152527,0.9997204542160034,0.0002631102688610554,-0.013596060685813427,0.019346538931131363
218.0,-0.16389635781120726,-1.728919515984915,1.9702613530556154,-1.7945698708181177,-1.6125514932618485,-1.734788700509317,0.750396654009819,0.07310127466917038,0.7564424425363541,0.9997435808181763,0.00023137232346925884,-0.012071436271071434,0.019162015989422798
219.0,-0.16312533240970964,-1.735969019675799,1.9766947119823097,-1.7974314632729116,-1.612745476482479,-1.7340312206215232,0.7450607754290104,0.07451842725276947,0.7564471364021301,0.9997552037239075,0.00020252945250831544,-0.01035722903907299,0.019549617543816566
220.0,-0.16056952903775545,-1.7408645756646155,1.9809249361338999,-1.7981941672022954,-1.6137228918619841,-1.731484798525796,0.7410708293318748,0.07688475400209427,0.756444901227951,0.9997497200965881,0.00019533465092536062,-0.009680763818323612,0.02017255872488022
221.0,-0.15325537949731827,-1.7406767672468102,1.980604526551813,-1.7970940287033264,-1.6163575870234792,-1.7241799038112104,0.7404578998684883,0.08189675211906433,0.7564319670200348,0.9997172951698303,0.00021931690571364015,-0.010211951099336147,0.02147042378783226
222.0,-0.146516005069052,-1.7387524247253292,1.978837070256386,-1.795992716659525,-1.6187164413288617,-1.7174470625991531,0.7412324286997318,0.08631933480501175,0.7564191520214081,0.9996853470802307,0.0002456855436321348,-0.01086126547306776,0.022613223642110825
223.0,-0.12878823634648073,-1.729842392368732,1.9700311633574055,-1.7834453987006795,-1.652010006376315,-1.6999202168512237,0.744458120316267,0.09364542365074158,0.755953386425972,0.9990808367729187,0.0007266545435413718,-0.018863892182707787,0.038485512137413025
224.0,-0.12668488219754281,-1.7219920102016608,1.962709569299735,-1.7775643463070563,-1.6621377205123464,-1.6978835377219075,0.7495999336242676,0.09296141564846039,0.7557689249515533,0.9988132119178772,0.0009758715168572962,-0.022596534341573715,0.043135520070791245
225.0,-0.09707676043901724,-1.7094957891081008,1.9506205737611608,-1.752581382964075,-1.7266289377347244,-1.6687960388805712,0.7521064877510071,0.10464749485254288,0.7544026970863342,0.9965261220932007,0.00276896171271801,-0.03701169788837433,0.07455325871706009
226.0,-0.0909454017349541,-1.6963894783287632,1.9366918071208752,-1.7302510134525635,-1.7457412880267222,-1.6627245517320837,0.7590248696506023,0.10564537346363068,0.7537691295146942,0.9953611493110657,0.004019635263830423,-0.04806050285696983,0.08324901014566422
227.0,-0.10221819421143469,-1.694389120515115,1.9338841058048535,-1.730860962661428,-1.7251953239159006,-1.6737830637767281,0.7625182121992111,0.09998510032892227,0.7542446404695511,0.9962342381477356,0.0034449659287929535,-0.04727118834853172,0.07260221987962723
228.0,-0.1326586796530351,-1.7112205250883408,1.9516579453864287,-1.7675478796885693,-1.6580847237223488,-1.7037634698028115,0.7578343600034714,0.08808372914791107,0.755768746137619,0.998809278011322,0.0011069877073168755,-0.027404505759477615,0.04034626856446266
229.0,-0.15272456690584724,-1.721559561218913,1.963195605819593,-1.7895830250805735,-1.6167018458013236,-1.7236158529730918,0.7547602690756321,0.08002792298793793,0.756413608789444,0.9996713399887085,0.0003096682485193014,-0.014780772849917412,0.020943865180015564
230.0,-0.15409982561077049,-1.7144818008162037,1.956425872377909,-1.7850635814627194,-1.6194923883569379,-1.7249862046445734,0.7599603123962879,0.07776385545730591,0.7563610374927521,0.9996078610420227,0.0003819056146312505,-0.01740739308297634,0.021930675953626633
231.0,-0.1605837519940455,-1.7113286507800554,1.953752643822123,-1.7858348217701219,-1.6141403330672814,-1.7314388371308036,0.76319819688797,0.07322504371404648,0.7564136534929276,0.999671459197998,0.0003260913654230535,-0.0169781856238842,0.01920018158853054
232.0,-0.16651232599734647,-1.7076378082819494,1.9504276120974322,-1.7851576187368985,-1.6120579211316348,-1.7373495442748164,0.7665528804063797,0.06853152811527252,0.7564195394515991,0.9996861815452576,0.0003136600716970861,-0.0174334105104208,0.017986249178647995
233.0,-0.14849167366673935,-1.6914984368932267,1.9319982351895333,-1.7536625434303086,-1.6515958598588794,-1.7194210025564804,0.7737071588635445,0.07490315288305283,0.7557435482740402,0.998769223690033,0.001230133231729269,-0.03444775566458702,0.03566616401076317
234.0,-0.13662512457891623,-1.6879572210915885,1.9272785197282776,-1.7396805104305169,-1.6721377304838103,-1.7076479996169436,0.7734828516840935,0.08079393953084946,0.7553180456161499,0.9980970025062561,0.0018964770715683699,-0.04173766449093819,0.045351557433605194
235.0,-0.12791115272683673,-1.6908876547648728,1.9302270002939166,-1.739231821348536,-1.6836172169034758,-1.699066046734992,0.7699711322784424,0.08611258864402771,0.7551260441541672,0.9977816343307495,0.002177267335355282,-0.042295753955841064,0.051363006234169006
236.0,-0.09781020060490908,-1.6789502874863502,1.9173099704142598,-1.705235555613598,-1.744365303596772,-1.6693818751467129,0.7711297571659088,0.0995241105556488,0.7535243332386017,0.9948902130126953,0.004887350369244814,-0.059978339821100235,0.08106888085603714
237.0,-0.0672041994316642,-1.6536856711239214,1.8922461808693367,-1.6474638334511484,-1.8222183855602847,-1.6390811132643295,0.779003880918026,0.11054962128400803,0.7499740123748779,0.9888546466827393,0.010672282427549362,-0.08849558979272842,0.11925267428159714
238.0,-0.07338708535404571,-1.669519870887491,1.9087238503128343,-1.678450936470766,-1.7971407278273444,-1.6452841151495192,0.7713402062654495,0.11011327803134918,0.7514917552471161,0.9914501905441284,0.007968279533088207,-0.07345255464315414,0.10755450278520584
239.0,-0.03880001223339063,-1.6465888088097826,1.8887281909961884,-1.6231484814509975,-1.8843278381402782,-1.6107562790506473,0.7762918621301651,0.12339109927415848,0.7469031363725662,0.9832847714424133,0.015363266691565514,-0.09963574260473251,0.15161694586277008
240.0,-0.0373666475413991,-1.658696747387382,1.9031020633985904,-1.650247241448248,-1.8817590285730579,-1.6094351263267552,0.7695986777544022,0.1251247227191925,0.7475777864456177,0.9845705032348633,0.013383850455284119,-0.08719468861818314,0.15112552046775818
241.0,-0.023155379592719433,-1.658939244306103,1.9064119189267286,-1.6474374439785184,-1.9125370657919778,-1.5949808978171247,0.7661378383636475,0.1315864473581314,0.7461129724979401,0.9818369150161743,0.015011705458164215,-0.088055819272995,0.16738300025463104
242.0,-0.013837801071816392,-1.6635097020462264,1.913317136882066,-1.6526364468090529,-1.929727961002168,-1.585355261170123,0.7611416578292847,0.13627925515174866,0.7453852891921997,0.9804657697677612,0.015327326022088528,-0.08505482971668243,0.17668506503105164
243.0,-0.020725342115576126,-1.6828858672193916,1.9338898828145614,-1.6951866731000516,-1.9060631012169704,-1.5925478013799006,0.7520239874720573,0.13467612862586975,0.7472401857376099,0.9840018153190613,0.011060511693358421,-0.06589993089437485,0.1651528924703598
244.0,-0.00986999601070502,-1.688817503390824,1.9433187109067023,-1.705578713415583,-1.928434422347386,-1.5812529520213174,0.7460413426160812,0.1396288126707077,0.7463160902261734,0.9822887778282166,0.010928810574114323,-0.060671158134937286,0.17694152891635895
245.0,-0.038175502828484024,-1.7147591988797155,1.9643767799074388,-1.7508893760181798,-1.8507867556511348,-1.6103910620315365,0.7365725114941597,0.1303425133228302,0.7503702044487,0.9896148443222046,0.005551942624151707,-0.039810553193092346,0.13801077008247375
246.0,-0.06853994253501773,-1.7323917819231363,1.9767295698222458,-1.7746954842986862,-1.7745853559498301,-1.6406828942372378,0.7313602194190025,0.11996607482433319,0.7533634901046753,0.9946082830429077,0.002726217731833458,-0.02709810994565487,0.1000630259513855
247.0,-0.0958784461487234,-1.7461753376850255,1.9877567947793477,-1.7928090819162181,-1.7128651918795257,-1.6676001799639983,0.727290865033865,0.1100330725312233,0.7549109607934952,0.9974299669265747,0.001155945472419262,-0.016541149467229843,0.06970341503620148
248.0,-0.11769978037836723,-1.758349410923545,1.99749178053191,-1.8029852907281445,-1.6636312553479389,-1.6889886121228732,0.7225080858916044,0.10256289690732956,0.7558371424674988,0.9989168047904968,0.0004073059535585344,-0.008908898569643497,0.045669473707675934
249.0,-0.13857973069667884,-1.7611583427866244,1.9984706459866148,-1.8024357430712181,-1.6215041609900227,-1.7095444253572953,0.7235372643917799,0.0941346064209938,0.7564148902893066,0.9996746778488159,0.00015606559463776648,-0.006312341429293156,0.02471584640443325
250.0,-0.12137981030806035,-1.7511373688657874,1.9903760159999462,-1.7974548238889616,-1.6571353664476434,-1.6925999229364335,0.7281840462237597,0.10026214271783829,0.7559285759925842,0.9990485906600952,0.0004831449768971652,-0.011472179554402828,0.04207441955804825
251.0,-0.09865805240146083,-1.7378860415018345,1.978940908958625,-1.782931952654875,-1.7089088611739047,-1.6703159375483514,0.7332920469343662,0.1080545037984848,0.7549614459276199,0.9975117444992065,0.001427407725714147,-0.02117926813662052,0.067228764295578
252.0,-0.06857916003346665,-1.7222610101715627,1.9661358460749196,-1.7614682735472649,-1.7776222846919854,-1.640711835983937,0.7380084879696369,0.1190212294459343,0.7532067596912384,0.9943037033081055,0.0034100806806236506,-0.03353288397192955,0.10111436247825623
253.0,-0.08485711226658113,-1.723790470649866,1.9662389569986634,-1.7670995001007326,-1.7438883309608375,-1.6567844431642205,0.7403032332658768,0.11208374053239822,0.7541038691997528,0.9959908127784729,0.0025574136525392532,-0.030273275449872017,0.0841389149427414
254.0,-0.09819894068695043,-1.7235845428444476,1.9649281605649251,-1.769167261238948,-1.7166385668850053,-1.669889855989169,0.742979496717453,0.1062454879283905,0.7547289729118347,0.997111439704895,0.002011302625760436,-0.028497131541371346,0.07037524878978729
255.0,-0.08271256517138424,-1.708013930337658,1.9495057190713447,-1.7438066697881123,-1.75455597435431,-1.6546344712436836,0.7499431930482388,0.11122642457485199,0.7536808103322983,0.9951964020729065,0.0037010791711509228,-0.041598763316869736,0.08854351192712784
256.0,-0.054497152013618606,-1.699090055852742,1.9443113272031867,-1.7275776332013852,-1.820894843503138,-1.6267517231956654,0.7498534172773361,0.12214753031730652,0.7513232827186584,0.9912174344062805,0.006236200220882893,-0.05067132040858269,0.12199071794748306
257.0,-0.04718131016068918,-1.6816154699212347,1.9260638047875824,-1.6935760289737745,-1.8454029672458345,-1.6193712892344976,0.7584725320339203,0.12352373450994492,0.7498967945575714,0.9887503385543823,0.00901038944721222,-0.06669418513774872,0.1335802525281906
258.0,-0.06738366859251518,-1.687516865672516,1.9293663846272382,-1.7089140760859673,-1.7986727359013135,-1.639481007757734,0.7594719901680946,0.11526648700237274,0.7519141584634781,0.9921761155128479,0.006539504509419203,-0.05910591036081314,0.10977480560541153
259.0,-0.13226633527695691,-1.7404141658405679,1.980321484681878,-1.793706271889077,-1.6398170769454057,-1.7033352513697275,0.7378049828112125,0.09387603402137756,0.7561635076999664,0.99936842918396,0.0004294397949706763,-0.012974042445421219,0.03307902067899704
260.0,-0.1448981186269249,-1.7495342288844706,1.988384015373064,-1.7993836235184675,-1.619273163814905,-1.7158445585466113,0.7329465784132481,0.08862029761075974,0.75642229616642,0.9996930956840515,0.00019939750200137496,-0.008577138185501099,0.02324041910469532
261.0,-0.1496096808092808,-1.745611345401377,1.98496244708157,-1.798480429078815,-1.6176265255769169,-1.7205455671574765,0.7363833039999008,0.08496633172035217,0.756428599357605,0.999708890914917,0.00020633809617720544,-0.009257970377802849,0.022281130775809288
262.0,-0.1589497637348643,-1.7479539618461815,1.9871626300596879,-1.8001955059864962,-1.6143072245317396,-1.7298759079073145,0.7355725429952145,0.07885505259037018,0.7564455717802048,0.9997513294219971,0.00017158957780338824,-0.008286261931061745,0.02070256881415844
263.0,-0.16474992997424845,-1.754299135384801,1.9928387869418909,-1.80289685555469,-1.6122126589385546,-1.7356745642715992,0.7313930243253708,0.07568349689245224,0.756457194685936,0.9997804164886475,0.00013080847566016018,-0.006572552490979433,0.019897865131497383
264.0,-0.16031087346509063,-1.7575951981553368,1.995501895372438,-1.8026237760609274,-1.6138971775707918,-1.7312440688387793,0.7284142002463341,0.07909255474805832,0.7564503103494644,0.9997631907463074,0.0001339212612947449,-0.006441077217459679,0.02078682743012905
265.0,-0.1529421322152588,-1.7579924948339334,1.9957595291218562,-1.8020736014968686,-1.6165097079184179,-1.7238858381591078,0.7273785565048456,0.08411713689565659,0.7564384490251541,0.9997336268424988,0.00014783345977775753,-0.006689605303108692,0.022093094885349274
266.0,-0.1515472142627316,-1.764051518508487,2.001003331459799,-1.8038171903397089,-1.6170162956237144,-1.722497777463132,0.7227089293301105,0.08574780821800232,0.7564374506473541,0.9997310638427734,0.00012251875887159258,-0.005432712845504284,0.02254597470164299
267.0,-0.144588006395471,-1.7572522087335039,1.9950947909460481,-1.8015159190924723,-1.6194082354203727,-1.715542136506281,0.7270966190844774,0.08967432379722595,0.7564243525266647,0.999698281288147,0.00016543657693546265,-0.007026890758424997,0.023536251857876778
268.0,-0.1325998920256822,-1.7486239077246286,1.9875688880455418,-1.7970018794470934,-1.6349509387900638,-1.7036413791247629,0.7318500503897667,0.09518419951200485,0.7562400549650192,0.99946528673172,0.00032680018921382725,-0.010554480366408825,0.03094661235809326
269.0,-0.14222630220885954,-1.7690427479969877,2.005272284352171,-1.8048965161250654,-1.6202706794804864,-1.7131920817485515,0.718027463182807,0.09252501279115677,0.7564224451780319,0.9996935129165649,0.00011103753058705479,-0.004561730660498142,0.024333635345101357
270.0,-0.14599340412690684,-1.7786996610326276,2.0153188974026772,-1.8176695191999122,-1.6177833875457512,-1.7169513873170288,0.7121747760102153,0.09111802279949188,0.7564294040203094,0.9997109174728394,-3.963081690017134e-05,0.0016517059411853552,0.0239869337528944
271.0,-0.1502237792069594,-1.7725385796677096,2.008278684045677,-1.806203890249754,-1.6175062555535564,-1.7211813183279931,0.7162447199225426,0.08758898824453354,0.7564359456300735,0.9997273683547974,8.446702122455463e-05,-0.003661185037344694,0.023064663633704185
272.0,-0.16203096755963398,-1.7806542886309602,2.0167509529390233,-1.8174034431563801,-1.6122350231466698,-1.7329666295757022,0.7121827276423573,0.0807744637131691,0.756453663110733,0.9997715950012207,-3.922283576685004e-05,0.0018415504600852728,0.021293943747878075
273.0,-0.16081797794808098,-1.794240457048429,2.034631698964359,-1.8553935577777756,-1.6081227764696564,-1.7316122725439826,0.7051486321724951,0.08340567350387573,0.7563777416944504,0.9995816349983215,-0.0004134720657020807,0.018824677914381027,0.02195517159998417
274.0,-0.1706364082740744,-1.8060024610537058,2.049540576941137,-1.8850044687798224,-1.6006556650416681,-1.7411501682514374,0.6996363922953606,0.07873187959194183,0.7562509477138519,0.9992644190788269,-0.0006685889093205333,0.03228011727333069,0.020696861669421196
275.0,-0.17884281776177197,-1.8069733059913473,2.050224110423903,-1.884805343766226,-1.5973909921175233,-1.7493222640503672,0.6996107692830265,0.07361666113138199,0.7562595158815384,0.9992858171463013,-0.0006286639836616814,0.03244362026453018,0.0193632822483778
276.0,-0.17275942228329047,-1.7896793062379996,2.0277952774612404,-1.8385749206914959,-1.605770962137242,-1.7436155092991545,0.708199642598629,0.07498018443584442,0.7564399093389511,0.9997371435165405,-0.00022946523677092046,0.011601565405726433,0.01977361924946308
277.0,-0.17521957922666706,-1.778049166740094,2.0125977550157885,-1.8063387285792352,-1.6090697622472583,-1.7461427789004018,0.7142573855817318,0.071680948138237,0.7564717382192612,0.9998167753219604,5.39155189471785e-05,-0.0028477844316512346,0.018928974866867065
278.0,-0.166095029504021,-1.774535750780237,2.0099310874187544,-1.8068857674081198,-1.612028098692873,-1.737030797492986,0.7162350099533796,0.07728651911020279,0.7564600110054016,0.999787449836731,6.255210610106587e-05,-0.003067450597882271,0.020387878641486168
279.0,-0.16122862651788278,-1.7682640028558885,2.0046460929441405,-1.8053873709193962,-1.6136575828169946,-1.7321683671443016,0.7204949855804443,0.07976117730140686,0.7564530223608017,0.9997699856758118,9.088108345167711e-05,-0.004325228277593851,0.021007025614380836
280.0,-0.17077695685060343,-1.7615245818849872,1.998859792104757,-1.803752777368191,-1.6102977106361087,-1.7416974161066892,0.7263740468770266,0.07251554727554321,0.7564660608768463,0.9998025894165039,0.00010529405699344352,-0.005514658521860838,0.01908971555531025
281.0,-0.17659654108752496,-1.7707471276019409,2.0067968918651435,-1.806576398241666,-1.6082867335048974,-1.7475141527080824,0.7200023047626019,0.06981229782104492,0.7564747482538223,0.9998243451118469,6.316270446404815e-05,-0.0034268093295395374,0.01842869073152542
282.0,-0.18349399623868695,-1.7759037219463172,2.010994262448807,-1.8070933954471016,-1.6060238506513935,-1.7544029796514857,0.7166334465146065,0.06591076403856277,0.7564829140901566,0.9998447895050049,4.569538214127533e-05,-0.00262168375775218,0.017427079379558563
283.0,-0.1913599734010785,-1.7757322279457608,2.0108677866119806,-1.8072991381760888,-1.6032512981437186,-1.7622561152957321,0.7173699494451284,0.06066073104739189,0.7564922720193863,0.9998682141304016,3.880687290802598e-05,-0.0024159804452210665,0.016060462221503258
284.0,-0.1881733371846969,-1.7691249717260586,2.005424874651472,-1.8064327968426832,-1.6042114806279608,-1.7590714818139073,0.7221246846020222,0.061852749437093735,0.756489172577858,0.999860405921936,5.644531120196916e-05,-0.0034519012551754713,0.016349663957953453
285.0,-0.18316675123775047,-1.7606281215225872,1.998165405051613,-1.8041991107686728,-1.6059033702088246,-1.754067147445536,0.7280892841517925,0.06403805315494537,0.7564825564622879,0.9998438358306885,8.831339073367417e-05,-0.005230334587395191,0.01688220724463463
286.0,-0.1747472265893237,-1.7545367153545235,1.9931699294254577,-1.8038760024874658,-1.6086313520176287,-1.7456571644272243,0.7321300990879536,0.06892558187246323,0.7564719170331955,0.9998172521591187,0.00010932293662335724,-0.00602379348129034,0.018145203590393066
287.0,-0.1762508180810954,-1.7466163940908206,1.9861913894507475,-1.8013289772070074,-1.6081300279479576,-1.7471500617898983,0.7381660379469395,0.06684651225805283,0.7564712464809418,0.9998156428337097,0.00013584042608272284,-0.007724062539637089,0.017583413049578667
288.0,-0.1713953792195281,-1.7409907168649779,1.9813268246298072,-1.8001012919463408,-1.6097465544401768,-1.7422965226382618,0.7420621402561665,0.06944479793310165,0.7564630955457687,0.9997952580451965,0.00015980609168764204,-0.008756020106375217,0.01824725978076458
289.0,-0.1671853562557348,-1.7464184308971644,1.9859030442721783,-1.8004355650864128,-1.6113792371967062,-1.7380978569391494,0.7375043444335461,0.0730317160487175,0.7564578354358673,0.9997820258140564,0.0001579571544425562,-0.008230526000261307,0.01918743923306465
290.0,-0.17224754748512014,-1.7334894119264344,1.9746466285090942,-1.797801200650307,-1.6094415495148255,-1.7431370353135682,0.7477906756103039,0.06787379086017609,0.7564603537321091,0.9997882843017578,0.00018329248996451497,-0.010282478295266628,0.017821935936808586
291.0,-0.16918112985016223,-1.7189798913789702,1.9613354014926356,-1.7918857945658158,-1.610699341084603,-1.7400480454226117,0.7584195956587791,0.06811805069446564,0.7564428299665451,0.9997445344924927,0.00024740974185988307,-0.013838491402566433,0.01787381060421467
292.0,-0.1485812122445064,-1.6815409061446662,1.9206887411008415,-1.7366025825941427,-1.6600913969900821,-1.7194241973194402,0.7796460017561913,0.07262525707483292,0.7554638534784317,0.9983318448066711,0.0016596412751823664,-0.04282616078853607,0.03868832439184189
293.0,-0.13694569578355606,-1.6615089933342,1.8972304868100067,-1.6928734809753936,-1.6948522518342828,-1.707646913619966,0.7889824956655502,0.07489810883998871,0.7543807625770569,0.9964662194252014,0.0034730222541838884,-0.06459800153970718,0.05357363075017929
294.0,-0.11745994280864606,-1.6338536582765781,1.8649788787904031,-1.6245180903561747,-1.7459748747241621,-1.6877829039556713,0.7999852374196053,0.08091523498296738,0.7519951015710831,0.992251992225647,0.007514371536672115,-0.09783094376325607,0.07621464133262634
295.0,-0.12789017378043757,-1.633580475880908,1.8642222904222738,-1.6284065435036879,-1.7300917378519052,-1.6979480251251284,0.8021064251661301,0.07483356446027756,0.7525209486484528,0.9931039810180664,0.006508226040750742,-0.09551528096199036,0.06766818463802338
296.0,-0.1463770333345495,-1.6569785751064676,1.8920838709106491,-1.6884391919822117,-1.6860555443924723,-1.7168482077384062,0.7931396514177322,0.06830199062824249,0.7544646859169006,0.9966191053390503,0.0032188117038458586,-0.06635190546512604,0.04834720492362976
297.0,-0.16086526122754563,-1.6795796678363093,1.9193456882633395,-1.7416814538386378,-1.6463046497156177,-1.7316038480863145,0.7830850407481194,0.06476777046918869,0.7556968331336975,0.9986948370933533,0.001270873355679214,-0.04000608250498772,0.03172554075717926
298.0,-0.16970192386523897,-1.6803028571658052,1.9210437248458432,-1.7499686120598865,-1.6351468748324798,-1.7404144108869273,0.7843135520815849,0.05947025492787361,0.7559079378843307,0.9990090131759644,0.0009482871391810477,-0.03575100004673004,0.02649848535656929
299.0,-0.16154959516324358,-1.6608244648042925,1.8969534660072707,-1.7034593863232264,-1.6617931839957745,-1.7319097629890563,0.793560191988945,0.06011892482638359,0.7550438195466995,0.9976291656494141,0.0021343484986573458,-0.05828182026743889,0.036534350365400314
300.0,-0.17515796924388732,-1.6700784427629771,1.9090164269516119,-1.7315562624356537,-1.6386393321268167,-1.7456637428402693,0.7907798662781715,0.05355507880449295,0.7556771337985992,0.998661458492279,0.001180283259600401,-0.04436076432466507,0.02657085470855236
301.0,-0.18790998883884102,-1.6755945323736725,1.9167743520258016,-1.7515683688774175,-1.62015602439286,-1.7584909999225602,0.7897655367851257,0.04667552188038826,0.756073847413063,0.9992395639419556,0.0006376621895469725,-0.03426443040370941,0.018595881760120392
302.0,-0.17029126344541723,-1.6512880391499456,1.8858191891725213,-1.6872768461185543,-1.661604223798974,-1.7403046807386904,0.7999513894319534,0.05219528451561928,0.7548121064901352,0.9972307085990906,0.00228713545948267,-0.06574282050132751,0.03469279408454895
303.0,-0.15417090676931464,-1.6295810512640003,1.8587953502700776,-1.628842182164636,-1.6966477477220991,-1.7234383157595579,0.8084179908037186,0.058181032538414,0.753264531493187,0.9943718910217285,0.004615175072103739,-0.09388262778520584,0.048882320523262024
304.0,-0.14676179451396293,-1.632407015345303,1.8623602705058877,-1.633225454407565,-1.7041312961772632,-1.7163358495883771,0.8059360235929489,0.06331146508455276,0.7532189786434174,0.9942835569381714,0.004965909291058779,-0.09225597977638245,0.053519800305366516
305.0,-0.13407147399112923,-1.6286823248401963,1.8582976570069658,-1.620294505512485,-1.724914976586316,-1.7037946727066893,0.8057331591844559,0.07024138420820236,0.7524596154689789,0.99299556016922,0.006390814203768969,-0.09907957911491394,0.06405002623796463
306.0,-0.11497415042892874,-1.5909535426179222,1.8148691181789938,-1.5205353189644477,-1.781681598720582,-1.6832525880935374,0.8196666166186333,0.0751643255352974,0.7479405254125595,0.9851336479187012,0.013142813928425312,-0.1468529850244522,0.08816590905189514
307.0,-0.09311751749883193,-1.5737918998057945,1.797393979310074,-1.4712804948893596,-1.8279857136009332,-1.6614054556803004,0.8231743574142456,0.08558126538991928,0.7446275055408478,0.9788534045219421,0.019400743767619133,-0.1704670786857605,0.11140266060829163
308.0,-0.09667469240145386,-1.5988598033470585,1.8263235482289273,-1.5365686936092187,-1.808619360040725,-1.666310445882114,0.8129758536815643,0.08658130466938019,0.747568666934967,0.9844594597816467,0.014906897209584713,-0.14023859798908234,0.1046447679400444
309.0,-0.07416968962870558,-1.5849280445027152,1.8128238056464885,-1.4939107259899724,-1.8542373218069657,-1.6440159990936491,0.8146634697914124,0.09774909913539886,0.744460865855217,0.9785118103027344,0.02097664773464203,-0.1601509302854538,0.12816594541072845
310.0,-0.05202868605363432,-1.5690852879061175,1.7987783292244965,-1.447874680850051,-1.904167181008034,-1.6221500506328537,0.816912055015564,0.10817107558250427,0.7405405938625336,0.9708628058433533,0.02877301350235939,-0.18117301166057587,0.15418769419193268
311.0,-0.044623450915823704,-1.5779245164972717,1.8100909097725804,-1.4668942267933993,-1.9133710388919578,-1.615288887623918,0.81131761521101,0.11308937519788742,0.7408766746520996,0.971489667892456,0.028443437069654465,-0.172119140625,0.16054290533065796
312.0,-0.025127624435149466,-1.5657138579558563,1.801537339354456,-1.4314553526156206,-1.9595960561737085,-1.5959669900160314,0.8121381402015686,0.12214186787605286,0.7368082851171494,0.9639514088630676,0.036045316606760025,-0.18768608570098877,0.18512791395187378
313.0,-0.020582649922178786,-1.544248297677175,1.779877218469054,-1.3775042685811043,-1.9817138608579095,-1.5911383722671506,0.8201812207698822,0.1225104033946991,0.7329851239919662,0.956545889377594,0.04330373927950859,-0.21237929165363312,0.19503791630268097
314.0,-0.021984842037825338,-1.525673671532763,1.7595102110088956,-1.3298926173075192,-1.9868075941364343,-1.5920788802928192,0.8277665078639984,0.12047729641199112,0.7302262783050537,0.9510258436203003,0.04822607710957527,-0.2343667447566986,0.19569434225559235
315.0,-0.043195302243601554,-1.5385369016828834,1.7674680516664818,-1.3688333491189153,-1.937162834153999,-1.6125455547439174,0.8275839686393738,0.11009187996387482,0.7350540161132812,0.9605645537376404,0.03824852034449577,-0.21757341921329498,0.16886335611343384
316.0,-0.03515365761207114,-1.5025905343989985,1.7318034388738799,-1.2754571155016643,-1.971780921517399,-1.603601831150724,0.8395551145076752,0.11133427917957306,0.7279853373765945,0.9465160965919495,0.050524722784757614,-0.26047348976135254,0.18359819054603577
317.0,-0.040785675608135376,-1.4803786148289804,1.7072760469528243,-1.2189219422971942,-1.968450481604347,-1.6074889261417444,0.8484542518854141,0.10673988610506058,0.7246261313557625,0.9396507740020752,0.05444202944636345,-0.28686365485191345,0.17833037674427032
318.0,-0.05532005845508286,-1.4717326823290535,1.694769412111677,-1.2011904177441228,-1.9439446578463313,-1.6194951943044797,0.8544901609420776,0.09765315055847168,0.7247339338064194,0.939993143081665,0.05105319619178772,-0.295771062374115,0.16225269436836243
319.0,-0.06757811035695592,-1.5111646395630403,1.7327685819818712,-1.3055702330415695,-1.9046448266287515,-1.6333405540672892,0.8430980443954468,0.09372105449438095,0.7332346737384796,0.9571285247802734,0.037636324763298035,-0.24764935672283173,0.1454589068889618
320.0,-0.06523621548422111,-1.533248270638214,1.7571644720007153,-1.3623995685894814,-1.9003803796869938,-1.6328280352058504,0.8344333618879318,0.09687026590108871,0.7365790754556656,0.963551938533783,0.03364055976271629,-0.22133247554302216,0.14645129442214966
321.0,-0.0928720612709366,-1.5475455844904336,1.7674441672033467,-1.4042521253808755,-1.8421946386661499,-1.6592478712493703,0.8339779078960419,0.08264966309070587,0.7413857877254486,0.9724238514900208,0.023827988654375076,-0.2014949768781662,0.11499494314193726
322.0,-0.10725059866490373,-1.5548205877268502,1.7738797035200071,-1.4261475908317154,-1.8156678693791382,-1.6731687641390014,0.8334783464670181,0.07480281591415405,0.7432610988616943,0.9761987328529358,0.019706660881638527,-0.19108091294765472,0.10067787021398544
323.0,-0.11942409394777567,-1.5476747169009941,1.7641396353162713,-1.4095658302770881,-1.7989518361761803,-1.6836549673427523,0.8381856083869934,0.06671362370252609,0.7431063801050186,0.9759018421173096,0.01816556416451931,-0.19820676743984222,0.0894409790635109
324.0,-0.1267546784107155,-1.5332369543510918,1.7468651175896819,-1.372455554466362,-1.7944747976037185,-1.6886328018440229,0.8446532636880875,0.060481421649456024,0.7415485084056854,0.9728368520736694,0.01848914474248886,-0.21506217122077942,0.08363589644432068
325.0,-0.13251194151793208,-1.5217738689058808,1.7335124472282732,-1.3427308187348097,-1.790923201176348,-1.692236581281115,0.8494845628738403,0.05555742606520653,0.7400498539209366,0.9701314568519592,0.01858995482325554,-0.22864346206188202,0.07887694984674454
326.0,-0.14375674465964977,-1.5177448146031056,1.727763230219585,-1.3331236651248517,-1.7753806323070567,-1.7016034128497257,0.8522719442844391,0.04804975539445877,0.740017905831337,0.9700806140899658,0.016386603936553,-0.23236869275569916,0.06840992718935013
327.0,-0.16357725563002576,-1.5338782284863326,1.7440102998550575,-1.3759621614133972,-1.740762521055981,-1.7218576658765745,0.8483755439519882,0.03724053502082825,0.7431755363941193,0.9761227965354919,0.01096145436167717,-0.2109287828207016,0.050726715475320816
328.0,-0.17680778141081738,-1.5468319301852365,1.7579867478328808,-1.4105969028116683,-1.7178528002987048,-1.735987269134985,0.8447206020355225,0.03028681129217148,0.7452878952026367,0.9802182912826538,0.007868618704378605,-0.1937139630317688,0.039816249161958694
329.0,-0.19046195987346323,-1.5597092403786883,1.7721984630169139,-1.4451050691616738,-1.69386676261331,-1.7506576556516633,0.8409533053636551,0.02327604591846466,0.7472580969333649,0.9839137196540833,0.005134005099534988,-0.17625634372234344,0.02865949645638466
330.0,-0.20626472192147857,-1.576474582913166,1.7915433469185156,-1.4905437294415,-1.6685876468931184,-1.7681425437992433,0.8355374783277512,0.015133168548345566,0.7494921833276749,0.9879580736160278,0.00278538279235363,-0.1536567658185959,0.017909016460180283
331.0,-0.22029954506189844,-1.6027293662967599,1.823519932460997,-1.5644110358488548,-1.6413994860849745,-1.78538835002703,0.8261425346136093,0.009822092950344086,0.7524348944425583,0.9929441809654236,0.0011667694197967649,-0.11817099899053574,0.009803902357816696
332.0,-0.2192619606579853,-1.6234454056127612,1.850381312036578,-1.6243891375171806,-1.6343254175425266,-1.7867859011109568,0.81756192445755,0.013704839162528515,0.7539966553449631,0.9957470893859863,0.0011199441505596042,-0.09131012111902237,0.012213115580379963
333.0,-0.23351672975448692,-1.6466551812718289,1.8807910123314093,-1.6900996177722685,-1.6119600218484218,-1.8027684855816493,0.807837225496769,0.007931796833872795,0.755354180932045,0.9981412887573242,0.00041015338501892984,-0.060564663261175156,0.006759569514542818
334.0,-0.2440472763440472,-1.6698254373751134,1.9121209401256825,-1.7573954393568467,-1.5889471340940244,-1.8144596391387395,0.7976517230272293,0.005628122016787529,0.7563352882862091,0.9995712041854858,6.0802984080510214e-05,-0.029210025444626808,0.00208068685606122
335.0,-0.2558335138377665,-1.6874428117577984,1.9386612003004748,-1.8191565733721071,-1.5725110787813295,-1.8266288841809082,0.7902817577123642,0.0007784650661051273,0.7565444707870483,0.9999986290931702,7.483225203941402e-07,-0.0015995180001482368,0.00046784189180471003
336.0,-0.259923668592302,-1.6937104403408916,1.9446388881771561,-1.8216434124971133,-1.5708628361464072,-1.830719993590703,0.7856253162026405,-0.0009533216943964362,0.7565450221300125,1.0,1.0377544379380765e-09,-4.7861376515356824e-05,2.16825028473977e-05
337.0,-0.26059515371549274,-1.6989875245042927,1.949033380962819,-1.8204250043649208,-1.5712472506923272,-1.8313914694161997,0.7813525125384331,-0.0004030817071907222,0.7565450072288513,1.0,4.2608121475495864e-08,-0.00025963850202970207,0.00016410557145718485
338.0,-0.2664083593230924,-1.6959582745451554,1.945603689686349,-1.8161635204784927,-1.5696975243250446,-1.8372028310567108,0.7833923026919365,-0.005258236546069384,0.7565440535545349,0.9999975562095642,-2.0978191059839446e-06,-0.0019190084422007203,-0.001093176193535328
339.0,-0.27332608007775827,-1.692517672642217,1.940859946398989,-1.8066791964481368,-1.568887287057495,-1.844104427647956,0.7852042764425278,-0.011070942506194115,0.7565370798110962,0.9999801516532898,-1.4929886674508452e-05,-0.005740773864090443,-0.002600623294711113
340.0,-0.28063079685692727,-1.6904504803815164,1.9375016778587226,-1.7981244986326146,-1.5679217539912955,-1.8513808052154135,0.7859704419970512,-0.016901429742574692,0.7565251588821411,0.9999503493309021,-3.732900586328469e-05,-0.009077618829905987,-0.0041119991801679134
341.0,-0.2756529472870014,-1.6827432947422083,1.9290002376511142,-1.7886599005173665,-1.5713763941711423,-1.8463425311041213,0.7910667508840561,-0.014963224530220032,0.7565048187971115,0.9998992085456848,-4.924786844640039e-05,-0.013739392161369324,-0.0035840673372149467
342.0,-0.27616779476951464,-1.6609867844183992,1.8983512579107054,-1.7215128185739392,-1.577738921953996,-1.8459414419436921,0.8010897263884544,-0.019233718514442444,0.7559454590082169,0.9990556240081787,-0.0003605137171689421,-0.042618997395038605,-0.008451001718640327
343.0,-0.2673984312958911,-1.6465984197650296,1.8791164460209693,-1.6808354005737283,-1.5871280817521638,-1.8361801624227787,0.8076831698417664,-0.015478611923754215,0.7553255707025528,0.9980921745300293,-0.0005056149093434215,-0.061186131089925766,-0.00824778899550438
344.0,-0.2624205506662171,-1.657027548341019,1.8936690152560147,-1.714304719759102,-1.5854671858992841,-1.8320661986524314,0.803320899605751,-0.010002776980400085,0.7558320015668869,0.998889148235321,-0.0002332418371224776,-0.04685860499739647,-0.004972037393599749
345.0,-0.2567603042061942,-1.6315421369644492,1.8592854382186679,-1.638540466432218,-1.5967513346372715,-1.8242350772892428,0.8143647909164429,-0.01014357153326273,0.754527285695076,0.996718168258667,-0.0006182680372148752,-0.08058580011129379,-0.007646992802619934
346.0,-0.24794291747324682,-1.6274872016322366,1.854449003878057,-1.630040340637002,-1.606260423196078,-1.8151940513194489,0.8162438571453094,-0.004936580546200275,0.7543127536773682,0.9963303208351135,-0.00028091476997360587,-0.08552846312522888,-0.003272406756877899
347.0,-0.23921046615710712,-1.624235665307731,1.8506421631561736,-1.6234160747719333,-1.6154139850494058,-1.8063355619684387,0.8176826238632202,0.00039074313826859,0.7541233003139496,0.9959811568260193,0.00010765698971226811,-0.0895552784204483,0.001197297708131373
348.0,-0.24442441055616512,-1.6510004704787915,1.8863560353647166,-1.7015970681498287,-1.6008883719789424,-1.8138608915035062,0.8061609119176865,0.0013071151915937662,0.7555911689996719,0.9985211491584778,0.00010726477194111794,-0.054329387843608856,0.0019714217633008957
349.0,-0.2550678475395167,-1.661213177425066,1.8998553981942714,-1.7295671014189964,-1.5867089042196396,-1.8250358961592799,0.8016638830304146,-0.0038483822718262672,0.7560275793075562,0.9991710782051086,-9.613987640477717e-05,-0.04063897579908371,-0.002363745355978608
350.0,-0.26645943212537543,-1.6818001206927409,1.9286947590626162,-1.7916563895281385,-1.574034483939007,-1.8371651555707276,0.7920937910676003,-0.008367064408957958,0.7565111219882965,0.9999139904975891,-2.42194437305443e-05,-0.012983907014131546,-0.0018651828868314624
351.0,-0.25295319476742195,-1.6930003647087815,1.9429626120726515,-1.815894435910792,-1.5747162477718137,-1.8237473174124152,0.7855048626661301,0.003936635330319405,0.7565430700778961,0.9999951124191284,3.6672411170002306e-06,-0.002845173003152013,0.0012889280915260315
352.0,-0.2402515491771288,-1.6841183921265848,1.9320655812118188,-1.7989097865995076,-1.5822779831189715,-1.8110047551594572,0.7905784249305725,0.011441303417086601,0.756518766283989,0.9999343752861023,3.537345401127823e-05,-0.010997586883604527,0.0032162631396204233
353.0,-0.23373344144543715,-1.6844635878445235,1.9316888221139934,-1.7950221917629188,-1.5854658171732148,-1.8044763121276604,0.7897255569696426,0.016269812360405922,0.7565078288316727,0.9999070763587952,5.7624369219411165e-05,-0.012885008007287979,0.004471787717193365
354.0,-0.22613954545766793,-1.6651744130697073,1.9057001246153487,-1.742826994738206,-1.602246071607993,-1.7964232945547849,0.7991119921207428,0.017417030408978462,0.7561130523681641,0.9992902874946594,0.0002823053509928286,-0.03688652068376541,0.007647915277630091
355.0,-0.23037820100445994,-1.658100942150294,1.896099792933211,-1.7226222667449071,-1.603598140221991,-1.8003219664764023,0.8026100173592567,0.01301074493676424,0.7558647245168686,0.9989377856254578,0.0002805776603054255,-0.04566831886768341,0.006137288175523281
356.0,-0.2238254720068094,-1.672762272463943,1.9155694850352023,-1.7619520024518016,-1.595498972180657,-1.7943363378837156,0.7952495962381363,0.021203046664595604,0.7563509047031403,0.9995903372764587,0.00017627092893235385,-0.027916468679904938,0.0063116406090557575
357.0,-0.21022897864573734,-1.6549355636953822,1.8916081633704669,-1.710508369054294,-1.620629018574488,-1.780109668769968,0.802754357457161,0.02637277916073799,0.755586564540863,0.9985154867172241,0.0007502191583625972,-0.05256608873605728,0.014250735752284527
358.0,-0.21795983982950662,-1.6768930841171785,1.9207513333260147,-1.7708018522616094,-1.59502838990465,-1.788565494506996,0.7927203699946404,0.02647123858332634,0.7564195543527603,0.9996863007545471,0.00017032629693858325,-0.024022888392210007,0.007087942212820053
359.0,-0.21491021008640507,-1.6860211773527118,1.931327865073494,-1.7849321430709353,-1.5942249545118587,-1.7856292899227981,0.7867561280727386,0.030298924073576927,0.7564690113067627,0.999809980392456,0.0001439446787117049,-0.017722755670547485,0.008120482787489891
360.0,-0.2072381388340608,-1.6841689414286607,1.9286330387104245,-1.778770062317066,-1.5978719366383924,-1.7779323961527889,0.7872526198625565,0.03560103848576546,0.7564418315887451,0.9997420310974121,0.00019595507183112204,-0.02063664235174656,0.009493042714893818
361.0,-0.19283372734605525,-1.6581549949447218,1.8953016176285356,-1.7136873401899952,-1.633388853783819,-1.762946647325263,0.7994620352983475,0.03885892778635025,0.7555123865604401,0.9984009861946106,0.0011329792905598879,-0.05219713971018791,0.02167106792330742
362.0,-0.1756268705246698,-1.6325860208445397,1.8625921759459432,-1.6436898061595706,-1.6705551414054924,-1.744679449329505,0.8098844960331917,0.04481471702456474,0.7539563626050949,0.9956791996955872,0.00304458849132061,-0.08582624793052673,0.03532058373093605
363.0,-0.16443188340540985,-1.6242637255358632,1.852205694232338,-1.6195875644353372,-1.6879095146027907,-1.733184340115516,0.8124790117144585,0.05065777525305748,0.7532247304916382,0.9942885637283325,0.004219128284603357,-0.0975952297449112,0.042983975261449814
364.0,-0.18445933679408047,-1.6587782250757985,1.8954643622285443,-1.710314242612697,-1.6382326956533029,-1.7545942680272153,0.7980452626943588,0.04499219357967377,0.7554208636283875,0.9982527494430542,0.0013070952845737338,-0.0538819395005703,0.024216121062636375
365.0,-0.18420291198406652,-1.6294375171753481,1.8584732129202952,-1.6370402464059575,-1.6625617995657354,-1.752874005459996,0.8122786656022072,0.038736384361982346,0.753937691450119,0.9956436157226562,0.0026712496764957905,-0.08818769454956055,0.030158547684550285
366.0,-0.1862478871246409,-1.6174680014160705,1.8432954241168935,-1.6062803780919526,-1.6671278500232125,-1.7539719262800837,0.818028911948204,0.03529252111911774,0.7532463371753693,0.9943260550498962,0.003047907492145896,-0.10210610181093216,0.029681025072932243
367.0,-0.19669106046889098,-1.6270761645684524,1.855513825736149,-1.633722392468269,-1.652901419099461,-1.7649949097562367,0.8145844265818596,0.02972823567688465,0.7539922147989273,0.9957414865493774,0.0021515809930860996,-0.08896230161190033,0.02408231794834137
368.0,-0.20713410421639725,-1.6358898015076135,1.8667964290264007,-1.6586946680114656,-1.6379075390842013,-1.7759234073180898,0.8113641142845154,0.024310167878866196,0.754619300365448,0.9968850612640381,0.0013964868849143386,-0.07674054801464081,0.018140828236937523
369.0,-0.20529389760083575,-1.609761421861297,1.8329955223173868,-1.5861862440548673,-1.6519643973606613,-1.7717537204915064,0.8227761834859848,0.0212079044431448,0.7529689222574234,0.9937927722930908,0.002054051961749792,-0.10965944081544876,0.01861492358148098
370.0,-0.18799721038297157,-1.588311695754746,1.8070632402789946,-1.525632739322817,-1.6851184692390735,-1.7525830857219284,0.8300364017486572,0.02877858467400074,0.7504912763834,0.9897057414054871,0.004443638026714325,-0.1395326554775238,0.03151874244213104
371.0,-0.17653244790284534,-1.5827997769024467,1.8008301695689068,-1.5096621807725201,-1.700583859193674,-1.740969662765838,0.8312454074621201,0.035602468997240067,0.7496404945850372,0.9882135391235352,0.005880252458155155,-0.14783233404159546,0.03930766507983208
372.0,-0.16884744872424529,-1.5948369726637641,1.8160639240324263,-1.5430260512655931,-1.7047083067493114,-1.735070081573712,0.8257631361484528,0.04223323613405228,0.7506953477859497,0.990053117275238,0.006044116802513599,-0.13319092988967896,0.04492796212434769
