Sungjin-Park-dev/vision_inspection/tsp_curobo/tsp_1000_base_independent_optimized_curobo.csv
time,ur20-shoulder_pan_joint,ur20-shoulder_lift_joint,ur20-elbow_joint,ur20-wrist_1_joint,ur20-wrist_2_joint,ur20-wrist_3_joint,target-POS_X,target-POS_Y,target-POS_Z,target-ROT_X,target-ROT_Y,target-ROT_Z,target-ROT_W
0.0,-0.2537791877646285,-1.40414779913599,1.6471649310999572,1.3266548304562673,1.5815154435925938,1.3170025773092018,0.7190602421760559,0.019438622519373894,0.7565392255783081,0.00532900495454669,0.9999855756759644,4.271023954061093e-06,-0.0008014558115974069
1.0,-0.2299440508835042,-1.4084123607221166,1.6522270005397433,1.3254061743702286,1.5902813053652782,1.340808816152709,0.7144849682226777,0.03609614819288254,0.756525918841362,0.009665414690971375,0.9999523162841797,1.4051543075765949e-05,-0.0014537267852574587
2.0,-0.21270492587192327,-1.399896881955526,1.642058520689784,1.3271773287589712,1.5955469053344247,1.3580267977162357,0.7209260109812021,0.046027861535549164,0.7565142810344696,0.012249835766851902,0.9999231696128845,2.3283901100512594e-05,-0.0019006060902029276
3.0,-0.2040728478382212,-1.3868358108601322,1.6271392172258374,1.3331409195028052,1.5982091426273999,1.3666525721230955,0.7309675421565771,0.04966389760375023,0.7565070986747742,0.013153119012713432,0.9999051690101624,5.35976214450784e-05,-0.0040745120495557785
4.0,-0.21732410621552198,-1.3813484361442678,1.6205003924108128,1.3348858259025234,1.5931460687698826,1.3534241030013532,0.7363737970590591,0.03971076384186745,0.7565195262432098,0.010562242940068245,0.9999363422393799,4.216930756228976e-05,-0.003992203623056412
5.0,-0.22666161566220702,-1.3945497373772513,1.636042400850886,1.3300505209728257,1.5905671664932257,1.3440927214624807,0.7258769664913416,0.035740453749895096,0.756525456905365,0.009548444300889969,0.9999510645866394,2.4689021302037872e-05,-0.002585532609373331
6.0,-0.21910506234389376,-1.430768559345149,1.6684100584968147,1.284132413803531,1.585338503695551,1.3518901112094768,0.7039979570545256,0.04685819149017334,0.7564143240451813,0.012419825419783592,0.9996731877326965,-0.0002775928587652743,0.022343480959534645
7.0,-0.19647471394087196,-1.4223865061214813,1.661533939584943,1.2964308255470356,1.5962552700680608,1.374344142966802,0.7070082705467939,0.06021329388022423,0.7564506232738495,0.015919184312224388,0.9997639656066895,-0.00023539892572443932,0.014783630147576332
8.0,-0.178666016304994,-1.40387970508479,1.647076288455267,1.3265106012880317,1.607821883128406,1.3920092025316861,0.7150406930595636,0.0693167969584465,0.7564764320850372,0.018313638865947723,0.9998285174369812,5.046538353781216e-05,-0.002755145076662302
9.0,-0.1613293950325724,-1.400849878255003,1.6436400563345055,1.3274888530518894,1.6136706015859488,1.409320561261212,0.7161112613976002,0.08040127158164978,0.75645312666893,0.021198449656367302,0.9997702240943909,6.7628308897838e-05,-0.003189514623954892
10.0,-0.14233157824882184,-1.3954996686139187,1.6379262225883457,1.330723066442825,1.6202322343155362,1.4282957398289675,0.7184340916574001,0.09239853173494339,0.7564225792884827,0.02429824322462082,0.9996938705444336,0.00011356503091519699,-0.004672365263104439
11.0,-0.1535199332535268,-1.4266615031188064,1.6629340262202204,1.2811661544205,1.6096617601398597,1.4173289395116624,0.7032242896966636,0.0885101705789566,0.7563273012638092,0.02327391877770424,0.9994553923606873,-0.000544608396012336,0.023387199267745018
12.0,-0.12190303287963214,-1.419062212585027,1.656177785496941,1.2850210543405074,1.6517688159559574,1.4485813596430066,0.7047995715402067,0.10358371585607529,0.7558636218309402,0.04312175139784813,0.9988849759101868,-0.000828862888738513,0.019200023263692856
13.0,-0.04341352161772127,-1.4052214464487394,1.651739872883262,1.2723081036762227,1.8285269850174184,1.5259357614493927,0.7037692284211516,0.13125112652778625,0.7514098286628723,0.1294773668050766,0.991375744342804,-0.0026216343976557255,0.020073195919394493
14.0,-0.08942680656830725,-1.4630597626679187,1.690941894913786,1.182627140585984,1.7222679606429403,1.4812982047751821,0.6828325465321541,0.11720335483551025,0.7526753842830658,0.08225108683109283,0.9939331412315369,-0.006022005341947079,0.07277072966098785
15.0,-0.15281256378262015,-1.4945334151548582,1.7165788589057205,1.1505228872763493,1.5904000388733046,1.4208150121314875,0.6732380073517561,0.09662199765443802,0.7526957094669342,0.02456514537334442,0.995042085647583,-0.002378501696512103,0.09634419530630112
16.0,-0.16573359271844088,-1.527875231468397,1.7475237252034208,1.093932349392851,1.5748793755217305,1.4103917785632738,0.6577489413321018,0.09313340485095978,0.7489854544401169,0.02281937375664711,0.9917351603507996,-0.0029043357353657484,0.1262231022119522
17.0,-0.09744893151196543,-1.5262946708057943,1.7478132519840708,1.0634521580891692,1.7107043210453947,1.4759943293716258,0.6539133414626122,0.11641251295804977,0.7458349466323853,0.08250132948160172,0.9873704314231873,-0.011261963285505772,0.13478243350982666
18.0,-0.055222442930623485,-1.4936557422967802,1.721706621096969,1.0976122176333403,1.8012228399279964,1.515596603257554,0.6663269773125648,0.12917840480804443,0.7466019093990326,0.12062422186136246,0.9859179854393005,-0.014066026546061039,0.1149681955575943
19.0,0.06191775181274159,-1.391872373604487,1.677047393542977,1.2240572758999775,2.099998864143935,1.6422005610545765,0.6929145851172507,0.16629737615585327,0.7367950826883316,0.25884124636650085,0.9646906852722168,-0.012624865397810936,0.04705236107110977
20.0,0.13736774089778514,-1.3192207388389243,1.6853925256885798,1.3159635484445131,2.332636765250055,1.7611548907944838,0.704487896990031,0.19277961552143097,0.717003658413887,0.3746526539325714,0.9271075129508972,-0.0038767470978200436,0.009593316353857517
21.0,0.13377140453608863,-1.276172172889968,1.6640310102062288,1.4273115516974753,2.327752319282919,1.7540453988817202,0.7238599490374327,0.19331063330173492,0.7152677774429321,0.3800313174724579,0.923132061958313,0.0222085639834404,-0.05394670367240906
22.0,0.1449910845674136,-1.230610586736136,1.661891971950141,1.529548134461892,2.379302086109249,1.7755196297968117,0.7408296912908554,0.1985223889350891,0.7062940523028374,0.41098666191101074,0.9038427472114563,0.04925268143415451,-0.10831659287214279
23.0,0.18179787810592946,-1.2167477303927232,1.7108105073722302,1.549502289090915,2.5031787251380324,1.8709978449113789,0.7303061708807945,0.21263274550437927,0.6899544298648834,0.4742884337902069,0.8731522560119629,0.053697045892477036,-0.09885480999946594
24.0,0.19598693840360698,-1.2531320158298103,1.7336003759880088,1.4130231249263185,2.538207134601911,1.9209375625189524,0.7080952730029821,0.2159716784954071,0.685852900147438,0.4803690016269684,0.8769381642341614,0.007207982242107391,-0.013158539310097694
25.0,0.17871295901720874,-1.1971416800535553,1.7041396743101649,1.5838880716571484,2.481069880146108,1.852015137467722,0.7401223406195641,0.21413056552410126,0.6820128560066223,0.4662657380104065,0.8726527094841003,0.06841125339269638,-0.1280369907617569
26.0,0.16179262417765475,-1.1729787294312997,1.6808008531226017,1.668205386228206,2.440147988500903,1.8003654586490057,0.7594139277935028,0.20817960798740387,0.6853844448924065,0.44686582684516907,0.8695475459098816,0.09609360992908478,-0.18698668479919434
27.0,0.12807537740505148,-1.1313662598623837,1.6395045953490464,1.7874397220811387,2.3558831566194414,1.7187253871307397,0.7933393120765686,0.1948530077934265,0.6857589036226273,0.39935246109962463,0.8652346730232239,0.12703177332878113,-0.27522626519203186
28.0,0.10560463766602222,-1.1059766616313722,1.6151713513839938,1.8441587268569581,2.29818248302908,1.6781887275530931,0.8134458512067795,0.18517860770225525,0.6822184920310974,0.3648669421672821,0.8640761971473694,0.13489194214344025,-0.3194504976272583
29.0,0.07222677165084278,-1.0808872537028555,1.5838484649380602,1.9094532756228464,2.2257455511169097,1.6341219175689632,0.8367471843957901,0.16783353686332703,0.6829205751419067,0.31911253929138184,0.8636592626571655,0.13524003326892853,-0.36601918935775757
30.0,0.03033501922307222,-1.0538119597948037,1.5501667005546733,1.9703819853181597,2.1384303356669356,1.593622112898688,0.8617265224456787,0.1442452073097229,0.6817196309566498,0.2633535861968994,0.8648077845573425,0.12453573942184448,-0.40895384550094604
31.0,0.0008373637822887104,-1.034778169165974,1.5299961050185238,1.9993485792121963,2.0766449282952513,1.5713735840139373,0.8775661885738373,0.12696883082389832,0.676844947040081,0.2243201583623886,0.8667181134223938,0.11162713915109634,-0.4312998950481415
32.0,-0.01860029889184979,-1.0241891867744655,1.518145534241414,2.0158914774666847,2.039202770952482,1.5585778777784607,0.8867615163326263,0.1148657500743866,0.6744617223739624,0.20014816522598267,0.8677675724029541,0.10223382711410522,-0.44324758648872375
33.0,-0.04375052089755545,-1.011361465837041,1.5051675518718468,2.032740827744684,1.9892545793185323,1.5435904417195223,0.8972451388835907,0.09915231168270111,0.6702620089054108,0.16836436092853546,0.8693690299987793,0.08833400160074234,-0.45612287521362305
34.0,-0.0679969092401988,-1.0077956843947018,1.4960021957518186,2.051622558767123,1.9481448800490728,1.5302512789407732,0.9029412865638733,0.08298896998167038,0.6735790520906448,0.1409071832895279,0.870313823223114,0.07542193681001663,-0.46584388613700867
35.0,-0.09088878556312273,-1.004092279452648,1.4889061865901743,2.0666773295216707,1.907710532813067,1.5184971472953745,0.907762736082077,0.06788033992052078,0.6752692237496376,0.11431663483381271,0.87104332447052,0.06216324120759964,-0.4736570119857788
36.0,-0.1233901917527904,-0.9996441181182888,1.4817091458289244,2.081456944409332,1.8516605539194673,1.5024256129615836,0.9130757749080658,0.046202532947063446,0.6760590597987175,0.07737160474061966,0.872168242931366,0.04268450289964676,-0.4811593294143677
37.0,-0.16580860304631012,-0.9944838540834134,1.4768771893161994,2.092763985964238,1.7797041067509756,1.48190165274644,0.9179421365261078,0.01773647964000702,0.6744424551725388,0.029850564897060394,0.8730427026748657,0.01663224771618843,-0.4864450991153717
38.0,-0.1898350715637207,-0.9963479042053223,1.4770305156707764,2.1007533073425293,1.7412258386611938,1.470361590385437,0.9178456664085388,0.0016632957849651575,0.6771643608808517,0.003934089560061693,0.8728142380714417,0.0021997359581291676,-0.4880317747592926
39.0,-0.21438823910798205,-1.2945718258316359,1.5292795987472014,-0.7914797558897406,-1.7035027200622093,-1.6836020253925543,0.9160057008266449,-0.014631458558142185,0.6800948530435562,-0.021720046177506447,0.872785210609436,-0.012131137773394585,-0.4874702990055084
40.0,-0.23853328709808466,-1.294161009100866,1.531289227382106,-0.7909542438085453,-1.6633296654876568,-1.6961566205906566,0.9155771732330322,-0.03045017272233963,0.6780523732304573,-0.04826754704117775,0.8724251985549927,-0.026867041364312172,-0.4856157898902893
41.0,-0.26423516595953406,-1.2978343982594467,1.5358208097738606,-0.791039603964593,-1.622677266961301,-1.7105129040034477,0.9125091284513474,-0.046952202916145325,0.6781024038791656,-0.07550980895757675,0.8720958232879639,-0.04170522838830948,-0.48167186975479126
42.0,-0.2982700397034383,-1.3037835035952237,1.544320675766105,-0.7927192710862465,-1.567802688400852,-1.730811098320999,0.9073763191699982,-0.06819726526737213,0.6775972545146942,-0.11202095448970795,0.870945930480957,-0.06103406846523285,-0.4745306670665741
43.0,-0.3371454756822944,-1.312450701581525,1.5604731385482855,-0.8030097062813101,-1.5052268927471428,-1.7573958080638348,0.9000170528888702,-0.091777503490448,0.6742857992649078,-0.15350720286369324,0.8696242570877075,-0.08157031238079071,-0.46209898591041565
44.0,-0.3697845525561188,-1.3254667051764324,1.576473461094453,-0.8102220405956584,-1.4544744597003625,-1.7828625060370076,0.8901449739933014,-0.11025606840848923,0.6751550883054733,-0.18745143711566925,0.8683798909187317,-0.09687287360429764,-0.44876939058303833
45.0,-0.41332595701209346,-1.346668404167111,1.601557192477317,-0.8214264779861806,-1.3859334359187478,-1.8226175381807919,0.8744527995586395,-0.13307450711727142,0.6771915405988693,-0.23293335735797882,0.8663902878761292,-0.1146840751171112,-0.4265648126602173
46.0,-0.46760860379946256,-1.3764678475146688,1.6419401161277674,-0.8465788360630891,-1.30150729229711,-1.8854588660320075,0.8524626344442368,-0.15930014848709106,0.6760876551270485,-0.2886229157447815,0.8646582365036011,-0.13018809258937836,-0.3900182843208313
47.0,-0.4930988875037063,-1.3953631575948569,1.6613429521182383,-0.8546238515204243,-1.2607258615394914,-1.9213661288447805,0.8395354896783829,-0.169514000415802,0.679451011121273,-0.3149939775466919,0.8638529777526855,-0.13467003405094147,-0.36932480335235596
48.0,-0.532017750005355,-1.4224924992936552,1.6977078261892768,-0.8800423079274364,-1.1992985188637986,-1.9875858734207699,0.8206300437450409,-0.1848151683807373,0.6780174672603607,-0.3539983034133911,0.8639955520629883,-0.13574714958667755,-0.33131495118141174
49.0,-0.5607278153163373,-1.4462924559966783,1.7272403923724389,-0.9008750688511914,-1.154517452109102,-2.0466505953450023,0.8047475814819336,-0.19433270394802094,0.677936963737011,-0.3814546763896942,0.8651087880134583,-0.13140390813350677,-0.2980136573314667
50.0,-0.590663765310497,-1.4683228089429377,1.7610897819707776,-0.9292874725485749,-1.110135236595971,-2.1167129610817965,0.7891893684864044,-0.2045782506465912,0.6732138469815254,-0.40776526927948,0.8667636513710022,-0.12223222851753235,-0.25982216000556946
51.0,-0.6275252158493373,-1.5024150465704238,1.8044068394821116,-0.9635642413477635,-1.0517735506939765,-2.222239991645022,0.7674569487571716,-0.21380245685577393,0.6715503260493279,-0.4382704794406891,0.8696334958076477,-0.1022876650094986,-0.202963188290596
52.0,-0.6749040974507111,-1.553387764529444,1.8645354682911608,-1.0125134534271103,-0.9759112539796377,-2.386915436683852,0.7369898483157158,-0.22159749269485474,0.6709176599979401,-0.46844950318336487,0.8737103939056396,-0.06194467842578888,-0.11553370207548141
53.0,-0.7209931015968323,-1.245787262916565,1.8489278554916382,1.7736775875091553,0.8943905830383301,0.5616476535797119,0.7059257202781737,-0.22420434653759003,0.6714583784341812,-0.47955676913261414,0.8774675726890564,-0.004181784112006426,-0.0076516070403158665
54.0,-0.7508138481222869,-1.2740849835662913,1.8834561699700765,1.716070979121049,0.838965431119561,0.4361112882228473,0.6862783599644899,-0.22443784773349762,0.6690584048628807,-0.4738347828388214,0.877314031124115,0.036193519830703735,0.0670129805803299
55.0,-0.7829452945471553,-1.3073907600027834,1.9226217877502232,1.6493400875320305,0.7837780204009587,0.32206155608968906,0.6635862588882446,-0.22260451316833496,0.6661156564950943,-0.45686423778533936,0.8751938343048096,0.07362190634012222,0.1410340964794159
56.0,-0.8082223038017667,-1.3418248980461434,1.9543354640171857,1.578057375152458,0.7448829465584818,0.2646533281373586,0.6428312920033932,-0.21767917275428772,0.6642409488558769,-0.4310638904571533,0.875571072101593,0.09632519632577896,0.19565442204475403
57.0,-0.8254707857661149,-1.3740926889769798,1.9765939610376624,1.5270821637966348,0.7138196935527547,0.2355715956855393,0.6269338503479958,-0.21097102761268616,0.667515218257904,-0.40939146280288696,0.874967098236084,0.10955911129713058,0.23415391147136688
58.0,-0.8437045982936765,-1.4106997312299316,2.001278101934769,1.4545427684456618,0.6841167625214483,0.23002193235169371,0.609369307756424,-0.20262879133224487,0.667514331638813,-0.38039544224739075,0.8758507370948792,0.11829835921525955,0.27237892150878906
59.0,-0.8606396898900428,-1.4587786400896474,2.0261900706343154,1.3684186702804766,0.6539246271253388,0.2511732586592799,0.5898662507534027,-0.18989655375480652,0.6704467907547951,-0.34554165601730347,0.877003014087677,0.12238723039627075,0.310625284910202
60.0,-0.8708190356565809,-1.4967112324124383,2.042596199166511,1.300439444427492,0.6356175148170164,0.2842082341906208,0.5762084126472473,-0.17937108874320984,0.6728024780750275,-0.3189840316772461,0.8779382705688477,0.12192416936159134,0.3355713486671448
61.0,-0.8763106606935509,-1.5357090009993737,2.055807352513902,1.2279662062869692,0.6242571679460011,0.3359784745136119,0.5641613006591797,-0.1676483154296875,0.6749476343393326,-0.2922672927379608,0.8795766234397888,0.1183745339512825,0.3562474250793457
62.0,-0.883970075412739,-1.5748445006193952,2.0753014468027136,1.148798812070324,0.6231782014815251,0.39440238205845934,0.5503182858228683,-0.15651582181453705,0.6713537573814392,-0.2645713686943054,0.8822721242904663,0.11183779686689377,0.3729480504989624
63.0,-0.885668322106562,-1.6208716847816398,2.092281966037916,1.0614275366298687,0.6293980060433636,0.47326896900772863,0.537186861038208,-0.14259617030620575,0.6694754362106323,-0.23402966558933258,0.8851860761642456,0.10277494043111801,0.38873258233070374
64.0,-0.8868747047226483,-1.6499688884476338,2.107970213825103,1.0049784649826417,0.6409349024438048,0.5233570071821482,0.5277556777000427,-0.13355760276317596,0.6645313650369644,-0.2144877314567566,0.8877419233322144,0.09566020220518112,0.395927369594574
65.0,-0.8903361386644112,-1.583249143723106,2.088703043045815,1.1216671077868874,0.6303038375037227,0.40801530774422295,0.5442176312208176,-0.15474866330623627,0.6635623350739479,-0.255985289812088,0.8845807909965515,0.10837253928184509,0.3744913339614868
66.0,-0.8809164153398499,-1.508861058369955,2.059931219562242,1.2586342999436688,0.6390558716269579,0.30154767647044783,0.5672764033079147,-0.17708173394203186,0.6633810624480247,-0.30579835176467896,0.8807241916656494,0.1186322346329689,0.34167051315307617
67.0,-0.8728636877763385,-1.474306772188624,2.0445756273129563,1.3222503678803035,0.6513682676355528,0.26460752168059554,0.5794394835829735,-0.18710879981517792,0.6625180244445801,-0.32997050881385803,0.8792046308517456,0.12076173722743988,0.32176902890205383
68.0,-0.8595792775053428,-1.4345761634933458,2.023760503977402,1.3968417701629066,0.6718351722597615,0.2365471180706244,0.595198392868042,-0.19783130288124084,0.6617713458836079,-0.3592167794704437,0.8776829242706299,0.12016158550977707,0.2935936450958252
69.0,-0.8335483278243646,-1.3745062821247411,1.987196213758589,1.5038423308950133,0.7158891547698847,0.23463910672993318,0.6219071000814438,-0.21270298957824707,0.6588214226067066,-0.4033070206642151,0.876609206199646,0.10971023887395859,0.23846104741096497
70.0,-0.8103641389903674,-1.3302466993972304,1.9566088735207265,1.5743165437297404,0.7574790539616271,0.27227390266655727,0.6435350850224495,-0.22221159934997559,0.6544782072305679,-0.43308645486831665,0.8769991993904114,0.09214577823877335,0.18659502267837524
71.0,-0.7785623073577881,-1.2870943546295166,1.9166678190231323,1.6561027765274048,0.807152271270752,0.35382193326950073,0.6695226728916168,-0.2282135784626007,0.6550415083765984,-0.4620682895183563,0.8768815994262695,0.061796076595783234,0.11727237701416016
72.0,-0.7509286454002397,-1.6372617749116827,1.9829577949474069,-1.147968609075082,-0.8570123455829158,-2.683133323024057,0.6898836735635996,-0.23076221346855164,0.6548977047204971,-0.4751201868057251,0.8780516386032104,0.027281977236270905,0.05041879415512085
73.0,-0.7113456728516708,-1.581963132962918,1.9202413942524081,-1.0745598691074898,-0.9323608233527407,-2.5110816838553163,0.7161477357149124,-0.23048165440559387,0.6551723070442677,-0.4773588478565216,0.876865029335022,-0.027201097458600998,-0.04996596276760101
74.0,-0.677216042478455,-1.53553796363341,1.8747718902212707,-1.0389786259132148,-0.9908726035935275,-2.374272320639098,0.7411418333649635,-0.22951847314834595,0.6502873338758945,-0.4640703499317169,0.8746793866157532,-0.06557295471429825,-0.12359185516834259
75.0,-0.64069184123573,-1.4962329387869149,1.8281226845899252,-1.0017720295302102,-1.0465928174599615,-2.250213381691207,0.7654439210891724,-0.22367146611213684,0.6506583280861378,-0.44210779666900635,0.8715237975120544,-0.09595509618520737,-0.18915557861328125
76.0,-0.6069287076062291,-1.4619571986670623,1.7899086450310202,-0.975699276450681,-1.1013429347039845,-2.149484494179638,0.7868383005261421,-0.21666087210178375,0.6484179981052876,-0.41468292474746704,0.8692725896835327,-0.11585523933172226,-0.24285970628261566
77.0,-0.5846175319152069,-1.4434122764149047,1.763749956462981,-0.9543472800164291,-1.1335674851571373,-2.0936626732156975,0.7998521029949188,-0.20995627343654633,0.6507103927433491,-0.39635637402534485,0.8676194548606873,-0.12475340068340302,-0.27308374643325806
78.0,-0.5565538229293333,-1.4195999651836748,1.7349915129837565,-0.9352700918221312,-1.1774293734562145,-2.030791790358461,0.8159543573856354,-0.2012711763381958,0.6499771140515804,-0.37025585770606995,0.8666083812713623,-0.1314278393983841,-0.3076155483722687
79.0,-0.5100456251549947,-1.385307008072186,1.6898411893955037,-0.9041890173353068,-1.2476677620337082,-1.9459903285789453,0.8405309468507767,-0.18375369906425476,0.6509328484535217,-0.3258518874645233,0.8658492565155029,-0.13371676206588745,-0.3553103804588318
80.0,-0.4637422535056874,-1.3551757393066175,1.6505232609974572,-0.8794697545788227,-1.3176558852690357,-1.8799029113516743,0.8627779185771942,-0.16354849934577942,0.6509678326547146,-0.28003209829330444,0.8664844036102295,-0.1270872950553894,-0.3932376503944397
81.0,-0.43064535812245525,-1.336133454543604,1.6255882865565516,-0.8647343361299444,-1.3667482606907984,-1.841359955230819,0.877264529466629,-0.1474132537841797,0.6508148834109306,-0.24718187749385834,0.8673995733261108,-0.11835988610982895,-0.4153432548046112
82.0,-0.4038022228512005,-1.321448909999971,1.6085716634330265,-0.8572008087031985,-1.4073593569818204,-1.814321386259709,0.8883112668991089,-0.13367816805839539,0.6490043327212334,-0.21997065842151642,0.8685410022735596,-0.10903917998075485,-0.430534690618515
83.0,-0.3792242075091321,-1.3072374206449793,1.5959470732800436,-0.8556785267731215,-1.4460966765294583,-1.7922981443826087,0.8985442817211151,-0.12105002999305725,0.6444596499204636,-0.19424505531787872,0.8698791265487671,-0.09881304204463959,-0.44251012802124023
84.0,-0.4214651721995383,-1.3252861022101319,1.6232256437828048,-0.8730861015811091,-1.383411979083854,-1.8319748302354733,0.8837941586971283,-0.1444549709558487,0.6424067914485931,-0.23659706115722656,0.8683854341506958,-0.11456257849931717,-0.4204806685447693
85.0,-0.4506972909698006,-1.341810407487703,1.6432899730847852,-0.8830349290784781,-1.338130322371913,-1.8642128302218968,0.8713660836219788,-0.15884564816951752,0.643834512680769,-0.2665715515613556,0.8671696782112122,-0.12360483407974243,-0.4020922780036926
86.0,-0.48910141020190634,-1.3665614608458287,1.6729444899817014,-0.8986341363968194,-1.2799473576038543,-1.9140250202345928,0.8530998826026917,-0.17622821033000946,0.6459135413169861,-0.30498117208480835,0.8660728335380554,-0.1315685361623764,-0.3736228942871094
87.0,-0.5375283568765634,-1.3980536849125056,1.718628238991693,-0.9319517408288831,-1.2093411298171663,-1.9924464175239252,0.8291954100131989,-0.19673877954483032,0.642560139298439,-0.3509526252746582,0.8664124011993408,-0.13335122168064117,-0.329210102558136
88.0,-0.5654218876948732,-1.4175689759640737,1.7486561811296277,-0.9565396686525856,-1.1699026388651308,-2.0471509299643924,0.8144125193357468,-0.20740526914596558,0.6390022151172161,-0.375792920589447,0.8676275014877319,-0.1294010579586029,-0.2987600564956665
89.0,-0.6099069793568883,-1.4556751865722395,1.797170208111283,-0.9915117863446834,-1.1029381988823463,-2.1535191639075104,0.7881353199481964,-0.22063091397285461,0.6383938416838646,-0.4145452380180359,0.8699981570243835,-0.11482404172420502,-0.24097901582717896
90.0,-0.6474537883155438,-1.4939510376963505,1.840218700925822,-1.020982979403234,-1.043658215359797,-2.265238948034985,0.7638777121901512,-0.22832372784614563,0.6407453157007694,-0.4439454972743988,0.8725837469100952,-0.09238733351230621,-0.18158915638923645
91.0,-0.6773840044500973,-1.5251564449956405,1.8784938221364227,-1.0515176924855267,-0.9999892688134865,-2.3644754856085384,0.7439061664044857,-0.23341205716133118,0.6397605910897255,-0.46128517389297485,0.8751004934310913,-0.06823873519897461,-0.12945516407489777
92.0,-0.7016008241080576,-1.5462519719452417,1.9126129179091211,-1.0862728052455455,-0.9661075605822365,-2.449832894526352,0.7294856999069452,-0.23843584954738617,0.6335398778319359,-0.4708021283149719,0.8770095109939575,-0.04536621272563934,-0.08450810611248016
93.0,-0.6705778183775328,-1.5087175547276528,1.8731139488440482,-1.0568528771952375,-1.0164767654043636,-2.3344553409126614,0.7512687928974628,-0.23568379878997803,0.63057273440063,-0.4554373621940613,0.8750329613685608,-0.07571423798799515,-0.14546993374824524
94.0,-0.6292177742425794,-1.4669562328407701,1.8220770161384572,-1.0172642449402922,-1.0789963482033524,-2.203449215628585,0.7782505229115486,-0.2277679294347763,0.6310270465910435,-0.42771783471107483,0.8717092275619507,-0.10533364117145538,-0.2146749645471573
95.0,-0.6085092699312964,-1.4446289953248739,1.7994059881714868,-1.0043344039145445,-1.1112767387757345,-2.1458335556879056,0.7923766002058983,-0.22367224097251892,0.6278080381453037,-0.4107593894004822,0.8704209923744202,-0.1158156767487526,-0.24541960656642914
96.0,-0.5805909399728852,-1.4219748355050514,1.7679474256220842,-0.9796817276934535,-1.1523648909651316,-2.0780673751697045,0.8085755556821823,-0.21506240963935852,0.62980692461133,-0.3871675431728363,0.8687471151351929,-0.12571698427200317,-0.282090425491333
97.0,-0.5527720523407563,-1.4006401068616932,1.7384291520376995,-0.9576748816014784,-1.1918965433348343,-2.0200640450105354,0.8243167698383331,-0.2053067684173584,0.6314158514142036,-0.3627823293209076,0.8675487637519836,-0.13125480711460114,-0.31387951970100403
98.0,-0.5284593951466544,-1.3791403073039967,1.7165422319395276,-0.947616617532716,-1.2300366593363192,-1.9747967016759678,0.838867112994194,-0.19730797410011292,0.6274036690592766,-0.33901214599609375,0.8674555420875549,-0.13254456222057343,-0.3391515612602234
99.0,-0.5039743266798894,-1.3594164361977028,1.6951253683711163,-0.9370136849007131,-1.2663681652836056,-1.9352779814252645,0.8528712391853333,-0.18798011541366577,0.6244168020784855,-0.31548529863357544,0.8675129413604736,-0.13143202662467957,-0.3614082634449005
100.0,-0.47432123031472767,-1.3389562272380084,1.6711690425063073,-0.9247962764821888,-1.3102656630880205,-1.8938366399901414,0.8680902123451233,-0.17506718635559082,0.6221736446022987,-0.28652116656303406,0.8681591749191284,-0.12699905037879944,-0.38480713963508606
101.0,-0.4534377106587114,-1.3248838260846514,1.655212943154543,-0.9171255135052737,-1.340851875563273,-1.8679278552913972,0.878569632768631,-0.16541168093681335,0.6201715208590031,-0.26608046889305115,0.8686673641204834,-0.12238562107086182,-0.3995497226715088
102.0,-0.4168874397009178,-1.3091544688149654,1.6279655911133177,-0.8969514599186056,-1.3930408886421788,-1.8283705993732529,0.8923269063234329,-0.14549553394317627,0.6241591367870569,-0.2305951863527298,0.8697257041931152,-0.11182858049869537,-0.42177891731262207
103.0,-0.3855814632045752,-1.2941461786890296,1.6083176075370562,-0.8864270347110926,-1.4392037562689202,-1.7989637240126517,0.9042937159538269,-0.1282747983932495,0.6235778350383043,-0.19934505224227905,0.8708453178405762,-0.10026085376739502,-0.4379928410053253
104.0,-0.36357653708232834,-1.2857658185216074,1.596668496896749,-0.8806865425304327,-1.4711221577435258,-1.7807633981549755,0.9113814234733582,-0.115286685526371,0.6236409693956375,-0.17748723924160004,0.8718329668045044,-0.09106896817684174,-0.4473387598991394
105.0,-0.3374872948479041,-1.27483035166219,1.5844804890843682,-0.8766683954678175,-1.5100268159449877,-1.7607709017126532,0.9199334979057312,-0.09986843168735504,0.6216724701225758,-0.15106536448001862,0.8728114366531372,-0.07914754748344421,-0.4572913646697998
106.0,-0.3088700003438762,-1.2648714460538453,1.5748373127026885,-0.8766371443452629,-1.5521527941575064,-1.7413100963155088,0.9279049932956696,-0.0820741057395935,0.6187855899333954,-0.12217940390110016,0.8741472363471985,-0.06506515294313431,-0.46551647782325745
107.0,-0.2963523382985342,-1.1036730035302709,1.4677139695072863,1.543877944057273,1.5726101340168175,1.2902887031585717,0.8885395675897598,-0.06144154816865921,0.6535735502839088,-0.04686295986175537,0.9857970476150513,-0.007657843176275492,-0.16108839213848114
108.0,-0.2837787363223161,-1.1575475806664253,1.4890734263101422,1.378728519447474,1.5768044367600598,1.2896892191405378,0.8777676820755005,-0.047592539340257645,0.6579004377126694,-0.016539817675948143,0.9975649118423462,-0.0011232555843889713,-0.0677468329668045
109.0,-0.269939216754749,-1.1561909292666057,1.4860654899377492,1.376730178768055,1.582228604918808,1.3033177191944711,0.8799892216920853,-0.03676455095410347,0.6579222604632378,-0.012515251524746418,0.997678816318512,-0.0008395960321649909,-0.06693011522293091
110.0,-0.25198854846388447,-1.1082790305501533,1.4601932060521068,1.511322658550362,1.606924723911019,1.3295565233177145,0.8928739279508591,-0.028080660849809647,0.654824111610651,-0.018232930451631546,0.989167332649231,-0.0026843601372092962,-0.14563106000423431
111.0,-0.26097751257886787,-1.1447124683191157,1.4707363610553401,1.3808512091386624,1.5856467550047326,1.3122304872858102,0.8897142857313156,-0.03194154053926468,0.6565962433815002,-0.010303208604454994,0.9976586103439331,-0.0006982022314332426,-0.0676068514585495
112.0,-0.2749795188907249,-1.1477922870032131,1.4736463085001323,1.373776618127992,1.5793716663001445,1.2980550026853401,0.888070821762085,-0.043076932430267334,0.6565042473375797,-0.013290101662278175,0.9979164600372314,-0.0008407601853832603,-0.06313032656908035
113.0,-0.3024636738724453,-1.1523917529709784,1.4824852999891929,1.3774524530231982,1.568687163241258,1.2709635222356097,0.8816410899162292,-0.06420619040727615,0.6566050164401531,-0.02127009630203247,0.997661828994751,-0.0013844053028151393,-0.06493475288152695
114.0,-0.3166284326228389,-1.164142281341155,1.4993283926548535,1.3757205825163494,1.5618500497953585,1.2569382066297126,0.8705851435661316,-0.07228188961744308,0.6577660106122494,-0.02594473771750927,0.997535765171051,-0.0016948478296399117,-0.06516432017087936
115.0,-0.32853183633088345,-1.1585759428397717,1.4934207717231096,1.3793641475801544,1.556970044380399,1.2451699012577608,0.8737436681985855,-0.08323498070240021,0.6566920056939125,-0.029547175392508507,0.9974046945571899,-0.0019442177144810557,-0.06562969833612442
116.0,-0.3442424487390809,-1.153650173747342,1.5031113020579852,1.4291055179143435,1.545391629376523,1.2327139384523127,0.8657161295413971,-0.09268312156200409,0.6568092294037342,-0.04659830778837204,0.9945197701454163,-0.004380343481898308,-0.09348704665899277
117.0,-0.3542279299937493,-1.1676203859732415,1.5079918261534875,1.3780391806392993,1.5453887028194333,1.219560288099384,0.8634666204452515,-0.10084876418113708,0.6567742265760899,-0.037361323833465576,0.9971945285797119,-0.002428497187793255,-0.06481794267892838
118.0,-0.3637677933595312,-1.1650980724795061,1.5153560256811274,1.4112252729087815,1.5326412496720159,1.2119244482927707,0.857724130153656,-0.10517282783985138,0.6570824459195137,-0.051411211490631104,0.9952697157859802,-0.004252435639500618,-0.08232291042804718
119.0,-0.3680865590735725,-1.1750392204067173,1.513906568173733,1.3583910422100738,1.5430309620098437,1.204813378236079,0.8595480024814606,-0.11147508770227432,0.6565208397805691,-0.03560483083128929,0.9979039430618286,-0.0019268020987510681,-0.05400288477540016
120.0,-0.3821551673331577,-1.1794156673385598,1.5260689443783937,1.3738414833720038,1.5317583966197967,1.1914497674811277,0.850727990269661,-0.11880237609148026,0.6568409539759159,-0.045853279531002045,0.9970071315765381,-0.0028596254996955395,-0.06217803806066513
121.0,-0.39359396582693573,-1.193010184008795,1.5415393012894214,1.359026448073292,1.5281514551960835,1.1793415239196714,0.8406195342540741,-0.12431333214044571,0.657649852335453,-0.045783646404743195,0.997434139251709,-0.0025236099027097225,-0.05497889965772629
122.0,-0.4260141259035393,-1.1440204657966522,1.5384180377662402,1.5305215018041662,1.4560826055566842,1.1593300381248774,0.843444213271141,-0.14263591170310974,0.6524439193308353,-0.12305532395839691,0.9826473593711853,-0.017245251685380936,-0.13771042227745056
123.0,-0.44965008766204784,-1.1544075573944579,1.5556991363407346,1.5244149693647302,1.4298955965161242,1.132899950969391,0.8325674831867218,-0.15457119047641754,0.652118943631649,-0.13817858695983887,0.9817644953727722,-0.018195943906903267,-0.12928292155265808
124.0,-0.46738629368355405,-1.1664929597746618,1.5719281559180036,1.5124145208505824,1.416401679525502,1.1123705559365322,0.8217518925666809,-0.16299700736999512,0.6521977297961712,-0.14483854174613953,0.9819789528846741,-0.017715122550725937,-0.1201053112745285
125.0,-0.4458463666419969,-1.215878639913559,1.5767103170846493,1.348647512009902,1.503074962265196,1.1260622296465803,0.8150309324264526,-0.15518780052661896,0.6568597555160522,-0.060305215418338776,0.9970235824584961,-0.002900087973102927,-0.047947030514478683
126.0,-0.42874170442671833,-1.2043969433730037,1.560895463199624,1.356281978660638,1.5105577102231307,1.1437119529395117,0.8261170536279678,-0.14640051126480103,0.6568425223231316,-0.05675210431218147,0.9970266222953796,-0.0029623103328049183,-0.052042156457901
127.0,-0.4106872930387128,-1.196048873473307,1.5448341466456637,1.348362965976747,1.525430456766777,1.161746454180244,0.8375083655118942,-0.1378299444913864,0.6566012166440487,-0.045912593603134155,0.9977468252182007,-0.0022488050162792206,-0.048869773745536804
128.0,-0.3945301283678332,-1.113641718569442,1.5123081732061787,1.5864358805069227,1.4734011549513863,1.199526229035264,0.8625542223453522,-0.12515416741371155,0.6504599265754223,-0.12093938142061234,0.9772777557373047,-0.02137884311378002,-0.17275653779506683
129.0,-0.3973965048789978,-0.9961270689964294,1.5231497287750244,1.9493649005889893,1.4300581216812134,1.3029011487960815,0.8974412679672241,-0.13522033393383026,0.6243695430457592,-0.20226138830184937,0.8931331038475037,-0.08873462677001953,-0.3918287456035614
130.0,-0.33183372020721436,-1.442348837852478,1.7667913436889648,-1.4101355075836182,-1.5343478918075562,-1.868496060371399,0.8899645507335663,-0.08811748772859573,0.6482110247015953,-0.09116975963115692,0.9703513979911804,-0.02093917690217495,-0.22286291420459747
131.0,-0.2628013081580447,-1.2582668983232854,1.560729303233468,-0.8684542771543307,-1.6213046390531163,-1.712646767252204,0.9347537457942963,-0.05139116942882538,0.6223879773169756,-0.07505258172750473,0.8752821087837219,-0.04081602394580841,-0.47600674629211426
132.0,-0.2929660013416779,-1.265389796230395,1.5661601286025304,-0.8645821364168702,-1.5757336673078792,-1.730428795688924,0.9289482533931732,-0.07106360048055649,0.6254260260611773,-0.10614947229623795,0.8740338683128357,-0.05716174095869064,-0.47066935896873474
133.0,-0.24914808842060174,-1.2618908295382452,1.5545631019722033,-0.8568993731561678,-1.642500325542195,-1.7043350428468054,0.933500349521637,-0.04151745140552521,0.6303495150059462,-0.0608382523059845,0.8749768733978271,-0.033317334949970245,-0.4791705012321472
134.0,-0.22669740702404695,-1.2576617543524846,1.5535830775169834,-0.8630623966133719,-1.676925754375409,-1.6922830674345901,0.9367243051528931,-0.026563474908471107,0.6270916927605867,-0.03740623965859413,0.8756014108657837,-0.02055482380092144,-0.4811451733112335
135.0,-0.2045509335588344,-1.2528646835632509,1.5547281710421417,-0.8726134020870263,-1.7088024293104864,-1.6808262873173059,0.9399515092372894,-0.011394334957003593,0.6218372024595737,-0.01516284141689539,0.8760672211647034,-0.008340280503034592,-0.4818784296512604
136.0,-0.2242680918060118,-1.300903890306262,1.6044600223450487,-1.0232972836684588,-1.6756611304364593,-1.7182326978901017,0.9330320954322815,-0.023232467472553253,0.6283312886953354,-0.02926170639693737,0.9097291827201843,-0.013315005227923393,-0.4139556586742401
137.0,-0.22127053656455772,-1.0625213591386875,1.443567248338684,1.6405414873336865,1.6500818894555491,1.371910607873776,0.9053861051797867,-0.01017349399626255,0.6492870859801769,-0.008788926526904106,0.9739781618118286,-0.0020435377955436707,-0.22646234929561615
138.0,-0.1946981316481912,-1.0297191356546125,1.435298977863293,1.7334277504398545,1.6901853253745955,1.4069804137968678,0.915241539478302,0.005656760185956955,0.644252359867096,0.006461956538259983,0.9583469033241272,0.001925256452523172,-0.2855271100997925
139.0,-0.21813987605786564,-1.1464907013364019,1.475050337694055,1.3885597591700365,1.6070325588575454,1.355022987957722,0.8863173723220825,0.003685872768983245,0.6574002951383591,0.001913057523779571,0.9971621632575989,0.00014438726066146046,-0.07526042312383652
140.0,-0.2036961542415806,-1.1436654397220407,1.4684326299139434,1.3789371304767137,1.6085693225456483,1.3689109197948577,0.8908803313970566,0.015272179618477821,0.656616572290659,0.005085704382508993,0.99761563539505,0.0003508751397021115,-0.06882794201374054
141.0,-0.18854249723497343,-1.1421432653118895,1.4716670692774203,1.396461497453374,1.6234701921021955,1.3844974708701208,0.887371376156807,0.027037600055336952,0.6568981781601906,0.011356573551893234,0.9966470003128052,0.0009232584270648658,-0.08102467656135559
142.0,-0.17924610117322504,-1.1537540072585393,1.4824085439122614,1.3754531252445599,1.6232933311828477,1.3930874087909497,0.881096675992012,0.036397792398929596,0.6576698198914528,0.013950582593679428,0.9974367618560791,0.0009814946679398417,-0.07017476856708527
143.0,-0.171891625521643,-1.0761942923225243,1.4468665370734155,1.594919004475115,1.6935830586529477,1.4119983469236204,0.9005825072526932,0.028479889035224915,0.6509416885674,0.027124064043164253,0.9787907004356384,0.0056249783374369144,-0.20298126339912415
144.0,-0.13346983416435532,-1.0028417592506498,1.4398415700779048,1.814941569874303,1.7791479074280823,1.4664369181803478,0.9195376932621002,0.04713619127869606,0.6375984512269497,0.05791032314300537,0.937859833240509,0.021086566150188446,-0.3414977192878723
145.0,-0.0968527975132267,-0.9769352389115897,1.4538150986112262,1.9014898839591459,1.8565391090773895,1.5023198755368088,0.9236043989658356,0.06851464509963989,0.6290100775659084,0.0983763262629509,0.9109125137329102,0.043024446815252304,-0.3983834981918335
146.0,-0.0777893026921217,-0.9895247877869754,1.4580992042402086,1.8648768943939458,1.8776178664900849,1.512736742813488,0.9159316718578339,0.08347132056951523,0.6313396282494068,0.11654435843229294,0.9177870154380798,0.04781722277402878,-0.37656068801879883
147.0,-0.09448900522536688,-1.095712427389193,1.469197938072284,1.5552028265549638,1.770711129387828,1.4810729405704015,0.8827628195285797,0.08746103197336197,0.6511198133230209,0.08149198442697525,0.9791595339775085,0.015428951010107994,-0.18538515269756317
148.0,-0.13590141334806907,-1.166582492959439,1.4988025185010827,1.3610594729675645,1.6417929956202924,1.435722679151755,0.8688683360815048,0.07301030308008194,0.6578776091337204,0.026837971061468124,0.9974973201751709,0.0017593138618394732,-0.06538910418748856
149.0,-0.128100983534286,-1.159938984811585,1.4881127974226098,1.3547210402427297,1.6375018391011174,1.4433313606762141,0.8758967965841293,0.07946950197219849,0.6565218307077885,0.02588779665529728,0.997874915599823,0.0015507421921938658,-0.05977514386177063
150.0,-0.11757494714505329,-1.1646264630430887,1.4939515925621532,1.3485806133094083,1.6408605739401494,1.4537069367781112,0.8716752827167511,0.0885581225156784,0.656494103372097,0.02847183495759964,0.9979541301727295,0.0016325756441801786,-0.05722271278500557
151.0,-0.10444416676078887,-1.1689358874155915,1.5030190640555543,1.3544644091462494,1.655192175527009,1.4668099231418528,0.864277794957161,0.09842477738857269,0.6567139700055122,0.03576818108558655,0.9973793029785156,0.002253976184874773,-0.06285110116004944
152.0,-0.09135087085869222,-1.1762353977806417,1.5116585772001314,1.3438858733186039,1.6581157391473946,1.479713057658306,0.8580231070518494,0.10972906649112701,0.656647440046072,0.03846531733870506,0.9975773692131042,0.002233426086604595,-0.057922713458538055
153.0,-0.08549532705254881,-1.1778309469474546,1.5208773373062434,1.3647380142113001,1.6839372587270907,1.4856683732122227,0.8501996845006943,0.11138683557510376,0.6573693603277206,0.050380222499370575,0.9960600733757019,0.003686684649437666,-0.07288891077041626
154.0,-0.017971613902439988,-1.0692853145085557,1.4906361142681623,1.6499595807288783,1.9179019221599822,1.5540811242958197,0.8725130259990692,0.1328524500131607,0.6432621739804745,0.16304801404476166,0.9543209671974182,0.04216592013835907,-0.24679739773273468
155.0,-0.06673949782823765,-1.1786080520472721,1.5274578654059794,1.3740319895310624,1.7104829680054385,1.5042723776207798,0.843780130147934,0.12351969629526138,0.6568709686398506,0.06438455730676651,0.9946797490119934,0.005194446537643671,-0.08024920523166656
156.0,-0.07333558358882462,-1.1874837422848274,1.5264906850139588,1.3327559093920942,1.6653672260502608,1.49755783091874,0.8470514416694641,0.12470128387212753,0.6566441133618355,0.04339013248682022,0.9976097941398621,0.0023367954418063164,-0.05372672900557518
157.0,-0.06339262916674157,-1.1943945491941486,1.5364741371368484,1.3288237372887812,1.6731337450363821,1.5074305452520522,0.8395555913448334,0.13231666386127472,0.6567102111876011,0.04781500622630119,0.9974404573440552,0.0025455967988818884,-0.05310218408703804
158.0,-0.04194623200586401,-1.1755039604168813,1.5355967760891314,1.3980087010149138,1.754618770752203,1.5289382289541558,0.835655927658081,0.13787460327148438,0.65567696839571,0.08739863336086273,0.9914159178733826,0.00853936281055212,-0.09686720371246338
159.0,0.02086826505241359,-1.0551343906880262,1.5109979519184433,1.7010513539010539,2.008998620294933,1.5901004032571986,0.8663341999053955,0.15363964438438416,0.6371228657662868,0.21370689570903778,0.9344276785850525,0.06352010369300842,-0.277739942073822
160.0,0.06058911173892576,-1.0638928001642696,1.542772745950987,1.6932769243191852,2.0893946782359425,1.6294732336823978,0.8489199727773666,0.17624640464782715,0.633755512535572,0.26152539253234863,0.9231319427490234,0.07682159543037415,-0.2711647152900696
161.0,0.023561341031252882,-1.1531608279490173,1.5523018756205116,1.4698283874016211,1.9222175631197547,1.594844896027034,0.8225048333406448,0.16730888187885284,0.6493398360908031,0.17630086839199066,0.973686933517456,0.02572786435484886,-0.14209166169166565
162.0,-0.04734883701087479,-1.2234517531308091,1.5723365396796107,1.3037036604928116,1.6803338671508505,1.5233416157920503,0.8147382736206055,0.14573296904563904,0.6578676886856556,0.05269980803132057,0.9976655840873718,0.0022908966057002544,-0.043369196355342865
163.0,-0.036606770041996764,-1.2197630499628622,1.5679697504075043,1.3008455818726739,1.6770534648679825,1.5341058721467165,0.8167896568775177,0.15484574437141418,0.6565850153565407,0.051596030592918396,0.9978247284889221,0.002119057346135378,-0.04098081961274147
164.0,-0.028384181502443432,-1.228526493760799,1.5792302657591684,1.2930067899620399,1.6796074817791724,1.5423256280278999,0.808508850634098,0.16136276721954346,0.656573660671711,0.053286172449588776,0.9978567957878113,0.002025219611823559,-0.03792502358555794
165.0,-0.020309794074646777,-1.2360542001680672,1.5915759565115009,1.294205617833721,1.700184890366889,1.5503833811293972,0.7989647015929222,0.1648993194103241,0.656836025416851,0.06378380209207535,0.9971308708190918,0.002602179069072008,-0.04067980870604515
166.0,-0.009014550483617101,-1.2549412316107451,1.6127403966649825,1.270289246273301,1.6866875112797364,1.5617363375446842,0.7841184213757515,0.17609676718711853,0.6565652675926685,0.05762864649295807,0.9979121088981628,0.0016814287519082427,-0.02911604382097721
167.0,-0.01061341787849738,-1.2712039174299263,1.6327079405546367,1.2621760659740415,1.6989872120243892,1.5601108427363128,0.7707179710268974,0.17310422658920288,0.6577766016125679,0.06374457478523254,0.9975976943969727,0.0017293934943154454,-0.02706487849354744
168.0,0.0022877932183028747,-1.2753566643915581,1.6389983364299987,1.2559599023456343,1.6980712410762269,1.5731000623843219,0.7650348842144012,0.18316517770290375,0.6566709652543068,0.0636313259601593,0.997678816318512,0.0015437667025253177,-0.02420479618012905
169.0,0.020677512782479906,-1.272359481330763,1.6458358093220338,1.2756625895014686,1.7842104307973732,1.5918962102322713,0.7576613761484623,0.184024378657341,0.6564581654965878,0.10721306502819061,0.9935503602027893,0.003961035516113043,-0.03670717030763626
170.0,0.010413848589279174,-1.294690303661341,1.6625633792156247,1.2402509870574043,1.7032321260317143,1.5812953919467887,0.7481181733310223,0.1884257048368454,0.6566901989281178,0.0663490891456604,0.9976346492767334,0.0011923998827114701,-0.01792909950017929
171.0,0.003985104774035171,-1.3052606301399396,1.6744658543767033,1.2356536274981513,1.7110142937578103,1.5748186730145004,0.7406757548451424,0.1823883056640625,0.6578476540744305,0.07010886073112488,0.9973987340927124,0.0011744366493076086,-0.016708040609955788
172.0,0.10067621057847681,-1.2622087382216698,1.6777896155023588,1.2956658477428957,2.02832495420522,1.6825999821669677,0.7342093549668789,0.2076849490404129,0.648623913526535,0.23218655586242676,0.9716203212738037,0.010506539605557919,-0.043966230005025864
173.0,0.01810450794831406,-1.3245461697912875,1.697881795216827,1.216549055110954,1.703785765503516,1.589059604387892,0.7230554427951574,0.19366174936294556,0.6566533856093884,0.06660487502813339,0.9977446794509888,0.0005549542838707566,-0.008313245140016079
174.0,0.02026325446225461,-1.3263148224711272,1.7020166050000332,1.2196039082960608,1.7479320698274114,1.5913772497847258,0.7198786865919828,0.18843543529510498,0.6573520749807358,0.08867629617452621,0.9960058331489563,0.0009257255005650222,-0.010397681966423988
175.0,0.012376391040516533,-1.3459645545581795,1.721449971071535,1.2018507225038073,1.7121712952091541,1.5832973028415354,0.7075390997342765,0.18802939355373383,0.6576574295759201,0.07066335529088974,0.9974973797798157,0.00016881199553608894,-0.0023829820565879345
176.0,0.04078810536550043,-1.3681965218843228,1.7496676930877868,1.1686293618718553,1.8087181364372975,1.6127478168101024,0.686315449886024,0.19278012216091156,0.6561664491891861,0.11814767867326736,0.9928784370422363,-0.001805621781386435,0.015173913910984993
177.0,0.002771558818161303,-1.3857411548046432,1.7647818943302032,1.174230687394498,1.6923155798227494,1.573588030661323,0.6784861702471972,0.18417686223983765,0.6580116301774979,0.060695357620716095,0.9981163740158081,-0.0005421224050223827,0.008915035985410213
178.0,0.13306735240072226,-1.3561017540413043,1.7757172419379557,1.1329829628782844,2.1079101006034593,1.7251045521663393,0.6699560880661011,0.2128189504146576,0.6461809277534485,0.26133888959884644,0.9640349745750427,-0.012653276324272156,0.046675797551870346
179.0,0.02390775843467046,-1.4078521050153199,1.7885002208629373,1.137729508666347,1.770020440504239,1.5951466778782768,0.6609581001102924,0.18631643056869507,0.6567668654024601,0.09875517338514328,0.9947004914283752,-0.0028262773994356394,0.028467362746596336
180.0,0.012049030820738866,-1.3960503190439193,1.778203523592605,1.167352759450827,1.6967713094843764,1.582938444709612,0.6677580550312996,0.18967284262180328,0.6569922529160976,0.06280917674303055,0.9979603886604309,-0.0007165060960687697,0.011384396813809872
181.0,0.004146144453416862,-1.414463519418348,1.7979562330778187,1.1567432833168698,1.688661449771789,1.5749694260636093,0.6546730026602745,0.18557144701480865,0.6571107245981693,0.05882761999964714,0.9981474280357361,-0.0009133954881690443,0.015497878193855286
182.0,0.012994565108783046,-1.4248196104164588,1.8064168110061645,1.1319508346597797,1.7498705644624635,1.5839786351704237,0.6490095444023609,0.18196500837802887,0.657063253223896,0.0890001654624939,0.9955859780311584,-0.002652608323842287,0.029672972857952118
183.0,-0.01378637689378723,-1.4408836277961314,1.8253116502956754,1.1430242380699907,1.6793115477229206,1.5569405109699177,0.6371609196066856,0.17552176117897034,0.6576016061007977,0.054512131959199905,0.9982939958572388,-0.001140543376095593,0.020887047052383423
184.0,-0.019232920047736194,-1.4568232591487953,1.8441994989398276,1.1409453571273496,1.6598113766805127,1.551502981380599,0.6235947385430336,0.1753227263689041,0.6571187749505043,0.044883180409669876,0.9987844824790955,-0.0009146631346084177,0.020353978499770164
185.0,-0.029319422381044062,-1.46940349314605,1.8576449240041997,1.1371411585061642,1.6519228793211793,1.541407344300344,0.6148282885551453,0.17054536938667297,0.6571493931114674,0.04119007661938667,0.9989198446273804,-0.0008859904482960701,0.021486569195985794
186.0,-0.04682018198219587,-1.4783117641876498,1.8649945120689204,1.1316664735957604,1.6501742172582263,1.5238838062202609,0.6116605252027512,0.1603129357099533,0.657856460660696,0.04084877297282219,0.998869001865387,-0.0009942750912159681,0.024312861263751984
187.0,-0.04992057850622489,-1.4906836349710793,1.8787181555158876,1.12774684463504,1.6462468152964085,1.5207988062737217,0.6016200035810471,0.15954704582691193,0.657429538667202,0.039027512073516846,0.9989104866981506,-0.0009989193640649319,0.025567375123500824
188.0,-0.0666325180445362,-1.5050648607745403,1.893710345820603,1.1249703963628883,1.6370205068601056,1.5041098656004663,0.5921493917703629,0.151698499917984,0.6574943214654922,0.03492211177945137,0.9990435242652893,-0.0009194327285513282,0.026302913203835487
189.0,-0.07935868740812013,-1.5192352278231176,1.9021817863925783,1.1007358397656541,1.6513660282828406,1.4914369402292846,0.5881698578596115,0.1424023061990738,0.6577959135174751,0.04355824738740921,0.9982410073280334,-0.0017533072968944907,0.04018121585249901
190.0,-0.07779236602134962,-1.5178752405042106,1.9087655550908962,1.1274904167235973,1.6253281163830362,1.492977908994458,0.5815699249505997,0.1478409469127655,0.6572449393570423,0.029206765815615654,0.9992850422859192,-0.000701391021721065,0.023997507989406586
191.0,-0.09451405635287247,-1.5256470720617665,1.914344973395389,1.1205537598137418,1.6255546214115593,1.4762893584549748,0.5793806537985802,0.13849501311779022,0.657681193202734,0.03014308586716652,0.9991519451141357,-0.0008458229713141918,0.028036467730998993
192.0,-0.11232528251477292,-1.5419494003218126,1.9334623458562674,1.125238736483314,1.6122917828300436,1.4585096830932527,0.5660453885793686,0.13198323547840118,0.6573314815759659,0.023635389283299446,0.9994197487831116,-0.0005798492929898202,0.02451886236667633
193.0,-0.14002127565275815,-1.5408741466711835,1.9327543356534314,1.132590648423852,1.5977600486443149,1.4308488030490485,0.5693777650594711,0.1185353621840477,0.6581486724317074,0.016577262431383133,0.9996410012245178,-0.00034910166868939996,0.02105150744318962
194.0,-0.050342388810259875,-1.6228354801494826,1.9755818056803478,0.8635966771407544,1.8235302386443424,1.5218109296405724,0.5489370971918106,0.13496483862400055,0.6499838754534721,0.13258624076843262,0.9764724373817444,-0.02288183383643627,0.16852036118507385
195.0,-0.03510617195849499,-1.585350630660773,1.94723836685682,0.9238962924163863,1.8176517166184618,1.535966288679282,0.5635401457548141,0.14360469579696655,0.6518428064882755,0.12671959400177002,0.9823304414749146,-0.017620885744690895,0.13659712672233582
196.0,0.09740462437594716,-1.6812303782748714,2.0578185448488098,0.4779547577474119,2.1978592547930265,1.6575532452864536,0.5311909019947052,0.16289234161376953,0.6262366808950901,0.2569691240787506,0.8914612531661987,-0.10336292535066605,0.35858023166656494
197.0,0.05293582605073563,-1.7257896396463588,2.084534075443688,0.44310372340377757,2.1133254017044156,1.6142647638623397,0.5194922685623169,0.14903002977371216,0.6263832300901413,0.23068858683109283,0.8935639262199402,-0.09627167135477066,0.372904896736145
198.0,-0.060625892320798284,-1.7047572501847836,2.0389785116536534,0.6829215181577181,1.859340818214576,1.5164759172731963,0.5240944921970367,0.12556928396224976,0.6419561952352524,0.1536060869693756,0.9518052935600281,-0.04229462519288063,0.2620745599269867
199.0,-0.1702135597889107,-1.5963686929012624,1.9677653913805786,1.0456596616782692,1.628953262796941,1.4020191753195916,0.5481135249137878,0.10063932090997696,0.6569436565041542,0.04152167961001396,0.996623694896698,-0.0029485244303941727,0.07077192515134811
200.0,-0.1690252645338102,-1.5585525110085052,1.9507119887945867,1.1306737753558842,1.5927958947127494,1.401891843306582,0.5578716397285461,0.1052597239613533,0.6580144427716732,0.014871959574520588,0.9996519684791565,-0.00032413043663837016,0.02178715355694294
201.0,-0.1757752052307945,-1.5726026463225666,1.964220751011914,1.125553044413325,1.5936649080882301,1.3951862128504522,0.5476738065481186,0.10329075157642365,0.6575887762010098,0.015939684584736824,0.9995751976966858,-0.00038904737448319793,0.024397099390625954
202.0,-0.1978050421658831,-1.5825455156843506,1.974687160857014,1.1275142488935004,1.5881724095120398,1.3731798876789303,0.541041687130928,0.09382431209087372,0.6575362794101238,0.013537795282900333,0.9996353387832642,-0.0003163911169394851,0.023362431675195694
203.0,-0.22028728214780977,-1.5890190573434024,1.9811941975441907,1.128912373494591,1.5831633048634435,1.3507268453408923,0.5375032871961594,0.08366375416517258,0.6576352640986443,0.011459941044449806,0.9996721148490906,-0.0002625342458486557,0.022901352494955063
204.0,-0.2086763210254471,-1.604554171347182,1.9781529001356613,1.059720439410015,1.5989032506708434,1.3637894944651052,0.5423008799552917,0.08618760108947754,0.657241515815258,0.027889614924788475,0.9975387454032898,-0.0017979134572669864,0.06430666893720627
205.0,-0.1896922477238987,-1.7540886405211138,2.068449253123821,0.6995442848408026,1.6883915357480528,1.4061845507464947,0.5074836015701294,0.08880030363798141,0.6442613825201988,0.10397040843963623,0.95954430103302,-0.028186699375510216,0.2601354122161865
206.0,-0.2603244827426871,-1.662565626128963,2.013042147230541,0.9641309194751342,1.5862865214538213,1.318324941352808,0.5249986946582794,0.06569176912307739,0.6548649445176125,0.0398251973092556,0.9917658567428589,-0.004883621819317341,0.12161669135093689
207.0,-0.3031113880939544,-1.6896754959216973,2.031036562028229,0.9269570036543073,1.5564061595563323,1.281008833476612,0.5171668529510498,0.051183927804231644,0.6535362266004086,0.03720894083380699,0.9885448217391968,-0.0055016824044287205,0.1461654007434845
208.0,-0.3133829844604476,-1.6033603358038226,1.994695632563907,1.1304717472306323,1.5623386725382347,1.2577940723963288,0.5322993099689484,0.040164683014154434,0.6579897403717041,0.0035240210127085447,0.9996911883354187,-8.672846161061898e-05,0.02460305579006672
209.0,-0.3382468475678584,-1.621344295125044,2.0036100894384012,1.1004325940500972,1.5525741668160349,1.2338881187043684,0.5274535119533539,0.030513592064380646,0.6576846837997437,0.005995409097522497,0.998988687992096,-0.00026743978378362954,0.04456231743097305
210.0,-0.36267161722883695,-1.615498113878623,2.0034866122507173,1.1204318018129835,1.5479643253338407,1.208862441437569,0.5275469273328781,0.018571097403764725,0.6578620299696922,0.00038191999192349613,0.9994487166404724,-1.2687066373473499e-05,0.033200863748788834
211.0,-0.3641073367651733,-1.6183486235775713,2.012101473926414,1.1401223495201975,1.5613439716104915,1.2069451745315762,0.5191973894834518,0.018796613439917564,0.6576867438852787,0.0021556478459388018,0.9998184442520142,-4.081856968696229e-05,0.018932200968265533
212.0,-0.34365652481155423,-1.6159886546098141,2.009681745118325,1.139445497206296,1.563895613751353,1.2273866676461243,0.520611971616745,0.0283091738820076,0.657705020159483,0.0030932780355215073,0.9998168349266052,-5.844112456543371e-05,0.01888948306441307
213.0,-0.3215556975405117,-1.6151554275919133,2.0082763269620405,1.1367483227368802,1.5667511076903653,1.2495058137800352,0.5210500955581665,0.038946181535720825,0.6576192751526833,0.004545699805021286,0.9997885823249817,-9.117418085224926e-05,0.020052995532751083
214.0,-0.2919529462366221,-1.6097998768523702,2.002562143034043,1.134320476450481,1.57060163841691,1.2791074251463812,0.5244406014680862,0.0522969514131546,0.6576265022158623,0.006194418761879206,0.999761164188385,-0.0001298601710004732,0.020959051325917244
215.0,-0.26146688247204064,-1.6017583230323962,1.994357108279442,1.1321595653965846,1.5755305357352634,1.3095767102446279,0.5295044630765915,0.0656241923570633,0.6576269194483757,0.008233186788856983,0.999732255935669,-0.00017808111442718655,0.021623879671096802
216.0,-0.39496103385736697,-1.9002709025676654,2.1809241050091663,0.4782928680772307,1.4174722992507336,1.3002813828563295,0.47620370984077454,0.04478313773870468,0.6295784004032612,0.06209404394030571,0.9161468744277954,-0.02677868865430355,0.39509767293930054
217.0,-0.42204641185910663,-1.8271039412675276,2.123783720415081,0.67671300615668,1.4039782904258145,1.224245460169537,0.48712247610092163,0.02968665212392807,0.6416977569460869,0.0361289419233799,0.9526435732841492,-0.011442650109529495,0.30171841382980347
218.0,-0.4022078506656948,-1.6376571634154917,2.014085009916574,1.0806507737045727,1.5227828844060183,1.1713344652317472,0.5226370841264725,0.004150017164647579,0.6573003679513931,0.00010125109838554636,0.9980972409248352,-6.255020707612857e-06,0.06165976822376251
219.0,-0.3919603463023839,-1.6194209781654005,2.013292689309011,1.1408478144141796,1.5573818018123167,1.1791045665429578,0.5187439322471619,0.005312043707817793,0.6576989628374577,0.0006900316220708191,0.9998148679733276,-1.3272428986965679e-05,0.019230959936976433
220.0,-0.42660240004960315,-1.6141484360407432,2.009142594494133,1.1439966529466918,1.5534609279783071,1.1444222383079865,0.5220931768417358,-0.013573553413152695,0.6578197441995144,-0.0013121176743879914,0.9998360276222229,2.3703645638306625e-05,0.018062222748994827
221.0,-0.44839983020144897,-1.6516048977054354,2.020935460392825,1.0529819753029654,1.4967483146943799,1.1276816569892207,0.5203090757131577,-0.014594103209674358,0.6566821523010731,-0.001349118072539568,0.9965656995773315,0.0001120850138249807,0.08279488235712051
222.0,-0.4578455749080984,-1.6124288693582394,2.0023483372427644,1.126089072361685,1.5342939489167902,1.1136720384886485,0.5286338031291962,-0.030137840658426285,0.6578748747706413,-0.004271133802831173,0.9994585514068604,0.00013943261001259089,0.032627664506435394
223.0,-0.5014287895633148,-1.6350840433309137,2.0122420091059423,1.0772567976686451,1.4810927088707706,1.0729286143133456,0.525686651468277,-0.04317929968237877,0.6570161432027817,-0.01145248394459486,0.9973065257072449,0.0008318879408761859,0.07244255393743515
224.0,-0.48969839899051276,-1.604878605992893,2.0008038146663183,1.1448618776531196,1.5431029622185175,1.0813095031556756,0.5275122970342636,-0.04855437949299812,0.6578163541853428,-0.00516304187476635,0.9997916221618652,0.00010199580719927326,0.019750865176320076
225.0,-0.47780008031567517,-1.6140834732719866,2.0095174470448245,1.144130701938738,1.5450177879279756,1.0932299084552914,0.5211715400218964,-0.03904401510953903,0.6576430350542068,-0.0042666965164244175,0.999795138835907,8.445831190329045e-05,0.01979072205722332
226.0,-0.7336882403548495,-1.84404223832647,2.182069875714802,0.6854430721736349,0.981136513451706,0.9567266743825827,0.4784022271633148,-0.04516123980283737,0.6322531960904598,-0.05723848193883896,0.9242915511131287,0.023324720561504364,0.3766494393348694
227.0,-0.7101893827969861,-1.8997233428573923,2.2140778003423773,0.5651202499013412,0.9799583234361396,1.0428172770418669,0.47029969096183777,-0.025942817330360413,0.6264878772199154,-0.034987837076187134,0.9053359627723694,0.016344917938113213,0.4229367673397064
228.0,-0.6556474989528661,-1.9148926493741414,2.2100464073961454,0.530250012311908,1.052322153760094,1.1059848797129086,0.4705616533756256,-0.011889626272022724,0.629272174090147,-0.015223594382405281,0.9050266742706299,0.007149364799261093,0.4250222146511078
229.0,-0.5597646963173482,-1.927911389187331,2.2081561452913308,0.48065609044764024,1.1850218316681362,1.19564681684086,0.47025957703590393,0.011043304577469826,0.628414947539568,0.016950201243162155,0.9051986336708069,-0.007950357161462307,0.42457619309425354
230.0,-0.48529773967048523,-1.9287321162151072,2.1983560931387056,0.4539394643648431,1.285468343919151,1.2556099245970607,0.4730333387851715,0.02687790058553219,0.6321519054472446,0.03916953131556511,0.9040501117706299,-0.018423782661557198,0.4252290427684784
231.0,-0.41554080542562477,-1.9230465399871077,2.1891373093354694,0.43385331720388237,1.383160031119205,1.305325710448621,0.4760903865098953,0.041089002043008804,0.634255163371563,0.060182832181453705,0.9031251668930054,-0.028267877176404,0.4241979420185089
232.0,-0.3384562917236933,-1.9106061155883098,2.1822418168573283,0.41532272879517285,1.4938113478980695,1.3549192569150459,0.4787284731864929,0.05715678632259369,0.6327607110142708,0.08348025381565094,0.9025751948356628,-0.03889868035912514,0.42056629061698914
233.0,-0.25293825804767445,-1.8890924810782423,2.16831492264977,0.402774059784178,1.6195445190316375,1.4075285861747733,0.484046995639801,0.0747261568903923,0.6333523169159889,0.11032577604055405,0.9012239575386047,-0.05092202499508858,0.4159694015979767
234.0,-0.1774691283868036,-1.863245730173867,2.157587518044237,0.39614265049882924,1.7332111065677234,1.4529048368457254,0.4885576367378235,0.09123288094997406,0.6305044814944267,0.13507623970508575,0.9002744555473328,-0.0614042654633522,0.4092555046081543
235.0,-0.09396631550476753,-1.824858818469774,2.141555441267801,0.39784217308652847,1.8636039338337766,1.5049764525740206,0.49556970596313477,0.11045152693986893,0.6265517100691795,0.1650708168745041,0.8990704417228699,-0.07322508841753006,0.39882588386535645
236.0,0.0009541465757567787,-1.7669235895110753,2.101447315289481,0.42214159729460654,2.0238445942085375,1.5715245985121211,0.5117161571979523,0.13394992053508759,0.6314554773271084,0.20591506361961365,0.8948370814323425,-0.0888185054063797,0.385975182056427
237.0,-0.08904978770217488,-1.8227388832061713,2.127744003546611,0.40324570619930045,1.8737815431085245,1.508705392417836,0.5002560317516327,0.1109120175242424,0.63546983897686,0.16790297627449036,0.897098183631897,-0.07518493384122849,0.40170973539352417
238.0,-0.14806431115259305,-1.85159075903477,2.141127129286409,0.39982374258750797,1.7802393864652595,1.4717004756183678,0.49436092376708984,0.09705051779747009,0.6375694870948792,0.14611664414405823,0.8981294631958008,-0.06659922748804092,0.4093628525733948
239.0,-0.21087469250538945,-1.8758555325661703,2.1496433243726303,0.4031073759979038,1.6822017481453428,1.4341699986938266,0.4906485378742218,0.08298367261886597,0.6412464082241058,0.1240539625287056,0.8988571763038635,-0.057464513927698135,0.41637030243873596
240.0,-0.2869534247516186,-1.899339193528343,2.1614513121431127,0.41130276927431586,1.568005530075401,1.3889063332667368,0.485677108168602,0.06669583171606064,0.6426186263561249,0.09953712671995163,0.8998038172721863,-0.04670562595129013,0.4222133457660675
241.0,-0.3629366818547851,-1.9154334399169723,2.167287810583472,0.426748737394683,1.4539891039607569,1.3428614016666118,0.4832686483860016,0.050715506076812744,0.645818330347538,0.07502790540456772,0.9002476334571838,-0.03561871498823166,0.427383154630661
242.0,-0.4587387657803147,-1.9276660314606973,2.1755183356981735,0.45228733528462683,1.3156755318784972,1.2799147724604099,0.479992613196373,0.030548691749572754,0.6471967995166779,0.04578953608870506,0.9006962776184082,-0.021935176104307175,0.4314725995063782
243.0,-0.5614110527786259,-1.9269446098147167,2.1821169821333752,0.4914392763701074,1.1684702461103587,1.200692119270736,0.4782637059688568,0.008031931705772877,0.6469224095344543,0.01266915537416935,0.9013469815254211,-0.0060843294486403465,0.4328695833683014
244.0,-0.6488670713182214,-1.9143690265659195,2.1875251704677607,0.5358203742993384,1.047230964294686,1.1179237292623887,0.4774530827999115,-0.013017295859754086,0.6446920335292816,-0.016749979928135872,0.9018101692199707,0.008018896915018559,0.43173325061798096
245.0,-0.6969533011903786,-1.9019893728181756,2.1961324609413793,0.5640675487680324,0.985513221112974,1.0621157913755774,0.4756212830543518,-0.024847541004419327,0.6387193202972412,-0.033359646797180176,0.9028368592262268,0.015829110518097878,0.4283949136734009
246.0,-0.7600582129353516,-1.873063149244571,2.190858337052392,0.621158896016901,0.8921340690410753,0.9747895687109289,0.47919033467769623,-0.04454018175601959,0.6405127719044685,-0.06262967735528946,0.9017698764801025,0.029630102217197418,0.42662736773490906
247.0,-0.8103478785568525,-1.8386590401662681,2.1881698046223517,0.6804129105611847,0.8200646041031141,0.8846286370616037,0.48244616389274597,-0.06280166655778885,0.6392859742045403,-0.08981122076511383,0.9009082317352295,0.042120981961488724,0.4225211441516876
248.0,-0.8472052522604193,-1.799063220066243,2.1826850075900057,0.7425952678943131,0.7656128245327599,0.7960729058069249,0.4874798357486725,-0.08018617331981659,0.6381569243967533,-0.11618725210428238,0.8999515175819397,0.05380593240261078,0.4167645573616028
249.0,-0.8701268259009848,-1.7627572247126337,2.1712436874700014,0.802831945143132,0.7240540640168945,0.720747514891112,0.49417681992053986,-0.09486745297908783,0.6412934325635433,-0.1401708424091339,0.8977139592170715,0.06443757563829422,0.4126858115196228
250.0,-0.8840553449393533,-1.7254519081301514,2.158170869555332,0.8616331638141421,0.6947093075078627,0.6520985527629494,0.5022733807563782,-0.1086350679397583,0.6439326927065849,-0.16285432875156403,0.8957995176315308,0.07396961003541946,0.40687865018844604
251.0,-0.9083156667395345,-1.6478669241887371,2.1466886569126697,0.9801873263077603,0.6628711973039109,0.5063945693320379,0.5149307250976562,-0.13556593656539917,0.6379825212061405,-0.20730824768543243,0.8934690952301025,0.0900510624051094,0.3881073296070099
252.0,-0.9083439307931466,-1.610706495995204,2.1282600762521318,1.0481719635190645,0.6494909880371671,0.4441001600775172,0.5260285437107086,-0.14776469767093658,0.6429608687758446,-0.23165898025035858,0.8903037309646606,0.09872176498174667,0.3794040381908417
253.0,-0.9097868185188651,-1.5530532607015706,2.1139882801193424,1.1358962023234773,0.6525008354393815,0.3590453745167617,0.5393858850002289,-0.166431725025177,0.6375920176506042,-0.26520225405693054,0.8886713981628418,0.10697133839130402,0.35845237970352173
254.0,-0.8960963468549833,-1.4851172124756646,2.080843783932628,1.2559392613855866,0.6637924042966112,0.27829394486545245,0.5626558065414429,-0.18704262375831604,0.6390731036663055,-0.31078097224235535,0.8847183585166931,0.11513745784759521,0.3277685344219208
255.0,-0.8792910462684598,-1.4334468862903076,2.051803485932671,1.3487336896207185,0.685418257594828,0.23945083091993027,0.5829934477806091,-0.2016947865486145,0.6391454003751278,-0.34746408462524414,0.8822864294052124,0.11636072397232056,0.29546505212783813
256.0,-0.866009481257588,-1.4106456006941444,2.031613890266383,1.4013016764791457,0.6954161937752945,0.22921991900027927,0.5955727100372314,-0.20715183019638062,0.6438406854867935,-0.3669984042644501,0.8802616596221924,0.11573357880115509,0.2775920331478119
257.0,-0.8490680503372703,-1.3747143686037413,2.0075758179865892,1.4633301549147748,0.7211035844981911,0.23197605215245426,0.6122300922870636,-0.21597109735012054,0.6425554864108562,-0.39290109276771545,0.879546582698822,0.10946156084537506,0.2450401484966278
258.0,-0.831541895866394,-1.3344342708587646,1.982846736907959,1.5258082151412964,0.7562661170959473,0.2529739439487457,0.629927471280098,-0.2259925901889801,0.6374697908759117,-0.4199855923652649,0.8792815804481506,0.09683312475681305,0.20272982120513916
259.0,-0.8078791706292378,-1.7129085365078167,2.0864418460335568,-1.283469424363001,-0.7853582979177052,-2.8442143483066507,0.6492498442530632,-0.23035362362861633,0.6397921442985535,-0.44165271520614624,0.8789674639701843,0.08076473325490952,0.16073615849018097
260.0,-0.792318523597699,-1.6768261610070934,2.0547247845728225,-1.2391903099197803,-0.8168455134967011,-2.796148739356633,0.6632483154535294,-0.2358308732509613,0.6354754567146301,-0.45723143219947815,0.8789993524551392,0.06242629140615463,0.12001070380210876
261.0,-0.7706639478588272,-1.6422985687415974,2.018432952690127,-1.1965798624978623,-0.8489919042889432,-2.72631510183632,0.6800490655004978,-0.2380352020263672,0.6350832805037498,-0.4690503776073456,0.8791818022727966,0.03946981579065323,0.07398169487714767
262.0,-0.742128009951436,-1.6006030719171975,1.9701623647579976,-1.1391980678298812,-0.8978604213800558,-2.6143449903123703,0.7005628502811305,-0.23921363055706024,0.6363384872674942,-0.47736698389053345,0.8786783218383789,0.003217162564396858,0.005921756848692894
263.0,-0.7817363406719345,-1.6714614069317002,2.0365810949284366,-1.2152756842800958,-0.8194434456078616,-2.7782491767293767,0.6695391200482845,-0.23301586508750916,0.6439052186906338,-0.4620949625968933,0.878203272819519,0.057461220771074295,0.10920402407646179
264.0,-0.7617302975290872,-1.6422960837932652,2.002404412907458,-1.1742009417960704,-0.8466725564544213,-2.714859375412779,0.68460454326123,-0.23392215371131897,0.6459166780114174,-0.47225403785705566,0.8780575394630432,0.03666358068585396,0.06816825270652771
265.0,-0.7977463989312669,-1.7064180260821882,2.066175217657085,-1.2533636320588624,-0.7871174756107311,-2.832659674816569,0.6556090116500854,-0.22819820046424866,0.6488529518246651,-0.4486500322818756,0.877539873123169,0.07703355699777603,0.1506742686033249
266.0,-0.8267046021570975,-1.344195955051516,1.977307343781349,1.5348398878698857,0.7452183439593865,0.24988619729250475,0.6312986835837364,-0.22153624892234802,0.6481696665287018,-0.4196608066558838,0.8777492642402649,0.09971533715724945,0.20856143534183502
267.0,-0.8608623045755236,-1.4182925313102321,2.0248300656163996,1.4089515370969754,0.6859363421476696,0.23009943373897562,0.5974461883306503,-0.2036023586988449,0.6532172299921513,-0.3668058216571808,0.8786541223526001,0.11774817854166031,0.28205639123916626
268.0,-0.8799819716154443,-1.4688577214487384,2.054719482398932,1.3137612032597152,0.6599678953859195,0.259957711090447,0.5761044472455978,-0.1900930404663086,0.6528257243335247,-0.3292822539806366,0.8808775544166565,0.11906448751688004,0.3185146749019623
269.0,-0.890004916847902,-1.4941336010966082,2.072440076475986,1.2578792093535296,0.6539607125572954,0.2867593622930603,0.5647272616624832,-0.18329985439777374,0.6486581154167652,-0.3090524673461914,0.8831359148025513,0.1165744736790657,0.3331185579299927
270.0,-0.901131803803732,-1.527261078355412,2.0941975528495393,1.1929613839605224,0.6491670998569786,0.32310160303647806,0.5507976859807968,-0.1738753318786621,0.6444642171263695,-0.28518757224082947,0.8855746388435364,0.11238795518875122,0.3489910960197449
271.0,-0.9024474728541,-1.5664320371070684,2.1049272233281178,1.1277301134854607,0.6436601482120539,0.38002504915346225,0.5408832132816315,-0.1615074723958969,0.6475822925567627,-0.2604786455631256,0.8872406482696533,0.1072491928935051,0.3653115928173065
272.0,-0.897838756014191,-1.5917162170945574,2.1041214855372883,1.0937679568887426,0.6384616864214591,0.42027761918570483,0.5374394208192825,-0.152996227145195,0.6545831188559532,-0.2470940500497818,0.8870407938957214,0.10465499758720398,0.37570005655288696
273.0,-0.8968797417619659,-1.6293968641565792,2.1159132145379944,1.0309181663539961,0.6428123545482339,0.4812366736749636,0.5278461277484894,-0.14092840254306793,0.6552573777735233,-0.22427046298980713,0.8886612057685852,0.09787392616271973,0.387820839881897
274.0,-0.8907870906857448,-1.6684858129728137,2.1257494084159396,0.9638168516971954,0.6547885913698146,0.5533291326483072,0.5194873511791229,-0.12809953093528748,0.6557961255311966,-0.20026886463165283,0.8905382752418518,0.08961691707372665,0.3985007107257843
275.0,-0.8804718221550923,-1.7035934758398015,2.1300493683436543,0.9100668172355797,0.6677364265023541,0.6195003821653684,0.5136403739452362,-0.11601471155881882,0.659372553229332,-0.18055078387260437,0.8912490010261536,0.0826011449098587,0.4077422320842743
276.0,-0.8575602642068678,-1.7626809065986575,2.146405353432198,0.8114943805502732,0.7131970385682381,0.736476164532215,0.5020662546157837,-0.09475050121545792,0.6573234535753727,-0.14372633397579193,0.8943182229995728,0.0672333687543869,0.41835078597068787
277.0,-0.8298239225072018,-1.8059985178320144,2.158581909755667,0.7388468397556083,0.7639659742685548,0.8278162644351221,0.494353324174881,-0.07751096785068512,0.6547457464039326,-0.1148337796330452,0.8966369032859802,0.05432179942727089,0.42415159940719604
278.0,-0.7999877850516838,-1.8381304252563198,2.1635112509662164,0.6876680576581067,0.8099305736258756,0.8996310866860319,0.4899628162384033,-0.0632629469037056,0.6556091606616974,-0.09317218512296677,0.8973605036735535,0.044547274708747864,0.4290439188480377
279.0,-0.7347240110839921,-1.8807833892855501,2.1659838192304144,0.6115070334676531,0.9068637478296583,1.0144626334578883,0.4861754775047302,-0.04021601378917694,0.6578196920454502,-0.057584840804338455,0.8982649445533752,0.027871860191226006,0.43477264046669006
280.0,-0.682922187563958,-1.9037934928409417,2.1770490532001165,0.5632640472231758,0.990909455047485,1.0819091189741787,0.4812832772731781,-0.02342865988612175,0.6517411321401596,-0.03214290738105774,0.9001346230506897,0.015502980910241604,0.4341476857662201
281.0,-0.598400578684146,-1.9232899150278382,2.1751662898027853,0.5117760917458707,1.1115361725066057,1.170627738206637,0.48047615587711334,-0.001529534230940044,0.6529758684337139,-0.0006864009192213416,0.8999735116958618,0.0003324901044834405,0.43594393134117126
282.0,-0.3966593190172285,-1.9206075734696926,2.157366176375059,0.43919978631713397,1.4011520086653884,1.3241405911913027,0.48610667884349823,0.04255259782075882,0.6557539440691471,0.06381907314062119,0.8985464572906494,-0.030762435868382454,0.4331224858760834
283.0,-0.3084609386279313,-1.905117024606079,2.1527354462563166,0.41853538338432683,1.5347293452168358,1.3779561628435701,0.4880594313144684,0.06128525361418724,0.6514401696622372,0.0926746129989624,0.8982418179512024,-0.04409124702215195,0.4273511469364166
284.0,-0.15283834399232898,-1.853941003216358,2.124071082235848,0.40645381403458014,1.7748925712748311,1.4701331921239564,0.4997721165418625,0.09474325180053711,0.6507021263241768,0.14549121260643005,0.8955569267272949,-0.06742801517248154,0.4150465130805969
285.0,-0.07888241810091595,-1.8177667288093666,2.098961436591145,0.41449225977568416,1.89726695287178,1.5162415429348894,0.5098247975111008,0.11168845742940903,0.653977669775486,0.17474763095378876,0.892845869064331,-0.07972630113363266,0.4073491394519806
286.0,0.007816102115133559,-1.7609793090652692,2.0646549038108244,0.4398755027988641,2.050187282729857,1.5767415295304927,0.5243171155452728,0.13393300771713257,0.6549261249601841,0.21469493210315704,0.889581024646759,-0.09458860754966736,0.391924649477005
287.0,0.0605031452686627,-1.715255551597554,2.035409325943768,0.4717042627892525,2.1514962754639004,1.6209160267718206,0.536812350153923,0.14908139407634735,0.6562691181898117,0.24433039128780365,0.8869414925575256,-0.10409931093454361,0.3778899610042572
288.0,0.09055728499832605,-1.6831174559090922,2.010498727818955,0.5016476730886676,2.2171091610266283,1.6507789345979906,0.5470859855413437,0.15819643437862396,0.6601053178310394,0.26562410593032837,0.8843608498573303,-0.11042226850986481,0.3676365613937378
289.0,0.1320745297596364,-1.6266845964990362,1.9702908705590039,0.5634304032391544,2.3133099096845418,1.7021408884961302,0.5647108852863312,0.17254126071929932,0.6637775972485542,0.30014491081237793,0.8810644745826721,-0.11788197606801987,0.34603822231292725
290.0,0.17492765150517461,-1.5461189616756703,1.9207286835672261,0.6718385601889392,2.4198693886747904,1.7781822728678762,0.5884027034044266,0.19048258662223816,0.6633992046117783,0.34570541977882385,0.8782435655593872,-0.12102469056844711,0.307455837726593
291.0,0.18928895712267158,-1.5062619996220816,1.89148629550712,0.7411269769155342,2.4669392180378265,1.8167746256561699,0.6021281853318214,0.19732487201690674,0.6671755462884903,0.36971646547317505,0.8760625720024109,-0.1203593760728836,0.28519782423973083
292.0,0.2046714695081811,-1.4413255654527177,1.8486452609889288,0.8684703163787011,2.5228807004742615,1.8765761612337124,0.6250205263495445,0.20664900541305542,0.6704693511128426,0.4056261479854584,0.8746374845504761,-0.11169113963842392,0.24083568155765533
293.0,0.21280561308740042,-1.3912443837280806,1.8221614117031146,0.9745341754721655,2.5500318014328065,1.9189817942198946,0.6424794718623161,0.2134280949831009,0.6689686626195908,0.43019092082977295,0.8748576641082764,-0.09823449701070786,0.19977456331253052
294.0,0.21611208056603423,-1.2937547146241855,1.7745848563519553,1.223287154137316,2.5627226229948725,1.9652964068999035,0.6807493306696415,0.22300133109092712,0.6659060344099998,0.4704737067222595,0.8768925666809082,-0.04659628868103027,0.08684850484132767
295.0,0.22066094794901386,-1.3259295147607382,1.7961567975080228,1.123296097780145,2.5662998443085585,1.9645411945235678,0.6648483574390411,0.22244934737682343,0.6621104888617992,0.45808833837509155,0.8757823705673218,-0.07053590565919876,0.13485193252563477
296.0,0.2176061245294392,-1.3889709698287296,1.8325187826989393,0.9636538532544221,2.5447613700940623,1.9239650171564657,0.6393436528742313,0.21651095151901245,0.6598639450967312,0.42720362544059753,0.8761820197105408,-0.09780318289995193,0.20059141516685486
297.0,0.21131061024991224,-1.4336154288836904,1.8595245992915677,0.8667521608262023,2.519123173570539,1.8867885394150907,0.6226128190755844,0.21091961860656738,0.6588962413370609,0.4044210612773895,0.8765679001808167,-0.10930196940898895,0.23690803349018097
298.0,0.20069424975498476,-1.4793307947755434,1.8875404048678752,0.7771738765200671,2.4835570991228515,1.8442590902109286,0.6069332510232925,0.20400525629520416,0.6580975949764252,0.3800685703754425,0.8773843050003052,-0.11639438569545746,0.2686951756477356
299.0,0.16148432849750338,-1.5803551348857972,1.9498684411232385,0.6170347068171174,2.3758649594174566,1.748213553466203,0.5751785486936569,0.1846500039100647,0.6580155789852142,0.32509681582450867,0.8801649808883667,-0.11983481794595718,0.32444000244140625
300.0,0.14134898954481656,-1.616558689022028,1.9786977872413687,0.5660380506796334,2.3207542671894283,1.7140315903430008,0.5628365278244019,0.17688369750976562,0.6533865816891193,0.30232325196266174,0.8827845454216003,-0.11649876087903976,0.34017664194107056
301.0,0.09698564145189936,-1.6781028320755198,2.024313535783192,0.49735521835604807,2.217729112038242,1.65741883359659,0.5429230034351349,0.16132831573486328,0.6481906846165657,0.26490792632102966,0.8867211937904358,-0.10845373570919037,0.3630250096321106
302.0,0.06464940756159221,-1.712752380575186,2.0478007262034987,0.4670336610393529,2.151550024757707,1.6248076964642562,0.5327557325363159,0.15107661485671997,0.6465470902621746,0.24365393817424774,0.8887887001037598,-0.10263098776340485,0.3743721544742584
303.0,-0.02051201414174792,-1.7817984251321108,2.0847288196686318,0.425560789132553,1.9956906751740966,1.5557023157082697,0.5165372639894485,0.1268259584903717,0.6493407040834427,0.19951164722442627,0.8918639421463013,-0.08861561119556427,0.3961326777935028
304.0,-0.07229650451427415,-1.8140882777030238,2.1090464206977195,0.41081367418690595,1.9047560724095294,1.520148231318862,0.5067681819200516,0.11411496996879578,0.6452834010124207,0.17600701749324799,0.8944810628890991,-0.07935183495283127,0.4032721221446991
305.0,0.03316685042561275,-1.74199454172109,2.078471932500035,0.439800598250359,2.084342463154891,1.5971273791672993,0.5208288431167603,0.1425466686487198,0.6372813954949379,0.22294925153255463,0.8922231793403625,-0.09520652145147324,0.3810080885887146
306.0,0.07489584764950111,-1.7037949957109397,2.056107240654668,0.4672388850368141,2.163367490213673,1.6346166602986847,0.530465692281723,0.1549510508775711,0.6369632333517075,0.24664433300495148,0.8903244137763977,-0.10218077898025513,0.3688470423221588
307.0,0.1219413799907405,-1.6519094486809873,2.033951706644131,0.5081363026466938,2.250646821884626,1.6855757429009244,0.5412316024303436,0.17110079526901245,0.6302940063178539,0.27493810653686523,0.889105498790741,-0.10810405761003494,0.34959110617637634
308.0,0.1552489150486606,-1.6049059743035141,2.009121057772229,0.5567452501765233,2.3190179542265037,1.7310172186204855,0.5530012845993042,0.18374232947826385,0.6272648125886917,0.3003636300563812,0.8876196146011353,-0.11191900819540024,0.33073750138282776
309.0,0.18475270293993978,-1.5538293620381576,1.9806501847113054,0.6191187676492003,2.3829758462101043,1.781577417776769,0.5668332725763321,0.19648392498493195,0.6248278804123402,0.32723280787467957,0.8858110904693604,-0.11401616781949997,0.30863887071609497
310.0,0.21203366750509567,-1.4868568142481908,1.941061187249081,0.7193168188003276,2.449798006299607,1.8463480656847269,0.587138906121254,0.21044868230819702,0.6231502592563629,0.36168012022972107,0.8840558528900146,-0.11209173500537872,0.2739861309528351
311.0,0.2293478397507348,-1.423730068477907,1.9027458908946184,0.8319490687489339,2.4981185861851456,1.9058649131654528,0.6083657294511795,0.22166931629180908,0.622736569494009,0.39364704489707947,0.8825836777687073,-0.10471659153699875,0.23478178679943085
312.0,0.23835703220554194,-1.3769992322300715,1.8763845714944287,0.924478870366886,2.5235465755947684,1.947021542409539,0.6247644275426865,0.22923564910888672,0.6214321926236153,0.4161713123321533,0.8818426132202148,-0.09462399035692215,0.2005026936531067
313.0,0.24064027974301755,-1.3216471669771332,1.8392956888099912,1.0561034974660757,2.5433582534477654,1.982107201918888,0.6489355340600014,0.23492351174354553,0.624666977673769,0.4431483745574951,0.8809179663658142,-0.07466323673725128,0.14842025935649872
314.0,0.2411596350011837,-1.2829457338299632,1.817813332692903,1.1513133804859625,2.5471672951067648,1.9980620469123718,0.6656212545931339,0.23905441164970398,0.6238975077867508,0.4590398967266083,0.8804143071174622,-0.05500092729926109,0.1054888665676117
315.0,0.22234213219976454,-1.253186739317011,1.778661245529783,1.2435104787091962,2.456295940908415,1.925517207979888,0.6883716024458408,0.23922091722488403,0.6252736039459705,0.4341371953487396,0.899978756904602,-0.017178058624267578,0.03561060503125191
316.0,0.20777223932483618,-1.1978215137615993,1.7373057546386128,1.3887894527490074,2.421024324212532,1.8866188824974646,0.7206825315952301,0.2388540804386139,0.6250749863684177,0.4339442551136017,0.8991299271583557,0.02480853535234928,-0.05140313506126404
317.0,0.2121717929840088,-1.1613914966583252,1.7357977628707886,1.4953628778457642,2.474060535430908,1.9088175296783447,0.7352412566542625,0.24003183841705322,0.6234899964183569,0.46736523509025574,0.876930296421051,0.05271683633327484,-0.09891406446695328
318.0,-2.406172513961792,-3.578479528427124,1.864750623703003,-0.6703084707260132,-0.9170737266540527,2.576606273651123,0.7067913156934083,0.2418590784072876,0.6244077738374472,0.4764600694179535,0.8790114521980286,0.008586845360696316,-0.015841694548726082
319.0,0.2338749158997041,-1.2497543253711296,1.7908532519780447,1.2543614602960542,2.5436335275415,1.9914947021012293,0.6852787099778652,0.23878639936447144,0.6297278199344873,0.4717155396938324,0.8794991374015808,-0.029765203595161438,0.05549630895256996
320.0,0.2366250554934466,-1.3176387182284803,1.8270224680974116,1.0809019005343175,2.5491948545276975,1.9809694666920463,0.6547678932547569,0.2329767346382141,0.6324492990970612,0.4482712745666504,0.8797433376312256,-0.07193463295698166,0.14117346704006195
321.0,0.23134546571018386,-1.3895050778079079,1.8689822856922913,0.9164032484736884,2.5255924522406388,1.9335137697458495,0.6257831528782845,0.2245267927646637,0.632500134408474,0.41496357321739197,0.8802564144134521,-0.09812361747026443,0.20814824104309082
322.0,0.21863301822891157,-1.4527142768189851,1.9067843631324866,0.7917140123860424,2.485914669887972,1.8770273071113839,0.6032941341400146,0.21465814113616943,0.6326512470841408,0.3833577036857605,0.8813350796699524,-0.1101679801940918,0.25327497720718384
323.0,0.196956051308379,-1.5213583452700976,1.9528963194786881,0.6725742191341275,2.4218361162299282,1.811271466625526,0.5796104297041893,0.202303946018219,0.6299433074891567,0.3463423550128937,0.8838534951210022,-0.11470844596624374,0.292731910943985
324.0,0.1895250506004218,-1.5319615853360722,1.9466147271331422,0.6666555374616985,2.417448256632456,1.7986712491609267,0.5809056386351585,0.1984100490808487,0.6389589011669159,0.3441332280635834,0.8824865221977234,-0.11648086458444595,0.29870060086250305
325.0,0.16396240059351716,-1.5826952726934975,1.970206859074117,0.6006356007962064,2.3621475525742968,1.748857895166538,0.5682500153779984,0.1865018904209137,0.6446598842740059,0.31870323419570923,0.8830538392066956,-0.11693217605352402,0.3239923417568207
326.0,0.2029017251644927,-1.4918716369601976,1.915061515094253,0.7369368178952602,2.4618555671685103,1.8367422249914604,0.5959018468856812,0.205287903547287,0.6438376232981682,0.36760589480400085,0.8802179098129272,-0.11566482484340668,0.27695485949516296
327.0,0.21632973546721831,-1.431810297936275,1.8728177643531219,0.8531740999878201,2.511408142629093,1.8908802423974673,0.6184526011347771,0.2140764594078064,0.6479651853442192,0.40021640062332153,0.8784898519515991,-0.10817418992519379,0.2374463528394699
328.0,0.22518305954023057,-1.387925212906487,1.8507775722196607,0.9427711542578578,2.536155438536184,1.9309049169568842,0.6327248066663742,0.22098325192928314,0.6457476988434792,0.4218263328075409,0.8781463503837585,-0.0977087989449501,0.20340745151042938
329.0,0.23158911775768456,-1.3188025665823118,1.8159231992083493,1.099944281813957,2.5559136547969117,1.9773092424138317,0.6587919406592846,0.22975890338420868,0.6424828693270683,0.4526084065437317,0.8782246708869934,-0.07077305018901825,0.13732539117336273
330.0,0.2315758596608265,-1.2794732013682073,1.7978272575529246,1.194806075645432,2.553296153715352,1.9876709028219215,0.6750771254301071,0.23381942510604858,0.6387844607234001,0.465996116399765,0.8788428902626038,-0.04796333983540535,0.09045621007680893
331.0,0.22706406580530702,-1.2470620294046924,1.777982806126334,1.2897887670614432,2.5443124560647488,1.9807510780863191,0.6916027525439858,0.23514214158058167,0.6398779936134815,0.4752679169178009,0.8786221146583557,-0.02202792651951313,0.040722768753767014
332.0,0.21749440761749847,-1.2144773874148656,1.757766242323931,1.4038340229928614,2.5194738000872343,1.949335412629611,0.7094414038583636,0.2342124879360199,0.6423676088452339,0.4777706265449524,0.8779337406158447,0.014868638478219509,-0.027322063222527504
333.0,0.19541265806667082,-1.1676420075430007,1.7181902211484148,1.5516294529439445,2.4650759492359438,1.8727411241061305,0.7425445690751076,0.22922691702842712,0.645407035946846,0.462654709815979,0.8748592734336853,0.06705150008201599,-0.12679137289524078
334.0,0.17717836797237396,0.36187466979026794,-1.6904851198196411,3.5136592388153076,2.4224424362182617,1.8174892663955688,0.7647992298007011,0.22320100665092468,0.6473093591630459,0.4428452253341675,0.8718999624252319,0.09464207291603088,-0.1863369345664978
335.0,0.1649675354769519,-1.4904532462772007,1.8717366073922974,-1.2866702617874815,-2.3857097405693657,-1.359694313313367,0.7800183147192001,0.21980002522468567,0.6427526399493217,0.4239957332611084,0.8705378770828247,0.10937380790710449,-0.22456368803977966
336.0,0.15406224148997066,-1.4673687749234345,1.845101532258727,-1.245583839222547,-2.3559894269527883,-1.3866980557801385,0.7935277670621872,0.21624667942523956,0.6386975385248661,0.40760400891304016,0.8693168759346008,0.11867639422416687,-0.25310689210891724
337.0,0.13118066991872462,-1.4305995229042994,1.7993069071571648,-1.1783581233534453,-2.2997801891279464,-1.4322773347010098,0.816110223531723,0.20674633979797363,0.6340075358748436,0.37462279200553894,0.8679373860359192,0.1292296051979065,-0.29940304160118103
338.0,0.11398393341484644,-1.4106519593280602,1.7684633007492176,-1.1337727458561329,-2.2649285002907344,-1.4593268175014698,0.8297993689775467,0.19795508682727814,0.6352958232164383,0.3525817394256592,0.8669191002845764,0.13273735344409943,-0.32637128233909607
339.0,0.09820888869598994,-1.3899010148329765,1.7450707323226722,-1.105004389835541,-2.2285866401641363,-1.4811797755091891,0.8429214954376221,0.19023168087005615,0.6310372892767191,0.33027589321136475,0.8672196865081787,0.1326192170381546,-0.348224014043808
340.0,0.06767677170071715,-1.3612332962657236,1.70317589952854,-1.050712569697057,-2.1685968099385473,-1.5155399325038539,0.8629827052354813,0.1729111224412918,0.6311440449208021,0.2915589511394501,0.8674781918525696,0.12841646373271942,-0.38207873702049255
341.0,0.043772127518730816,-1.3376701012341197,1.6754986221832815,-1.020246346298474,-2.1212942642408636,-1.537705921089383,0.8789516985416412,0.15889737010002136,0.6269014775753021,0.2611203193664551,0.8683335781097412,0.1214330866932869,-0.40381547808647156
342.0,0.014982585655256944,-1.3176094748987037,1.647560567134152,-0.9880414409610436,-2.0683703855551565,-1.5603004358698371,0.8934622406959534,0.14075502753257751,0.6257622987031937,0.22645387053489685,0.8697826266288757,0.11045881360769272,-0.4242593050003052
343.0,-0.01641271999002833,-1.3009579188423082,1.6205638637289717,-0.9550540610019331,-2.013617013080595,-1.581511244572288,0.9060251712799072,0.12003052234649658,0.6272005643695593,0.19004103541374207,0.8711077570915222,0.09651947021484375,-0.4424247741699219
344.0,-0.05217564414299226,-1.2872647283920367,1.5944883758749289,-0.9211791741406948,-1.9536795252728514,-1.6026718307924896,0.9167446047067642,0.09567422419786453,0.630850313231349,0.1497732400894165,0.8723496198654175,0.07874783128499985,-0.45866429805755615
345.0,-0.07172120118125182,-1.2833657052468177,1.582909609455713,-0.9044397990444639,-1.922623005120902,-1.613368648179209,0.920311450958252,0.08208795636892319,0.6345029324293137,0.12862378358840942,0.8730527758598328,0.06855588406324387,-0.46533310413360596
346.0,-0.10190975219839737,-1.2734607688127446,1.5690301825329858,-0.8878252173386725,-1.871245123369588,-1.6289642755092277,0.9273344576358795,0.06131225824356079,0.6337712109088898,0.09452494233846664,0.8740644454956055,0.051234692335128784,-0.47376298904418945
347.0,-0.14955423029158152,-1.2636114340645779,1.5554439521334285,-0.869979969794231,-1.7939025438139962,-1.6526975399142132,0.9341682493686676,0.02798335999250412,0.6326549686491489,0.042590416967868805,0.875166118144989,0.023426350206136703,-0.4813746511936188
348.0,-0.16741923830533198,-1.2590011498020839,1.5546394590552308,-0.87129010731269,-1.7659973757824035,-1.6617697199705128,0.9368915855884552,0.015161421149969101,0.6284013316035271,0.023715591058135033,0.8757003545761108,0.01305603887885809,-0.4820953905582428
349.0,-0.14267224237907783,-1.257446614615502,1.5599727896294244,-0.8838242520487394,-1.8031023883160961,-1.649451043198723,0.9374449849128723,0.032512959092855453,0.6236359160393476,0.04928755387663841,0.8754709362983704,0.02702268213033676,-0.47999081015586853
350.0,-0.11607215546077508,-1.2633645470295578,1.5677972919638392,-0.8941930610093892,-1.846142187639202,-1.6362916042205335,0.9334568977355957,0.05128883570432663,0.6244815606623888,0.07825416326522827,0.8750980496406555,0.042536769062280655,-0.47567880153656006
351.0,-0.08256451624583774,-1.2729835982614297,1.580091781237006,-0.908272452562071,-1.9016036205243239,-1.6191137781617526,0.9266127198934555,0.0747184231877327,0.6261549703776836,0.11530368775129318,0.8738714456558228,0.0617806538939476,-0.46822744607925415
352.0,-0.04640237497971668,-1.2811087658381008,1.6009373340446296,-0.9376774332788241,-1.9591029987646,-1.5994084913913433,0.9194792807102203,0.1000356376171112,0.6206985637545586,0.1544501632452011,0.8726744651794434,0.08073050528764725,-0.4561435878276825
353.0,-0.05044436454772949,-1.3939099311828613,1.7213743925094604,-1.2904890775680542,-1.891141653060913,-1.6140222549438477,0.8953590840101242,0.10740101337432861,0.639281589537859,0.1381843537092209,0.9421337842941284,0.04432409256696701,-0.3021993041038513
354.0,-2.7495784759521484,-3.288472890853882,1.6155322790145874,2.2472102642059326,1.425863265991211,-1.336137294769287,0.9035135358572006,0.13191062211990356,0.6183719262480736,0.2074274867773056,0.8706764578819275,0.10335592180490494,-0.43383628129959106
355.0,0.06016096498465105,-1.3467383105763484,1.6956968652612223,-1.0486153839879475,-2.1482743663275095,-1.5231045951530542,0.8713697493076324,0.16946308314800262,0.6224722228944302,0.27958235144615173,0.8683327436447144,0.12555718421936035,-0.38995814323425293
356.0,0.09640430299780489,-1.3791129400992985,1.7429544904105212,-1.1083263462600486,-2.217569088702128,-1.4842438082407348,0.84819695353508,0.19054463505744934,0.6226006522774696,0.3246001601219177,0.867745578289032,0.13186484575271606,-0.3525110185146332
357.0,0.117625434584114,-1.4042653237197311,1.7742627463821004,-1.1475402458112796,-2.262832823753282,-1.4555604281167425,0.8314622938632965,0.2015083134174347,0.6260000560432673,0.35292482376098633,0.8675439357757568,0.13205519318580627,-0.3246120810508728
358.0,0.13442533790241334,-1.4192105054754733,1.8041505719170325,-1.1931051338569014,-2.2929384159491075,-1.4297455531576568,0.8198772817850113,0.2107909917831421,0.6210219673812389,0.3725985586643219,0.868756890296936,0.12859173119068146,-0.29982659220695496
359.0,0.15086465715248726,-1.4429617325778872,1.8345936783926335,-1.2357274178699373,-2.3301003770486903,-1.3992482113831166,0.8044693619012833,0.21816140413284302,0.6236405428498983,0.3948943316936493,0.8694695830345154,0.12272810935974121,-0.2702200710773468
360.0,0.1719740015704893,-1.4778617137723882,1.882561659084486,-1.3109782937403849,-2.3803421754373213,-1.351087428709185,0.7823714688420296,0.22651752829551697,0.6256312653422356,0.42349833250045776,0.8717374205589294,0.10767917335033417,-0.2216489613056183
361.0,0.18675995907021783,-1.5009462399359144,1.9185385282170209,-1.372206750336441,-2.413723767897108,-1.3125238055310633,0.7671323195099831,0.23227784037590027,0.6248286664485931,0.4412868618965149,0.8734047412872314,0.09289075434207916,-0.1838514506816864
362.0,0.19541360124824086,-1.5269892807322276,1.94843195360488,-1.4252487533839542,-2.4423711960888674,-1.282133180111517,0.7527070827782154,0.23350657522678375,0.6300481893122196,0.45423784852027893,0.8749096989631653,0.07738007605075836,-0.14904211461544037
363.0,0.1800782441618312,-1.5022388463528544,1.904928434340593,-1.3462420934287045,-2.409970101120945,-1.3254123740242436,0.7695973888039589,0.22770875692367554,0.633743979036808,0.4382616877555847,0.8723508715629578,0.0972522646188736,-0.19357866048812866
364.0,0.20276841701302878,-1.554187646124664,1.9774015273236203,-1.4806153787849872,-2.471313415162181,-1.2517094444949457,0.7385016418993473,0.23358945548534393,0.6371761336922646,0.4656595289707184,0.8757840991020203,0.05968612805008888,-0.11225404590368271
365.0,0.21571980780444122,-1.1874242213410813,1.7479021632075844,1.4483265508557774,2.4978151881676207,1.9316273586066444,0.7219662759453058,0.23763057589530945,0.6320495456457138,0.47365185618400574,0.8778676986694336,0.03358370438218117,-0.06224413216114044
366.0,0.23138533294410524,-1.3519390711346986,1.8381296253754007,1.0122989439743906,2.5450039487669915,1.9582105965529724,0.6438772231340408,0.22706346213817596,0.639273390173912,0.4358258545398712,0.8791100978851318,-0.08569300174713135,0.17285247147083282
367.0,0.2203182747988378,-1.2448260287942348,1.76672438195015,1.3275616264486276,2.541153068236901,1.9673656598453972,0.6968284579925239,0.23157162964344025,0.6496326811611652,0.4773460924625397,0.8783202767372131,-0.01258151140064001,0.023150071501731873
368.0,0.22478190958566135,-1.3008949896134188,1.7933032348832076,1.1689980892397729,2.5616995793082356,1.9761594319638591,0.6718876007944345,0.22740522027015686,0.6528156697750092,0.46390867233276367,0.8772129416465759,-0.057800017297267914,0.1092950627207756
369.0,0.22465430923166138,-1.339530813900679,1.8129332786427637,1.0718612920908055,2.558971028611739,1.9612064320679303,0.6556678153574467,0.22384357452392578,0.6541868224740028,0.44854018092155457,0.8768073320388794,-0.07890960574150085,0.15425264835357666
370.0,0.21478927572991224,-1.2503569984176168,1.7598101778748183,1.3394776544060751,2.5426519830772434,1.9580758636162177,0.6981501921545714,0.2275930941104889,0.6591262221336365,0.4780646860599518,0.8780270218849182,-0.010933072306215763,0.02007998526096344
371.0,0.2010595769651183,-1.1977244567688978,1.7317291255378788,1.4960035201886406,2.4976441843412003,1.903856337000806,0.7268118988722563,0.22733080387115479,0.655677817761898,0.47357821464538574,0.8758647441864014,0.04406815022230148,-0.08150234818458557
372.0,0.1831571524069747,-1.1608259710423319,1.7026801070332718,1.6010744208748784,2.4473741885758424,1.840797593848617,0.7524488903582096,0.2231924831867218,0.6543106697499752,0.45413652062416077,0.8730612993240356,0.08193375915288925,-0.157514750957489
373.0,-2.5344693660736084,-3.249034881591797,1.789543628692627,2.1087894439697266,1.090699315071106,-0.983812689781189,0.7823042124509811,0.21191208064556122,0.6584233492612839,0.41891351342201233,0.8689284920692444,0.11446529626846313,-0.23742884397506714
374.0,0.13679771426435527,-1.4671655771304262,1.812341251124373,-1.1865331941146287,-2.3409195106679372,-1.41512744510517,0.7994179949164391,0.2045009732246399,0.6583681553602219,0.3953324258327484,0.8670412302017212,0.1258021593093872,-0.2759087085723877
375.0,0.10724032351790867,-1.4297556126406041,1.7570605468375051,-1.1040683221845848,-2.276791894175962,-1.4650794879533615,0.8234950378537178,0.19012635946273804,0.6595522351562977,0.3555770218372345,0.865253210067749,0.1343352198600769,-0.3268882930278778
376.0,0.07256069296662644,-1.3968219021870367,1.7043170432128047,-1.0299107933542744,-2.2075019882151334,-1.5085916768314602,0.8458103239536285,0.17102974653244019,0.6631894558668137,0.3109346032142639,0.864899218082428,0.13330678641796112,-0.3708076775074005
377.0,0.04989318567435925,-1.380023281555494,1.675148234689529,-0.9899124585493356,-2.1636524949540292,-1.5312469191936284,0.8575289696455002,0.15775105357170105,0.6664114370942116,0.28240108489990234,0.8654506802558899,0.1283695101737976,-0.39340317249298096
378.0,0.02457922138273716,-1.3622936010360718,1.645420789718628,-0.9511111974716187,-2.117497444152832,-1.5527534484863281,0.8700706511735916,0.14221103489398956,0.6693518757820129,0.2518131136894226,0.8660337924957275,0.12059997767210007,-0.4147665500640869
379.0,0.006613246494892329,-1.02473484050699,1.5310250360948556,1.984054315335917,2.0778719916153214,1.5753956617377562,0.8802483081817627,0.13189251720905304,0.6645036488771439,0.227186918258667,0.8673912286758423,0.11217831820249557,-0.4282926321029663
380.0,-0.012692391969507584,-1.0132229271981186,1.5184522445024558,2.000354406744191,2.0416721510918223,1.5623800045608802,0.8901150226593018,0.11971144378185272,0.6615205034613609,0.2036140263080597,0.8683395385742188,0.1032455563545227,-0.44030460715293884
381.0,-0.05716072864803756,-0.9988237751142989,1.4974625853324526,2.0347441217484556,1.9615543771067454,1.536118520025701,0.9051125347614288,0.09066811949014664,0.6618252471089363,0.15105679631233215,0.8704878687858582,0.08009138703346252,-0.4615388512611389
