Sungjin-Park-dev/vision_inspection/data/output/3000/joint_trajectory_dp_20251102_024227.csv
time,ur20-shoulder_pan_joint,ur20-shoulder_lift_joint,ur20-elbow_joint,ur20-wrist_1_joint,ur20-wrist_2_joint,ur20-wrist_3_joint,target-POS_X,target-POS_Y,target-POS_Z,target-ROT_X,target-ROT_Y,target-ROT_Z,target-ROT_W
0.0,-0.17595554928230092,-1.2596469441968503,1.5527610064841366,-0.8665067915442057,-1.753370634136353,-1.6659568120854578,0.9365426301956177,0.009186002425849438,0.6302252523601055,0.875594973564148,0.008245212025940418,-0.48274409770965576,0.01495505589991808
1.0,-0.18817379995511208,-1.256977013029901,1.5519907851284207,-0.8659464040610072,-1.734501693570384,-1.6720637241426608,0.9379418790340424,0.000403735029976815,0.628023412078619,0.8755538463592529,0.0011610225774347782,-0.4831145703792572,0.0021041338331997395
2.0,-0.16372841397222512,-1.2585624161222009,1.5555374743996162,-0.8736054059993101,-1.7714390091284133,-1.6599566007083113,0.9371146857738495,0.017737645655870438,0.6274043172597885,0.8757303357124329,0.015126674436032772,-0.4817796051502228,0.027495741844177246
3.0,-0.1754243217216069,-1.256095585348732,1.5547152701194393,-0.8731686139899592,-1.7533330940421914,-1.6658436333214324,0.938499927520752,0.009341491386294365,0.6253973487764597,0.875867486000061,0.008361940272152424,-0.482240229845047,0.01518735010176897
4.0,-0.20166576543616466,-1.254975260842784,1.5534241761375318,-0.8687754222197289,-1.7137163982783596,-1.679193117390812,0.938854843378067,-0.009218530729413033,0.6248563956469297,0.8758753538131714,-0.006593028549104929,-0.4823438227176666,-0.011972105130553246
5.0,-0.21595006589940274,-1.2581397086732822,1.5526174875158327,-0.8626604451729339,-1.6931481066209637,-1.6865650858985157,0.9367943704128265,-0.019005348905920982,0.6283329222351313,0.8756880164146423,-0.014482525177299976,-0.48194220662117004,-0.026314718648791313
6.0,-0.2450268116014396,-1.2585394733836406,1.5552044223794794,-0.8616875957542781,-1.648308744113963,-1.7021577029414792,0.9355176389217377,-0.03905478119850159,0.6266827341169119,0.8751840591430664,-0.031088359653949738,-0.4794432818889618,-0.05674922466278076
7.0,-0.25707306504610306,-1.26050186515138,1.5577557673249387,-0.8623339482978902,-1.6303154933168669,-1.7090894078208194,0.933861494064331,-0.04716337472200394,0.6266860887408257,0.8751277923583984,-0.037669721990823746,-0.47745704650878906,-0.0690445750951767
8.0,-0.2693838145229047,-1.2646031839795515,1.5591910719223032,-0.8587441509474647,-1.6123124087863039,-1.7161027593704872,0.9309398829936981,-0.05515114963054657,0.6295833997428417,0.8747332692146301,-0.04430609196424484,-0.4756467044353485,-0.08148066699504852
9.0,-0.28551098556999466,-1.2668623919668858,1.5628563856822486,-0.8594291817646269,-1.588225903743498,-1.7256673671057527,0.9286682605743408,-0.06591498851776123,0.6291621178388596,0.8741856813430786,-0.05296798795461655,-0.47264817357063293,-0.09796684980392456
10.0,-0.29904002450368994,-1.2683424711938798,1.5677290097473482,-0.8633636127464914,-1.5667399777341906,-1.7342935339902037,0.926906168460846,-0.07476134598255157,0.6271432377398014,0.873863935470581,-0.0602944977581501,-0.4691631495952606,-0.11230460554361343
11.0,-0.32691388620981804,-1.276848351042824,1.5777312606131264,-0.8661838715630311,-1.5257273975089902,-1.7529528878905452,0.9199478328227997,-0.0923549234867096,0.6282792799174786,0.8729608058929443,-0.07417977601289749,-0.4612206220626831,-0.1404014378786087
12.0,-0.3469938608434557,-1.281016979264109,1.5869690167410284,-0.872712881464674,-1.495125327757284,-1.7675429059335357,0.915760725736618,-0.10501925647258759,0.6258758138865232,0.8721492290496826,-0.0838959664106369,-0.4542851150035858,-0.16106583178043365
13.0,-0.36966469478658437,-1.2897681095946374,1.598973261120096,-0.8792719772890926,-1.4620973902269758,-1.7855559533521392,0.9085969626903534,-0.11854743957519531,0.6258483342826366,0.8714691400527954,-0.09377225488424301,-0.4450000524520874,-0.18363960087299347
14.0,-0.3819421007766023,-1.2929188851255873,1.6063108066789564,-0.885263537102549,-1.4444496963404168,-1.795871153646686,0.9054037928581238,-0.12610873579978943,0.6237884685397148,0.8710265755653381,-0.09878842532634735,-0.4395875930786133,-0.19574560225009918
15.0,-0.3967253767245573,-1.2992316458625104,1.6144085582700722,-0.8887532695528444,-1.4221712241504672,-1.808847165991414,0.9002606570720673,-0.13445529341697693,0.6242111586034298,0.8702554702758789,-0.10480490326881409,-0.43271729350090027,-0.2107774317264557
16.0,-0.4108837267904451,-1.3082981516666112,1.6228248399991212,-0.8908234058539136,-1.401212503478195,-1.8222964591264235,0.8937000185251236,-0.14171500504016876,0.6268903631716967,0.8697448968887329,-0.10998542606830597,-0.425262987613678,-0.22494147717952728
17.0,-0.4326227810058347,-1.3198636326007094,1.6368186461056025,-0.8972065280132919,-1.3698533096960395,-1.8442077995106232,0.8846032023429871,-0.1531890332698822,0.6280688922852278,0.8688390851020813,-0.11713335663080215,-0.4132034480571747,-0.2462952435016632
18.0,-0.4492639927971743,-1.3279296700955627,1.6490753615518396,-0.9053141427725153,-1.3449061905981397,-1.8628265890467393,0.8780049383640289,-0.16181844472885132,0.6271666139364243,0.8682618737220764,-0.12193755805492401,-0.40262147784233093,-0.2629609704017639
19.0,-0.4649507058553471,-1.3368699584617243,1.6619161636894857,-0.9141486695926522,-1.3225239235068382,-1.881880889574272,0.8709185719490051,-0.1695881336927414,0.626559067517519,0.8680732846260071,-0.12545304000377655,-0.39165812730789185,-0.278054803609848
20.0,-0.4803833359435013,-1.3471010010911926,1.6736561076948149,-0.9196404473972047,-1.300155995765137,-1.9016041911988812,0.8632228225469589,-0.17665401101112366,0.6278715506196022,0.8676208257675171,-0.12854093313217163,-0.38057467341423035,-0.2930431365966797
21.0,-0.49671073799714865,-1.3559361935115917,1.6875599978723832,-0.9295989478669514,-1.276123677151052,-1.9243666182495949,0.8560127764940262,-0.18439117074012756,0.6264501623809338,0.8672928214073181,-0.13097897171974182,-0.3677031397819519,-0.30893704295158386
22.0,-0.5101911935910444,-1.3670774647770183,1.6993565712071894,-0.9354812811764313,-1.2559010174191771,-1.9451200910284254,0.8482223153114319,-0.18957751989364624,0.6283590663224459,0.8673179149627686,-0.13211314380168915,-0.3557863235473633,-0.322058767080307
23.0,-0.5404901652537588,-1.3878826357458727,1.7273619919634287,-0.9538631310828674,-1.2123082603824442,-1.9957764656465327,0.8323967605829239,-0.2019665241241455,0.6278045363724232,0.8674054145812988,-0.13233469426631927,-0.32759401202201843,-0.35039663314819336
24.0,-0.5534349753963308,-1.3951982072167288,1.741714232693231,-0.9674585731311448,-1.1942717232167228,-2.0202503054185907,0.826215386390686,-0.20751085877418518,0.6245141960680485,0.8679848313331604,-0.13086317479610443,-0.3138870596885681,-0.361873060464859
25.0,-0.5384740564012076,-1.381880234940955,1.7277098245924831,-0.9603553690798876,-1.217543275998519,-1.9916891518468995,0.8352731913328171,-0.2026458978652954,0.6223237477242947,0.867780864238739,-0.13206440210342407,-0.32984867691993713,-0.3474409878253937
26.0,-0.5236316297367539,-1.3732266666509778,1.7133327565412682,-0.9490635341723737,-1.2380399268411941,-1.9665846457430787,0.8424684703350067,-0.19613675773143768,0.6243611574172974,0.8676480054855347,-0.13230498135089874,-0.343698650598526,-0.3339964747428894
27.0,-0.5114847948688565,-1.3632107246552798,1.702812029338702,-0.9442050780318432,-1.2561848349801084,-1.9468819227279948,0.849519819021225,-0.19158872961997986,0.6225908286869526,0.867700457572937,-0.13177116215229034,-0.3547811210155487,-0.3222772777080536
28.0,-0.49281088803980816,-1.3491033906486418,1.686213297860767,-0.9345644878496372,-1.2841760028114046,-1.9184305837241522,0.8597144037485123,-0.18400771915912628,0.6212149746716022,0.8676856160163879,-0.13006600737571716,-0.37111860513687134,-0.3040979504585266
29.0,-0.49788462283307683,-1.3895190899943597,1.725612393525147,-1.0530117613679213,-1.293288458554299,-1.9687941522001327,0.8508071303367615,-0.18557624518871307,0.6262571141123772,0.8975061178207397,-0.10220524668693542,-0.31511974334716797,-0.29109519720077515
30.0,-0.5158464980800442,-1.386199867719619,1.7281009271285834,-1.0193713172028138,-1.2602315337605547,-1.9810973095086248,0.8445098251104355,-0.19361275434494019,0.6231250166893005,0.8862774968147278,-0.11371419578790665,-0.3195076286792755,-0.3154301345348358
31.0,-0.5495984834758124,-1.3872789731509525,1.739644025343608,-0.9718432237883791,-1.2025512730168555,-2.0118334232800232,0.8302782475948334,-0.20773983001708984,0.619055986404419,0.8681289553642273,-0.13113126158714294,-0.31871846318244934,-0.3571767807006836
32.0,-0.5625297239255354,-1.398842519449249,1.7528661444186804,-0.9800918389137233,-1.1830530020085908,-2.0378682444847827,0.822311744093895,-0.21186786890029907,0.6201766617596149,0.8686349987983704,-0.12924908101558685,-0.3041316270828247,-0.3691502511501312
33.0,-0.5749358692107189,-1.4079016686661865,1.7662339217894705,-0.9906353323950213,-1.1655306444581395,-2.06371752872532,0.8154162019491196,-0.21635743975639343,0.6190168485045433,0.8691954612731934,-0.12674765288829803,-0.2899594306945801,-0.37994450330734253
34.0,-0.5938813677355039,-1.4230668092760803,1.785781694858173,-1.0037264378510429,-1.1382480083974558,-2.1059486870636133,0.8043561354279518,-0.22252464294433594,0.618906419724226,0.8698449730873108,-0.12179873138666153,-0.26731985807418823,-0.39632681012153625
35.0,-0.6149369271029465,-1.4420890960230954,1.8100824151008816,-1.0220015124615336,-1.1071803180514277,-2.1593452295255964,0.7911893874406815,-0.22825631499290466,0.6186331808567047,0.8713609576225281,-0.11316706985235214,-0.23840099573135376,-0.41362816095352173
36.0,-0.6371138866844568,-1.4642304942957933,1.8349861996328394,-1.038104959515729,-1.0736278331834208,-2.2214513837171372,0.7766124233603477,-0.23313546180725098,0.6203270107507706,0.8727481961250305,-0.10149048268795013,-0.20550166070461273,-0.4310215413570404
37.0,-0.6519070162143514,-1.4804268426915261,1.851910649356258,-1.048600122557148,-1.050277251918861,-2.267339687044515,0.766501359641552,-0.2356199026107788,0.6222372762858868,0.873711347579956,-0.09172231703996658,-0.18132157623767853,-0.44197067618370056
38.0,-0.6700086277468812,-1.5000655090773756,1.875008422768955,-1.0665080777839817,-1.022950300005167,-2.326868249483871,0.7540708258748055,-0.2384556233882904,0.622577678412199,0.8753235936164856,-0.07754367589950562,-0.14978060126304626,-0.45316818356513977
39.0,-0.6832218402776432,-1.5145046449332127,1.8915197058775386,-1.0787275978499187,-1.003094842035592,-2.3722419075074184,0.7450191378593445,-0.24029675126075745,0.6230219453573227,0.8762105107307434,-0.06625288724899292,-0.12608952820301056,-0.4603988826274872
40.0,-0.6973525966008612,-1.5283556556430353,1.9094850880551655,-1.0934726448738494,-0.9826937315414477,-2.4216223074195673,0.7359242513775826,-0.2426479160785675,0.6219982728362083,0.8769448399543762,-0.05354844406247139,-0.10057881474494934,-0.46688783168792725
41.0,-0.710245319142815,-1.5407958529424393,1.9287935710965864,-1.1138306185112663,-0.9651443829237507,-2.467582930917408,0.7276001758873463,-0.2447461485862732,0.6188699454069138,0.8781769275665283,-0.04066453129053116,-0.07589572668075562,-0.47052261233329773
42.0,-0.7041660593906784,-1.5940964582886248,1.9700139348708656,-1.2730931227174138,-1.0105458127985045,-2.4360246756701205,0.7172474730759859,-0.23794493079185486,0.6290072277188301,0.9114351868629456,-0.018108408898115158,-0.04034770280122757,-0.4090602993965149
43.0,-0.661894175955091,-1.669969219945477,2.031988252657451,-1.5545323703495453,-1.1607527277074807,-2.3049242990961845,0.7071307459846139,-0.21817079186439514,0.6456478759646416,0.9623511433601379,-0.0035305568017065525,-0.01251440029591322,-0.27149808406829834
44.0,-0.5848664738682938,-1.7040062527831208,2.069587675037173,-1.784757913151236,-1.3848374063593216,-2.167155002086304,0.7108917534351349,-0.19542965292930603,0.6561978533864021,0.9928447604179382,-0.0013269439805299044,-0.011081278324127197,-0.11888965219259262
45.0,-0.5706189689991674,-1.7174422017857582,2.090541994278607,-1.8588294494747226,-1.4469158315345971,-2.1463739917661218,0.7065565469674766,-0.1920023113489151,0.657335426658392,0.9971832036972046,-0.00015967976651154459,-0.0021237614564597607,-0.07497546076774597
46.0,-0.5679937965474614,-1.7072780430185777,2.080685786833725,-1.8492121068765437,-1.4431836206777335,-2.143991528363741,0.7132184160873294,-0.19340018928050995,0.6569964848458767,0.9968442320823669,-0.00043485156493261456,-0.005473671946674585,-0.07919351011514664
47.0,-0.5648958204252494,-1.7038207166482717,2.0806707649061074,-1.8663098394231854,-1.4647521072954641,-2.139233017296694,0.7156563717871904,-0.19627052545547485,0.6566590890288353,0.9977712035179138,-0.0003882191958837211,-0.005827366840094328,-0.06647151708602905
48.0,-0.5706417061375821,-1.712079110640023,2.088412004023703,-1.869825165167855,-1.464108109005693,-2.145096195912032,0.7093148566782475,-0.1969229280948639,0.656638078391552,0.9978338479995728,-0.00023524196876678616,-0.003573461202904582,-0.06568767130374908
49.0,-0.5792149806701705,-1.7243927560085999,2.1005329241523514,-1.8788736132375765,-1.4665836181377372,-2.1535831568629016,0.6999197473051026,-0.19842705130577087,0.6565345488488674,0.9980661273002625,1.0363180081185419e-05,0.00016639255045447499,-0.062161076813936234
50.0,-0.5832606097888177,-1.731702842407087,2.105018688027197,-1.8698640381591654,-1.450721984779513,-2.1588430858720424,0.6950530791655183,-0.19566550850868225,0.6568208038806915,0.9975130558013916,0.00016016078006941825,0.0022678724490106106,-0.0704459622502327
51.0,-0.5711521566316982,-1.7313908248817746,2.1039263538126467,-1.8736723980482755,-1.4563719074912689,-2.146179889730113,0.69792893785052,-0.18862284719944,0.657970204949379,0.9977602958679199,0.00011977392568951473,0.0017872210592031479,-0.06686675548553467
52.0,-0.6167228822892823,-1.73043842144721,2.095985751730113,-1.7875510463166733,-1.3285259356801498,-2.2088291040275037,0.691459946334362,-0.19845889508724213,0.6551035456359386,0.9899657368659973,0.0015662341611459851,0.01100676879286766,-0.14086951315402985
53.0,-0.5797081133873315,-1.7430683880521711,2.114448608579163,-1.876430826654449,-1.4525687465794517,-2.155080307341557,0.6890995521098375,-0.18918296694755554,0.6577363237738609,0.9977157711982727,0.0003409497148822993,0.005049934610724449,-0.06736145168542862
54.0,-0.6148947278827354,-1.7490432446200992,2.115337105401438,-1.8248895028450616,-1.3545672518502567,-2.2021706636074385,0.6814671661704779,-0.19467222690582275,0.6560576930642128,0.9926135540008545,0.0021286490373313427,0.01760522462427616,-0.12001699209213257
55.0,-0.5866836231806156,-1.7578963560556526,2.127774391575572,-1.883425557777574,-1.452859474246992,-2.162028797328165,0.6787469647824764,-0.18804500997066498,0.6577380076050758,0.9978541731834412,0.0005828209104947746,0.008967122994363308,-0.06485583633184433
56.0,-0.5938403350907393,-1.7670242660476358,2.1355996552362204,-1.8844295942604212,-1.4485511647879459,-2.169536889992003,0.671948442235589,-0.18843184411525726,0.6575510166585445,0.9977571368217468,0.0007667752215638757,0.011605792678892612,-0.06592012941837311
57.0,-0.6126419655529011,-1.776234059427652,2.141988418257688,-1.8671776378085796,-1.3917621281132486,-2.194091898062879,0.6656604520976543,-0.1885976642370224,0.6570405624806881,0.9953994154930115,0.002202040981501341,0.023611444979906082,-0.0928325429558754
58.0,-0.6418105788805326,-1.7600135746211618,2.1234230225614157,-1.7924836864599953,-1.2960897562259153,-2.240801073347363,0.6706098429858685,-0.19800207018852234,0.6543625257909298,0.9881343841552734,0.004235471598803997,0.027714580297470093,-0.15101128816604614
59.0,-0.7185766145116392,-1.7249771335517534,2.0945700479543667,-1.586717906573516,-1.0662523134948878,-2.415150370536906,0.6705384682863951,-0.22030729055404663,0.6429560407996178,0.9541218876838684,0.016086429357528687,0.052133526653051376,-0.29440584778785706
60.0,-0.6903398829455222,-1.7215475651880554,2.0878323614891756,-1.6320337219396301,-1.1309422861881793,-2.349002415552137,0.6794244237244129,-0.2152380347251892,0.6465292274951935,0.9651088118553162,0.009250050410628319,0.03441345691680908,-0.2594131529331207
61.0,-0.7086795614162366,-1.6894707535085713,2.060066275383971,-1.5249140913486543,-1.058403901117531,-2.411607805477848,0.6875538546591997,-0.22501224279403687,0.6408917270600796,0.9478563070297241,0.010210003703832626,0.03052213042974472,-0.31706881523132324
62.0,-0.7406700491754432,-1.6207658566644412,2.0061891680434365,-1.2726625719964737,-0.9423567385051036,-2.556646057481529,0.6963791474699974,-0.24145004153251648,0.6258844248950481,0.9019727110862732,0.00675622932612896,0.014122378081083298,-0.4315091073513031
63.0,-0.7776649715326679,-1.6340432457547174,2.031208420703655,-1.2167504428286562,-0.8605032565445996,-2.723235142648777,0.677681602537632,-0.24399706721305847,0.6204844862222672,0.8807259798049927,0.037163931876420975,0.07009831070899963,-0.46693339943885803
64.0,-0.7878855223731464,-1.6538431164833869,2.0480678643540906,-1.2353229550130562,-0.8411466987676302,-2.7620492286411213,0.669187642633915,-0.2417324334383011,0.6235140226781368,0.8805084228515625,0.05009401589632034,0.0955573320388794,-0.46158888936042786
65.0,-0.8022458569032799,-1.6797362394002058,2.0737346523791693,-1.267295444112152,-0.8178812841198492,-2.8071606184168383,0.6575142964720726,-0.2390957474708557,0.6248385515064001,0.8805358409881592,0.06554201990365982,0.12776514887809753,-0.4517045319080353
66.0,-0.8262687790501081,-1.72048221745793,2.1196740853558906,-1.3285277271330935,-0.7880038383245813,-2.8606218609265124,0.6378337517380714,-0.23500660061836243,0.622468538582325,0.8814072608947754,0.08446036279201508,0.17250651121139526,-0.4315430521965027
67.0,-0.8398003553794796,-1.749076847352952,2.146660579276887,-1.3662498307634696,-0.7665138944237899,-2.8875484038711914,0.6260605603456497,-0.23061445355415344,0.6240592375397682,0.8813790678977966,0.09482286870479584,0.20032742619514465,-0.4171914756298065
68.0,-0.8487854236951113,-1.769397860350775,2.1669746175305824,-1.396724490813449,-0.7537105858802401,-2.898942501456276,0.6176986917853355,-0.22705702483654022,0.6242232657968998,0.8818903565406799,0.10020806640386581,0.21765419840812683,-0.4060226380825043
69.0,-0.8593426337620652,-1.7953821701155979,2.1910726405687995,-1.433903430391522,-0.7370644701464462,-2.909698198406388,0.6076850444078445,-0.22210192680358887,0.6255477778613567,0.8822013139724731,0.10599430650472641,0.23864033818244934,-0.39183780550956726
70.0,-0.8724829470310942,-1.8270294631822352,2.2218984411346803,-1.4837060639191606,-0.7185540668384213,-2.9156693632010775,0.5953877791762352,-0.21600180864334106,0.6259926371276379,0.8827968835830688,0.11101547628641129,0.2624077796936035,-0.3734802305698395
71.0,-0.888079723456789,-1.8757631510305148,2.2669027653035383,-1.564145646647017,-0.6944900897642916,-2.9045070306377854,0.5781794786453247,-0.2045104056596756,0.6279630195349455,0.8842645883560181,0.11440011858940125,0.29327353835105896,-0.3449338376522064
72.0,-0.8809609940595011,-1.8607311114803518,2.2491383455624416,-1.5346067009168218,-0.6995291959308235,-2.9088229835470676,0.584814578294754,-0.20746882259845734,0.6302029732614756,0.8833499550819397,0.11417512595653534,0.2843632996082306,-0.35467514395713806
73.0,-0.8935548043096515,-1.9008915128246011,2.2859624912642293,-1.6029036411684645,-0.6808462694819475,-2.893655704663124,0.5708199143409729,-0.19779130816459656,0.6318403780460358,0.8843055367469788,0.11544294655323029,0.30849331617355347,-0.3309207260608673
74.0,-0.8977067516472033,-1.9262498568035682,2.3077422383118336,-1.6521877323807441,-0.6702637301442733,-2.872348475599698,0.5635160207748413,-0.19039702415466309,0.634458027780056,0.8851755857467651,0.11479933559894562,0.32233428955078125,-0.3152552545070648
75.0,-0.9009383800928278,-1.948872534395575,2.326529522273866,-1.6957337026228751,-0.6618857034748271,-2.85101528936543,0.5570138692855835,-0.18350158631801605,0.6370666921138763,0.8857852816581726,0.1136927455663681,0.33390843868255615,-0.30160167813301086
76.0,-0.9042173022042941,-1.969481675438021,2.3445398136166182,-1.7376105510778366,-0.6555198629786474,-2.8295059368081255,0.5507847964763641,-0.17720527946949005,0.6387941390275955,0.8863580822944641,0.11211761832237244,0.34404245018959045,-0.2888491451740265
77.0,-0.9075997725406671,-2.004556306701792,2.378531301441623,-1.8243808183875263,-0.6499919733643764,-2.7785064045420778,0.5402209162712097,-0.16547508537769318,0.6404288895428181,0.8881982564926147,0.10725525766611099,0.3599255084991455,-0.2646767795085907
78.0,-0.9110568435866468,-2.0209758907287063,2.39797262321752,-1.8666171490712964,-0.6517192997480148,-2.754748463956215,0.5337893217802048,-0.16005530953407288,0.6379616409540176,0.8896437883377075,0.10398273915052414,0.36568984389305115,-0.25296735763549805
79.0,-0.9112980082165569,-2.0559837829439,2.433944609723887,-1.9650587808056332,-0.654304036400291,-2.690136162208741,0.52279332280159,-0.14644645154476166,0.63860634714365,0.891578197479248,0.09670401364564896,0.3797065019607544,-0.2270679771900177
80.0,-0.9088126193365238,-2.0729667468648305,2.4526956689339117,-2.021442199051676,-0.6596380453469343,-2.650409291854939,0.5174868106842041,-0.13868996500968933,0.6387366130948067,0.8928408622741699,0.09208955615758896,0.38597407937049866,-0.21302290260791779
81.0,-0.9065390332207539,-2.08822046157816,2.4700093565500834,-2.071778130909731,-0.666351232670677,-2.6148438551874285,0.5122909843921661,-0.13150997459888458,0.6382040269672871,0.8939719200134277,0.08764923363924026,0.39115801453590393,-0.2003178596496582
82.0,-0.9006328446046528,-2.103172824293442,2.484558565045382,-2.1268196448771635,-0.6727605817855327,-2.5726517545834784,0.508247435092926,-0.1233992874622345,0.6407641693949699,0.8943774700164795,0.0832080990076065,0.3976750075817108,-0.18713633716106415
83.0,-0.9009244187625491,-2.0915029041138453,2.468861751523161,-2.088324102147152,-0.6645178499353431,-2.5979824264795424,0.513319581747055,-0.12872691452503204,0.6435912325978279,0.8931493163108826,0.08717866986989975,0.39466556906700134,-0.19729003310203552
84.0,-0.8916237160274051,-2.111790078070351,2.4926087898531253,-2.1738877430563557,-0.6794217550918104,-2.533643569223397,0.506916344165802,-0.11683900654315948,0.6449094042181969,0.894477128982544,0.07970760017633438,0.4027685821056366,-0.17701636254787445
85.0,-0.8815781556696455,-2.1244627520480552,2.5092616379761115,-2.2398834306319504,-0.6950479084655475,-2.482777156595438,0.5027225315570831,-0.10766347497701645,0.6458139270544052,0.8955044746398926,0.07368935644626617,0.408026784658432,-0.16172748804092407
86.0,-0.8701530954743986,-2.138079684779624,2.5282139674069324,-2.3090657515961235,-0.7158606898264325,-2.429805099862483,0.49733561277389526,-0.0973358005285263,0.6453029364347458,0.8966529369354248,0.06680373102426529,0.4129263460636139,-0.14506161212921143
87.0,-0.8462892918160075,-2.1480803455949973,2.544424707108518,-2.4010663361431863,-0.7476007292399293,-2.3546880629972664,0.49399955570697784,-0.08414459973573685,0.649089653044939,0.8972475528717041,0.0581616647541523,0.4196423292160034,-0.12435688078403473
88.0,-0.8332406069838073,-2.1533709991339394,2.555942167264072,-2.44941398879024,-0.770086422800384,-2.3169078317086624,0.4909985065460205,-0.07677657902240753,0.6481412127614021,0.8981111645698547,0.05283163860440254,0.42184558510780334,-0.11247879266738892
89.0,-0.8182306283824966,-2.158696432857409,2.567930171249506,-2.498283162898493,-0.7958464770555524,-2.278377524454385,0.48760926723480225,-0.06870917230844498,0.6467688754200935,0.8989397883415222,0.0471833273768425,0.42387256026268005,-0.10006537288427353
90.0,-0.7897995447356191,-2.1609348967420745,2.5790745251748683,-2.5694704934184336,-0.837247808018226,-2.2192347118777818,0.48525702953338623,-0.05728807672858238,0.6481419205665588,0.8994538187980652,0.039212971925735474,0.4273567497730255,-0.0825311690568924
91.0,-0.7699169257996827,-2.1620585752272024,2.5894975918656744,-2.615064896512411,-0.8706383281712594,-2.1830565990566972,0.48255637288093567,-0.04940924420952797,0.6457817666232586,0.900442361831665,0.033305227756500244,0.4280008375644684,-0.07006864994764328
92.0,-0.7520467956873806,-2.1629116215261956,2.598562582478734,-2.6511206963211964,-0.900338162880504,-2.1541845414296015,0.4799651503562927,-0.04245893657207489,0.64313755184412,0.9012948274612427,0.028402704745531082,0.42811861634254456,-0.05979466810822487
93.0,-0.7261277561283225,-2.16158720038402,2.605450020561546,-2.695892739094516,-0.9384116405555727,-2.1160401849800294,0.47820837795734406,-0.0338592529296875,0.6429030448198318,0.9015441536903381,0.022544441744685173,0.42950060963630676,-0.04732196033000946
94.0,-0.6530258338067442,-2.149310009959563,2.6163936159280996,-2.7944455636213057,-1.0436383803167557,-2.0288222587682307,0.4764269292354584,-0.013658551499247551,0.6422845460474491,0.9023115038871765,0.008427134715020657,0.43064069747924805,-0.01765717938542366
95.0,-0.6083883171368929,-2.140060060723186,2.618763618183312,-2.842308496789488,-1.1055583429585285,-1.9835590352123678,0.47626909613609314,-0.0024191683623939753,0.6433895155787468,0.9020115733146667,0.0009240580257028341,0.43170657753944397,-0.001930735190398991
96.0,-0.5734901236533719,-2.1314471443596084,2.622075128037654,-2.874580859840358,-1.155668671325129,-1.9529786411640937,0.47582390904426575,0.006028285715728998,0.6416819393634796,0.902440071105957,-0.004714996553957462,0.4306763708591461,0.009879814460873604
97.0,-0.538254425615231,-2.1219970994413013,2.624908584410006,-2.903955276189491,-1.2063229484065885,-1.9243817295761578,0.4754696935415268,0.014276094734668732,0.6397292204201221,0.9028195142745972,-0.010195916518568993,0.4293641746044159,0.0214388445019722
98.0,-0.46352055962418365,-2.099960766064367,2.623913503370417,-2.9569813087850227,-1.3125343044448254,-1.867538864219825,0.47666968405246735,0.03050844743847847,0.6397064551711082,0.9022874236106873,-0.02141602337360382,0.42823195457458496,0.045123688876628876
99.0,-0.39421854036334786,-2.076242690514603,2.6209804366280247,-2.995071324086032,-1.4117054974206975,-1.8209028738557973,0.478792741894722,0.044997796416282654,0.6385128274559975,0.9020839333534241,-0.031196095049381256,0.4253157675266266,0.06616612523794174
100.0,-0.3545869473637174,-2.062125615027854,2.6147289881184634,-3.0122957282835223,-1.4678076997325749,-1.7947959629974803,0.4814643859863281,0.05299392342567444,0.6407742649316788,0.9011740684509277,-0.036746758967638016,0.4248036742210388,0.07795418053865433
101.0,-0.42321563057245176,-2.086357410977869,2.6174265614847667,-2.978807384408695,-1.3683836026538478,-1.838742057592835,0.47953087091445923,0.03847312927246094,0.6430064663290977,0.9013826251029968,-0.027095720171928406,0.42839834094047546,0.05701145529747009
102.0,-0.3821448917981903,-2.0720700787324184,2.6115080502928003,-2.9983807422562503,-1.426368729207876,-1.8111504327415773,0.48218686878681183,0.046768296509981155,0.6452241763472557,0.9005889892578125,-0.03287911415100098,0.4278656840324402,0.06920529156923294
103.0,-0.3407167837739555,-2.0573385713388173,2.6053828544051343,-3.015666748153182,-1.4868975684351313,-1.7844775863165923,0.48476865887641907,0.05510654300451279,0.647112850099802,0.8996819257736206,-0.03900478407740593,0.4269613027572632,0.0821898877620697
104.0,-0.2882722481766045,-2.0376254390658968,2.596426886541096,-3.033179869916021,-1.5650811242435596,-1.7520384937443165,0.48853057622909546,0.06570571660995483,0.6493893414735794,0.898441731929779,-0.04687673971056938,0.42519888281822205,0.09905016422271729
105.0,-0.22853360158956712,-2.013078712005551,2.5876675275229832,-3.0477345805964835,-1.6550674158012957,-1.7166875967987378,0.4927135407924652,0.07842749357223511,0.6490404233336449,0.8976105451583862,-0.055493757128715515,0.420968621969223,0.1183265894651413
106.0,-0.17457106542318265,-1.9903386750908236,2.5758040516604006,-3.054825056177218,-1.7405305015936465,-1.6844345080562908,0.4975789338350296,0.08987928926944733,0.6508075073361397,0.8959795832633972,-0.06413798034191132,0.41730520129203796,0.1377081423997879
107.0,-0.13168154110066688,-1.970084240348044,2.5678422848511535,-3.0564102044482637,-1.8083295531454944,-1.6587620703566048,0.501526489853859,0.09970441460609436,0.6493191048502922,0.8953835368156433,-0.07047571241855621,0.41216740012168884,0.1530999392271042
108.0,-0.09854257577431397,-1.9539686744397349,2.55958620727137,-3.0543399720769115,-1.8620330548070398,-1.6381570719103464,0.5053317248821259,0.10750013589859009,0.6491230726242065,0.8945423364639282,-0.07562483102083206,0.4081741273403168,0.16573715209960938
109.0,-0.07108904993247749,-1.9407706804329723,2.548611702568994,-3.0488016508921447,-1.9096296070579157,-1.6203838275129943,0.5098022520542145,0.11378926038742065,0.6517692171037197,0.8930369019508362,-0.08067077398300171,0.4054745137691498,0.17767325043678284
110.0,-0.10867201233237804,-1.9594750898268753,2.555145966224304,-3.052479276721775,-1.8471693503524953,-1.6441555017568674,0.5065954029560089,0.10456885397434235,0.6546510681509972,0.8936729431152344,-0.07483622431755066,0.41150254011154175,0.16252419352531433
111.0,-0.17016270329264818,-1.988799360927263,2.5680363156190937,-3.0527180758292083,-1.7483171403543298,-1.6811733139266716,0.5003483593463898,0.09032639861106873,0.6561652272939682,0.8947639465332031,-0.0654364600777626,0.41903746128082275,0.13972541689872742
112.0,-0.14120834773677446,-1.9752773945948272,2.5594431594415123,-3.0526312792084145,-1.7946104890730274,-1.6637776084359692,0.5042115449905396,0.09675359725952148,0.6576179526746273,0.8938892483711243,-0.07003006339073181,0.41649457812309265,0.15029996633529663
113.0,-0.17629134877054392,-1.991902913259832,2.5628605106999975,-3.050088636650411,-1.739308609065754,-1.6841702983726816,0.5019680857658386,0.08845748007297516,0.6612215861678123,0.8938344717025757,-0.06506706029176712,0.42166611552238464,0.1379270851612091
114.0,-0.11619516056393178,-1.9636644303282156,2.5486653658193656,-3.0497938373353204,-1.836972477646765,-1.6483389938923978,0.5086115151643753,0.10213568806648254,0.6611923202872276,0.8924991488456726,-0.07462058961391449,0.41485658288002014,0.16053453087806702
115.0,-0.07934933857802778,-1.9458549065610327,2.5371419321736255,-3.044770059915328,-1.9000639726830135,-1.625252415518788,0.5135585069656372,0.11074776947498322,0.6625024527311325,0.8910123705863953,-0.08110291510820389,0.4105292856693268,0.17602567374706268
116.0,-0.04122771949154771,-1.925887169361685,2.5225893495872094,-3.0338418708016337,-1.9667197851331126,-1.6001282344821892,0.5201152861118317,0.12015761435031891,0.6642388477921486,0.8894055485725403,-0.08784472197294235,0.4050012528896332,0.19291196763515472
117.0,-0.06774876005524395,-1.9403811596890839,2.5280927622497984,-3.0405148736284806,-1.922026441722272,-1.6175924435755065,0.5170025825500488,0.1131727397441864,0.6669579148292542,0.889584481716156,-0.083900086581707,0.4105488657951355,0.18179619312286377
118.0,-0.1062191385191151,-1.9591892609646042,2.540401711891979,-3.0467634201013576,-1.8554510079452473,-1.6419206119012235,0.5117100179195404,0.10400345176458359,0.6656144186854362,0.8912543654441833,-0.0770137682557106,0.4152206778526306,0.1653069108724594
119.0,-0.14942541658570596,-1.9795468976810835,2.5522542755332425,-3.0493997121759504,-1.7827939325351234,-1.6679873739343718,0.5064752995967865,0.0941837877035141,0.664694257080555,0.8926002383232117,-0.06963348388671875,0.4201570749282837,0.14793246984481812
120.0,-0.21208603244433413,-2.0072899301243794,2.56338005080897,-3.0434885060220163,-1.6825067011003303,-1.7044228507286672,0.5011869370937347,0.08009383082389832,0.6659213453531265,0.8937492966651917,-0.059797465801239014,0.42654111981391907,0.12529610097408295
121.0,-0.26150168461117584,-2.027402406100678,2.570184951904981,-3.033413091921993,-1.6044239393676354,-1.7327973629905302,0.49799151718616486,0.0694260448217392,0.6668808236718178,0.8944830298423767,-0.05200967937707901,0.4307319223880768,0.10800635069608688
122.0,-0.30392081020399,-2.0440192415054232,2.5751051993257286,-3.0218441273204797,-1.538810247322738,-1.7572152186788348,0.495462566614151,0.06043017655611038,0.6678057238459587,0.8948174118995667,-0.045520178973674774,0.4340789020061493,0.09383604675531387
123.0,-0.3515782405456221,-2.0609077749965756,2.576563192519382,-3.003480310139329,-1.4654446690411507,-1.785089460604105,0.49434322118759155,0.05004505813121796,0.6706298813223839,0.8949569463729858,-0.03816938027739525,0.43760913610458374,0.07806041091680527
124.0,-0.4029192492666669,-2.0782498001701657,2.5830084001636187,-2.981206217357102,-1.3879177871717387,-1.817562266778019,0.4914824366569519,0.039512306451797485,0.6689781844615936,0.895845890045166,-0.03001534566283226,0.43910056352615356,0.06123681738972664
125.0,-0.513492321585662,-2.111013459063372,2.5877308549179676,-2.9148350754256924,-1.2231626831436726,-1.8946765775149048,0.4884626865386963,0.01563921384513378,0.6688140258193016,0.8966258764266968,-0.012263513170182705,0.4419191777706146,0.024881890043616295
126.0,-0.5586604728170841,-2.1223342956096047,2.5857343481768993,-2.8795479993134534,-1.1551232766942996,-1.930230992660768,0.4884796738624573,0.005174956284463406,0.6702925711870193,0.8963620662689209,-0.0045214868150651455,0.4432055950164795,0.009144490584731102
127.0,-0.5944979236850666,-2.130759719387616,2.585625619831453,-2.8482134014962224,-1.1031655117496402,-1.9617503798478058,0.48793888092041016,-0.003303679171949625,0.6695427149534225,0.8964667320251465,0.0015553899575024843,0.4430971145629883,-0.0031468395609408617
128.0,-0.6382514304967155,-2.138194356954986,2.578536541625578,-2.800273575111245,-1.0346182957279624,-2.004430142823431,0.4898031949996948,-0.014936448074877262,0.6722368896007538,0.8959312438964844,0.010378227569162846,0.44357654452323914,-0.020961834117770195
129.0,-0.6693699047021237,-2.143112327038363,2.574325049256333,-2.7619745858581353,-0.9869820909766238,-2.0387500188574577,0.49063894152641296,-0.02344486489892006,0.672783374786377,0.8956103324890137,0.016780788078904152,0.4432279169559479,-0.0339081697165966
130.0,-0.693771641151571,-2.147254221583505,2.5643910582168954,-2.7081910194664025,-0.951364116278134,-2.075096957857297,0.49255919456481934,-0.03171062469482422,0.6744118928909302,0.8974869251251221,0.022610466927289963,0.43801796436309814,-0.04632823169231415
131.0,-0.7299590493161024,-2.148964219680098,2.5619487031554455,-2.6677682960724054,-0.8928062889936722,-2.119901005204798,0.49349698424339294,-0.0420043058693409,0.6732528954744339,0.894913911819458,0.030834125354886055,0.4407479465007782,-0.06260696798563004
132.0,-0.7332606768045163,-2.1478554184095553,2.5249741262625647,-2.543123362311207,-0.8987095488182355,-2.167938501965292,0.5010964125394821,-0.051563456654548645,0.6797152608633041,0.9070536494255066,0.035089556127786636,0.4123905599117279,-0.07717952132225037
133.0,-0.7318491834903387,-2.1361903911337943,2.480065163481344,-2.413661333877003,-0.9190650486204983,-2.21241640918354,0.5114009827375412,-0.06337757408618927,0.6869968101382256,0.9206714034080505,0.03756120055913925,0.37757787108421326,-0.09158779680728912
134.0,-0.7550427846171501,-2.131344934442169,2.471761463481901,-2.368358732571983,-0.8805798414604266,-2.254867567370532,0.5138963758945465,-0.07269549369812012,0.6866332218050957,0.9187057018280029,0.04408795014023781,0.3775255084037781,-0.10728772729635239
135.0,-0.752435090843353,-2.117518921526156,2.4433076084367378,-2.300351527638533,-0.897938932141701,-2.2760365496473245,0.5214686691761017,-0.08111754804849625,0.691044420003891,0.9260733723640442,0.04435495659708977,0.3565830588340759,-0.1151931956410408
136.0,-0.7892152173714293,-2.1014563095017924,2.4258394052599828,-2.2169759595871894,-0.8306063062197603,-2.357588471095107,0.527592271566391,-0.0985531359910965,0.6898017376661301,0.9203208088874817,0.056831806898117065,0.35845327377319336,-0.14591440558433533
137.0,-0.8369610808340912,-2.0993097728573207,2.438875604045421,-2.1843417362410515,-0.7271539970773656,-2.4472350061711627,0.525217592716217,-0.11013475060462952,0.6823292151093483,0.9025179743766785,0.07373930513858795,0.3880953788757324,-0.1714811772108078
138.0,-0.8348690660514945,-2.1170144330607394,2.4688113227900934,-2.2673013300387876,-0.7254728051797275,-2.404881718377566,0.5170384049415588,-0.09949466586112976,0.6792525500059128,0.8985154628753662,0.06999624520540237,0.40446436405181885,-0.155496284365654
139.0,-0.8634295490976766,-2.110606367304226,2.469399750059527,-2.218306938516096,-0.6678721167718098,-2.475723166042886,0.51724573969841,-0.10925642400979996,0.6736009418964386,0.8889569044113159,0.08122329413890839,0.4159662425518036,-0.17358142137527466
140.0,-0.8734069405494175,-2.0954497786293818,2.4495838998641113,-2.1385821425268032,-0.6515225643428578,-2.535983778477731,0.5224815160036087,-0.11958517134189606,0.6719981506466866,0.8879969120025635,0.0881291851401329,0.40869084000587463,-0.1914857178926468
141.0,-0.8767714386025548,-2.0817909311724105,2.4302368300574675,-2.077584904481269,-0.6403949243352808,-2.5783011249789762,0.5279777646064758,-0.12681865692138672,0.6734573021531105,0.8867117762565613,0.09359938651323318,0.4032670855522156,-0.20580820739269257
142.0,-0.8673491364001534,-2.064357799108438,2.399901489897858,-2.0181479329311434,-0.655219270757949,-2.594502886346197,0.5366835445165634,-0.13285492360591888,0.6798139363527298,0.8909665942192078,0.09456729143857956,0.38712531328201294,-0.2176460474729538
143.0,-0.8790421498070359,-2.049775411923299,2.386364250004694,-1.9507675410935197,-0.6229495107629659,-2.6628905622913073,0.5406467616558075,-0.14117009937763214,0.6775979921221733,0.8834803104400635,0.10442638397216797,0.3910037577152252,-0.23595336079597473
144.0,-0.8798128263788163,-2.027604810576829,2.361041627398757,-1.8739149839608604,-0.6194961589756396,-2.7140081469684367,0.5479581505060196,-0.15007278323173523,0.6770384013652802,0.8821069598197937,0.10984744876623154,0.38095149397850037,-0.2543557286262512
145.0,-0.8776169703651044,-1.9958170973553468,2.3250421429079986,-1.774962082531299,-0.6190049863420313,-2.7754828134831815,0.5586433112621307,-0.16126814484596252,0.6773125529289246,0.879970133304596,0.11618699878454208,0.36652857065200806,-0.2789444029331207
146.0,-0.874631279222954,-1.9680552963551081,2.2976036808285363,-1.7009143944163265,-0.6258772600857027,-2.8177259558925276,0.5671167820692062,-0.17012912034988403,0.6751951277256012,0.8791061639785767,0.1194622591137886,0.3519147038459778,-0.2984245717525482
147.0,-0.8658584733578235,-1.9303036228319215,2.256354116783022,-1.6061913339457918,-0.6354070187878358,-2.862758090799139,0.5803667902946472,-0.18033111095428467,0.676398016512394,0.8770362138748169,0.12293548136949539,0.33214154839515686,-0.3246172070503235
148.0,-0.8579449788628615,-1.906010570624119,2.2291042495732336,-1.5484905596931917,-0.6442531974030995,-2.883376377660654,0.5893457680940628,-0.1857355684041977,0.6778232827782631,0.8759225010871887,0.12379433214664459,0.31760796904563904,-0.34140902757644653
149.0,-0.8503791237411973,-1.8840505646853665,2.2039916978849448,-1.4973838723246242,-0.6526475116631363,-2.898996523948357,0.5976479947566986,-0.19033347070217133,0.6795609593391418,0.8746996521949768,0.12392212450504303,0.3040357232093811,-0.3565194010734558
150.0,-0.8421618928584036,-1.91979625051687,2.231655763555524,-1.6143782631002848,-0.6772125479091158,-2.790961270810818,0.5904200524091721,-0.17909958958625793,0.687293067574501,0.8886775970458984,0.11115840077400208,0.3053743541240692,-0.323484867811203
151.0,-0.7999132295338697,-1.9622946402401749,2.260929717919412,-1.8215211537510725,-0.7966381692915158,-2.5569487081432674,0.5848236531019211,-0.15875865519046783,0.7008558958768845,0.9225798845291138,0.07707825303077698,0.2800595164299011,-0.25391337275505066
152.0,-0.7913275749723134,-1.9289149754399841,2.223140826131818,-1.7449452748966665,-0.8031920093614957,-2.577643567841039,0.5988161712884903,-0.1675657033920288,0.7029771506786346,0.9226247072219849,0.07720961421728134,0.2579508125782013,-0.27615922689437866
153.0,-0.8118417612857889,-1.9030603145262583,2.2038638509402686,-1.6347828852401538,-0.7439348122454508,-2.6915194982645074,0.6033647507429123,-0.17908450961112976,0.6963019967079163,0.9058132171630859,0.09298578649759293,0.26675453782081604,-0.31575000286102295
154.0,-0.8220561118722579,-1.8713740992598522,2.1770507510081507,-1.5188733145718936,-0.7070830434323667,-2.795736371042381,0.6101858094334602,-0.18903857469558716,0.6907043382525444,0.8905341625213623,0.10588125884532928,0.2676700949668884,-0.35226526856422424
155.0,-0.8125257167167323,-1.8487940355760926,2.1518739238239024,-1.4736976648610673,-0.7208508421155887,-2.795150068401973,0.6192861646413803,-0.19297286868095398,0.6918605864048004,0.8907660841941833,0.10234317928552628,0.2489706575870514,-0.3661629557609558
156.0,-0.8112863937379832,-1.7914639665801688,2.100392501609735,-1.3099353533180147,-0.7048776990678621,-2.903521656661546,0.6343008056282997,-0.20542582869529724,0.6857278272509575,0.8720952868461609,0.11062385141849518,0.23154765367507935,-0.41665080189704895
157.0,-0.794217579341615,-1.7527452814653812,2.062138160546747,-1.2481460348539808,-0.7355641839622042,-2.8739743405745974,0.6493322104215622,-0.210849791765213,0.6845471858978271,0.8725457787513733,0.09672173112630844,0.19246996939182281,-0.43847954273223877
158.0,-0.7737781441213722,-1.711223043151868,2.0206587175106394,-1.1880374549712893,-0.7737111969906338,-2.8174218627644074,0.6662658005952835,-0.21563822031021118,0.6832324266433716,0.8736960291862488,0.07508570700883865,0.14295808970928192,-0.4588903784751892
159.0,-0.7470501340068476,-1.6689611655907137,1.973374707625056,-1.1289338502336752,-0.8268202907775649,-2.7138525997087934,0.6849186448380351,-0.2179265022277832,0.6842267885804176,0.8766151070594788,0.040738075971603394,0.07542122900485992,-0.4734955132007599
160.0,-0.7209095133194937,-1.6314309256862853,1.929343923491027,-1.0754816981787325,-0.8761353682804094,-2.6040582018381015,0.702413965947926,-0.21814240515232086,0.6861385405063629,0.8771913647651672,0.005009844433516264,0.00915487576276064,-0.48002752661705017
161.0,-0.704727159451249,-1.6064357296172178,1.9045489174159391,-1.04674732423207,-0.9094053117982981,-2.529362457118825,0.7134828101843596,-0.2184849977493286,0.6841373294591904,0.8764700293540955,-0.018960459157824516,-0.034633323550224304,-0.47983473539352417
162.0,-0.6891720129126777,-1.5867691924906733,1.8800771136241512,-1.0175760664181173,-0.9368950763268338,-2.4630018693277473,0.723274003714323,-0.21708205342292786,0.6858198344707489,0.8748520612716675,-0.03955912962555885,-0.0725092738866806,-0.4772959351539612
163.0,-0.6779821713494024,-1.5680248733895261,1.864187059340004,-1.0024151784712072,-0.9603344923805648,-2.4111343252329203,0.7318473570048809,-0.21773338317871094,0.6823770627379417,0.8734024167060852,-0.05525427684187889,-0.1020335704088211,-0.47297394275665283
164.0,-0.6637723370477939,-1.5508474132486405,1.846567626535486,-0.9891454715353014,-0.9850856630748035,-2.355340794099522,0.7413023896515369,-0.2163524627685547,0.6810669079422951,0.8725860118865967,-0.07008754462003708,-0.13146890699863434,-0.4651853144168854
165.0,-0.64803751146478,-1.5346848805078985,1.8258182555080675,-0.9706563555666979,-1.0100239222508363,-2.2989582235130146,0.7509740367531776,-0.21353140473365784,0.6825435310602188,0.871180534362793,-0.08445390313863754,-0.1613730639219284,-0.4559285044670105
166.0,-0.6130238590142058,-1.4973350488484976,1.78346671264522,-0.938301256767878,-1.0676566168293866,-2.1841364572117037,0.7731805294752121,-0.20716668665409088,0.6816565468907356,0.868159830570221,-0.11021917313337326,-0.2227516770362854,-0.42957189679145813
167.0,-0.5932181345027098,-1.479482395495878,1.7597994890478754,-0.9186344882558969,-1.099118784724243,-2.1280018175178705,0.7845225855708122,-0.201969712972641,0.6832727193832397,0.8665063381195068,-0.12065792083740234,-0.2532036602497101,-0.4129121005535126
168.0,-0.579454957285307,-1.4644765286444412,1.7452357682662,-0.9102220014326564,-1.1222194624400679,-2.0915584485043484,0.7935504540801048,-0.19910746812820435,0.6809004098176956,0.8656087517738342,-0.12631312012672424,-0.27326488494873047,-0.40011632442474365
169.0,-0.564231325045667,-1.4533382411370228,1.7285893863682131,-0.8967738322815009,-1.1454616664845876,-2.056185297336875,0.8012897744774818,-0.19388729333877563,0.682958722114563,0.8649433851242065,-0.13065104186534882,-0.29253464937210083,-0.3862987160682678
170.0,-0.5462195793091802,-1.4398097576811224,1.708915032083333,-0.8806710955304594,-1.1733261438449136,-2.0171271994599955,0.8105214238166809,-0.18760383129119873,0.6850649863481522,0.8640778064727783,-0.1344069093465805,-0.3143841326236725,-0.36941441893577576
171.0,-0.5214067658457057,-1.4195351518111212,1.6850893960865145,-0.8655779274330981,-1.2129207475427897,-1.9692156325029837,0.823960542678833,-0.1791750192642212,0.6841334328055382,0.8636240363121033,-0.13637042045593262,-0.3415193557739258,-0.34484949707984924
172.0,-0.5043837302310364,-1.4059538543843852,1.6702472602314107,-0.8575108049547983,-1.2410848037153241,-1.9398107001345588,0.8329136222600937,-0.1731211245059967,0.6825632601976395,0.8637256622314453,-0.13578636944293976,-0.3584393560886383,-0.3272022604942322
173.0,-0.4891567558993997,-1.3939649219599044,1.6568173212798345,-0.8496018006998673,-1.2655172143056774,-1.9156211479102432,0.840916782617569,-0.16738435626029968,0.6813799291849136,0.8636846542358398,-0.13445331156253815,-0.3726322650909424,-0.3116350471973419
174.0,-0.47563608293082926,-1.3837618787997326,1.6467461994857184,-0.8459327837244238,-1.287295692612684,-1.8964104162372133,0.8478509932756424,-0.16206252574920654,0.6792912036180496,0.8641780018806458,-0.1321103721857071,-0.3836551606655121,-0.29757681488990784
175.0,-0.45481420358137165,-1.3703578655994548,1.630627267961371,-0.8369384453773762,-1.3209466161915688,-1.8689497890543283,0.8572463095188141,-0.1529843956232071,0.6784619092941284,0.8648133277893066,-0.12747794389724731,-0.3997279405593872,-0.27579909563064575
176.0,-0.4376515592431902,-1.359402757071825,1.6173871636317845,-0.8292164171193156,-1.3468229287507336,-1.8484584809186928,0.8650871217250824,-0.1450343132019043,0.6778463125228882,0.8651204109191895,-0.12308063358068466,-0.41175907850265503,-0.2585967779159546
177.0,-0.41863350930810905,-1.3483332978746865,1.6057818058031927,-0.8254247765277554,-1.377893657067316,-1.8281077010886597,0.8729821592569351,-0.13604557514190674,0.6757693663239479,0.8662624955177307,-0.116465263068676,-0.42336246371269226,-0.2383052259683609
178.0,-0.39187856125882803,-1.3351264663830538,1.5878835945486516,-0.8143955505911971,-1.419046730953203,-1.8018244437615918,0.8828491121530533,-0.12211424857378006,0.6761828139424324,0.867094099521637,-0.10665146261453629,-0.43852218985557556,-0.21088296175003052
179.0,-0.3737160184844434,-1.32509647430358,1.5799021345981468,-0.8151025628343784,-1.4487436193991499,-1.7862789493398217,0.8899692893028259,-0.11291547864675522,0.6724042147397995,0.8683594465255737,-0.09845808148384094,-0.44681546092033386,-0.19134747982025146
180.0,-0.35386567693535365,-1.316283818360247,1.5702334477424142,-0.8117369820533531,-1.4810249357772363,-1.7701387462461853,0.8964420855045319,-0.10213619470596313,0.670962855219841,0.8692787885665894,-0.08912878483533859,-0.4554980397224426,-0.17009462416172028
181.0,-0.3313235724975476,-1.3090685853798074,1.5595189187440377,-0.805916791962403,-1.5150465305461915,-1.7534401806032682,0.9023199379444122,-0.08874917030334473,0.6717507690191269,0.870123565196991,-0.07839110493659973,-0.4638006091117859,-0.14706741273403168
182.0,-0.30575384726926136,-1.302398877394975,1.549609158371171,-0.8011675093031616,-1.556992264178787,-1.7359622562913317,0.9076986014842987,-0.07350766658782959,0.6724855899810791,0.8711010217666626,-0.06470236927270889,-0.47194740176200867,-0.1194249615073204
183.0,-0.285723001314002,-1.2957914704559665,1.544448542234311,-0.8025730609305318,-1.5872455281901803,-1.7235108505261403,0.9126856029033661,-0.06126327067613602,0.6699402257800102,0.8718105554580688,-0.05405203998088837,-0.4767109453678131,-0.0988505482673645
184.0,-0.3001051710503725,-1.2974370988164023,1.5499486103737679,-0.8071810817811694,-1.5651793211633984,-1.7325898462947313,0.9108877778053284,-0.07056441158056259,0.6675579249858856,0.871502161026001,-0.061735283583402634,-0.4730062186717987,-0.11374572664499283
185.0,-0.3282353200001958,-1.3040427348858548,1.5612885578608915,-0.8139950942413906,-1.5208601711753273,-1.7516244691339038,0.9053073823451996,-0.08783398568630219,0.6657410934567451,0.8706559538841248,-0.07644259184598923,-0.464290976524353,-0.14334803819656372
186.0,-0.3464642220855056,-1.3095522711841876,1.5690450775218052,-0.8173511439299032,-1.4920387908433332,-1.764785867560006,0.9008114039897919,-0.09861224889755249,0.6654971092939377,0.8697924613952637,-0.08559247106313705,-0.45793619751930237,-0.16257217526435852
187.0,-0.36550461930435396,-1.3181731174259537,1.5781683476962278,-0.8203468531886094,-1.463326138690236,-1.779697252630926,0.8943772614002228,-0.10934080183506012,0.667136125266552,0.8690930604934692,-0.09426628053188324,-0.4501938223838806,-0.18197977542877197
188.0,-0.382393364757143,-1.324154185404257,1.5875007652869597,-0.8259486204531535,-1.4360703314515677,-1.7939672029620144,0.8895905017852783,-0.11879853904247284,0.66622044891119,0.8682724237442017,-0.10188684612512589,-0.44242507219314575,-0.1999559998512268
189.0,-0.41650974717226524,-1.3409353585218282,1.6086450987303298,-0.8369109497242428,-1.3842826441114582,-1.826094201467586,0.8768842816352844,-0.13684922456741333,0.6669669151306152,0.8669524192810059,-0.1148890033364296,-0.4243971109390259,-0.23469364643096924
190.0,-0.43357733536233367,-1.3489780614202096,1.6203548931247929,-0.8441811256458625,-1.357036266414675,-1.8442208559111752,0.8707181960344315,-0.14554044604301453,0.6662471666932106,0.8661720156669617,-0.12072218209505081,-0.4139656722545624,-0.25259625911712646
191.0,-0.4462684919701522,-1.3544086285337553,1.6307451052806492,-0.8527893759770303,-1.338668122662216,-1.858622693647083,0.8661743402481079,-0.15225796401500702,0.6639808788895607,0.8659126162528992,-0.12414775043725967,-0.4056515693664551,-0.26500844955444336
192.0,-0.4242364629497612,-1.3410056400049195,1.616268487277714,-0.847125927376253,-1.3735505234202219,-1.8342729777158864,0.8758368790149689,-0.14185315370559692,0.6617386192083359,0.8669653534889221,-0.11714944243431091,-0.41958990693092346,-0.24205659329891205
193.0,-0.40012950042558787,-1.327744981027163,1.601056804193955,-0.8402356770664549,-1.4105096617668371,-1.810282676757328,0.8856360912322998,-0.12959906458854675,0.6600905433297157,0.867931067943573,-0.10850606858730316,-0.4331985116004944,-0.2173963487148285
194.0,-0.38439555514689105,-1.3202501792328636,1.5917110639966314,-0.8356943168616557,-1.4342655553045232,-1.7960240513416081,0.8913864344358444,-0.12110521644353867,0.6596377640962601,0.8685826063156128,-0.10227498412132263,-0.44106557965278625,-0.20140831172466278
195.0,-0.366534250599989,-1.311960672875557,1.5831467556350216,-0.8336699734749952,-1.46386374571128,-1.7809777457676303,0.8974972069263458,-0.11159105598926544,0.6578119397163391,0.8696447610855103,-0.09401924163103104,-0.44915562868118286,-0.18203788995742798
196.0,-0.3485379231632633,-1.306410189317211,1.5727887414257762,-0.8258204974879108,-1.489623638626272,-1.7667067126311138,0.9023104161024094,-0.10070452839136124,0.6598912142217159,0.8700836300849915,-0.08624055236577988,-0.456633597612381,-0.16432537138462067
197.0,-0.35978438591464407,-1.3125895996725625,1.577452497798484,-0.8254111223361118,-1.4733818522086353,-1.7752908672813377,0.8978561162948608,-0.10695086419582367,0.6624012589454651,0.8696156144142151,-0.09128934144973755,-0.4523692727088928,-0.17549076676368713
198.0,-0.3181283561788768,-1.298106990559495,1.5596276759082315,-0.8188480212916294,-1.5381336281791507,-1.7448952352537495,0.9092714637517929,-0.08251173049211502,0.6612816900014877,0.8713812232017517,-0.07080724090337753,-0.4671587347984314,-0.132075235247612
199.0,-0.3016176016320248,-1.2939054881530274,1.5532464062436961,-0.8154600668445458,-1.5629952077412996,-1.7339112530998335,0.9127764999866486,-0.07221017777919769,0.6618493124842644,0.871807873249054,-0.06237020343542099,-0.4720064699649811,-0.11519935727119446
200.0,-0.28667137353282274,-1.2890138707307315,1.5494659190672477,-0.816635464522915,-1.5858160671722554,-1.7246401036846872,0.9164699912071228,-0.06303174048662186,0.6599079333245754,0.8723468780517578,-0.05436469241976738,-0.47550851106643677,-0.0997350662946701
201.0,-0.26248277142215354,-1.2843329325429773,1.54481777901482,-0.8180778529361691,-1.6257539537749954,-1.710503208562424,0.9203348010778427,-0.04792480915784836,0.6588019095361233,0.8732398152351379,-0.04031739756464958,-0.48005005717277527,-0.07333975285291672
202.0,-0.2493534665761862,-1.2831597826821546,1.541435998775799,-0.8155870981103109,-1.6450632632477615,-1.7029442222267568,0.9215898364782333,-0.03908529132604599,0.6601860411465168,0.8732826709747314,-0.03318656608462334,-0.4823547601699829,-0.06008286774158478
203.0,-0.2712704284079545,-1.2887356140391282,1.5446290493455603,-0.8122248112680089,-1.6114721981767763,-1.7153739663207377,0.9174318313598633,-0.053045377135276794,0.663104236125946,0.8727839589118958,-0.045463260263204575,-0.4788687229156494,-0.08286113291978836
204.0,-0.2477381902327252,-1.2870570034746078,1.5382579833500865,-0.8070952081511532,-1.6479927339084088,-1.7017273310496963,0.9194067120552063,-0.03749368339776993,0.6662060245871544,0.8729406595230103,-0.032256707549095154,-0.4832589626312256,-0.058267295360565186
205.0,-0.2345560775420972,-1.284891296444101,1.5374910847492709,-0.8100929090615239,-1.6687362311255345,-1.6947069151889373,0.9211432635784149,-0.028965163975954056,0.6647681593894958,0.8733033537864685,-0.024573208764195442,-0.4845367670059204,-0.044289447367191315
206.0,-0.21116777821912644,-1.28350990846725,1.5368960087295318,-0.8141968584933937,-1.7076676582786787,-1.6826111926534744,0.9225798547267914,-0.013732891529798508,0.6640995144844055,0.8736950755119324,-0.010313531383872032,-0.4860111474990845,-0.018540481105446815
207.0,-0.19708315239433194,-1.281112860480555,1.5375747017828625,-0.8189670093208175,-1.7276603762033094,-1.6754194808045293,0.9242062866687775,-0.004154030699282885,0.6615081019699574,0.8737123012542725,-0.0025315347593277693,-0.48641520738601685,-0.004547211807221174
208.0,-0.18344225226177371,-1.2816615902339332,1.538615852238948,-0.8219516256004981,-1.747734720038634,-1.668642298970461,0.9240413010120392,0.005371639505028725,0.6614626236259937,0.8737850189208984,0.005203538574278355,-0.4861948788166046,0.009351752698421478
209.0,-0.16827632480090976,-1.2837213201617512,1.540158734113241,-0.8246312870470778,-1.7714293123856941,-1.6611966274323704,0.9229187667369843,0.0159007515758276,0.6625642627477646,0.8737613558769226,0.014124765060842037,-0.48548489809036255,0.02542133443057537
210.0,-0.15250287960149744,-1.2865381605876656,1.5415971392267989,-0.826226360296885,-1.7991873212148792,-1.6534243207848998,0.9212579429149628,0.026420949026942253,0.664590060710907,0.8733305931091309,0.024119766429066658,-0.4845849573612213,0.04346921667456627
211.0,-0.136190963998552,-1.2905066278128288,1.54448221407299,-0.829065841996964,-1.8265172065328856,-1.6454510826143272,0.9187677800655365,0.037577446550130844,0.6667001992464066,0.8728986382484436,0.034055210649967194,-0.4828016459941864,0.06157134473323822
212.0,-0.12295998308375315,-1.2943680106574866,1.5481945267329926,-0.8332958349963078,-1.8487395748332944,-1.6390458761020348,0.9163203835487366,0.04662841930985451,0.6680479422211647,0.8726487159729004,0.042031701654195786,-0.48051100969314575,0.07633312791585922
213.0,-0.09530383637084465,-1.301591028562678,1.5577137832507248,-0.8450499217514654,-1.8981314183929627,-1.6253451324266681,0.9115010499954224,0.06494596600532532,0.6690283268690109,0.8714919090270996,0.05907174199819565,-0.47460129857063293,0.10847113281488419
214.0,-0.08368774769256598,-1.3050082862376475,1.5640432738747538,-0.8534891660698889,-1.9163645095287045,-1.6194705158285743,0.909037321805954,0.07300273329019547,0.6680957973003387,0.871319591999054,0.06539188325405121,-0.47105810046195984,0.12095583230257034
215.0,-0.05614374698439373,-1.3135197759048158,1.5797048211485099,-0.874406090599628,-1.9658431770183158,-1.604921225635087,0.9030540585517883,0.0910867378115654,0.6661325097084045,0.8701115250587463,0.0812699943780899,-0.46130579710006714,0.15329083800315857
216.0,-0.02967230245067993,-1.3267768563107938,1.5981342845941684,-0.8959041722839853,-2.0127111511030984,-1.5897775988531533,0.8939121067523956,0.10853758454322815,0.6666576042771339,0.8690289855003357,0.09522237628698349,-0.4492056965827942,0.18421627581119537
217.0,-0.017751655917737412,-1.3348451844554245,1.6062763802817164,-0.9038894566350894,-2.0371403919559286,-1.5824609468076045,0.888727217912674,0.11586575955152512,0.6690847277641296,0.8681207895278931,0.10183321684598923,-0.4428930878639221,0.19960469007492065
218.0,-0.0034071681565086263,-1.3423461313446272,1.6187560303593043,-0.9194425936591576,-2.0626157127218177,-1.573110684147612,0.883359432220459,0.12512582540512085,0.6679983884096146,0.8674772381782532,0.1084461361169815,-0.43458396196365356,0.2164703756570816
219.0,0.005557930602052228,-1.3509856245075873,1.6263338759843649,-0.926203994125087,-2.0812437210096375,-1.5669273937915988,0.8779003322124481,0.13049530982971191,0.6711367219686508,0.8669443726539612,0.11280542612075806,-0.4284704327583313,0.22824451327323914
220.0,0.024026853071677276,-1.3622156758883488,1.644790160140706,-0.9500818343470762,-2.1166734805299896,-1.5531905306765128,0.8701800256967545,0.14183899760246277,0.6696900129318237,0.8660430312156677,0.12043042480945587,-0.4151504337787628,0.25122925639152527
221.0,0.03788304251941341,-1.3713769476610131,1.6603762029635227,-0.9702282733302235,-2.1416588638377614,-1.5418916741321773,0.8636291325092316,0.1504397690296173,0.6680356711149216,0.865628182888031,0.12503682076931,-0.40413787961006165,0.26781800389289856
222.0,0.055489347909377,-1.3860876132845688,1.6817565445500722,-0.9976672212276713,-2.176591932202822,-1.525872535157859,0.8538106679916382,0.16073955595493317,0.6677669808268547,0.86515212059021,0.1301109939813614,-0.38762035965919495,0.29040220379829407
223.0,0.07035258374815215,-1.398615211617032,1.7005909455224075,-1.0224648583595823,-2.206895194292874,-1.5107207074576192,0.8454363793134689,0.1691843569278717,0.667232409119606,0.8646132349967957,0.1334269493818283,-0.3723771870136261,0.3098007142543793
224.0,0.07645081798153583,-1.408674619140045,1.709110028266727,-1.0311533464746483,-2.2219871821337076,-1.5036992933797715,0.8394310027360916,0.1720888763666153,0.6708111315965652,0.8644809722900391,0.13448753952980042,-0.364431232213974,0.31902292370796204
225.0,0.09747285069774707,-1.432140248419655,1.7411265680063557,-1.075244275588568,-2.268702223251652,-1.4770156117189388,0.8247220069169998,0.18297386169433594,0.6716760247945786,0.8644685745239258,0.13545796275138855,-0.33619046211242676,0.3483119308948517
226.0,0.11282879573703408,-1.4502053839042952,1.7676233749759305,-1.1129594597378314,-2.300794271849818,-1.454421357282174,0.8129808455705643,0.19084890186786652,0.6709841713309288,0.8650579452514648,0.13339032232761383,-0.31298699975013733,0.3686745762825012
227.0,0.12306725207630712,-1.4615567229301654,1.7869689786365295,-1.1432295933510153,-2.322184809652288,-1.4374867573715366,0.8055934458971024,0.1960412859916687,0.6689939722418785,0.8657786250114441,0.1304684728384018,-0.2955881655216217,0.3821426033973694
228.0,0.1364852905025714,-1.4800781718745637,1.8131402078584014,-1.184096303348207,-2.354347984730063,-1.411911122308495,0.7943728789687157,0.20205806195735931,0.6693085357546806,0.8664766550064087,0.12476998567581177,-0.26935073733329773,0.4013736844062805
229.0,0.14888521162026006,-1.500373862393819,1.8421039257896903,-1.2305390812955928,-2.382986184678641,-1.3849369717282556,0.7818813025951385,0.20728391408920288,0.6691481545567513,0.8680702447891235,0.11607836931943893,-0.24091307818889618,0.41825950145721436
230.0,0.15556050860709855,-1.5178138104382215,1.8603011918191992,-1.2618235704221972,-2.4064412797038437,-1.3659209121636864,0.7729322612285614,0.20882616937160492,0.6734847351908684,0.8688536286354065,0.10845843702554703,-0.21882808208465576,0.4306325614452362
231.0,0.16483458241811821,-1.5325792581861333,1.8835234049454874,-1.3034417324603527,-2.4287584106266933,-1.3416090444913809,0.7640198543667793,0.21251824498176575,0.6725891157984734,0.869901180267334,0.09861604869365692,-0.193771630525589,0.44271814823150635
232.0,0.17247384349375358,-1.5462901081057756,1.9061411399413433,-1.3440939260121811,-2.4451899469744687,-1.320494707803796,0.7552697956562042,0.2154439389705658,0.6708351299166679,0.8713653087615967,0.0885687991976738,-0.17102597653865814,0.4512517750263214
233.0,0.18141048748563887,-1.5656655967135882,1.935633599984582,-1.4022897191201256,-2.4691123730126665,-1.2916287785884846,0.7441408932209015,0.21812954545021057,0.6705915033817291,0.872966468334198,0.07293230295181274,-0.137746199965477,0.46220844984054565
234.0,0.19237413200726097,-1.595829530729513,1.9789955678597642,-1.49334276382074,-2.5020552798561106,-1.2512702245398022,0.7273400276899338,0.22031816840171814,0.6722975373268127,0.8747000694274902,0.04701651632785797,-0.08666552603244781,0.47452953457832336
235.0,0.19718144437467802,-1.6199291482672962,2.0120261035985743,-1.5761201121417086,-2.522689799415039,-1.2282041160242727,0.7156419083476067,0.2197776436805725,0.6758120507001877,0.876382052898407,0.02445768192410469,-0.044756531715393066,0.4789083003997803
236.0,0.2037166198662793,-1.647558102907297,2.058174100116109,-1.7010670040353668,-2.5448926824295146,-1.2026393517627516,0.7011536351637915,0.21975892782211304,0.677488386631012,0.877464771270752,-0.006697784177958965,0.01225825771689415,0.4794376492500305
237.0,0.20855691959376493,-1.6764544460425752,2.113391962490784,-1.8611930251914737,-2.5631210164198275,-1.188606584278719,0.6842542514204979,0.21820679306983948,0.6784123480319977,0.8767750859260559,-0.041329044848680496,0.07661657780408859,0.4729560911655426
238.0,0.21015053802138461,-1.6941061047239159,2.150954161163064,-1.9789707580938245,-2.570688661819009,-1.1896692625804548,0.672687504440546,0.21625512838363647,0.6792749762535095,0.8751405477523804,-0.06328889727592468,0.11919641494750977,0.4646673798561096
239.0,0.21281688774724125,-1.7085094285039153,2.1905489125032758,-2.0998454905285735,-2.5707427300330887,-1.1961246235165048,0.6597676649689674,0.21537664532661438,0.6765254065394402,0.8735707402229309,-0.08215479552745819,0.15850919485092163,0.45276880264282227
240.0,0.2098498146529764,-1.7202443468239095,2.2137751372847085,-2.1813864360724717,-2.5632462461066217,-1.2139941908813017,0.6515514105558395,0.21217545866966248,0.6783142313361168,0.8734671473503113,-0.09222070872783661,0.18225859105587006,0.44196414947509766
241.0,0.2073155150739559,-1.731723446192097,2.243714145245266,-2.2807455538666255,-2.5493194008976947,-1.2358809312251913,0.640893280506134,0.20938223600387573,0.677035890519619,0.8736120462417603,-0.10234861075878143,0.2092844396829605,0.42723187804222107
242.0,0.20488261238806604,-1.7402110947935372,2.266114368264453,-2.355010973864058,-2.5364994922156185,-1.2538452640090691,0.632422648370266,0.20709532499313354,0.6759890541434288,0.8735700845718384,-0.1088963970541954,0.22898916900157928,0.4154285192489624
243.0,0.2006204385994407,-1.749267179365806,2.2896176228354,-2.4312212326414535,-2.5181493851122467,-1.2760328034152293,0.6232521682977676,0.20402005314826965,0.6743497252464294,0.874131977558136,-0.11394930630922318,0.2478882074356079,0.40182119607925415
244.0,0.19472360684996878,-1.7583289666182393,2.313295678452546,-2.5089383173498017,-2.4952930706042213,-1.300858764987013,0.6139434278011322,0.2004021406173706,0.6725945025682449,0.874861478805542,-0.11789551377296448,0.2666568458080292,0.38679763674736023
245.0,0.18989725497642299,-1.7654187688121665,2.3329986591496437,-2.569247143894426,-2.474783174408725,-1.3199521266507972,0.6059135049581528,0.19767573475837708,0.6701061502099037,0.8755303025245667,-0.12009942531585693,0.2809197008609772,0.374308705329895
246.0,0.18085859304413737,-1.775820050564705,2.3545869403345505,-2.637369678013881,-2.4463587190919514,-1.3459892324867764,0.5965920686721802,0.19297140836715698,0.6690045967698097,0.8764268159866333,-0.12166265398263931,0.2971055507659912,0.35889068245887756
247.0,0.17385509271065394,-1.782658510749052,2.371376860874662,-2.6848991460494416,-2.422077904609021,-1.3642869189129636,0.5896357148885727,0.189803808927536,0.6663065105676651,0.8776618242263794,-0.12156889587640762,0.3076236844062805,0.34684064984321594
248.0,0.15548274391220226,-1.799393511152586,2.3976499257068395,-2.7676283831224993,-2.3740311847655367,-1.4015781520637187,0.5776202827692032,0.1816040575504303,0.6667145565152168,0.8787015080451965,-0.1212925836443901,0.3281875252723694,0.3247533440589905
249.0,0.13845670525752135,-1.8127435704523518,2.410018075772681,-2.8147540542875595,-2.3381492485119053,-1.4288195414863798,0.5714600682258606,0.17441901564598083,0.6707299575209618,0.8790306448936462,-0.12048640102148056,0.3413487374782562,0.31027281284332275
250.0,0.11588690653636084,-1.829411603449881,2.431950140371529,-2.873154718886036,-2.283931137153533,-1.4606755827614601,0.5615084767341614,0.16609571874141693,0.6699856221675873,0.8806569576263428,-0.11712372303009033,0.3561774492263794,0.28959107398986816
251.0,0.09927345228614019,-1.8415144167786905,2.4447038518840105,-2.9063759460171648,-2.2472547333270705,-1.480884602884099,0.5553466975688934,0.16023235023021698,0.6705807894468307,0.8813432455062866,-0.11468806862831116,0.36553138494491577,0.2765277028083801
252.0,0.06338964053786911,-1.8652647999068355,2.4685642141272863,-2.9565561235939066,-2.170361701506908,-1.517938608488633,0.5443385243415833,0.14871202409267426,0.6697296351194382,0.883791983127594,-0.1079578623175621,0.3795626163482666,0.2513743042945862
253.0,0.03070529886321051,-1.8857782614002707,2.4840019714077566,-2.988354101121522,-2.105622239408243,-1.546747939324776,0.5368506461381912,0.13890168070793152,0.6712727844715118,0.8849976062774658,-0.10230162739753723,0.39063793420791626,0.23176628351211548
254.0,0.004513328742769498,-1.901339506969387,2.4917692001201868,-3.0047531188194734,-2.0578911894606553,-1.567406852217327,0.5327410399913788,0.13118401169776917,0.6742993965744972,0.8854985237121582,-0.09822075068950653,0.3981553018093109,0.21844322979450226
255.0,-0.034849872236713514,-1.9231595071542549,2.504850765257217,-3.0236473557266406,-1.9856991683592127,-1.5956145625587919,0.5264975726604462,0.12053003907203674,0.6759100705385208,0.8867396116256714,-0.091353639960289,0.40713557600975037,0.19896788895130157
256.0,-0.03242641955888959,-1.9365561641643165,2.469737432305305,-2.894479690775559,-1.9799106902250472,-1.5959143985934219,0.5361750572919846,0.12230103462934494,0.6845256090164185,0.9033665657043457,-0.08151613175868988,0.3714629113674164,0.19824038445949554
257.0,-0.08505856401576971,-1.9739960876288387,2.451386716871558,-2.784074971885693,-1.8737031160221167,-1.638115829341092,0.5372127294540405,0.10973018407821655,0.6921295151114464,0.9218702912330627,-0.062448322772979736,0.34383347630500793,0.16743351519107819
258.0,-0.12351122375648763,-1.9948556246563087,2.4549915133083964,-2.764222433868641,-1.8045994462418047,-1.6672255859500211,0.5334696620702744,0.10029388219118118,0.6934558898210526,0.9265125393867493,-0.05436262860894203,0.341938316822052,0.14730042219161987
259.0,-0.16733900902681825,-2.0172896875027244,2.4448299116389896,-2.696271088477605,-1.730099072402891,-1.7034202689961688,0.5331125259399414,0.08897146582603455,0.6973005160689354,0.936133623123169,-0.0434609055519104,0.32584476470947266,0.1248607411980629
260.0,-0.16705024039428368,-2.0150714535430474,2.4058491572708056,-2.5812075045823497,-1.7152833601888324,-1.710602240448378,0.544099360704422,0.08956007659435272,0.7052577659487724,0.9495173692703247,-0.034944064915180206,0.2900107502937317,0.11440952867269516
261.0,-0.1380976519179837,-1.9993300419032165,2.390413253945266,-2.561858433863181,-1.7564269322304833,-1.6887063586611366,0.5512688457965851,0.09756305813789368,0.7073628604412079,0.9509027004241943,-0.03698844462633133,0.2805280387401581,0.12537932395935059
262.0,-0.18769366265972948,-2.013831124702968,2.366810019669689,-2.4647842933429853,-1.6698634162089028,-1.734531005472222,0.5552255362272263,0.08360578119754791,0.7135943174362183,0.9622266888618469,-0.024759309366345406,0.2544395923614502,0.0936335027217865
263.0,-0.205589397275126,-2.023997153946642,2.379196414158497,-2.483312674187825,-1.6501834263727793,-1.7480273750971587,0.5498729050159454,0.07815597951412201,0.7115731537342072,0.9604166746139526,-0.02453540824353695,0.26257166266441345,0.08974392712116241
264.0,-0.24248200044655588,-2.029510520341569,2.356264712098594,-2.3981991800536124,-1.5922950221712948,-1.7850541754947526,0.5544372648000717,0.06650103628635406,0.7164288088679314,0.9686421155929565,-0.016333479434251785,0.23891504108905792,0.06622143089771271
265.0,-0.22128314613705125,-2.016338390533039,2.3400679730111316,-2.3733356609507537,-1.6145513081746898,-1.7689327135777706,0.5614469349384308,0.07279852777719498,0.7189225405454636,0.9711217284202576,-0.016427282243967056,0.22744981944561005,0.07013805955648422
266.0,-0.24866098075512727,-2.014347511787553,2.3160141940210077,-2.294493532673096,-1.5728519922759978,-1.7984666254763537,0.5673457980155945,0.0629928931593895,0.722871795296669,0.9777621626853943,-0.010477614589035511,0.20330315828323364,0.05039082467556
267.0,-0.2730802670623726,-2.003976567285353,2.2833538709816836,-2.2000725778290073,-1.534778240886747,-1.8273826736781544,0.5767781212925911,0.052962541580200195,0.7274894416332245,0.9845681190490723,-0.004985316656529903,0.17260444164276123,0.028437182307243347
268.0,-0.2898254760592486,-2.0085757537167708,2.2841914164310557,-2.1894166574727363,-1.520839941887052,-1.8436181602798383,0.5748425424098969,0.04635707661509514,0.727146327495575,0.985022783279419,-0.004112128168344498,0.17073491215705872,0.0237241443246603
269.0,-0.30809588760890444,-1.9994985314094422,2.2636366430801518,-2.1318117827625684,-1.5048735278474397,-1.8651018655419505,0.5809641629457474,0.03671920672059059,0.7294184118509293,0.9884760975837708,-0.0019417887087911367,0.15082865953445435,0.012725776061415672
270.0,-0.32851970621115767,-2.001726266941318,2.2613318436489025,-2.1140838463978615,-1.4917138625409718,-1.8857608088271198,0.5800913423299789,0.027498314157128334,0.7293541133403778,0.9891988635063171,-0.0011160540161654353,0.1463819146156311,0.007541912142187357
271.0,-0.343693591474755,-2.0063792124963977,2.2653459136742335,-2.115995332746878,-1.4850785630972472,-1.90000024454348,0.5776951760053635,0.02075999043881893,0.7287012487649918,0.988885760307312,-0.0010532722808420658,0.14850810170173645,0.007013529539108276
272.0,-0.3418256865422897,-1.9907820916768808,2.245010437063254,-2.0786020358575805,-1.4888038936368784,-1.9012744598848448,0.5865741223096848,0.018057843670248985,0.7312200963497162,0.9911530613899231,-0.0004410659894347191,0.13268230855464935,0.0032948171719908714
273.0,-0.35516229705587066,-1.9913371092158354,2.2429581001620487,-2.066552454270324,-1.4858381674741155,-1.9149857961531545,0.58597681671381,0.011011437512934208,0.731086015701294,0.9916771650314331,-0.0002698290627449751,0.12873315811157227,0.002078589051961899
274.0,-0.37245061817651876,-2.002268839354284,2.2550831903557835,-2.0836347502015915,-1.4731763831938014,-1.9301477546889798,0.5801656246185303,0.005279021803289652,0.7295824289321899,0.9903997182846069,-0.00016116147162392735,0.13822907209396362,0.0011547085596248507
275.0,-0.38455837480211064,-2.0015675697352053,2.252830891964416,-2.0753615661194615,-1.4696341316394728,-1.9424737823820168,0.5804752260446548,-0.0012756154173985124,0.7296842634677887,0.9907423853874207,5.516652436199365e-06,0.13575556874275208,-4.0260452806251124e-05
276.0,-0.38148557492982277,-1.9885723645532039,2.237447495286233,-2.0501379827080237,-1.4783992046139807,-1.9416982734855377,0.5875273868441582,-0.0037707146257162094,0.73148313164711,0.9923223257064819,5.8788555179489776e-05,0.12367784231901169,-0.00047168671153485775
277.0,-0.36903143024456697,-1.9850897095082836,2.235472795051392,-2.054272597490259,-1.4827942462506354,-1.9293897946822314,0.589882917702198,0.0019119303906336427,0.7320720851421356,0.9922680854797363,-6.36824916000478e-05,0.12411276996135712,0.000509134610183537
278.0,-0.36168727338485285,-1.9782796369836382,2.2309846290773048,-2.0593484911583566,-1.4845638775620196,-1.9220312525251086,0.5946912467479706,0.004122729413211346,0.7332800328731537,0.9921451210975647,-0.00011402161908335984,0.12508893013000488,0.0009043645113706589
279.0,-0.3737230749230487,-1.978652984240915,2.2302486881963075,-2.054133299073503,-1.4805147638746237,-1.9340576646522982,0.5943953543901443,-0.002247891388833523,0.7332063168287277,0.9922963976860046,2.6474315745872445e-05,0.12388644367456436,-0.00021205197845119983
280.0,-0.388316710405776,-1.9829961264322933,2.23366563378621,-2.053518871519003,-1.4740414155284205,-1.9481737041120655,0.5916659310460091,-0.00877000205218792,0.7325177788734436,0.9921302795410156,0.00017170715727843344,0.12520334124565125,-0.0013606335269287229
281.0,-0.3844631046439875,-1.9741074889518915,2.2273863247340797,-2.0582295217960076,-1.4739771030122006,-1.944244425911263,0.5979991033673286,-0.009029727429151535,0.7341159284114838,0.9920068979263306,0.0001890642597572878,0.12617488205432892,-0.0014864529948681593
282.0,-0.39819555721598393,-1.9775670174194289,2.230462237807717,-2.0592164868152825,-1.4674909703496561,-1.9574112468736011,0.5958633497357368,-0.015337725169956684,0.7335699796676636,0.9917680621147156,0.0003233836032450199,0.12802253663539886,-0.0025051957927644253
283.0,-0.4106605559087842,-1.9829670096295062,2.234524229234098,-2.057331604092702,-1.462326837432622,-1.9695320191366028,0.5921761319041252,-0.020397484302520752,0.7326385676860809,0.9916662573814392,0.0004415235889609903,0.1287885457277298,-0.0033997120335698128
284.0,-0.42448870508961223,-1.9857034971401244,2.2374700665569986,-2.06045738072439,-1.454704372158587,-1.9826103083323559,0.5905847400426865,-0.02673521637916565,0.7322274297475815,0.9912856221199036,0.0006021915469318628,0.13165126740932465,-0.004534280858933926
285.0,-0.42004958869209374,-1.9772451669088977,2.231019641969344,-2.062417075559482,-1.4559930859153947,-1.9783249995226762,0.596386656165123,-0.02687053196132183,0.7336901128292084,0.991324782371521,0.0006004706956446171,0.1313556283712387,-0.00453167874366045
286.0,-0.428227797732536,-1.9728542694048066,2.226990727697665,-2.059719707968779,-1.4520766903826108,-1.986566294485264,0.5991757065057755,-0.032469749450683594,0.7344084084033966,0.991392195224762,0.0007731348159722984,0.13079212605953217,-0.005860290490090847
287.0,-0.416891058637439,-1.9641832889347537,2.219459222313604,-2.058329571087482,-1.4574792880958523,-1.9758523769584408,0.6050402969121933,-0.02903185412287712,0.7359241992235184,0.9916922450065613,0.0006930973031558096,0.12852002680301666,-0.005348109640181065
288.0,-0.40834844702459877,-1.969503029886293,2.2237299697955963,-2.0581664111446734,-1.462014611177642,-1.9674830553111031,0.6013919040560722,-0.022943731397390366,0.7349880933761597,0.991764485836029,0.0005401687230914831,0.128005713224411,-0.0041851261630654335
289.0,-0.39342757948533247,-1.9671796490206739,2.2216773496346036,-2.058001571451677,-1.4692875612513179,-1.9530680090281605,0.6028789281845093,-0.015679465606808662,0.7353749722242355,0.9919769763946533,0.0003564640355762094,0.12638752162456512,-0.002797776600345969
290.0,-0.3805688816421275,-1.9630291641521986,2.218131800882867,-2.057760019896083,-1.4754348473123897,-1.9406843388163426,0.6055750623345375,-0.009960747323930264,0.7360709756612778,0.992173969745636,0.00021458698029164225,0.12485118210315704,-0.001705291448161006
291.0,-0.3796581396231046,-1.9538060509071045,2.210673613726562,-2.0585964273512634,-1.4752141047694967,-1.939887434167086,0.6120322197675705,-0.011945707723498344,0.7376583814620972,0.992222249507904,0.00026151962811127305,0.12446136772632599,-0.0020848682615906
292.0,-0.3957965513854934,-1.9560607985446288,2.212687302852031,-2.0588312869254803,-1.4673567361672948,-1.9554912943852159,0.6106275171041489,-0.02004038169980049,0.7373076826334,0.9920033812522888,0.00046183037920854986,0.1261584758758545,-0.0036314427852630615
293.0,-0.40797073391832495,-1.954014391317858,2.211069609501036,-2.058674853857655,-1.4610245708765388,-1.9673542346111126,0.6120695769786835,-0.02716253139078617,0.7376566678285599,0.9918715357780457,0.0006572660058736801,0.12713828682899475,-0.0051276725716888905
294.0,-0.41830471533351876,-1.9495930644501502,2.2074183815857196,-2.058216952145829,-1.4552307733069245,-1.9775049519847252,0.6150716543197632,-0.033987805247306824,0.7383956462144852,0.9917817711830139,0.0008647361537441611,0.127762570977211,-0.006712683010846376
295.0,-0.40880201448654524,-1.9437041201697016,2.202645387531685,-2.0597009118189487,-1.4592330943050753,-1.9682526060767846,0.619317889213562,-0.0305218156427145,0.7394745498895645,0.9918721914291382,0.0007697142427787185,0.12709476053714752,-0.006006999872624874
296.0,-0.39498179121039106,-1.9367431044248216,2.1964784664113632,-2.059130875780652,-1.465615989696955,-1.954977785856956,0.6242114081978798,-0.02490971051156521,0.7407189607620239,0.992119312286377,0.000637622200883925,0.1251932978630066,-0.005052964203059673
297.0,-0.3822732912018981,-1.9344026997391655,2.1944723210734214,-2.0595849136976536,-1.471776029048927,-1.9426321552879409,0.6258483901619911,-0.018545368686318398,0.7411316633224487,0.9922666549682617,0.0004689734196290374,0.12406683713197708,-0.0037507747765630484
298.0,-0.3857484766859817,-1.927923342574946,2.1891020484641075,-2.0602618470747105,-1.4693123379675304,-1.9460476638729904,0.6305185034871101,-0.022236164659261703,0.7422751784324646,0.9922306537628174,0.0005690610269084573,0.12432780861854553,-0.004541540052741766
299.0,-0.39727493982444784,-1.9275923102843147,2.1887928001647925,-2.0595906646593156,-1.4634885508355233,-1.9573044350793218,0.6307168304920197,-0.028741303831338882,0.7423192113637924,0.9921208024024963,0.0007485932437703013,0.12514202296733856,-0.005934815388172865
300.0,-0.4061400683462214,-1.9335635950154118,2.1936992940351807,-2.058170031708517,-1.4597453114314862,-1.9659439272007893,0.626371867954731,-0.03195818513631821,0.7412505000829697,0.992040753364563,0.0008395141921937466,0.12574057281017303,-0.006623417139053345
301.0,-0.4240255921099124,-1.9385558618407315,2.1980612705406015,-2.0575840268439167,-1.4512134834757877,-1.9833036559589237,0.6226557046175003,-0.040346406400203705,0.7403132319450378,0.9917969703674316,0.001064276322722435,0.12755097448825836,-0.00827548373490572
302.0,-0.4340221780775116,-1.947152543062104,2.205644827572372,-2.05845681552763,-1.4468925630676508,-1.9928016334550465,0.6165848448872566,-0.043226830661296844,0.7387698292732239,0.991561233997345,0.0011209772201254964,0.1293492466211319,-0.008593150414526463
303.0,-0.44759075711058766,-1.9514732542668018,2.2092364565027243,-2.057206212019449,-1.440630074021843,-2.006019925050211,0.6132806539535522,-0.049248047173023224,0.7379273772239685,0.9913957715034485,0.0012887745397165418,0.13052552938461304,-0.00978877954185009
304.0,-0.46692436147357347,-1.9518282767520199,2.209789869349185,-2.0565557403496344,-1.4308466697371187,-2.024879244471396,0.6124740466475487,-0.05955100432038307,0.7377107441425323,0.9911197423934937,0.0015827210154384375,0.13243435323238373,-0.011844855733215809
305.0,-0.4613071005727093,-1.943568605234984,2.2026998755701435,-2.056173156319095,-1.432831772967887,-2.019616554869789,0.618248239159584,-0.05915716290473938,0.7391714602708817,0.9912745356559753,0.0015917770797386765,0.13125428557395935,-0.01202161330729723
306.0,-0.47316238850722636,-1.9409267399903627,2.2003584848292492,-2.0541796151816483,-1.426762155719427,-2.0314043823105252,0.6195072829723358,-0.06646649539470673,0.7394802570343018,0.9911924600601196,0.0018185804365202785,0.13170862197875977,-0.013685992918908596
307.0,-0.48005625375030686,-1.9342557851023556,2.194316939527265,-2.051227900645817,-1.4229703904510134,-2.038540822294741,0.6235801950097084,-0.07245000451803207,0.7405052930116653,0.9912531971931458,0.0020182961598038673,0.1310727298259735,-0.015263606794178486
308.0,-0.492419077815459,-1.936108180126642,2.1961259292711257,-2.050707289778975,-1.4168786972340783,-2.050627756990895,0.6216935366392136,-0.07859282195568085,0.7400145977735519,0.9910534620285034,0.002198563888669014,0.13242943584918976,-0.016453245654702187
309.0,-0.49230872751281207,-1.9443722524533933,2.2036186249365173,-2.0535028752815037,-1.4173535078731376,-2.050068902713931,0.6163007318973541,-0.0757092535495758,0.7386485040187836,0.9908760786056519,0.0020873649045825005,0.1338716447353363,-0.015450021252036095
310.0,-0.48742780443009315,-1.9507859126830305,2.209213278957376,-2.0554822824106633,-1.4202802516713333,-2.0449711614986144,0.6123400181531906,-0.07091395556926727,0.7376543879508972,0.9908297657966614,0.0019220967078581452,0.1343570202589035,-0.01417469885200262
311.0,-0.5147655139339611,-1.9573320618710517,2.2166925831990967,-2.0582537185857985,-1.380497006487478,-2.071809259858132,0.6084198951721191,-0.07968393713235855,0.7362494021654129,0.9890605807304382,0.004010912962257862,0.14489130675792694,-0.027379386126995087
312.0,-0.508727082673843,-1.9658642934592543,2.223662658707152,-2.059803560636815,-1.3858490244875752,-2.065442683363372,0.603143185377121,-0.0737326517701149,0.7349883764982224,0.9891316890716553,0.0036876790691167116,0.14481239020824432,-0.02518845722079277
313.0,-0.49679379213834896,-1.972278536859318,2.2292430536879886,-2.0648906906547735,-1.4014135119912168,-2.0528547383750526,0.5991720482707024,-0.06661247462034225,0.7341460883617401,0.9894672632217407,0.0027159990277141333,0.14351485669612885,-0.01872553490102291
314.0,-0.5358977386553849,-1.9841101394314358,2.243938510774327,-2.076285834320495,-1.3360191436728788,-2.0907560641017184,0.5930270999670029,-0.07666012644767761,0.7316813617944717,0.9857186079025269,0.006494774483144283,0.16366615891456604,-0.03911633417010307
315.0,-0.5796583743349067,-1.9912909892862152,2.2546322327507218,-2.0752940256498356,-1.2589375952999795,-2.1371965076308714,0.5890424102544785,-0.08880346268415451,0.7289595305919647,0.980797290802002,0.012178769335150719,0.18343402445316315,-0.06511825323104858
316.0,-0.6204861072002226,-1.9940391720022015,2.2615782392170636,-2.063333972477711,-1.1822153618032463,-2.1859546658568694,0.5868475809693336,-0.10048073530197144,0.7259437292814255,0.9750367403030396,0.019077181816101074,0.20091906189918518,-0.09257933497428894
317.0,-0.6254700987483018,-1.9843568313747528,2.2521486280807532,-2.049388557100518,-1.1740411432274829,-2.1948852451464145,0.5918744951486588,-0.1059642881155014,0.7269825637340546,0.9749611616134644,0.02006044052541256,0.19829300045967102,-0.09863258898258209
318.0,-0.6725025215911808,-1.9993514163463832,2.274041659305186,-2.0446557657961657,-1.0820365079630563,-2.2550712693604904,0.582030862569809,-0.11393178999423981,0.7206654250621796,0.9653220176696777,0.02973773144185543,0.22619083523750305,-0.1269126832485199
319.0,-0.6363180243828623,-2.0099697000191745,2.280927451859151,-2.0815040247806795,-1.1505165390125305,-2.200695148757964,0.5781345814466476,-0.09896035492420197,0.7224440574645996,0.9710583090782166,0.021829094737768173,0.21682138741016388,-0.09776397049427032
320.0,-0.643685459085969,-2.0233326832723275,2.296639375913382,-2.10045552176732,-1.1351867941761289,-2.2048964344939943,0.57109534740448,-0.09580390155315399,0.7199157029390335,0.9684858918190002,0.022980058565735817,0.22798553109169006,-0.09761963039636612
321.0,-0.6261224987911468,-2.033502218780876,2.3063814271206255,-2.1251829745943565,-1.1629333215251878,-2.1790724032492226,0.5663771778345108,-0.08601473271846771,0.7194571793079376,0.9698083400726318,0.019758643582463264,0.2280862033367157,-0.08401253074407578
322.0,-0.6014048887543716,-2.0395126448800514,2.310799885532632,-2.143383929590844,-1.202684717100776,-2.1480101750143663,0.5635928511619568,-0.0756252184510231,0.7198576405644417,0.9722356796264648,0.015709321945905685,0.22322578728199005,-0.06842023879289627
323.0,-0.5657017249505932,-2.0335741863494734,2.299919565883918,-2.136906282074359,-1.260785928307942,-2.111864447524292,0.5666967481374741,-0.0659574493765831,0.7224807664752007,0.9771436452865601,0.01101893000304699,0.20574301481246948,-0.05233265087008476
324.0,-0.568201244439208,-2.048578142677434,2.3185208189689104,-2.1658963052326614,-1.2481187900994843,-2.1091383836064472,0.5590075254440308,-0.06036720797419548,0.7196648120880127,0.9742771983146667,0.011457953602075577,0.21922528743743896,-0.0509212352335453
325.0,-0.5514256614050446,-2.0511585477882712,2.32031432200336,-2.172497060368016,-1.2687898993833866,-2.0911886736196106,0.5576204061508179,-0.05311717465519905,0.7197287529706955,0.9752551913261414,0.00976636167615652,0.2164383828639984,-0.04400649294257164
326.0,-0.5255475756816176,-2.053501495896117,2.3221345749535836,-2.182516823013683,-1.3011520985058995,-2.0640991084851588,0.5561395734548569,-0.04266127571463585,0.7199340015649796,0.9766238927841187,0.007201064843684435,0.21226443350315094,-0.03313193842768669
327.0,-0.5101146874657553,-2.0576998290570363,2.327592594677394,-2.1964250732173554,-1.3157246720607756,-2.0470090291795677,0.5537817031145096,-0.03491152822971344,0.7193530723452568,0.9764708876609802,0.005953493993729353,0.21384648978710175,-0.0271849874407053
328.0,-0.5009250645824789,-2.06689556319878,2.341471871991252,-2.22681721826084,-1.3180491502653657,-2.033309790337638,0.5488535612821579,-0.027355849742889404,0.7174444273114204,0.9743168354034424,0.005182263441383839,0.2239903211593628,-0.022541895508766174
329.0,-0.4867333165965437,-2.0702185139385003,2.3473990715205413,-2.2440886777343527,-1.3319144608914595,-2.0172500802023885,0.5467214584350586,-0.02060740627348423,0.7167632430791855,0.9737403988838196,0.0038369798567146063,0.22703328728675842,-0.016456717625260353
330.0,-0.4877094819945901,-2.0832986028104448,2.3701857814984777,-2.294645684155308,-1.319627300077034,-2.0094650697882708,0.5395610630512238,-0.015271653421223164,0.7133501023054123,0.9689142107963562,0.0033938579726964235,0.24701565504074097,-0.013312344439327717
331.0,-0.471103414867661,-2.0845054154106895,2.3750843299364295,-2.312996175153289,-1.336066756102861,-1.9915063844553729,0.5382382869720459,-0.00830800924450159,0.7127616927027702,0.9682615399360657,0.001823446131311357,0.24983255565166473,-0.0070670247077941895
332.0,-0.43879565127189263,-2.0665577494068166,2.346707139244546,-2.2601403831305307,-1.3823135115800147,-1.9711858524238695,0.5473121404647827,-0.002887881128117442,0.7173627018928528,0.9749853610992432,0.00039748960989527404,0.22226178646087646,-0.0017436491325497627
333.0,-0.4521617454979578,-2.0599043106441823,2.333182876632158,-2.2241250879169776,-1.3726138624167143,-1.98865344558501,0.5514843165874481,-0.010638990439474583,0.7191735357046127,0.9773590564727783,0.0019232266349717975,0.21139197051525116,-0.008891932666301727
334.0,-0.4228034509587925,-2.039390318467717,2.303266846868724,-2.1690603013870806,-1.4175660804792123,-1.9688218295888957,0.5615076869726181,-0.006410561501979828,0.7235518991947174,0.9832454323768616,0.0005564520251937211,0.1822611689567566,-0.0030018948018550873
335.0,-0.40004781679467294,-2.0245703371983303,2.2839021368843597,-2.135236227080385,-1.4442891402198064,-1.9513933815826214,0.5688492655754089,-0.0011697151931002736,0.7260565161705017,0.9864564538002014,1.2286514902370982e-05,0.16402406990528107,-7.389226811937988e-05
336.0,-0.38595561114133614,-2.0282895620723598,2.2913450265292505,-2.155999435056797,-1.4519874509707316,-1.935949544433771,0.5666144341230392,0.006465782877057791,0.7252731323242188,0.9853602647781372,-0.0007271970389410853,0.17043156921863556,0.004204333294183016
337.0,-0.38117077321711407,-2.038020683096726,2.3067559758565674,-2.1905570320466725,-1.4493743934973737,-1.92768390797934,0.5611984133720398,0.011763681657612324,0.7233865633606911,0.9828793406486511,-0.001339108683168888,0.18410702049732208,0.007149005774408579
338.0,-0.36597960343693287,-2.038208515750575,2.310493453205057,-2.2057781168207358,-1.461174362708846,-1.912061489770462,0.5605544447898865,0.018503893166780472,0.7229914516210556,0.9821714758872986,-0.0022562278900295496,0.1876027137041092,0.011812211014330387
339.0,-0.3485491525916511,-2.0252129558863734,2.2935246622510426,-2.176050562660981,-1.477612878303388,-1.89909236867754,0.5673550963401794,0.022967061027884483,0.7253137826919556,0.9848009943962097,-0.002163112396374345,0.17323710024356842,0.01229664497077465
340.0,-0.36646787488200566,-2.020207690571033,2.2819303613029382,-2.1422234414881585,-1.46745211205343,-1.919094236266158,0.5705714374780655,0.013357383199036121,0.7265346199274063,0.9867472648620605,-0.0009984425269067287,0.16214792430400848,0.006075997371226549
341.0,-0.4058966964222541,-2.05038505321687,2.3241201865130288,-2.2220089692446368,-1.4251453347214766,-1.9466487422737615,0.5550990104675293,0.004590751603245735,0.7208604216575623,0.9797326326370239,-0.0010657919337972999,0.20023886859416962,0.005214727949351072
342.0,-0.3843122973399865,-2.056214628321518,2.339852347565332,-2.268142739135399,-1.4388141248402617,-1.9213532268397149,0.5508990287780762,0.015923289582133293,0.7187809646129608,0.9766411185264587,-0.0029395122546702623,0.21443955600261688,0.013387681916356087
343.0,-0.3685254174968052,-2.061056945679905,2.3555139817989006,-2.3150363526071875,-1.4516482678850837,-1.901527633655275,0.5468675047159195,0.023945076391100883,0.7165721133351326,0.9731661081314087,-0.005112605635076761,0.22901876270771027,0.021724920719861984
344.0,-0.3637805699739094,-2.074002060343195,2.39033282567055,-2.4070201633663157,-1.4542959094293646,-1.8854546984207083,0.5369948744773865,0.02981865219771862,0.7108956426382065,0.9648412466049194,-0.008734290488064289,0.26069197058677673,0.03232628479599953
345.0,-0.39125809844698844,-2.08332962552787,2.3998253928087427,-2.414972786425128,-1.4203250176125823,-1.9070079730348708,0.5331203639507294,0.022526128217577934,0.7091450989246368,0.9628394842147827,-0.006897514685988426,0.26885393261909485,0.024701887741684914
346.0,-0.4388574138715355,-2.095024111672796,2.4101451863214467,-2.416493690342839,-1.364107393323917,-1.9461472970720555,0.5289989113807678,0.008717050775885582,0.7070526331663132,0.9602431654930115,-0.003440016880631447,0.27889230847358704,0.01184418797492981
347.0,-0.45935656622491233,-2.093477174180585,2.3973885927906275,-2.372216029036319,-1.342222378333887,-1.9710209616036034,0.5319058448076248,0.00014590195496566594,0.709098108112812,0.963306188583374,-0.00040124167571775615,0.26840072870254517,0.0014400803484022617
348.0,-0.5112462937259631,-2.1049110556539254,2.4109119061015725,-2.378404147870566,-1.2725457232913473,-2.0144079220749163,0.5274781584739685,-0.013456108048558235,0.7059991136193275,0.9586610198020935,0.004462608601897955,0.2841169834136963,-0.015057629905641079
349.0,-0.5364911441208741,-2.1071043796589746,2.4111071226776186,-2.366011170625172,-1.2422227506054273,-2.0389445463582607,0.5271577090024948,-0.021699635311961174,0.7055093571543694,0.9577294588088989,0.007049414794892073,0.28661781549453735,-0.023555517196655273
350.0,-0.571997150265344,-2.108390130607884,2.4101826325703737,-2.3453142132500466,-1.1958493640183399,-2.0753788792870824,0.5274866372346878,-0.033332645893096924,0.7048136740922928,0.9560898542404175,0.011428975500166416,0.29042381048202515,-0.03762476518750191
351.0,-0.5816436910727495,-2.0973814799251187,2.3896241340401727,-2.2948491631738737,-1.192428308097437,-2.0958219579167716,0.5338418930768967,-0.04223823547363281,0.7080294191837311,0.960111141204834,0.013116935268044472,0.275546133518219,-0.04570456221699715
352.0,-0.5432821004392853,-2.0841084735123054,2.3678327783504862,-2.2666747548525357,-1.2537800168530826,-2.0655634290127525,0.5404803603887558,-0.0353965237736702,0.7126997411251068,0.9670693278312683,0.008844761177897453,0.2520861029624939,-0.03393085300922394
353.0,-0.5273074610413025,-2.089379184795886,2.377167080812539,-2.2924848011156924,-1.2682682690596343,-2.045733644367134,0.5372999310493469,-0.02708110213279724,0.7114664688706398,0.9659258723258972,0.007148426026105881,0.2573252022266388,-0.026833169162273407
354.0,-0.5607947557292091,-2.078856381432719,2.3591580461956054,-2.2415922046492174,-1.2363238335421693,-2.087116242084762,0.5434553772211075,-0.044152334332466125,0.7136885076761246,0.9677923321723938,0.010777532123029232,0.24797706305980682,-0.04206201061606407
355.0,-0.5962860722992063,-2.081798427728554,2.3653029207824603,-2.238090063509037,-1.1831451265762616,-2.1227956256727945,0.542174682021141,-0.054558467119932175,0.7115392610430717,0.9638401865959167,0.015398049727082253,0.2598316967487335,-0.0571187362074852
356.0,-0.6233456172508036,-2.071237666959945,2.352492894461356,-2.2012048969934037,-1.1495613741426096,-2.1589041558490663,0.5474062263965607,-0.06830594688653946,0.712515726685524,0.9635283350944519,0.019340137019753456,0.25685742497444153,-0.07254907488822937
357.0,-0.619209889577558,-2.0596917883228323,2.3372819977301273,-2.1780154306391055,-1.1629524123775858,-2.1597300593115474,0.5532708168029785,-0.07234563678503036,0.715172253549099,0.9664017558097839,0.01859915256500244,0.24570347368717194,-0.07315424829721451
358.0,-0.6702195200690382,-2.0741846562715445,2.361858449389244,-2.189761872447229,-1.0697583007332663,-2.2135439342329706,0.5451681166887283,-0.08105252683162689,0.7084626778960228,0.9559945464134216,0.02774873562157154,0.27577388286590576,-0.09619345515966415
359.0,-0.6787243694701928,-2.0650337345226406,2.351805243071912,-2.1682874807100543,-1.0603516424021242,-2.2290677635263356,0.5493740737438202,-0.08801905065774918,0.7095481306314468,0.9563027620315552,0.029286745935678482,0.27208828926086426,-0.10293348133563995
360.0,-0.6940177451237265,-2.0546305089089567,2.3408759079624053,-2.1350023502272006,-1.0337882971357568,-2.2575004286760767,0.5538895726203918,-0.09672385454177856,0.7098263949155807,0.955000102519989,0.03325938433408737,0.2702956795692444,-0.11751101911067963
361.0,-0.7132286663889467,-2.0468726415056913,2.334639747466261,-2.1065344183603996,-0.9989738474317263,-2.2910143458916665,0.5566766858100891,-0.10541434586048126,0.70894555747509,0.9519125819206238,0.03820518031716347,0.2733054459095001,-0.13306722044944763
362.0,-0.6989619029384799,-2.0321402135599396,2.3151071769577345,-2.086720330568233,-1.028605195426345,-2.278081800235542,0.5644683986902237,-0.10786419361829758,0.7129001617431641,0.956811785697937,0.03510330617427826,0.2573932409286499,-0.13049007952213287
363.0,-0.6963870066795851,-2.0169365315040317,2.297081515610837,-2.056866623966251,-1.0333300273559152,-2.2837598153822976,0.5719209313392639,-0.11322619020938873,0.7152728214859962,0.9587430357933044,0.03523678332567215,0.24657343327999115,-0.13700999319553375
364.0,-0.720671539177168,-2.0093022812348913,2.2931019595013473,-2.024645190134816,-0.9844199240637037,-2.3283459898459142,0.573910117149353,-0.12289117276668549,0.7129915878176689,0.9532544016838074,0.04212629422545433,0.25406497716903687,-0.158058300614357
365.0,-0.7579189137797538,-1.9981653002937574,2.288382345747761,-1.9644803114789082,-0.9046073313777603,-2.409186861907587,0.5755131393671036,-0.13666829466819763,0.7080399394035339,0.9423267841339111,0.05485714226961136,0.2679305970668793,-0.19293560087680817
366.0,-0.783781523805991,-2.0143645661891254,2.3130526529576216,-1.974124027230702,-0.8496015255046924,-2.450640349600647,0.5658424645662308,-0.13636744022369385,0.7018393129110336,0.932442307472229,0.06329389661550522,0.29339900612831116,-0.20115236937999725
367.0,-0.7510436770813652,-2.0306746539590654,2.323322305979905,-2.0437781511603417,-0.9241779697375153,-2.366870009027765,0.56165611743927,-0.12218021601438522,0.705940380692482,0.9434541463851929,0.04986055567860603,0.2821580171585083,-0.16671918332576752
368.0,-0.7888071002138689,-2.0456859034266066,2.350443768226384,-2.0458031684491553,-0.8408883607508332,-2.428076003366444,0.552074134349823,-0.12461675703525543,0.6979209259152412,0.9291736483573914,0.06218647584319115,0.3147493302822113,-0.18358111381530762
369.0,-0.8230787597445679,-2.0349732876940743,2.3478468338355323,-1.9774368300327816,-0.7593583451025341,-2.5245467798671997,0.5530790686607361,-0.13622844219207764,0.6919556632637978,0.9146433472633362,0.07838090509176254,0.3331199884414673,-0.21520942449569702
370.0,-0.8478385968423094,-2.0201785430986376,2.339139466416763,-1.9001976684050605,-0.6963954526328305,-2.6205048978659593,0.5556037276983261,-0.14698787033557892,0.6869028583168983,0.9010947942733765,0.09348369389772415,0.34685274958610535,-0.24286292493343353
371.0,-0.8269478092496191,-1.9960488390562319,2.30549404975561,-1.8653892137907335,-0.7417034973966113,-2.5933177414144106,0.567620187997818,-0.15200339257717133,0.6930234432220459,0.911193311214447,0.08638239651918411,0.31749895215034485,-0.24790969491004944
372.0,-0.8357403420661956,-1.9776444359946137,2.2882843926415,-1.7958140380573127,-0.7143514539323419,-2.6545406222470698,0.5727594941854477,-0.159988135099411,0.6908580809831619,0.9040912985801697,0.09477768838405609,0.3174624443054199,-0.2699143886566162
373.0,-0.8672350579865733,-1.9484441714482974,2.270179427312319,-1.6442045618805767,-0.6265211623843774,-2.8430147492639777,0.5756998956203461,-0.17467200756072998,0.6802854388952255,0.8770132064819336,0.12255730479955673,0.3428303599357605,-0.31352055072784424
374.0,-0.8525327743614571,-1.8782594602736706,2.2051834390475697,-1.4937448951076295,-0.6591244429524061,-2.9021029528397078,0.597600907087326,-0.19296303391456604,0.6743596717715263,0.875494658946991,0.12277282029390335,0.2997499406337738,-0.3585887849330902
375.0,-0.8441599609055341,-1.8533445301264095,2.180506885391914,-1.4465643865050357,-0.6718836394060365,-2.910336662579758,0.6066627949476242,-0.19818317890167236,0.6740313246846199,0.8748874068260193,0.12095378339290619,0.28292208909988403,-0.3740285038948059
376.0,-0.8340497299135999,-1.8297621504517334,2.1541797518886905,-1.3989436080279682,-0.6853370238148946,-2.911996115887105,0.6159754917025566,-0.2020704448223114,0.6755479946732521,0.8742956519126892,0.11788558214902878,0.26464608311653137,-0.38945165276527405
377.0,-0.82509560330591,-1.803543620681639,2.129496437902214,-1.3538170796221887,-0.7028074178219723,-2.909061549310605,0.6252095773816109,-0.20715400576591492,0.6740253120660782,0.8740668296813965,0.11275678873062134,0.24329416453838348,-0.40509384870529175
378.0,-0.8075102088470701,-1.7663143294011223,2.090209544486391,-1.2911854450662967,-0.7287475526795631,-2.887608928000048,0.6405553631484509,-0.21226072311401367,0.6749487295746803,0.8739280700683594,0.10197588801383972,0.20874010026454926,-0.4269405007362366
