Sungjin-Park-dev/vision_inspection/data/trajectory/1158/collision_free_trajectory.csv
time,ur20-shoulder_pan_joint,ur20-shoulder_lift_joint,ur20-elbow_joint,ur20-wrist_1_joint,ur20-wrist_2_joint,ur20-wrist_3_joint
0.0,-0.43319880962371826,-0.5116091966629028,1.3782380819320679,0.28975722193717957,0.614184558391571,-1.0770158767700195
1.0,-0.44033703207969666,-0.45619213581085205,1.2828432321548462,0.4880616366863251,0.5760827660560608,-1.2681626081466675
2.0,-0.4448164403438568,-0.4159388840198517,1.221828818321228,0.6143897771835327,0.5623906850814819,-1.393405556678772
3.0,-0.4302692413330078,-0.5289120078086853,1.4175605773925781,0.21104565262794495,0.6366937160491943,-1.006127953529358
4.0,-0.43824511766433716,-0.490058958530426,1.3523670434951782,0.3413180410861969,0.6026777029037476,-1.1340081691741943
5.0,-0.43824511766433716,-0.490058958530426,1.3523670434951782,0.3413180410861969,0.6026777029037476,-1.1340081691741943
6.0,-0.43832114338874817,-0.4911356568336487,1.3544845581054688,0.322591096162796,0.5956606864929199,-1.1176048517227173
7.0,-0.43848010897636414,-0.4933275878429413,1.3588950634002686,0.2837900221347809,0.5811290740966797,-1.0836155414581299
8.0,-0.4387137293815613,-0.4965185523033142,1.3654824495315552,0.2261464148759842,0.5595481395721436,-1.0331306457519531
9.0,-0.439008504152298,-0.5005700588226318,1.3740915060043335,0.15121078491210938,0.5314908623695374,-0.967505156993866
10.0,-0.4393579065799713,-0.5053409337997437,1.3845559358596802,0.060560084879398346,0.49754342436790466,-0.8881179690361023
11.0,-0.43976935744285583,-0.5106815099716187,1.3967242240905762,-0.04421957954764366,0.45829907059669495,-0.7963457703590393
12.0,-0.44024401903152466,-0.5164333581924438,1.410431981086731,-0.16156288981437683,0.41435402631759644,-0.6935665011405945
13.0,-0.440778523683548,-0.5224341750144958,1.4255348443984985,-0.2898959219455719,0.3662998378276825,-0.581163227558136
14.0,-0.4413502514362335,-0.5285263657569885,1.441886067390442,-0.42764580249786377,0.31471672654151917,-0.46051299571990967
15.0,-0.44194263219833374,-0.5345609784126282,1.459336280822754,-0.5732302665710449,0.26018115878105164,-0.33298999071121216
16.0,-0.442535936832428,-0.5403828024864197,1.4777262210845947,-0.7250785231590271,0.20326872169971466,-0.19996055960655212
17.0,-0.4431159198284149,-0.5458280444145203,1.4968986511230469,-0.8816143870353699,0.14456775784492493,-0.06280528753995895
18.0,-0.44367656111717224,-0.5507486462593079,1.5166957378387451,-1.0412776470184326,0.08467124402523041,0.0770983174443245
19.0,-0.4442150890827179,-0.5550171732902527,1.5369621515274048,-1.2024931907653809,0.024175290018320084,0.2183748334646225
20.0,-0.44473499059677124,-0.5585795044898987,1.5575166940689087,-1.3637007474899292,-0.036332499235868454,0.35965293645858765
21.0,-0.4452346861362457,-0.5614736080169678,1.578128457069397,-1.523327112197876,-0.09626654535531998,0.4995611608028412
22.0,-0.4457080364227295,-0.5637632012367249,1.5985597372055054,-1.679811954498291,-0.15504534542560577,0.6367186903953552
23.0,-0.44615495204925537,-0.5655161142349243,1.6185667514801025,-1.8315883874893188,-0.21207988262176514,0.7697495818138123
24.0,-0.44657015800476074,-0.5668030381202698,1.6379045248031616,-1.9770889282226562,-0.2667795419692993,0.8972824811935425
25.0,-0.44695666432380676,-0.5676880478858948,1.6563360691070557,-2.114743232727051,-0.3185509443283081,1.0179463624954224
26.0,-0.4473111927509308,-0.5682381987571716,1.6736243963241577,-2.2429873943328857,-0.3667975068092346,1.1303632259368896
27.0,-0.44763389229774475,-0.5685149431228638,1.6895381212234497,-2.3602428436279297,-0.4109269976615906,1.2331486940383911
28.0,-0.44792282581329346,-0.5685869455337524,1.7038319110870361,-2.464939594268799,-0.4503452181816101,1.324924111366272
29.0,-0.44817647337913513,-0.5685127973556519,1.716257095336914,-2.5555028915405273,-0.48446059226989746,1.4043136835098267
30.0,-0.44839397072792053,-0.5683574676513672,1.7265700101852417,-2.6303651332855225,-0.5126800537109375,1.4699442386627197
31.0,-0.4485665261745453,-0.5681743025779724,1.7345385551452637,-2.6879498958587646,-0.5344058275222778,1.520431637763977
32.0,-0.44868558645248413,-0.5680181980133057,1.7399271726608276,-2.7267208099365234,-0.5490482449531555,1.5544216632843018
33.0,-0.4487415850162506,-0.5679291486740112,1.742540717124939,-2.7454333305358887,-0.5561245679855347,1.570826530456543
34.0,-0.4487415850162506,-0.5679291486740112,1.742540717124939,-2.7454333305358887,-0.5561245679855347,1.570826530456543
35.0,-0.4489690959453583,-0.5573339462280273,1.771536111831665,-2.8823208808898926,-0.5607932806015015,1.6855789422988892
36.0,-0.4505297839641571,-0.5665902495384216,1.7147021293640137,-2.637531042098999,-0.5593384504318237,1.4748709201812744
37.0,-0.4454488456249237,-0.5651065707206726,1.609625220298767,-2.295332670211792,-0.5911825299263,1.1910618543624878
38.0,-0.4524391293525696,-0.5613256096839905,1.6923915147781372,-2.559837818145752,-0.5657669901847839,1.4030086994171143
39.0,-0.45004019141197205,-0.5634929537773132,1.6532505750656128,-2.430182695388794,-0.5751218199729919,1.298251986503601
40.0,-0.45393165946006775,-0.5550159811973572,1.6719372272491455,-2.500380754470825,-0.5720871686935425,1.3490455150604248
41.0,-0.44844117760658264,-0.5562587976455688,1.6076769828796387,-2.3006627559661865,-0.5939121246337891,1.1886171102523804
42.0,-0.442702054977417,-0.5552365183830261,1.562131643295288,-2.1781156063079834,-0.6124619245529175,1.09434974193573
43.0,-0.4321545660495758,-0.5420079231262207,1.4771974086761475,-1.9847800731658936,-0.6562583446502686,0.9436864256858826
44.0,-0.4191894233226776,-0.5149510502815247,1.379002332687378,-1.8107231855392456,-0.7106306552886963,0.8109636306762695
45.0,-0.40055033564567566,-0.4826587438583374,1.2675529718399048,-1.6347784996032715,-0.7811959385871887,0.6796661615371704
46.0,-0.41035494208335876,-0.5040585398674011,1.3300201892852783,-1.7253841161727905,-0.7408385276794434,0.7484859228134155
47.0,-0.42294028401374817,-0.5336821675300598,1.421021580696106,-1.8710501194000244,-0.6850825548171997,0.8609801530838013
48.0,-0.4130692780017853,-0.5212693214416504,1.365054965019226,-1.7721376419067383,-0.7184981107711792,0.7883592247962952
49.0,-0.40228724479675293,-0.4982614517211914,1.2932265996932983,-1.6594661474227905,-0.764600396156311,0.7021195888519287
50.0,-0.3911096751689911,-0.47407475113868713,1.2264645099639893,-1.5698999166488647,-0.8093597888946533,0.6343254446983337
51.0,-0.38260123133659363,-0.45215439796447754,1.1722667217254639,-1.5029219388961792,-0.8465392589569092,0.5827860832214355
52.0,-0.3601815104484558,-0.4136047959327698,1.0636354684829712,-1.3730415105819702,-0.9248570203781128,0.4882676601409912
53.0,-0.38247302174568176,-0.46461519598960876,1.1869983673095703,-1.5094294548034668,-0.83757084608078,0.5913271307945251
54.0,-0.37211862206459045,-0.44896411895751953,1.139331579208374,-1.4497700929641724,-0.871540904045105,0.5484865307807922
55.0,-0.3488147556781769,-0.41070303320884705,1.0320533514022827,-1.3249480724334717,-0.9518662095069885,0.45742395520210266
56.0,-0.3335983455181122,-0.3863314092159271,0.9659157395362854,-1.2534873485565186,-1.004072904586792,0.4050504267215729
57.0,-0.31626608967781067,-0.36011233925819397,0.897125244140625,-1.1862224340438843,-1.0599395036697388,0.3553237020969391
58.0,-0.3455466330051422,-0.41765859723091125,1.0316787958145142,-1.312251091003418,-0.9562238454818726,0.45070919394493103
59.0,-0.3665160834789276,-0.4494718909263611,1.1240724325180054,-1.4209604263305664,-0.8851360082626343,0.5297502279281616
60.0,-0.38230404257774353,-0.47946903109550476,1.2051969766616821,-1.519636631011963,-0.826280951499939,0.6034736633300781
61.0,-0.39220669865608215,-0.4927947223186493,1.253818392753601,-1.5921928882598877,-0.791688859462738,0.6562420129776001
62.0,-0.4009241759777069,-0.5102760195732117,1.3043254613876343,-1.6623622179031372,-0.757420003414154,0.7093086838722229
63.0,-0.41000667214393616,-0.5287449359893799,1.3640336990356445,-1.7578926086425781,-0.7192283868789673,0.7820584177970886
64.0,-0.3929092288017273,-0.5106900930404663,1.278770923614502,-1.6118890047073364,-0.7754376530647278,0.676457941532135
65.0,-0.4038075804710388,-0.529359757900238,1.3413352966308594,-1.7086906433105469,-0.7336872220039368,0.748954176902771
66.0,-0.4133240282535553,-0.5516960620880127,1.4103221893310547,-1.822181224822998,-0.6895520687103271,0.8376645445823669
67.0,-0.4181024730205536,-0.5470622777938843,1.4222232103347778,-1.854526400566101,-0.6829513907432556,0.8571881651878357
68.0,-0.4243534207344055,-0.5647920966148376,1.4806166887283325,-1.961978793144226,-0.6503843665122986,0.942048192024231
69.0,-0.43621522188186646,-0.57809978723526,1.5741064548492432,-2.178945302963257,-0.6031122803688049,1.1102954149246216
70.0,-0.4322819411754608,-0.566749095916748,1.5244797468185425,-2.0661399364471436,-0.627324640750885,1.0189536809921265
71.0,-0.4268306493759155,-0.5525490045547485,1.4704430103302002,-1.9540331363677979,-0.6581417918205261,0.9282322525978088
72.0,-0.4346855580806732,-0.556760847568512,1.5175938606262207,-2.062377452850342,-0.6326621770858765,1.009535312652588
73.0,-0.4393271803855896,-0.5715914964675903,1.57943594455719,-2.201246500015259,-0.602499783039093,1.1223770380020142
74.0,-0.4440455436706543,-0.575634777545929,1.6321202516555786,-2.3499372005462646,-0.5795659422874451,1.2428401708602905
75.0,-0.4458158016204834,-0.5785467624664307,1.6732698678970337,-2.4750077724456787,-0.5664300918579102,1.3461110591888428
76.0,-0.44251325726509094,-0.5833352208137512,1.6451612710952759,-2.3811020851135254,-0.5726835131645203,1.274078607559204
77.0,-0.4454277753829956,-0.5803856253623962,1.7249858379364014,-2.6635169982910156,-0.5541436076164246,1.5098075866699219
78.0,-0.4428708851337433,-0.5879321694374084,1.6893372535705566,-2.52195405960083,-0.5598071217536926,1.3940023183822632
79.0,-0.4435061812400818,-0.579437255859375,1.7545644044876099,-2.7864181995391846,-0.5536773800849915,1.6183937788009644
80.0,-0.4400690495967865,-0.5915323495864868,1.651677131652832,-2.3917338848114014,-0.568725049495697,1.289057970046997
81.0,-0.4363420903682709,-0.588384747505188,1.604265809059143,-2.2521700859069824,-0.5879288911819458,1.1751205921173096
82.0,-0.4286670684814453,-0.5822865962982178,1.535879373550415,-2.0744292736053467,-0.6185593008995056,1.0356489419937134
83.0,-0.4356309175491333,-0.597410261631012,1.6269992589950562,-2.309067964553833,-0.5765489935874939,1.2273094654083252
84.0,-0.4368640184402466,-0.6013093590736389,1.6845288276672363,-2.4990108013153076,-0.5718449354171753,1.3870699405670166
85.0,-0.40938296914100647,-0.6151725649833679,1.5871670246124268,-2.2684876918792725,-0.7356098890304565,1.2080546617507935
86.0,-0.39334338903427124,-0.6111706495285034,1.52833092212677,-2.163361072540283,-0.814059853553772,1.1150786876678467
87.0,-0.42016637325286865,-0.5720000863075256,1.4733901023864746,-1.9357470273971558,-0.6524904370307922,0.9283680319786072
88.0,-0.4029121398925781,-0.539662778377533,1.352481722831726,-1.7160226106643677,-0.7264260053634644,0.7588465213775635
89.0,-0.3740142583847046,-0.6122821569442749,1.4924914836883545,-2.1280527114868164,-0.9086624979972839,1.0722975730895996
90.0,-0.36668768525123596,-0.5963013172149658,1.4359935522079468,-2.024390459060669,-0.9305353164672852,0.9733154773712158
91.0,-0.3429197371006012,-0.6011304259300232,1.4197708368301392,-2.045435905456543,-1.0364751815795898,0.957748293876648
92.0,-0.32301583886146545,-0.5956372618675232,1.386535882949829,-2.022965669631958,-1.1135010719299316,0.8973143100738525
93.0,-0.30319127440452576,-0.5651988983154297,1.2960286140441895,-1.892566204071045,-1.168256163597107,0.7348430156707764
94.0,-0.27597400546073914,-0.582743763923645,1.3261724710464478,-2.0020711421966553,-1.2779791355133057,0.7297540307044983
95.0,-0.27252933382987976,-0.6202387809753418,1.4274834394454956,-2.191849708557129,-1.327652096748352,0.9068640470504761
96.0,-0.2845863997936249,-0.6265983581542969,1.4495986700057983,-2.211709499359131,-1.2890877723693848,0.98580002784729
97.0,-0.2998456060886383,-0.6310431361198425,1.4687062501907349,-2.2187187671661377,-1.2347992658615112,1.0433565378189087
98.0,-0.32698795199394226,-0.6325516700744629,1.4927101135253906,-2.2190792560577393,-1.126777172088623,1.10655677318573
99.0,-0.3278040885925293,-0.6479689478874207,1.5417510271072388,-2.3113906383514404,-1.1366021633148193,1.2190412282943726
100.0,-0.28417715430259705,-0.6698391437530518,1.5832151174545288,-2.434739589691162,-1.333844780921936,1.3630796670913696
101.0,-0.27343639731407166,-0.6809775829315186,1.6162495613098145,-2.491643190383911,-1.3821933269500732,1.4940026998519897
102.0,-0.3344970941543579,-0.6710331439971924,1.6362900733947754,-2.4867048263549805,-1.122463345527649,1.4573464393615723
103.0,-0.3329833447933197,-0.6568530797958374,1.5781583786010742,-2.3740975856781006,-1.1208652257919312,1.3046624660491943
104.0,-0.36624038219451904,-0.6478685140609741,1.6008819341659546,-2.3795342445373535,-0.9685397744178772,1.3197476863861084
105.0,-0.3900544345378876,-0.640842080116272,1.6355427503585815,-2.4280173778533936,-0.8523263931274414,1.3636248111724854
106.0,-0.3667362332344055,-0.6659901142120361,1.7026804685592651,-2.616471767425537,-0.9742626547813416,1.5867892503738403
107.0,-0.3119966983795166,-0.687011182308197,1.6760364770889282,-2.5784525871276855,-1.222569465637207,1.6253477334976196
108.0,-0.3193759024143219,-0.6920398473739624,1.7181742191314697,-2.6584739685058594,-1.187531590461731,1.7341128587722778
109.0,-0.34803709387779236,-0.6818241477012634,1.7612508535385132,-2.7609782218933105,-1.056597352027893,1.7931687831878662
110.0,-0.3494386672973633,-0.6792051792144775,1.7967174053192139,-2.8615005016326904,-1.0422214269638062,1.9047099351882935
111.0,-0.3385826647281647,-0.68429034948349,1.8182141780853271,-2.9145076274871826,-1.0821785926818848,1.996636152267456
112.0,-0.36033496260643005,-0.6521490216255188,1.8651913404464722,-3.115267276763916,-0.9692950248718262,2.1171629428863525
113.0,-0.38656699657440186,-0.6545885801315308,1.7447154521942139,-2.7221124172210693,-0.8747538924217224,1.6660577058792114
114.0,-0.41529300808906555,-0.6268287301063538,1.7229604721069336,-2.6531035900115967,-0.7152643203735352,1.5524846315383911
115.0,-0.41529300808906555,-0.6268287301063538,1.7229604721069336,-2.6531035900115967,-0.7152643203735352,1.5524846315383911
116.0,-0.4155181646347046,-0.6259536147117615,1.7197489738464355,-2.6329100131988525,-0.7064608931541443,1.5346695184707642
117.0,-0.4159620404243469,-0.6241248846054077,1.7131096124649048,-2.591076135635376,-0.6882226467132568,1.497766375541687
118.0,-0.4165842533111572,-0.6213808059692383,1.7032692432403564,-2.5289347171783447,-0.6611296534538269,1.442952275276184
119.0,-0.4173426926136017,-0.6177727580070496,1.6904990673065186,-2.4481334686279297,-0.6259017586708069,1.3716895580291748
120.0,-0.4181968867778778,-0.6133559942245483,1.6750737428665161,-2.350360155105591,-0.5832724571228027,1.2854712009429932
121.0,-0.4191071093082428,-0.6081891059875488,1.657265067100525,-2.2373087406158447,-0.5339778661727905,1.185793161392212
122.0,-0.42003464698791504,-0.6023315191268921,1.63735032081604,-2.110675573348999,-0.47875720262527466,1.0741509199142456
123.0,-0.42094138264656067,-0.5958387851715088,1.6156057119369507,-1.9721524715423584,-0.4183524250984192,0.9520390033721924
124.0,-0.42178860306739807,-0.5887645483016968,1.5923045873641968,-1.8234336376190186,-0.35350340604782104,0.8209529519081116
125.0,-0.42253684997558594,-0.5811632871627808,1.5677210092544556,-1.6662192344665527,-0.28494757413864136,0.6823903322219849
126.0,-0.4231453239917755,-0.5730945467948914,1.5421288013458252,-1.502208948135376,-0.21342413127422333,0.5378463268280029
127.0,-0.42358043789863586,-0.5646358728408813,1.5157960653305054,-1.3330998420715332,-0.1396743506193161,0.3888169527053833
128.0,-0.4238142669200897,-0.555873453617096,1.48898446559906,-1.1605887413024902,-0.06443936377763748,0.23679469525814056
129.0,-0.4238153398036957,-0.5468929409980774,1.4619570970535278,-0.9863700866699219,0.011543212458491325,0.08327329903841019
130.0,-0.4235548973083496,-0.5377785563468933,1.43497896194458,-0.8121370673179626,0.08753649890422821,-0.07025608420372009
131.0,-0.4230067729949951,-0.5286107063293457,1.408315896987915,-0.6395828723907471,0.16280075907707214,-0.22229792177677155
132.0,-0.4222104251384735,-0.5194944739341736,1.3822259902954102,-0.4704042077064514,0.23659278452396393,-0.3713577091693878
133.0,-0.4212085008621216,-0.5105383396148682,1.3569657802581787,-0.30629727244377136,0.3081703186035156,-0.5159391760826111
134.0,-0.4200480580329895,-0.5018542408943176,1.3327916860580444,-0.14896002411842346,0.37679246068000793,-0.6545459628105164
135.0,-0.41877511143684387,-0.49355053901672363,1.3099596500396729,-9.201061038766056e-05,0.44171732664108276,-0.7856798768043518
136.0,-0.4174388349056244,-0.48573440313339233,1.2887256145477295,0.13860303163528442,0.5022015571594238,-0.9078440070152283
137.0,-0.4160900115966797,-0.4785151183605194,1.2693437337875366,0.2654206454753876,0.5575019717216492,-1.0195409059524536
138.0,-0.4147793650627136,-0.47200459241867065,1.2520644664764404,0.3786589503288269,0.6068775653839111,-1.1192752122879028
139.0,-0.41355857253074646,-0.4663165509700775,1.237139344215393,0.47661638259887695,0.649587869644165,-1.205548882484436
140.0,-0.41248127818107605,-0.4615653455257416,1.224819302558899,0.5575913190841675,0.6848920583724976,-1.2768616676330566
141.0,-0.41160428524017334,-0.45787158608436584,1.2153584957122803,0.6198829412460327,0.7120488882064819,-1.3317177295684814
142.0,-0.4109852612018585,-0.4553588032722473,1.2090015411376953,0.661825954914093,0.7303338050842285,-1.3686519861221313
143.0,-0.41067469120025635,-0.45413467288017273,1.2059396505355835,0.6820762157440186,0.7391611337661743,-1.3864835500717163
144.0,-0.41067469120025635,-0.45413467288017273,1.2059396505355835,0.6820762157440186,0.7391611337661743,-1.3864835500717163
145.0,-0.4116859436035156,-0.48861441016197205,1.273577094078064,0.5496141314506531,0.7267338633537292,-1.2591986656188965
146.0,-0.41192302107810974,-0.5274206399917603,1.3525066375732422,0.38785186409950256,0.7148330211639404,-1.111013650894165
147.0,-0.44071537256240845,-0.380831241607666,1.1423646211624146,0.7911604642868042,0.5507864356040955,-1.5495530366897583
148.0,-0.44058841466903687,-0.4286668002605438,1.226696252822876,0.6076767444610596,0.5609656572341919,-1.376516342163086
149.0,-0.4337450861930847,-0.4915325939655304,1.3274109363555908,0.3954932391643524,0.5911898612976074,-1.1686997413635254
150.0,-0.4281022846698761,-0.5286656022071838,1.3941960334777832,0.2586499750614166,0.6231741309165955,-1.0379537343978882
151.0,-0.41685059666633606,-0.5707871317863464,1.4584962129592896,0.13084904849529266,0.667909562587738,-0.9053704142570496
152.0,-0.3928042948246002,-0.6087732315063477,1.5056531429290771,0.07706905901432037,0.7854877710342407,-0.8052467703819275
153.0,-0.36095404624938965,-0.6344858407974243,1.520792007446289,0.10002037137746811,0.9269862174987793,-0.7368332743644714
154.0,-0.33225110173225403,-0.6046333312988281,1.4131488800048828,0.3593435287475586,1.069554328918457,-0.8451600074768066
155.0,-0.318858802318573,-0.6395851373672485,1.4844403266906738,0.22464051842689514,1.1003080606460571,-0.6911318302154541
156.0,-0.30155202746391296,-0.6517946720123291,1.500886082649231,0.20181024074554443,1.1561332941055298,-0.6132845878601074
157.0,-0.27081984281539917,-0.5972464084625244,1.3574285507202148,0.49711495637893677,1.2962346076965332,-0.6964952945709229
158.0,-0.2501484751701355,-0.6072172522544861,1.371898889541626,0.4774574041366577,1.3513742685317993,-0.5680835843086243
159.0,-0.21865077316761017,-0.6214827299118042,1.3950012922286987,0.4383947551250458,1.4279526472091675,-0.3627035617828369
160.0,-0.2619720995426178,-0.6560099720954895,1.4871249198913574,0.24804769456386566,1.2856322526931763,-0.48371559381484985
161.0,-0.25050073862075806,-0.6824085712432861,1.550097942352295,0.11251591891050339,1.3082658052444458,-0.36934781074523926
162.0,-0.22468023002147675,-0.6762645840644836,1.5237239599227905,0.17271903157234192,1.3903602361679077,-0.2843766212463379
163.0,-0.18244707584381104,-0.6249293684959412,1.3967210054397583,0.4255886673927307,1.5423511266708374,-0.07246483117341995
164.0,-0.19025307893753052,-0.6841748356819153,1.537166714668274,0.13409413397312164,1.506001353263855,-0.09772135317325592
165.0,-0.15158680081367493,-0.6759834885597229,1.5189940929412842,0.15446406602859497,1.6369963884353638,0.10209903866052628
166.0,-0.1035996824502945,-0.639488160610199,1.4470715522766113,0.27273210883140564,1.7983508110046387,0.39971670508384705
167.0,-0.09625492990016937,-0.5772536993026733,1.31580650806427,0.530097484588623,1.820822834968567,0.6709700226783752
168.0,-0.12621542811393738,-0.6089752912521362,1.36990487575531,0.44712159037590027,1.7302014827728271,0.39611324667930603
169.0,-0.10697560757398605,-0.5314100980758667,1.2230925559997559,0.7091604471206665,1.7994047403335571,0.9226738214492798
170.0,-0.10063392668962479,-0.48311570286750793,1.1342617273330688,0.8467764258384705,1.8160321712493896,1.2787061929702759
171.0,-0.08807621896266937,-0.4791311025619507,1.1326242685317993,0.8483437299728394,1.8251264095306396,1.3028744459152222
172.0,-0.09242896735668182,-0.4721314311027527,1.1143531799316406,0.8618307113647461,1.8214821815490723,1.3075929880142212
173.0,-0.09163675457239151,-0.46077361702919006,1.089343547821045,0.8804154992103577,1.8209431171417236,1.3258055448532104
174.0,-0.1002485528588295,-0.4653753340244293,1.094696283340454,0.8763648867607117,1.8152759075164795,1.3076667785644531
175.0,-0.124592125415802,-0.48752927780151367,1.1343193054199219,0.8551365733146667,1.7400431632995605,1.1821138858795166
176.0,-0.13661257922649384,-0.5267478227615356,1.2068192958831787,0.7562305927276611,1.7016481161117554,0.7672187089920044
177.0,-0.14442087709903717,-0.4842815697193146,1.1223777532577515,0.872594952583313,1.6729694604873657,-1.7158334255218506
178.0,-0.1341918706893921,-0.4713743031024933,1.0956382751464844,0.8886663913726807,1.7033694982528687,1.1577539443969727
179.0,-0.1341918706893921,-0.4713743031024933,1.0956382751464844,0.8886663913726807,1.7033694982528687,1.1577539443969727
180.0,-0.13435204327106476,-0.47277480363845825,1.0991908311843872,0.8687061071395874,1.684526801109314,1.159184217453003
181.0,-0.13468299806118011,-0.4756709635257721,1.1065407991409302,0.8274118304252625,1.6455432176589966,1.162143349647522
182.0,-0.13517498970031738,-0.4799785315990448,1.1174768209457397,0.7659732699394226,1.5875396728515625,1.1665458679199219
183.0,-0.13581562042236328,-0.48558706045150757,1.1317206621170044,0.6859532594680786,1.5119901895523071,1.1722798347473145
184.0,-0.13659170269966125,-0.4923827052116394,1.148984670639038,0.5889639854431152,1.420415997505188,1.179229497909546
185.0,-0.1374897062778473,-0.500251293182373,1.1689808368682861,0.4766232371330261,1.3143432140350342,1.1872785091400146
186.0,-0.13849642872810364,-0.5090787410736084,1.1914207935333252,0.35055097937583923,1.1952991485595703,1.1963105201721191
187.0,-0.1395990252494812,-0.5187510251998901,1.216016411781311,0.21236789226531982,1.0648117065429688,1.2062088251113892
188.0,-0.14078441262245178,-0.5291540026664734,1.2424795627593994,0.06369459629058838,0.9244095683097839,1.2168571949005127
189.0,-0.1420394629240036,-0.5401737689971924,1.270521879196167,-0.09384896606206894,0.7756217122077942,1.2281394004821777
190.0,-0.14335082471370697,-0.5516967177391052,1.2998552322387695,-0.2586432993412018,0.6199771165847778,1.2399394512176514
191.0,-0.14470535516738892,-0.5636094212532043,1.3301913738250732,-0.42906907200813293,0.45900416374206543,1.252140998840332
192.0,-0.1460900902748108,-0.5757988691329956,1.3612416982650757,-0.6035078167915344,0.2942306697368622,1.2646276950836182
193.0,-0.14749176800251007,-0.5881521701812744,1.3927173614501953,-0.7803412079811096,0.12718401849269867,1.2772833108901978
194.0,-0.14889705181121826,-0.6005567908287048,1.4243297576904297,-0.9579505324363708,-0.040607668459415436,1.289991855621338
195.0,-0.1502929925918579,-0.6129001379013062,1.455790400505066,-1.134717345237732,-0.20761491358280182,1.3026384115219116
196.0,-0.15166711807250977,-0.6250696778297424,1.486810326576233,-1.3090229034423828,-0.3723079562187195,1.3151074647903442
197.0,-0.15300673246383667,-0.6369529962539673,1.5171012878417969,-1.4792484045028687,-0.533157229423523,1.3272833824157715
198.0,-0.15429887175559998,-0.6484378576278687,1.5463757514953613,-1.6437758207321167,-0.6886329650878906,1.3390506505966187
199.0,-0.15553069114685059,-0.6594119071960449,1.5743463039398193,-1.800987720489502,-0.8372054696083069,1.3502938747406006
200.0,-0.1566898077726364,-0.6697626709938049,1.6007245779037476,-1.949266791343689,-0.977344810962677,1.3608973026275635
201.0,-0.15776397287845612,-0.679377555847168,1.625223159790039,-2.086995840072632,-1.1075210571289062,1.3707455396652222
202.0,-0.15874090790748596,-0.6881434321403503,1.6475547552108765,-2.212557792663574,-1.2262042760849,1.3797231912612915
203.0,-0.15960843861103058,-0.6959468126296997,1.6674330234527588,-2.3243350982666016,-1.3318644762039185,1.3877142667770386
204.0,-0.1603545844554901,-0.7026747465133667,1.6845709085464478,-2.4207100868225098,-1.4229705333709717,1.3946032524108887
205.0,-0.16096749901771545,-0.708214282989502,1.6986812353134155,-2.5000672340393066,-1.4979931116104126,1.4002745151519775
206.0,-0.1614355444908142,-0.7124536037445068,1.709478497505188,-2.5607974529266357,-1.5554087162017822,1.4046134948730469
207.0,-0.16174747049808502,-0.715285062789917,1.716687560081482,-2.601350784301758,-1.5937496423721313,1.4075102806091309
208.0,-0.1618955433368683,-0.7166317701339722,1.720114827156067,-2.620631694793701,-1.6119791269302368,1.4088871479034424
209.0,-0.1618955433368683,-0.7166317701339722,1.720114827156067,-2.620631694793701,-1.6119791269302368,1.4088871479034424
210.0,-0.17662708461284637,-0.7249822020530701,1.7414419651031494,-2.632701873779297,-1.5682880878448486,1.3943507671356201
211.0,-0.1737140715122223,-0.7305362224578857,1.7599788904190063,-2.653456449508667,-1.5817897319793701,1.397295594215393
212.0,-0.19459016621112823,-0.7309893369674683,1.8189880847930908,-2.816470146179199,-1.513993501663208,2.798633575439453
213.0,-0.21047984063625336,-0.7282032370567322,1.8359711170196533,-2.8721814155578613,-1.4762765169143677,2.692979574203491
214.0,-0.1908128559589386,-0.7305967807769775,1.7571183443069458,-2.6436448097229004,-1.5487072467803955,1.3801746368408203
215.0,-0.21169741451740265,-0.7298393845558167,1.8047627210617065,-2.782684803009033,-1.492046594619751,2.622941493988037
216.0,-0.20156680047512054,-0.7279017567634583,1.7481293678283691,-2.6332507133483887,-1.5418397188186646,1.3693711757659912
217.0,-0.23124416172504425,-0.7268035411834717,1.8096439838409424,-2.807180881500244,-1.4473384618759155,2.4694788455963135
218.0,-0.21066397428512573,-0.7261670231819153,1.7463576793670654,-2.6386349201202393,-1.5303682088851929,1.3602815866470337
219.0,-0.20996885001659393,-0.7163792252540588,1.7128642797470093,-2.598917007446289,-1.5397865772247314,1.360874056816101
220.0,-0.21854566037654877,-0.7223979830741882,1.7338169813156128,-2.6240174770355225,-1.52456533908844,1.3523002862930298
221.0,-0.2408595234155655,-0.7247607111930847,1.7967056035995483,-2.780947685241699,-1.4309711456298828,2.3552005290985107
222.0,-0.2803449034690857,-0.7064675688743591,1.8567276000976562,-2.9860687255859375,-1.2785546779632568,2.326348304748535
223.0,-0.2609921395778656,-0.7193077206611633,1.7889591455459595,-2.7793915271759033,-1.3795721530914307,2.2051408290863037
224.0,-0.2952800691127777,-0.7065879106521606,1.807376503944397,-2.856152057647705,-1.2552542686462402,2.112382650375366
225.0,-0.2243981510400772,-0.717613697052002,1.7171380519866943,-2.603097915649414,-1.5233850479125977,1.3463478088378906
226.0,-0.24096108973026276,-0.7147719860076904,1.722238302230835,-2.632833957672119,-1.4756492376327515,1.3294258117675781
227.0,-0.2909325957298279,-0.7087002992630005,1.7725756168365479,-2.7635915279388428,-1.2856875658035278,2.0026931762695312
228.0,-0.2736815810203552,-0.7088871598243713,1.727654218673706,-2.6624505519866943,-1.3665887117385864,1.91640305519104
229.0,-0.2647954225540161,-0.7030832767486572,1.6932018995285034,-2.6048178672790527,-1.4087183475494385,1.8365949392318726
230.0,-0.23113906383514404,-0.7075991630554199,1.685498833656311,-2.5688769817352295,-1.5234190225601196,1.3395024538040161
231.0,-0.21528995037078857,-0.6957213282585144,1.6526904106140137,-2.5442514419555664,-1.5479910373687744,1.3554975986480713
232.0,-0.220503032207489,-0.704022228717804,1.6760872602462769,-2.563750982284546,-1.5381876230239868,1.3502589464187622
233.0,-0.2131025195121765,-0.7065266966819763,1.6837797164916992,-2.572053909301758,-1.5426517724990845,1.3577016592025757
234.0,-0.20735253393650055,-0.7103630900382996,1.6952402591705322,-2.5832319259643555,-1.5442408323287964,1.3634803295135498
235.0,-0.20444561541080475,-0.702208936214447,1.6716350317001343,-2.562253713607788,-1.5497033596038818,1.366373896598816
236.0,-0.19658732414245605,-0.7042262554168701,1.677738904953003,-2.568570613861084,-1.5525914430618286,1.3742505311965942
237.0,-0.18760113418102264,-0.6952728629112244,1.652279257774353,-2.5465354919433594,-1.560899019241333,1.3832248449325562
238.0,-0.1957474648952484,-0.6953318119049072,1.6521912813186646,-2.5457088947296143,-1.5572724342346191,1.3750717639923096
239.0,-0.20389501750469208,-0.6938837766647339,1.6478211879730225,-2.541060447692871,-1.554205060005188,1.36691153049469
240.0,-0.19695132970809937,-0.686716616153717,1.6278135776519775,-2.5240957736968994,-1.5615695714950562,1.373855471611023
241.0,-0.20230185985565186,-0.6825835108757019,1.6161199808120728,-2.5134401321411133,-1.5615699291229248,1.368497610092163
242.0,-0.19713126122951508,-0.6749311089515686,1.5949265956878662,-2.4950478076934814,-1.5665290355682373,1.3736658096313477
243.0,-0.2008366584777832,-0.6694985628128052,1.5800718069076538,-2.482382297515869,-1.5697733163833618,1.3699597120285034
244.0,-0.20809990167617798,-0.679689347743988,1.6079745292663574,-2.5060367584228516,-1.5613176822662354,1.3626950979232788
245.0,-0.20854926109313965,-0.6891482472419739,1.634304404258728,-2.5287392139434814,-1.554837703704834,1.3622465133666992
246.0,-0.21550630033016205,-0.6867894530296326,1.627471923828125,-2.522092342376709,-1.552898645401001,1.3552770614624023
247.0,-0.22576451301574707,-0.6916148066520691,1.6403454542160034,-2.5310425758361816,-1.5403428077697754,1.3449627161026
248.0,-0.24217605590820312,-0.6973260641098022,1.6579899787902832,-2.5463554859161377,-1.4990814924240112,1.3281079530715942
249.0,-0.2558062970638275,-0.690133810043335,1.6407430171966553,-2.5302765369415283,-1.4510363340377808,1.3133032321929932
250.0,-0.2288670539855957,-0.6828212738037109,1.6155781745910645,-2.5090270042419434,-1.5433069467544556,1.341856837272644
251.0,-0.2317076176404953,-0.6767727732658386,1.5983312129974365,-2.4924211502075195,-1.5402637720108032,1.3389846086502075
252.0,-0.217983216047287,-0.680889368057251,1.6111204624176025,-2.5081796646118164,-1.5571715831756592,1.3528034687042236
253.0,-0.2186174988746643,-0.674609363079071,1.5938318967819214,-2.4934370517730713,-1.5612866878509521,1.3521720170974731
254.0,-0.21016846597194672,-0.6729797124862671,1.589571475982666,-2.490445137023926,-1.5660871267318726,1.3606271743774414
255.0,-0.20736707746982574,-0.6641467213630676,1.5652867555618286,-2.4690732955932617,-1.569148302078247,1.3634296655654907
256.0,-0.20754733681678772,-0.6571372747421265,1.5456477403640747,-2.450146436691284,-1.563843011856079,1.3632498979568481
257.0,-0.21479758620262146,-0.6578819751739502,1.5475947856903076,-2.451601266860962,-1.561764121055603,1.3559948205947876
258.0,-0.2425018846988678,-0.6653768420219421,1.5635077953338623,-2.4456372261047363,-1.4929403066635132,1.3275445699691772
259.0,-0.2252022922039032,-0.658725380897522,1.54931640625,-2.451167106628418,-1.5525166988372803,1.3455597162246704
260.0,-0.23976899683475494,-0.6439101696014404,1.501595377922058,-2.373414993286133,-1.475521206855774,1.3300299644470215
261.0,-0.21632327139377594,-0.6470125317573547,1.5173771381378174,-2.422118663787842,-1.551378607749939,1.354454517364502
262.0,-0.20648981630802155,-0.64096599817276,1.501206636428833,-2.408043622970581,-1.5530091524124146,1.364310622215271
263.0,-0.19912023842334747,-0.6436634659767151,1.5087847709655762,-2.416017770767212,-1.559123158454895,1.371692180633545
264.0,-0.202359139919281,-0.6516629457473755,1.5306473970413208,-2.4363954067230225,-1.563002347946167,1.3684446811676025
265.0,-0.1937422752380371,-0.6522505879402161,1.5323563814163208,-2.4383034706115723,-1.565515398979187,1.3770639896392822
266.0,-0.19862641394138336,-0.6578220725059509,1.5477045774459839,-2.4525856971740723,-1.5674502849578857,1.3721741437911987
267.0,-0.1952807456254959,-0.6637341380119324,1.5640369653701782,-2.4676132202148438,-1.5693414211273193,1.3755162954330444
268.0,-0.18628764152526855,-0.657880961894989,1.547849416732788,-2.452672243118286,-1.56863534450531,1.3845136165618896
269.0,-0.18455606698989868,-0.6483450531959534,1.5217983722686768,-2.4289536476135254,-1.5666834115982056,1.3862577676773071
270.0,-0.17895177006721497,-0.6528416275978088,1.5341178178787231,-2.4403810501098633,-1.5693700313568115,1.3918558359146118
271.0,-0.180541530251503,-0.6630574464797974,1.5621267557144165,-2.4657530784606934,-1.5703012943267822,1.3902561664581299
272.0,-0.1741744577884674,-0.6580590009689331,1.5483447313308716,-2.453145980834961,-1.5697896480560303,1.3966269493103027
273.0,-0.1684263050556183,-0.6614514589309692,1.557688593864441,-2.4616880416870117,-1.5708987712860107,1.4023723602294922
274.0,-0.17104235291481018,-0.6491568088531494,1.524135947227478,-2.4314959049224854,-1.5701144933700562,1.399770736694336
275.0,-0.17326776683330536,-0.6418166160583496,1.504274845123291,-2.413555860519409,-1.5682796239852905,1.3975595235824585
276.0,-0.18091541528701782,-0.6412503719329834,1.502623438835144,-2.4116477966308594,-1.5654644966125488,1.3899121284484863
277.0,-0.1674736738204956,-0.6308063864707947,1.4749550819396973,-2.387807846069336,-1.5690546035766602,1.403381586074829
278.0,-0.16924813389778137,-0.6219192743301392,1.4513938426971436,-2.36679744720459,-1.5663834810256958,1.4016354084014893
279.0,-0.1784033179283142,-0.620093822479248,1.4463623762130737,-2.3615243434906006,-1.5611945390701294,1.3924845457077026
280.0,-0.18454279005527496,-0.6116084456443787,1.4239325523376465,-2.3409435749053955,-1.5548540353775024,1.3863683938980103
281.0,-0.18714402616024017,-0.621037483215332,1.4486056566238403,-2.362584352493286,-1.5563610792160034,1.3837324380874634
282.0,-0.18106520175933838,-0.6317142844200134,1.477094054222107,-2.3887553215026855,-1.5633212327957153,1.3897861242294312
283.0,-0.19071820378303528,-0.6400535702705383,1.4992300271987915,-2.407989501953125,-1.5615041255950928,1.3801077604293823
284.0,-0.19646072387695312,-0.6320508718490601,1.4775727987289429,-2.387645721435547,-1.5552489757537842,1.3743741512298584
285.0,-0.1960500031709671,-0.623590886592865,1.4550275802612305,-2.3670639991760254,-1.5511095523834229,1.3748011589050293
286.0,-0.2081356644630432,-0.6319319009780884,1.4767683744430542,-2.385002374649048,-1.5462241172790527,1.3626623153686523
287.0,-0.22807438671588898,-0.6375234723091125,1.4867380857467651,-2.3731677532196045,-1.5062872171401978,1.3423501253128052
288.0,-0.23744167387485504,-0.6190120577812195,1.4253859519958496,-2.2546873092651367,-1.4461207389831543,0.7904642820358276
289.0,-0.2398376762866974,-0.6048299670219421,1.382898211479187,-2.1772422790527344,-1.4190115928649902,0.7173286080360413
290.0,-0.22326451539993286,-0.6053690910339355,1.3883057832717896,-2.2179083824157715,-1.4682033061981201,0.6430962681770325
291.0,-0.20636709034442902,-0.6099932789802551,1.4106125831604004,-2.2918577194213867,-1.5202349424362183,1.364639163017273
292.0,-0.19388532638549805,-0.6138320565223694,1.4293746948242188,-2.3442156314849854,-1.5481033325195312,1.3769946098327637
293.0,-0.2050645500421524,-0.5987163186073303,1.3745348453521729,-2.2273478507995605,-1.504851222038269,1.3663921356201172
294.0,-0.20100916922092438,-0.5833272933959961,1.3270788192749023,-2.1416678428649902,-1.4978017807006836,0.3956204056739807
295.0,-0.18681390583515167,-0.595946192741394,1.3737373352050781,-2.2576873302459717,-1.5402382612228394,1.384555697441101
296.0,-0.19456027448177338,-0.5569971799850464,1.2517509460449219,-2.003455400466919,-1.4925408363342285,0.2835584878921509
297.0,-0.21558110415935516,-0.521955132484436,1.1625069379806519,-1.8074990510940552,-1.421819806098938,0.33429184556007385
298.0,-0.22200722992420197,-0.5468013286590576,1.2242820262908936,-1.909716010093689,-1.41829252243042,0.40730130672454834
299.0,-0.22984278202056885,-0.5707182884216309,1.2871729135513306,-2.0149085521698,-1.4130693674087524,0.5123291015625
300.0,-0.270351767539978,-0.5621796250343323,1.2723397016525269,-1.914853572845459,-1.280499815940857,0.64132159948349
301.0,-0.2661973536014557,-0.4975472688674927,1.121873378753662,-1.6515164375305176,-1.2609128952026367,0.4673163592815399
302.0,-0.2778913080692291,-0.5099854469299316,1.1547613143920898,-1.6866546869277954,-1.2276129722595215,0.5223739147186279
303.0,-0.243035688996315,-0.5124092698097229,1.146045446395874,-1.735854983329773,-1.3390129804611206,0.42602604627609253
304.0,-0.23731420934200287,-0.4427694082260132,0.9937582612037659,-1.4857746362686157,-1.3357511758804321,0.3055342733860016
305.0,-0.26081880927085876,-0.42381301522254944,0.9658663868904114,-1.4011443853378296,-1.2558523416519165,0.3447997272014618
306.0,-0.2799398601055145,-0.4036586880683899,0.9378258585929871,-1.3155641555786133,-1.1886260509490967,0.3543470501899719
307.0,-0.2973124384880066,-0.4219878315925598,0.9859969019889832,-1.3546055555343628,-1.1310865879058838,0.4062039852142334
308.0,-0.30552005767822266,-0.4666917026042938,1.0811690092086792,-1.4966057538986206,-1.114933967590332,0.4911394417285919
309.0,-0.32392972707748413,-0.46274054050445557,1.0888162851333618,-1.4619295597076416,-1.0445142984390259,0.5072494149208069
310.0,-0.3358875811100006,-0.48838678002357483,1.1523005962371826,-1.5440236330032349,-1.0064482688903809,0.5743704438209534
311.0,-0.3560575544834137,-0.5290953516960144,1.2604589462280273,-1.6921390295028687,-0.9399849772453308,0.7009055614471436
312.0,-0.37065696716308594,-0.5356004238128662,1.2930546998977661,-1.7101515531539917,-0.8792791962623596,0.7310779094696045
313.0,-0.37958452105522156,-0.48953574895858765,1.209168791770935,-1.510689377784729,-0.8247036933898926,0.6016076803207397
314.0,-0.368987500667572,-0.4663052558898926,1.1507997512817383,-1.4412388801574707,-0.8673827052116394,0.5483081340789795
315.0,-0.3571487069129944,-0.44107046723365784,1.0878803730010986,-1.3696993589401245,-0.9136552214622498,0.49427559971809387
316.0,-0.33484816551208496,-0.40442588925361633,0.9898000955581665,-1.2630449533462524,-0.9907140731811523,0.41543975472450256
317.0,-0.31802594661712646,-0.37767544388771057,0.920796275138855,-1.1945010423660278,-1.0472369194030762,0.3641657531261444
318.0,-0.3050100803375244,-0.35218966007232666,0.8628584742546082,-1.1438497304916382,-1.0926826000213623,0.32569000124931335
319.0,-0.25301194190979004,-0.31392166018486023,0.7493637204170227,-1.0878642797470093,-1.2646191120147705,0.2263454794883728
320.0,-0.22975026071071625,-0.3689914643764496,0.8431164026260376,-1.263282299041748,-1.3467572927474976,0.22021599113941193
321.0,-0.22333911061286926,-0.2502095699310303,0.6129500269889832,-0.957970380783081,-1.3557668924331665,0.14349600672721863
322.0,-0.1928716003894806,-0.3179181218147278,0.7312541007995605,-1.1518363952636719,-1.4563637971878052,0.103573739528656
323.0,-0.15869812667369843,-0.30651429295539856,0.7026039958000183,-1.14260733127594,-1.5597081184387207,0.010257301852107048
324.0,-0.14460350573062897,-0.43867626786231995,0.9698022603988647,-1.5424270629882812,-1.6083338260650635,-0.059854842722415924
325.0,-0.1651090681552887,-0.429858922958374,0.9513930082321167,-1.500118613243103,-1.545322060585022,0.037842899560928345
326.0,-0.18295881152153015,-0.4336628019809723,0.9611982107162476,-1.5015133619308472,-1.4936752319335938,0.1129060611128807
327.0,-0.20879466831684113,-0.45332756638526917,1.0074591636657715,-1.54811692237854,-1.4230104684829712,0.22257067263126373
328.0,-0.1906081736087799,-0.49729037284851074,1.1016372442245483,-1.7296806573867798,-1.480910062789917,0.18583236634731293
329.0,-0.17427963018417358,-0.5200929045677185,1.1561263799667358,-1.844566822052002,-1.5260696411132812,0.11743368208408356
330.0,-0.15953832864761353,-0.5469053983688354,1.2273615598678589,-1.9928486347198486,-1.562932014465332,0.029744770377874374
331.0,-0.16842268407344818,-0.5763587951660156,1.314513921737671,-2.161365509033203,-1.5516064167022705,0.12836188077926636
332.0,-0.17890116572380066,-0.5825250148773193,1.331579327583313,-2.18369460105896,-1.5392634868621826,1.393295407295227
333.0,-0.17121081054210663,-0.6097150444984436,1.4194252490997314,-2.338681697845459,-1.5637003183364868,1.399719476699829
334.0,-0.17800159752368927,-0.6068844199180603,1.4118571281433105,-2.331251621246338,-1.5585168600082397,1.392937183380127
335.0,-0.17069557309150696,-0.5998603701591492,1.393872857093811,-2.3163866996765137,-1.561411738395691,1.4002765417099
336.0,-0.16264308989048004,-0.6014212965965271,1.3981339931488037,-2.3209779262542725,-1.567091941833496,1.4083205461502075
337.0,-0.1633004993200302,-0.6155796647071838,1.4349240064620972,-2.352940797805786,-1.5691505670547485,1.4076049327850342
338.0,-0.16092722117900848,-0.625923216342926,1.462140440940857,-2.376901388168335,-1.5711472034454346,1.4099410772323608
339.0,-0.15083763003349304,-0.6187571883201599,1.444855809211731,-2.3664793968200684,-1.5976238250732422,1.4199923276901245
340.0,-0.15902599692344666,-0.6088880300521851,1.417594313621521,-2.3382608890533447,-1.5709325075149536,1.4119033813476562
341.0,-0.156109020113945,-0.592532217502594,1.3754489421844482,-2.302130699157715,-1.5701204538345337,1.4148907661437988
342.0,-0.14145614206790924,-0.5657282471656799,1.2860398292541504,-2.1225054264068604,-1.6200032234191895,-0.2813016176223755
343.0,-0.12219702452421188,-0.5805774927139282,1.3440847396850586,-2.2564661502838135,-1.6914255619049072,-0.9957315325737
344.0,-0.13232852518558502,-0.5949281454086304,1.3871456384658813,-2.3257994651794434,-1.6557308435440063,1.438140869140625
345.0,-0.1380341798067093,-0.6079105734825134,1.4195247888565063,-2.3513383865356445,-1.6398967504501343,1.4325428009033203
346.0,-0.1293283998966217,-0.6150312423706055,1.4412609338760376,-2.3754448890686035,-1.67500638961792,1.440838098526001
347.0,-0.11318138986825943,-0.6036999225616455,1.4196959733963013,-2.3653252124786377,-1.7313289642333984,-1.4372752904891968
348.0,-0.10580557584762573,-0.5926601886749268,1.3952335119247437,-2.347775936126709,-1.755927324295044,-1.4326133728027344
349.0,-0.087033711373806,-0.5929744243621826,1.4105732440948486,-2.370537519454956,-1.8241147994995117,-1.49965500831604
350.0,-0.08546154946088791,-0.5819380879402161,1.3822375535964966,-2.3463447093963623,-1.8258624076843262,-1.472990870475769
351.0,-0.08029273897409439,-0.5643970966339111,1.323891043663025,-2.2316102981567383,-1.8401151895523071,-1.2145873308181763
352.0,-0.0997827872633934,-0.5725072026252747,1.333554983139038,-2.245540142059326,-1.7762759923934937,-1.1697431802749634
353.0,-0.1059577688574791,-0.5469402074813843,1.2443057298660278,-2.0574748516082764,-1.7532052993774414,-0.703454852104187
354.0,-0.12393558025360107,-0.4498908519744873,0.9962283968925476,-1.5946022272109985,-1.68572199344635,-0.19653932750225067
355.0,-0.09984119236469269,-0.4513642489910126,1.0072919130325317,-1.6199257373809814,-1.7765839099884033,-0.3526804447174072
356.0,-0.07538772374391556,-0.48111578822135925,1.0899956226348877,-1.7691138982772827,-1.8704447746276855,-0.5958881378173828
357.0,-0.12107732146978378,-0.3275751769542694,0.7440670728683472,-1.215348720550537,-1.6941626071929932,-0.12574435770511627
358.0,-0.09847772121429443,-0.34482842683792114,0.7844109535217285,-1.2758418321609497,-1.7782106399536133,-0.2241877019405365
359.0,-0.056887153536081314,-0.4531911015510559,1.0370819568634033,-1.672600507736206,-1.916884422302246,-0.5751617550849915
360.0,-0.04898766800761223,-0.32706889510154724,0.7741390466690063,-1.2521806955337524,-1.9423065185546875,-0.361069917678833
361.0,-0.035156358033418655,-0.3364080786705017,0.802445650100708,-1.2838234901428223,-1.9817049503326416,-0.40288013219833374
362.0,-0.044686123728752136,-0.4392596185207367,1.014032006263733,-1.6278752088546753,-1.9482054710388184,-0.5743185877799988
363.0,-0.05644585192203522,-0.5433651804924011,1.2735663652420044,-2.1212007999420166,-1.8894402980804443,-1.045074701309204
364.0,-0.07124621421098709,-0.5329433083534241,1.230202317237854,-2.037240505218506,-1.869352102279663,-0.8966963887214661
365.0,-0.06955814361572266,-0.5617662668228149,1.324015498161316,-2.2297327518463135,-1.855915904045105,-1.21763277053833
366.0,-0.06739871948957443,-0.5726232528686523,1.364375114440918,-2.309758424758911,-1.842684268951416,-1.3765218257904053
367.0,-0.07652529329061508,-0.5820869207382202,1.389453411102295,-2.355086088180542,-1.8314497470855713,-1.4814746379852295
368.0,-0.07269751280546188,-0.5881488919258118,1.4084562063217163,-2.372145652770996,-1.8307712078094482,-1.4971706867218018
369.0,-0.08010976761579514,-0.5956326127052307,1.423158049583435,-2.3836379051208496,-1.828705906867981,-1.513285756111145
370.0,-0.07693619281053543,-0.6008090376853943,1.4393337965011597,-2.397634983062744,-1.8268781900405884,-1.5246901512145996
371.0,-0.07018478214740753,-0.5961626768112183,1.431887149810791,-2.392813205718994,-1.8293222188949585,-1.5172269344329834
372.0,-0.07165274769067764,-0.6066522598266602,1.4592399597167969,-2.4160172939300537,-1.8261653184890747,-1.5416407585144043
373.0,-0.06446897238492966,-0.6054507493972778,1.4612810611724854,-2.4191832542419434,-1.8281298875808716,-1.5415575504302979
374.0,-0.06219811365008354,-0.5956582427024841,1.4365170001983643,-2.398815631866455,-1.8321030139923096,-1.5211355686187744
375.0,-0.06487783044576645,-0.5849454402923584,1.4057542085647583,-2.37186336517334,-1.833922266960144,-1.4950313568115234
376.0,-0.05991610512137413,-0.5735377073287964,1.372159481048584,-2.317617416381836,-1.8492223024368286,-1.3843448162078857
377.0,-0.04554051160812378,-0.5432445406913757,1.2813719511032104,-2.12882399559021,-1.9085687398910522,-1.0683931112289429
378.0,-0.03199407458305359,-0.458972305059433,1.069117784500122,-1.7186505794525146,-1.9802793264389038,-0.6741172075271606
379.0,-0.029157379642128944,-0.5011029839515686,1.1752134561538696,-1.911766767501831,-1.9738008975982666,-0.8478279709815979
380.0,-0.044860053807497025,-0.561779797077179,1.341041922569275,-2.243604898452759,-1.8889427185058594,-1.2416162490844727
381.0,-0.05675993487238884,-0.5831522345542908,1.4072093963623047,-2.3757195472717285,-1.838853359222412,-1.4986705780029297
382.0,-0.05211326479911804,-0.5882548689842224,1.424472451210022,-2.3916168212890625,-1.8407901525497437,-1.5131291151046753
383.0,-0.04245137423276901,-0.5726679563522339,1.3791325092315674,-2.3110194206237793,-1.8775526285171509,-1.354543924331665
384.0,-0.027603182941675186,-0.5273376703262329,1.2481404542922974,-2.048178195953369,-1.9594734907150269,-0.9906860589981079
385.0,-0.006437479052692652,-0.4471084177494049,1.0629429817199707,-1.68795907497406,-2.0539584159851074,-0.7062923312187195
386.0,-0.010233559645712376,-0.5000287294387817,1.1888569593429565,-1.9202702045440674,-2.0211715698242188,-0.8894124031066895
387.0,-0.021493377164006233,-0.5479488968849182,1.3141224384307861,-2.1682300567626953,-1.9540565013885498,-1.1433173418045044
388.0,-0.03705699369311333,-0.5795035362243652,1.4038766622543335,-2.3441872596740723,-1.8757727146148682,-1.4024698734283447
389.0,-0.01662532612681389,-0.5640137791633606,1.3676692247390747,-2.260225296020508,-1.945745825767517,-1.267214298248291
390.0,-0.030934445559978485,-0.5945096015930176,1.4542644023895264,-2.4089667797088623,-1.8666051626205444,-1.496877670288086
391.0,-0.03807412460446358,-0.6047943234443665,1.4799617528915405,-2.441593885421753,-1.8419448137283325,-1.554482340812683
392.0,-0.04515351727604866,-0.5952646732330322,1.4485607147216797,-2.4136807918548584,-1.8406689167022705,-1.5317624807357788
393.0,-0.048070378601551056,-0.606599748134613,1.477081298828125,-2.436885356903076,-1.8346723318099976,-1.5539568662643433
394.0,-0.053727224469184875,-0.6030216813087463,1.4630144834518433,-2.4235026836395264,-1.8341732025146484,-1.5428154468536377
395.0,-0.06242120638489723,-0.6116631031036377,1.4799001216888428,-2.435894250869751,-1.827246904373169,-1.5584211349487305
396.0,-0.0553661547601223,-0.614520251750946,1.4931721687316895,-2.44861102104187,-1.828645944595337,-1.567513108253479
397.0,-0.05769028142094612,-0.6285884380340576,1.5304123163223267,-2.4798970222473145,-1.8216534852981567,-1.6001026630401611
398.0,-0.058450307697057724,-0.6439992189407349,1.573391079902649,-2.516684055328369,-1.8167955875396729,-1.6384366750717163
399.0,-0.062386445701122284,-0.6386627554893494,1.5552433729171753,-2.5007333755493164,-1.8168748617172241,-1.6255733966827393
400.0,-0.06432100385427475,-0.6274471879005432,1.52218496799469,-2.471959114074707,-1.8214458227157593,-1.596695065498352
401.0,-0.06870868057012558,-0.6197248101234436,1.4972530603408813,-2.449136972427368,-1.822418212890625,-1.5740596055984497
402.0,-0.07205038517713547,-0.6289989948272705,1.5207149982452393,-2.469367027282715,-1.8194384574890137,-1.5986436605453491
403.0,-0.069692462682724,-0.6361344456672668,1.5425150394439697,-2.488640308380127,-1.8171536922454834,-1.617769479751587
404.0,-0.07654594630002975,-0.6416583061218262,1.5531575679779053,-2.4974191188812256,-1.8151965141296387,-1.6332200765609741
405.0,-0.07933070510625839,-0.636402428150177,1.536150574684143,-2.4822020530700684,-1.8180938959121704,-1.618386149406433
406.0,-0.08850069344043732,-0.6449801325798035,1.5537910461425781,-2.497490167617798,-1.8172194957733154,-1.6439831256866455
407.0,-0.09786217659711838,-0.6482711434364319,1.5556551218032837,-2.4969091415405273,-1.803527593612671,-1.6518330574035645
408.0,-0.08597744256258011,-0.6373792290687561,1.5340371131896973,-2.480053663253784,-1.819287896156311,-1.621983289718628
409.0,-0.07775069773197174,-0.6239644289016724,1.502332329750061,-2.45236873626709,-1.8209501504898071,-1.5837403535842896
410.0,-0.07648354023694992,-0.6163001656532288,1.481978178024292,-2.4345767498016357,-1.822475552558899,-1.5631767511367798
411.0,-0.0886620506644249,-0.6246914267539978,1.4963438510894775,-2.4462504386901855,-1.8210111856460571,-1.5861481428146362
412.0,-0.09009009599685669,-0.6329027414321899,1.5183029174804688,-2.465686559677124,-1.8194513320922852,-1.6093406677246094
413.0,-0.10925175994634628,-0.6247012615203857,1.4799243211746216,-2.4221198558807373,-1.7537955045700073,-1.5493706464767456
414.0,-0.11010539531707764,-0.6349405646324158,1.5077983140945435,-2.446946620941162,-1.7541406154632568,-1.5888534784317017
415.0,-0.08669774979352951,-0.6130456328392029,1.46555495262146,-2.4192428588867188,-1.8231548070907593,-1.554526448249817
416.0,-0.0855545848608017,-0.6043366193771362,1.4425567388534546,-2.3991591930389404,-1.8245067596435547,-1.5315427780151367
417.0,-0.10616444796323776,-0.6148752570152283,1.4551336765289307,-2.401296615600586,-1.7620041370391846,-1.5194928646087646
418.0,-0.13062790036201477,-0.6235186457633972,1.4635756015777588,-2.3948185443878174,-1.6736520528793335,1.4395272731781006
419.0,-0.15369898080825806,-0.6327834129333496,1.4816919565200806,-2.3981382846832275,-1.5941596031188965,1.4171030521392822
420.0,-0.16480562090873718,-0.641781210899353,1.504305124282837,-2.413986921310425,-1.571096658706665,1.4060211181640625
421.0,-0.14364835619926453,-0.6405426859855652,1.5055091381072998,-2.425957202911377,-1.6341930627822876,1.4268823862075806
422.0,-0.14740300178527832,-0.6484746932983398,1.5261681079864502,-2.442840337753296,-1.6245951652526855,1.423191785812378
423.0,-0.11317889392375946,-0.6426777243614197,1.5272834300994873,-2.4631316661834717,-1.7455921173095703,-1.6152149438858032
424.0,-0.13173972070217133,-0.6528167724609375,1.5436536073684692,-2.467538595199585,-1.6820470094680786,1.4382375478744507
425.0,-0.1532665640115738,-0.6596196293830872,1.5554178953170776,-2.466602325439453,-1.609519124031067,1.4174165725708008
426.0,-0.1342875361442566,-0.6609063744544983,1.565453290939331,-2.486567735671997,-1.6767005920410156,1.4357482194900513
427.0,-0.11880511045455933,-0.6619863510131836,1.5784140825271606,-2.5073912143707275,-1.7325886487960815,-1.6953593492507935
428.0,-0.14425314962863922,-0.6717178821563721,1.592523455619812,-2.5067152976989746,-1.6470454931259155,1.4261209964752197
429.0,-0.1667046695947647,-0.6687248349189758,1.577763319015503,-2.479823589324951,-1.5707964897155762,1.404091715812683
430.0,-0.1721893697977066,-0.6751152276992798,1.595496654510498,-2.4957363605499268,-1.5692782402038574,1.398608684539795
431.0,-0.17977498471736908,-0.6717718839645386,1.586213231086731,-2.4874343872070312,-1.5696574449539185,1.391021728515625
432.0,-0.1872081458568573,-0.6680045127868652,1.5758709907531738,-2.4784135818481445,-1.5707299709320068,1.383588194847107
433.0,-0.18859049677848816,-0.6765258312225342,1.599351167678833,-2.498966932296753,-1.5668511390686035,1.3822077512741089
434.0,-0.18711693584918976,-0.6834319233894348,1.618708848953247,-2.5163774490356445,-1.5652954578399658,1.3836883306503296
435.0,-0.17885902523994446,-0.6796180009841919,1.6079994440078735,-2.5067508220672607,-1.5668790340423584,1.3919419050216675
436.0,-0.17879478633403778,-0.6859456896781921,1.6258426904678345,-2.522933006286621,-1.5656118392944336,1.3920142650604248
437.0,-0.16762028634548187,-0.682708740234375,1.6170897483825684,-2.516094923019409,-1.5723211765289307,1.403185248374939
438.0,-0.14118535816669464,-0.6777878403663635,1.6111892461776733,-2.526151180267334,-1.6607224941253662,1.4290401935577393
439.0,-0.14611083269119263,-0.6852116584777832,1.6309936046600342,-2.542417526245117,-1.6475704908370972,1.42426598072052
440.0,-0.12951549887657166,-0.6874770522117615,1.6461185216903687,-2.5660085678100586,-1.7064610719680786,1.4400957822799683
441.0,-0.17257319390773773,-0.6926273107528687,1.6449254751205444,-2.5404789447784424,-1.565000057220459,1.3982487916946411
442.0,-0.16023418307304382,-0.6987753510475159,1.6662371158599854,-2.5683441162109375,-1.6069124937057495,1.4105030298233032
443.0,-0.1778057962656021,-0.7027742266654968,1.6742303371429443,-2.567382574081421,-1.5622717142105103,1.3930459022521973
444.0,-0.17083996534347534,-0.7074790000915527,1.689184546470642,-2.5842223167419434,-1.5760926008224487,1.4000334739685059
445.0,-0.1876850426197052,-0.7085327506065369,1.6906883716583252,-2.581477642059326,-1.555723786354065,1.383180022239685
446.0,-0.1916390061378479,-0.7150816917419434,1.710013747215271,-2.5992300510406494,-1.5529261827468872,1.3792541027069092
447.0,-0.1983339935541153,-0.7111685276031494,1.6980018615722656,-2.586944818496704,-1.5491982698440552,1.3725248575210571
448.0,-0.20281782746315002,-0.7188364863395691,1.7206226587295532,-2.607370376586914,-1.5443586111068726,1.3680663108825684
449.0,-0.18824619054794312,-0.7221598625183105,1.7313976287841797,-2.6195647716522217,-1.5521883964538574,1.3826876878738403
450.0,-0.17853638529777527,-0.7133246064186096,1.7052891254425049,-2.596198797225952,-1.5594273805618286,1.3923583030700684
451.0,-0.13737589120864868,-0.7078532576560974,1.7035194635391235,-2.618048906326294,-1.6896413564682007,1.4325224161148071
452.0,-0.13737589120864868,-0.7078532576560974,1.7035194635391235,-2.618048906326294,-1.6896413564682007,1.4325224161148071
453.0,-0.1373506337404251,-0.70626300573349,1.6995564699172974,-2.59792160987854,-1.6704005002975464,1.4316864013671875
454.0,-0.1372973769903183,-0.7029654383659363,1.691368818283081,-2.5563082695007324,-1.630552053451538,1.4299811124801636
455.0,-0.1372099220752716,-0.6980463266372681,1.6791969537734985,-2.4943995475769043,-1.5711944103240967,1.4274702072143555
456.0,-0.13709421455860138,-0.6916331648826599,1.6633497476577759,-2.4137487411499023,-1.4937976598739624,1.42423677444458
457.0,-0.13694588840007782,-0.6838639974594116,1.6441476345062256,-2.3158912658691406,-1.3998782634735107,1.4203336238861084
458.0,-0.136771559715271,-0.6748814582824707,1.6218987703323364,-2.2023842334747314,-1.2909677028656006,1.415825366973877
459.0,-0.13656672835350037,-0.6648339629173279,1.5969278812408447,-2.074759006500244,-1.1685971021652222,1.4107612371444702
460.0,-0.13633383810520172,-0.6538602709770203,1.5695496797561646,-1.9346282482147217,-1.0343018770217896,1.4052027463912964
461.0,-0.13606470823287964,-0.642096757888794,1.5400972366333008,-1.7836066484451294,-0.8896268606185913,1.3992104530334473
462.0,-0.1357584446668625,-0.629668653011322,1.5088903903961182,-1.6233779191970825,-0.7361405491828918,1.3928546905517578
463.0,-0.13540643453598022,-0.6166982650756836,1.47625732421875,-1.455613374710083,-0.575430691242218,1.3862007856369019
464.0,-0.13500921428203583,-0.603308379650116,1.4425103664398193,-1.2819855213165283,-0.40912067890167236,1.3793162107467651
465.0,-0.13456232845783234,-0.589620053768158,1.4079676866531372,-1.1041486263275146,-0.2388409525156021,1.3722599744796753
466.0,-0.1340675950050354,-0.57575923204422,1.3729383945465088,-0.9237566590309143,-0.06623169034719467,1.3650970458984375
467.0,-0.13352537155151367,-0.5618517398834229,1.3377469778060913,-0.7424802184104919,0.1070851981639862,1.35789155960083
468.0,-0.1329365372657776,-0.5480197668075562,1.3027198314666748,-0.5620146989822388,0.27950477600097656,1.350718379020691
469.0,-0.13230492174625397,-0.5343859791755676,1.2681918144226074,-0.3840830326080322,0.4494348168373108,1.3436583280563354
470.0,-0.1316349059343338,-0.5210690498352051,1.234500527381897,-0.21041297912597656,0.615291953086853,1.3367918729782104
471.0,-0.13093717396259308,-0.5081872940063477,1.2019702196121216,-0.04271075874567032,0.7754799127578735,1.3302011489868164
472.0,-0.1302245557308197,-0.49586573243141174,1.1709318161010742,0.11735691875219345,0.9283974766731262,1.3239526748657227
473.0,-0.12951643764972687,-0.48423102498054504,1.141690731048584,0.2681632936000824,1.0724399089813232,1.3181118965148926
474.0,-0.12883035838603973,-0.4734179973602295,1.1145691871643066,0.40811482071876526,1.20602285861969,1.3127321004867554
475.0,-0.12818683683872223,-0.4635629951953888,1.0898782014846802,0.5356179475784302,1.3275938034057617,1.307875394821167
476.0,-0.1276000440120697,-0.4548030495643616,1.0679471492767334,0.6490688323974609,1.4356416463851929,1.3035929203033447
477.0,-0.12708517909049988,-0.447269082069397,1.0490888357162476,0.7468428015708923,1.5286848545074463,1.2999500036239624
478.0,-0.12665241956710815,-0.4410876929759979,1.0336289405822754,0.8273025155067444,1.6052411794662476,1.296996831893921
479.0,-0.1263137012720108,-0.43637701869010925,1.0218511819839478,0.8888251781463623,1.6638243198394775,1.2947847843170166
480.0,-0.12608303129673004,-0.4332452118396759,1.0140340328216553,0.9298682808876038,1.7029566764831543,1.2933377027511597
481.0,-0.12597016990184784,-0.43176260590553284,1.010337233543396,0.9493595957756042,1.7215739488601685,1.2926679849624634
482.0,-0.12597016990184784,-0.43176260590553284,1.010337233543396,0.9493595957756042,1.7215739488601685,1.2926679849624634
483.0,-0.11667373031377792,-0.4448759853839874,1.042341947555542,0.9218607544898987,1.7568005323410034,1.2991235256195068
484.0,-0.10680876672267914,-0.4530509412288666,1.0642858743667603,0.9015433192253113,1.7924593687057495,1.3125056028366089
485.0,-0.0920599028468132,-0.44497913122177124,1.053763747215271,0.9066057205200195,1.8190020322799683,1.3487530946731567
486.0,-0.09023953974246979,-0.4290952682495117,1.0193768739700317,0.9317595958709717,1.8189051151275635,1.3746556043624878
487.0,-0.08944802731275558,-0.40963292121887207,0.9765235781669617,0.9627512693405151,1.8176876306533813,1.4038732051849365
488.0,-0.09852014482021332,-0.4140149652957916,0.981270432472229,0.9598901867866516,1.8128759860992432,1.3905690908432007
489.0,-0.09664666652679443,-0.398216187953949,0.9472192525863647,0.9841808080673218,1.814782977104187,1.4162667989730835
490.0,-0.11464834958314896,-0.39510828256607056,0.9331064224243164,1.0012396574020386,1.7527045011520386,1.3980315923690796
491.0,-0.11383309960365295,-0.3810342252254486,0.9024033546447754,1.0229886770248413,1.7526376247406006,1.425593614578247
492.0,-0.09386242181062698,-0.38106846809387207,0.9108015298843384,1.0100481510162354,1.8150795698165894,1.4432166814804077
493.0,-0.09046877175569534,-0.36664697527885437,0.8808016777038574,1.0310983657836914,1.8155568838119507,1.4657517671585083
494.0,-0.07731836289167404,-0.36040401458740234,0.8742882609367371,1.0352543592453003,1.814200520515442,1.481160044670105
495.0,-0.07863502949476242,-0.37464639544487,0.9050451517105103,1.0136611461639404,1.8154246807098389,1.4608237743377686
496.0,-0.06874273717403412,-0.3648773729801178,0.8888339996337891,1.0248723030090332,1.8167319297790527,1.4807970523834229
497.0,-0.07235906273126602,-0.3829285204410553,0.9269351363182068,0.9984567761421204,1.8189033269882202,1.4558970928192139
498.0,-0.0820428803563118,-0.3941133916378021,0.9462679028511047,0.984467089176178,1.817610740661621,1.4317655563354492
499.0,-0.0789368748664856,-0.4055330157279968,0.9733909964561462,0.9651391506195068,1.8188450336456299,1.4179637432098389
500.0,-0.07405567914247513,-0.41360777616500854,0.9941841959953308,0.9505952596664429,1.8226897716522217,1.4130514860153198
501.0,-0.080724336206913,-0.42385756969451904,1.0131486654281616,0.9364494681358337,1.820526361465454,1.390350341796875
502.0,-0.07981568574905396,-0.4393545985221863,1.04826819896698,0.9109923839569092,1.8230913877487183,1.3695175647735596
503.0,-0.08449308574199677,-0.4518771171569824,1.073549747467041,0.8922405242919922,1.8227673768997192,1.3462423086166382
504.0,-0.08400022238492966,-0.4640699028968811,1.1011708974838257,0.8719105124473572,1.82476007938385,1.3293687105178833
505.0,-0.07526722550392151,-0.4611632227897644,1.0997655391693115,0.8735073208808899,1.8288456201553345,1.3445072174072266
506.0,-0.07585124671459198,-0.44869664311408997,1.0714789628982544,0.8942875266075134,1.8265997171401978,1.3613698482513428
507.0,-0.07049117237329483,-0.42727693915367126,1.0267239809036255,0.927414059638977,1.8268815279006958,1.3989421129226685
508.0,-0.06635888665914536,-0.4477594494819641,1.0748951435089111,0.8924300670623779,1.8323900699615479,1.375069499015808
509.0,-0.057982515543699265,-0.48222658038139343,1.1451830863952637,0.7893463969230652,1.8655986785888672,1.181918978691101
510.0,-0.06027936935424805,-0.5255025625228882,1.2280179262161255,0.6559970378875732,1.8822667598724365,0.9578613042831421
511.0,-0.061346378177404404,-0.5782442092895508,1.3339289426803589,0.4592570960521698,1.8963745832443237,0.7106021046638489
512.0,-0.07634296268224716,-0.5211660861968994,1.214121699333191,0.6988964080810547,1.850633144378662,0.9909932017326355
513.0,-0.07945889979600906,-0.5793747305870056,1.3276011943817139,0.4924010932445526,1.8569289445877075,0.6889410614967346
514.0,-0.09061873704195023,-0.6674953103065491,1.5289347171783447,0.08040836453437805,1.8234424591064453,0.33095699548721313
515.0,-0.24506624042987823,-0.7318386435508728,1.7665767669677734,-0.44590768218040466,1.299416184425354,-0.17715153098106384
516.0,-0.1998273730278015,-0.7364577054977417,1.7711576223373413,-0.4609483480453491,1.452400803565979,-0.07618959993124008
517.0,-0.15995250642299652,-0.7310814261436462,1.737167477607727,-0.3842637240886688,1.5879155397415161,0.012267488986253738
518.0,-0.11289701610803604,-0.7063112258911133,1.6423578262329102,-0.16964291036128998,1.7496377229690552,0.16961151361465454
519.0,-0.13196933269500732,-0.7240121364593506,1.755396842956543,-0.46075451374053955,1.6754035949707031,0.06692052632570267
520.0,-0.08198700845241547,-0.6999834775924683,1.6574593782424927,-0.24835200607776642,1.8386099338531494,0.22326360642910004
521.0,-0.06018669903278351,-0.6377618312835693,1.4724669456481934,0.16980554163455963,1.9059627056121826,0.47746309638023376
522.0,-0.043519798666238785,-0.6134765148162842,1.4249403476715088,0.24974632263183594,1.949772596359253,0.5848067998886108
523.0,-0.02675039693713188,-0.5955730676651001,1.395562767982483,0.28525227308273315,1.9937372207641602,0.6610638499259949
524.0,-0.019160205498337746,-0.5650345683097839,1.331516146659851,0.40240049362182617,2.005849599838257,0.7811540961265564
525.0,-0.02048344723880291,-0.5263785123825073,1.2478512525558472,0.5620076060295105,1.984336018562317,0.9367545247077942
526.0,-0.03966750204563141,-0.5214306712150574,1.2281044721603394,0.6261239647865295,1.9281326532363892,0.9643999338150024
527.0,-0.04514395818114281,-0.4638328552246094,1.1126378774642944,0.8180519938468933,1.880050778388977,1.2405955791473389
528.0,-0.055059194564819336,-0.426799476146698,1.0345507860183716,0.9221420884132385,1.8368277549743652,1.416368007659912
529.0,-0.04392210766673088,-0.4114118814468384,1.0067062377929688,0.9426745176315308,1.8440474271774292,1.449703335762024
530.0,-0.04433268681168556,-0.39827960729599,0.9769996404647827,0.9633529186248779,1.8390734195709229,1.4628266096115112
531.0,-0.053658414632081985,-0.40974223613739014,0.9972091913223267,0.9489551782608032,1.8335819244384766,1.439184546470642
532.0,-0.05763520672917366,-0.39810416102409363,0.9689067006111145,0.9686298966407776,1.8279005289077759,1.4480328559875488
533.0,-0.061922844499349594,-0.4186089038848877,1.012245535850525,0.9378892183303833,1.8308589458465576,1.4191712141036987
534.0,-0.06505478918552399,-0.4066610336303711,0.983754575252533,0.9581264853477478,1.8259831666946411,1.430722713470459
535.0,-0.06521181762218475,-0.3906538486480713,0.948026716709137,0.9834362268447876,1.823070764541626,1.4511961936950684
536.0,-0.05753670260310173,-0.3788946866989136,0.9261958003044128,0.998617947101593,1.8234777450561523,1.4715937376022339
537.0,-0.0502348467707634,-0.387677401304245,0.9498163461685181,0.9821709394454956,1.829589605331421,1.4676421880722046
538.0,-0.04826587066054344,-0.3718720078468323,0.9156820774078369,1.005601406097412,1.8265585899353027,1.4864530563354492
539.0,-0.041305311024188995,-0.37451061606407166,0.9256294369697571,0.9989333152770996,1.8325774669647217,1.4908010959625244
540.0,-0.04244449362158775,-0.3551884591579437,0.8818849325180054,1.0286588668823242,1.8252074718475342,1.5095155239105225
541.0,-0.053312089294195175,-0.3639754056930542,0.8953412175178528,1.0198969841003418,1.8220405578613281,1.4923760890960693
542.0,-0.04774126037955284,-0.3444983959197998,0.8551225662231445,1.0468798875808716,1.8200267553329468,1.5169556140899658
543.0,-0.05130493640899658,-0.3325149118900299,0.8265237808227539,1.066241979598999,1.8197753429412842,1.528025507926941
544.0,-0.04836603254079819,-0.31650057435035706,0.7925970554351807,1.0884413719177246,1.8243943452835083,1.5458561182022095
545.0,-0.047250937670469284,-0.2998211681842804,0.7562650442123413,1.1121721267700195,1.8284664154052734,1.5622403621673584
546.0,-0.04288579151034355,-0.3220609426498413,0.8078957796096802,1.0776517391204834,1.825774908065796,1.5418230295181274
547.0,-0.0403866171836853,-0.30344024300575256,0.7679203152656555,1.1034796237945557,1.8309357166290283,1.559768557548523
548.0,-0.03243542090058327,-0.28079575300216675,0.7221481800079346,1.1323332786560059,1.845417857170105,1.5814509391784668
549.0,-0.02984420396387577,-0.2943749725818634,0.7535987496376038,1.1117476224899292,1.8465548753738403,1.5714391469955444
550.0,-0.03495008498430252,-0.3118876814842224,0.7896221876144409,1.0889843702316284,1.8323194980621338,1.5550271272659302
551.0,-0.036191243678331375,-0.3264961540699005,0.8214480876922607,1.068560242652893,1.8217483758926392,1.541471242904663
552.0,-0.03486817702651024,-0.3427254855632782,0.8582838773727417,1.0440832376480103,1.8252211809158325,1.5265040397644043
553.0,-0.013396596536040306,-0.3158762454986572,0.812656819820404,1.0737905502319336,1.898862600326538,1.57009756565094
554.0,-0.0012388416798785329,-0.3274560868740082,0.8455287218093872,1.0430759191513062,1.9434597492218018,1.5443040132522583
555.0,0.0031199129298329353,-0.34642457962036133,0.8887151479721069,1.0014089345932007,1.9635310173034668,1.5000956058502197
556.0,-0.022343343123793602,-0.3502160906791687,0.8816057443618774,1.0235759019851685,1.8700300455093384,1.5171412229537964
557.0,-0.028396613895893097,-0.37050506472587585,0.9233154058456421,0.9964834451675415,1.8568627834320068,1.4947302341461182
558.0,-0.033824142068624496,-0.38638028502464294,0.9561082124710083,0.9762876629829407,1.8489646911621094,1.4807771444320679
559.0,-0.01999421790242195,-0.40577003359794617,1.0019052028656006,0.9148479104042053,1.906009554862976,1.3907312154769897
560.0,-0.009380870498716831,-0.38980820775032043,0.9729295372962952,0.9319093227386475,1.9322813749313354,1.414244294166565
561.0,-0.0006928840302862227,-0.4272162616252899,1.0550755262374878,0.8239319920539856,1.9859421253204346,1.2825886011123657
562.0,0.012698274105787277,-0.41021519899368286,1.0285260677337646,0.8400057554244995,2.0272767543792725,1.3199363946914673
563.0,0.025564810261130333,-0.38074207305908203,0.9771454334259033,0.8861123919487,2.0668158531188965,1.3869223594665527
564.0,0.03672702610492706,-0.35118567943573,0.9264277219772339,0.9318391680717468,2.106666326522827,1.446484088897705
565.0,0.06586868315935135,-0.33790746331214905,0.9323982000350952,0.8910284042358398,2.2430849075317383,1.4343856573104858
566.0,0.061878859996795654,-0.37291160225868225,0.9977518320083618,0.8071247935295105,2.2297801971435547,1.346437931060791
567.0,0.041312865912914276,-0.4067245125770569,1.0448037385940552,0.7741024494171143,2.1444807052612305,1.2841823101043701
568.0,0.03262436017394066,-0.43643876910209656,1.0981746912002563,0.7109581232070923,2.12091326713562,1.20418381690979
569.0,0.022078508511185646,-0.46465063095092773,1.148283839225769,0.6543686389923096,2.0940206050872803,1.1277610063552856
570.0,0.00807265006005764,-0.4795314371585846,1.168605923652649,0.6475510597229004,2.050539016723633,1.0937691926956177
571.0,-0.015011414885520935,-0.4397084712982178,1.0740455389022827,0.823418915271759,1.9451196193695068,1.2697539329528809
572.0,-0.01513926312327385,-0.46883442997932434,1.1333764791488647,0.7414711117744446,1.9654648303985596,1.162603735923767
573.0,-0.008915122598409653,-0.5064533948898315,1.2133233547210693,0.6027979850769043,2.008711099624634,1.0084789991378784
574.0,-0.00022683737915940583,-0.5600523352622986,1.3358591794967651,0.3604084551334381,2.064213752746582,0.7954864501953125
575.0,-0.03646610677242279,-0.6618549823760986,1.570085048675537,-0.09795770049095154,1.9786354303359985,0.3949607312679291
576.0,-0.06607475876808167,-0.6980596780776978,1.6952409744262695,-0.37938910722732544,1.8823479413986206,0.21446873247623444
577.0,-0.01686122640967369,-0.6482406854629517,1.5528066158294678,-0.09631145000457764,2.0387628078460693,0.4411433935165405
578.0,0.0048361788503825665,-0.6126391291618347,1.4731876850128174,0.048274312168359756,2.103963613510132,0.5779404640197754
579.0,0.022691544145345688,-0.5500317215919495,1.3350296020507812,0.3125937581062317,2.1425912380218506,0.8130589127540588
580.0,0.026124875992536545,-0.6061708927154541,1.486904263496399,-0.041991978883743286,2.1840693950653076,0.5696502327919006
581.0,0.002025474328547716,-0.643983781337738,1.5840784311294556,-0.22036489844322205,2.1019861698150635,0.4178906977176666
582.0,-0.017541922628879547,-0.6616098880767822,1.624319314956665,-0.2791467010974884,2.0353217124938965,0.3499101400375366
583.0,-0.03982781246304512,-0.6779097318649292,1.6630299091339111,-0.33490410447120667,1.9624344110488892,0.2825363576412201
584.0,-0.07067624479532242,-0.6923221945762634,1.706173062324524,-0.39578622579574585,1.860650897026062,0.2004806399345398
585.0,-0.11056134849786758,-0.7115768194198608,1.7423593997955322,-0.44428786635398865,1.739261269569397,0.110957071185112
586.0,-0.16352394223213196,-0.7234969139099121,1.7712730169296265,-0.47702422738075256,1.5727547407150269,0.0012573458952829242
587.0,-0.22807402908802032,-0.7271972298622131,1.7749890089035034,-0.46448829770088196,1.3584486246109009,-0.1381911188364029
588.0,-0.2942284643650055,-0.7094621658325195,1.7493098974227905,-0.41283026337623596,1.1407665014266968,-0.2933512330055237
589.0,-0.26768267154693604,-0.7162787914276123,1.7681795358657837,-0.4497552216053009,1.2280938625335693,-0.2269732654094696
590.0,-0.2177373766899109,-0.7211864590644836,1.7811540365219116,-0.4790462553501129,1.3943334817886353,-0.11473894864320755
591.0,-0.2797764539718628,-0.7076084613800049,1.765397071838379,-0.44455447793006897,1.1928774118423462,-0.25406113266944885
592.0,-0.30974555015563965,-0.6955650448799133,1.7429689168930054,-0.4019080400466919,1.0955309867858887,-0.3318641483783722
593.0,-0.24584251642227173,-0.7131656408309937,1.7801724672317505,-0.47507309913635254,1.3004345893859863,-0.17768019437789917
594.0,-0.15356393158435822,-0.7143164277076721,1.7731977701187134,-0.4864814579486847,1.604506492614746,0.021713925525546074
595.0,-0.1220935806632042,-0.7071959376335144,1.7553948163986206,-0.46365970373153687,1.6994158029556274,0.08466697484254837
596.0,-0.22785606980323792,-0.7088916301727295,1.7878472805023193,-0.4930020570755005,1.362177848815918,-0.13660407066345215
597.0,-0.19343765079975128,-0.7083364725112915,1.78877854347229,-0.5031408667564392,1.4760187864303589,-0.06156007945537567
598.0,-0.1586698442697525,-0.7084311842918396,1.7786214351654053,-0.49534374475479126,1.5864232778549194,0.010122829116880894
599.0,-0.13475266098976135,-0.702035665512085,1.7684133052825928,-0.48359915614128113,1.6563915014266968,0.0562913715839386
600.0,-0.10310427844524384,-0.695574164390564,1.7434238195419312,-0.44875165820121765,1.7547498941421509,0.12425529956817627
601.0,-0.07194215804338455,-0.6854647397994995,1.7121866941452026,-0.4054555892944336,1.8503363132476807,0.1949954628944397
602.0,-0.039577264338731766,-0.6718123555183411,1.667585015296936,-0.3422369360923767,1.955640435218811,0.2799423933029175
603.0,0.005322630517184734,-0.6365326046943665,1.5824275016784668,-0.2184068113565445,2.104548692703247,0.42535296082496643
604.0,0.022843671962618828,-0.6175644397735596,1.5336239337921143,-0.14539846777915955,2.1695239543914795,0.5007067918777466
605.0,0.04161817207932472,-0.5905839800834656,1.474457025527954,-0.055881351232528687,2.237687587738037,0.592799186706543
606.0,0.053870007395744324,-0.5665732026100159,1.4271764755249023,0.01788957789540291,2.281017780303955,0.666323184967041
607.0,0.07526582479476929,-0.5119062662124634,1.3191847801208496,0.1889040470123291,2.3615245819091797,0.8320149779319763
608.0,0.05447005107998848,-0.5339677333831787,1.3360964059829712,0.22296874225139618,2.272660493850708,0.8160702586174011
609.0,0.05447005107998848,-0.5339677333831787,1.3360964059829712,0.22296874225139618,2.272660493850708,0.8160702586174011
610.0,0.054424237459897995,-0.5343033671379089,1.3374762535095215,0.21184922754764557,2.2578179836273193,0.8061596751213074
611.0,0.05433008447289467,-0.534986674785614,1.3402951955795288,0.1891428530216217,2.2275075912475586,0.785920262336731
612.0,0.05418623983860016,-0.5360206961631775,1.344577431678772,0.15466070175170898,2.1814756393432617,0.7551822066307068
613.0,0.05398352071642876,-0.5374568700790405,1.3505645990371704,0.10647018253803253,2.1171395778656006,0.7122206687927246
614.0,0.05372777208685875,-0.5392379760742188,1.3580608367919922,0.04615895450115204,2.0366156101226807,0.6584501266479492
615.0,0.05342986434698105,-0.5412817597389221,1.366746187210083,-0.02368786185979843,1.9433536529541016,0.5961747169494629
616.0,0.053091879934072495,-0.5435660481452942,1.3765535354614258,-0.1025184616446495,1.838088870048523,0.5258851647377014
617.0,0.05271437019109726,-0.5460768938064575,1.3874582052230835,-0.19011926651000977,1.7211037874221802,0.4477698504924774
618.0,0.052289992570877075,-0.5488325953483582,1.3996394872665405,-0.287884384393692,1.5905280113220215,0.36057958006858826
619.0,0.051834311336278915,-0.5517318248748779,1.412649154663086,-0.3922119140625,1.4511727094650269,0.2675268054008484
620.0,0.05134909227490425,-0.5547516942024231,1.4264204502105713,-0.5025497674942017,1.3037734031677246,0.16910256445407867
621.0,0.05083608999848366,-0.5578691959381104,1.4408869743347168,-0.6183466911315918,1.1490651369094849,0.06579743325710297
622.0,0.05029096081852913,-0.5610677599906921,1.456114649772644,-0.7400659918785095,0.9864224195480347,-0.042805708944797516
623.0,0.04972071200609207,-0.5642949938774109,1.4718947410583496,-0.8660131692886353,0.8181090354919434,-0.155194491147995
624.0,0.0491308867931366,-0.5675196647644043,1.4880789518356323,-0.9950027465820312,0.6457103490829468,-0.270310640335083
625.0,0.04852372407913208,-0.5707190632820129,1.5046007633209229,-1.1264828443527222,0.46996209025382996,-0.3876628279685974
626.0,0.047900665551424026,-0.5738618969917297,1.521407127380371,-1.2599852085113525,0.29148492217063904,-0.5068365335464478
627.0,0.04726427420973778,-0.5768832564353943,1.5384103059768677,-1.3947004079818726,0.11135094612836838,-0.627113938331604
628.0,0.046622276306152344,-0.5797752141952515,1.5554628372192383,-1.529486894607544,-0.06890925765037537,-0.7474703788757324
629.0,0.04597773402929306,-0.5825130939483643,1.5724997520446777,-1.6637932062149048,-0.24855999648571014,-0.8674131631851196
630.0,0.045333754271268845,-0.5850725769996643,1.5894560813903809,-1.7970679998397827,-0.42686590552330017,-0.9864500761032104
631.0,0.044697001576423645,-0.5873488783836365,1.6061749458312988,-1.9278639554977417,-0.6019048094749451,-1.1032925844192505
632.0,0.0440719872713089,-0.5893468856811523,1.6225765943527222,-2.055590867996216,-0.7728816866874695,-1.2174110412597656
633.0,0.043461114168167114,-0.5910629630088806,1.6386144161224365,-2.1798691749572754,-0.9392852783203125,-1.3284642696380615
634.0,0.0428672693669796,-0.5924738049507141,1.6542240381240845,-2.300147771835327,-1.1003798246383667,-1.4359610080718994
635.0,0.04229671135544777,-0.5935057997703552,1.669257640838623,-2.415107488632202,-1.2544111013412476,-1.5387290716171265
636.0,0.041758567094802856,-0.5940804481506348,1.683501958847046,-2.5229225158691406,-1.3989460468292236,-1.6351431608200073
637.0,0.04125050827860832,-0.5943458676338196,1.6970000267028809,-2.624324321746826,-1.5349394083023071,-1.7258453369140625
638.0,0.04077581316232681,-0.5943422317504883,1.7096636295318604,-2.718766212463379,-1.661651611328125,-1.8103442192077637
639.0,0.04033776372671127,-0.594111442565918,1.7214038372039795,-2.8057031631469727,-1.7783432006835938,-1.8881480693817139
640.0,0.039956655353307724,-0.5936669707298279,1.7316893339157104,-2.88120436668396,-1.8797370195388794,-1.9557394981384277
641.0,0.039624281227588654,-0.5931375622749329,1.7407009601593018,-2.946974277496338,-1.9680925607681274,-2.0146324634552
642.0,0.03934141620993614,-0.592575192451477,1.748397946357727,-3.002852201461792,-2.043182134628296,-2.0646779537200928
643.0,0.03911076486110687,-0.5920247435569763,1.7546910047531128,-3.0482993125915527,-2.1042733192443848,-2.10538911819458
644.0,0.038946036249399185,-0.5915580987930298,1.7591893672943115,-3.0805959701538086,-2.1477012634277344,-2.1343259811401367
645.0,0.03885503113269806,-0.5912691354751587,1.7616719007492065,-3.0983405113220215,-2.1715686321258545,-2.1502273082733154
646.0,0.038821443915367126,-0.5911589860916138,1.7625876665115356,-3.1048777103424072,-2.1803624629974365,-2.156085729598999
647.0,0.038821443915367126,-0.5911589860916138,1.7625876665115356,-3.1048777103424072,-2.1803624629974365,-2.156085729598999
648.0,0.06513804942369461,-0.5639632940292358,1.7208062410354614,-3.0690622329711914,-2.2843539714813232,-2.068167209625244
649.0,0.08783844858407974,-0.5293446183204651,1.6918784379959106,-3.091829538345337,-2.3997128009796143,-2.0410315990448
650.0,0.09125080704689026,-0.5397689342498779,1.6529067754745483,-2.925753355026245,-2.4027457237243652,-1.8928275108337402
651.0,0.10116525739431381,-0.5297564268112183,1.6187330484390259,-2.8375160694122314,-2.4546477794647217,-1.7990819215774536
652.0,0.09979026019573212,-0.5131722092628479,1.6667029857635498,-3.052001714706421,-2.454091787338257,-1.9851748943328857
653.0,0.10630528628826141,-0.5154205560684204,1.6263986825942993,-2.8932321071624756,-2.473052978515625,-1.8378193378448486
654.0,0.10374052822589874,-0.5080029368400574,1.6552515029907227,-3.0103485584259033,-2.4537205696105957,-1.9422138929367065
655.0,0.110020212829113,-0.5123714208602905,1.5980063676834106,-2.7945094108581543,-2.475098133087158,-1.745786428451538
656.0,0.11033465713262558,-0.5173153877258301,1.561148762702942,-2.661752462387085,-2.4847891330718994,-1.630272626876831
657.0,0.11093118786811829,-0.5142723917961121,1.5229302644729614,-2.544541835784912,-2.48142409324646,-1.5266079902648926
658.0,0.10848076641559601,-0.5183326601982117,1.496595025062561,-2.457237482070923,-2.485145330429077,-1.4550771713256836
659.0,0.10817625373601913,-0.5233550667762756,1.5674338340759277,-2.6749420166015625,-2.4912683963775635,-1.6462154388427734
660.0,0.09735939651727676,-0.5380557179450989,1.5370038747787476,-2.560591220855713,-2.421579599380493,-1.5586212873458862
661.0,0.10454404354095459,-0.5138455629348755,1.4341816902160645,-2.2837977409362793,-2.474947929382324,-1.3092628717422485
662.0,0.10263773798942566,-0.5002163052558899,1.3818259239196777,-2.1662650108337402,-2.454927444458008,-1.207269310951233
663.0,0.10675548762083054,-0.4994118809700012,1.4121490716934204,-2.251422166824341,-2.4576401710510254,-1.274791955947876
664.0,0.09760242700576782,-0.48007458448410034,1.311672568321228,-2.024641990661621,-2.423348903656006,-1.0857855081558228
665.0,0.09175368398427963,-0.4672374725341797,1.2593379020690918,-1.9203057289123535,-2.4017841815948486,-1.0002861022949219
666.0,0.08359932899475098,-0.4605199098587036,1.2125561237335205,-1.819077730178833,-2.384554386138916,-0.9220044612884521
667.0,0.09065317362546921,-0.47972971200942993,1.2750049829483032,-1.9312185049057007,-2.415968418121338,-1.0151296854019165
668.0,0.059467755258083344,-0.505158007144928,1.2859256267547607,-2.0144004821777344,-2.252380847930908,-1.0630491971969604
669.0,0.04853566735982895,-0.548108696937561,1.3965773582458496,-2.2460851669311523,-2.1703691482543945,-1.2701869010925293
670.0,0.045336198061704636,-0.5614052414894104,1.4345495700836182,-2.317749261856079,-2.149226188659668,-1.3427790403366089
671.0,0.07814189046621323,-0.5275173783302307,1.3923933506011963,-2.207792043685913,-2.322589159011841,-1.2434442043304443
672.0,0.06571593135595322,-0.5536567568778992,1.4543578624725342,-2.3488056659698486,-2.242936372756958,-1.3752875328063965
673.0,0.06474462896585464,-0.5659379363059998,1.5005825757980347,-2.441880226135254,-2.231038808822632,-1.467390775680542
674.0,0.05415621027350426,-0.5827083587646484,1.5423873662948608,-2.5245723724365234,-2.1779894828796387,-1.560450792312622
675.0,0.03098663128912449,-0.606025755405426,1.5721194744110107,-2.560110569000244,-2.0766193866729736,-1.618692398071289
676.0,0.020016424357891083,-0.6035344004631042,1.535364031791687,-2.492218017578125,-2.028695821762085,-1.5472556352615356
677.0,0.03171476721763611,-0.5854787826538086,1.4921448230743408,-2.4236998558044434,-2.0815486907958984,-1.4611504077911377
678.0,0.0068930694833397865,-0.6048405170440674,1.5173563957214355,-2.461710214614868,-1.9770221710205078,-1.5161736011505127
679.0,0.011236527003347874,-0.5935305953025818,1.4861693382263184,-2.4168059825897217,-1.9987331628799438,-1.4588241577148438
680.0,-0.013328325003385544,-0.6122862100601196,1.5182808637619019,-2.467219352722168,-1.9009207487106323,-1.5412768125534058
681.0,-0.004967811051756144,-0.5985124111175537,1.4837069511413574,-2.4220402240753174,-1.937264084815979,-1.4762929677963257
682.0,-0.006084819789975882,-0.5882381200790405,1.450974464416504,-2.3785979747772217,-1.9435160160064697,-1.4209192991256714
683.0,-0.012379519641399384,-0.5831804871559143,1.430586814880371,-2.3561172485351562,-1.930855631828308,-1.3961530923843384
684.0,-0.006321885157376528,-0.5676824450492859,1.387572169303894,-2.282122850418091,-1.9687073230743408,-1.2966071367263794
685.0,0.017997177317738533,-0.5419331789016724,1.3337987661361694,-2.160442352294922,-2.0698904991149902,-1.1660908460617065
686.0,0.012239079922437668,-0.5635685324668884,1.3926451206207275,-2.2704360485076904,-2.0292234420776367,-1.2847316265106201
687.0,0.030686184763908386,-0.5527088046073914,1.3820244073867798,-2.2325193881988525,-2.1016361713409424,-1.2482870817184448
688.0,0.0396600104868412,-0.5156139135360718,1.2861305475234985,-2.047299861907959,-2.163198947906494,-1.07389497756958
689.0,0.03587983548641205,-0.49701404571533203,1.2304376363754272,-1.9453749656677246,-2.1637730598449707,-0.9796658158302307
690.0,0.02217339165508747,-0.5034619569778442,1.2310153245925903,-1.9637712240219116,-2.1133813858032227,-0.9782299399375916
691.0,0.0037708610761910677,-0.525897204875946,1.2724016904830933,-2.0645387172698975,-2.042039394378662,-1.0535438060760498
692.0,0.00442211190238595,-0.4978322982788086,1.1971046924591064,-1.9199455976486206,-2.0627284049987793,-0.9126613736152649
693.0,0.02302595227956772,-0.4555421769618988,1.1113864183425903,-1.7365901470184326,-2.142754077911377,-0.7926801443099976
694.0,0.01957523263990879,-0.41138389706611633,1.0066757202148438,-1.552257776260376,-2.1488213539123535,-0.6595568060874939
695.0,0.002543326001614332,-0.29450100660324097,0.7522833943367004,-1.1789203882217407,-2.1026554107666016,-0.41936835646629333
696.0,0.018814796581864357,-0.32633939385414124,0.8304448127746582,-1.267012357711792,-2.157766580581665,-0.4869460463523865
697.0,0.03869694471359253,-0.36897748708724976,0.9360343813896179,-1.3934608697891235,-2.2283899784088135,-0.5858172178268433
698.0,0.05004703998565674,-0.4102303981781006,1.0378738641738892,-1.5476940870285034,-2.2631607055664062,-0.6977336406707764
699.0,0.07204809039831161,-0.43344107270240784,1.127498984336853,-1.6772516965866089,-2.340320110321045,-0.8072060346603394
700.0,0.059254929423332214,-0.4039627015590668,1.0431710481643677,-1.551038384437561,-2.2929186820983887,-0.706511914730072
701.0,0.051379717886447906,-0.38271671533584595,0.9904402494430542,-1.4823994636535645,-2.2603065967559814,-0.6506619453430176
702.0,0.02722560428082943,-0.33491721749305725,0.8613841533660889,-1.3128094673156738,-2.1797397136688232,-0.520392119884491
703.0,0.014564459212124348,-0.30800488591194153,0.7976876497268677,-1.2426704168319702,-2.13509464263916,-0.46463286876678467
704.0,-0.023512201383709908,-0.23207762837409973,0.6205125451087952,-1.0599125623703003,-2.006136655807495,-0.3233613669872284
705.0,-0.010100922547280788,-0.2554991543292999,0.6777086853981018,-1.1205757856369019,-2.0491576194763184,-0.3687645494937897
706.0,0.0029572206549346447,-0.2785938084125519,0.7332082390785217,-1.178871512413025,-2.0911576747894287,-0.41436561942100525
707.0,0.0134487459436059,-0.29462099075317383,0.7784254550933838,-1.2353928089141846,-2.122502565383911,-0.4554908871650696
708.0,0.02514413185417652,-0.3160744309425354,0.8327558636665344,-1.29813551902771,-2.159886121749878,-0.5037940144538879
709.0,0.036858998239040375,-0.34429195523262024,0.9001838564872742,-1.3759862184524536,-2.202813148498535,-0.5645166635513306
710.0,0.060419753193855286,-0.39477914571762085,1.0348756313323975,-1.5547759532928467,-2.2852563858032227,-0.7050919532775879
711.0,0.06952565163373947,-0.41284266114234924,1.089289903640747,-1.636625051498413,-2.3147597312927246,-0.7689656615257263
712.0,0.043963368982076645,-0.3520786166191101,0.9293424487113953,-1.4212872982025146,-2.220337390899658,-0.5973441004753113
713.0,-0.0002532099315430969,-0.2542828917503357,0.6960399746894836,-1.1626421213150024,-2.067148208618164,-0.3962877094745636
714.0,0.012480134144425392,-0.28018516302108765,0.7580022811889648,-1.2285798788070679,-2.109550714492798,-0.4464653432369232
715.0,0.032327715307474136,-0.32034599781036377,0.8572766780853271,-1.3415697813034058,-2.1743886470794678,-0.5329431891441345
716.0,0.04433576762676239,-0.3408130705356598,0.915818452835083,-1.4192800521850586,-2.2099480628967285,-0.5911637544631958
717.0,0.06078173592686653,-0.37884262204170227,1.014732003211975,-1.5476497411727905,-2.2687387466430664,-0.6925817728042603
718.0,0.07007993012666702,-0.40063369274139404,1.074161171913147,-1.6309276819229126,-2.302163600921631,-0.7590912580490112
719.0,0.08206845819950104,-0.43782278895378113,1.170439600944519,-1.7692327499389648,-2.356450080871582,-0.8742750883102417
720.0,0.09320065379142761,-0.45918190479278564,1.2523788213729858,-1.9209645986557007,-2.393176317214966,-0.9961625337600708
721.0,0.08868250995874405,-0.4446919858455658,1.209572434425354,-1.8490976095199585,-2.371415376663208,-0.9356736540794373
722.0,0.07742484658956528,-0.41623541712760925,1.1227028369903564,-1.7074847221374512,-2.327208995819092,-0.8197936415672302
723.0,0.07362265884876251,-0.39689403772354126,1.0817413330078125,-1.6581435203552246,-2.302151918411255,-0.7760581970214844
724.0,0.08538923412561417,-0.4248792231082916,1.1643413305282593,-1.7851721048355103,-2.3448445796966553,-0.8787610530853271
725.0,0.09143789857625961,-0.438469260931015,1.2113631963729858,-1.8676059246063232,-2.366537570953369,-0.9455863237380981
726.0,0.08985855430364609,-0.4241701364517212,1.1820570230484009,-1.8297276496887207,-2.3483200073242188,-0.9103547930717468
727.0,0.09705357998609543,-0.4382096529006958,1.234695553779602,-1.9243669509887695,-2.3711061477661133,-0.9866962432861328
728.0,0.0980033278465271,-0.45359787344932556,1.2642334699630737,-1.9624136686325073,-2.3908348083496094,-1.0236740112304688
729.0,0.10657456517219543,-0.4726592004299164,1.3470916748046875,-2.1319990158081055,-2.4223339557647705,-1.1642429828643799
730.0,0.09991315752267838,-0.46786466240882874,1.3010534048080444,-2.0245180130004883,-2.410382032394409,-1.0789587497711182
731.0,0.10964597016572952,-0.4914001226425171,1.4141981601715088,-2.273818016052246,-2.4498932361602783,-1.2884941101074219
732.0,0.10439334064722061,-0.48678624629974365,1.3634333610534668,-2.1451847553253174,-2.4388296604156494,-1.182868242263794
733.0,0.1098211407661438,-0.5040674209594727,1.4525279998779297,-2.35518741607666,-2.4671075344085693,-1.3619142770767212
734.0,0.11179744452238083,-0.5060996413230896,1.4844112396240234,-2.441859483718872,-2.471015453338623,-1.4342341423034668
735.0,0.1134246438741684,-0.5073823928833008,1.531659722328186,-2.58284330368042,-2.473970890045166,-1.555222511291504
736.0,0.11420858651399612,-0.5005024075508118,1.495444655418396,-2.4840664863586426,-2.4651317596435547,-1.4662104845046997
737.0,0.11421802639961243,-0.49377018213272095,1.461010217666626,-2.397632360458374,-2.4569807052612305,-1.3903356790542603
738.0,0.11605486273765564,-0.4994659125804901,1.535548210144043,-2.6078250408172607,-2.465303659439087,-1.572009801864624
739.0,0.11282479017972946,-0.48484066128730774,1.421958565711975,-2.3070316314697266,-2.4435853958129883,-1.3110114336013794
740.0,0.11598345637321472,-0.4853016436100006,1.4507585763931274,-2.3847970962524414,-2.4470064640045166,-1.3747010231018066
741.0,0.1172272115945816,-0.49244120717048645,1.505198359489441,-2.527399778366089,-2.4566490650177,-1.4983395338058472
742.0,0.11858255416154861,-0.49177852272987366,1.5444252490997314,-2.648432731628418,-2.456982374191284,-1.6030505895614624
743.0,0.11561331897974014,-0.48930856585502625,1.615387201309204,-2.8858799934387207,-2.4463372230529785,-1.8149361610412598
744.0,0.11862895637750626,-0.4881497025489807,1.5762202739715576,-2.7554361820220947,-2.4501402378082275,-1.6958932876586914
745.0,0.11877597123384476,-0.4846297800540924,1.4875291585922241,-2.4903182983398438,-2.447767734527588,-1.4625186920166016
746.0,0.11626367270946503,-0.48261725902557373,1.6245548725128174,-2.9265551567077637,-2.436016082763672,-1.8486636877059937
747.0,0.10255390405654907,-0.5099976658821106,1.600214958190918,-2.7723286151885986,-2.3189103603363037,-1.733656883239746
748.0,0.05998135358095169,-0.5512951016426086,1.589736819267273,-2.662269353866577,-2.0507867336273193,-1.6852452754974365
749.0,-0.011899269185960293,-0.594009518623352,1.626659870147705,-2.622633934020996,-1.6685117483139038,1.5588419437408447
750.0,-0.01643424481153488,-0.5989375710487366,1.6360857486724854,-2.620375394821167,-1.6116381883621216,1.5543495416641235
751.0,-0.013849933631718159,-0.5936746597290039,1.6200768947601318,-2.607651472091675,-1.6107367277145386,1.5569360256195068
752.0,-0.011384250596165657,-0.5857216119766235,1.5957562923431396,-2.5878663063049316,-1.6091786623001099,1.559403896331787
753.0,-0.014574196189641953,-0.5814266800880432,1.5822890996932983,-2.5757298469543457,-1.6340680122375488,1.5561929941177368
754.0,-0.011903342790901661,-0.5795310735702515,1.577043056488037,-2.5730457305908203,-1.6079962253570557,1.558884859085083
755.0,-0.00913309771567583,-0.5736697912216187,1.5600991249084473,-2.5600802898406982,-1.610242247581482,1.56165611743927
756.0,0.075910285115242,-0.5321221947669983,1.53693687915802,-2.569009780883789,-2.1395819187164307,-1.5585405826568604
757.0,0.02780609019100666,-0.5560677647590637,1.5377482175827026,-2.554295778274536,-1.8679600954055786,-1.5770084857940674
758.0,0.017702272161841393,-0.5548954606056213,1.5219740867614746,-2.5334575176239014,-1.8091074228286743,-1.552085518836975
759.0,-0.01918235793709755,-0.5691584348678589,1.5454890727996826,-2.547869920730591,-1.5923681259155273,1.5516095161437988
760.0,-0.00791105441749096,-0.5666686296463013,1.5397443771362305,-2.5443546772003174,-1.6114213466644287,1.5628787279129028
761.0,-0.019189022481441498,-0.5609203577041626,1.5218350887298584,-2.5301055908203125,-1.5933269262313843,1.5516024827957153
762.0,-0.01021498627960682,-0.554419755935669,1.5042678117752075,-2.51701021194458,-1.6090667247772217,1.560573935508728
763.0,-0.022297589108347893,-0.5511389374732971,1.4949944019317627,-2.5133039951324463,-1.5883394479751587,1.5484952926635742
764.0,-0.009870901703834534,-0.5452723503112793,1.4784902334213257,-2.497330665588379,-1.6101607084274292,1.5609179735183716
765.0,-0.016565866768360138,-0.5436745285987854,1.4734792709350586,-2.4939911365509033,-1.6075694561004639,1.5542197227478027
766.0,-0.012226158753037453,-0.5358917117118835,1.4520995616912842,-2.476907253265381,-1.6118886470794678,1.5585604906082153
767.0,-0.014731517992913723,-0.527453601360321,1.4285706281661987,-2.4587199687957764,-1.6134833097457886,1.556052803993225
768.0,0.014220168814063072,-0.5220812559127808,1.412341833114624,-2.3911495208740234,-1.819016933441162,-1.2931466102600098
769.0,0.09686502069234848,-0.47117552161216736,1.3538267612457275,-2.2081592082977295,-2.3078157901763916,-1.2142482995986938
770.0,0.08625886589288712,-0.4981119930744171,1.4246406555175781,-2.363975763320923,-2.2185635566711426,-1.3520411252975464
771.0,0.11810969561338425,-0.4764978885650635,1.443223237991333,-2.3805317878723145,-2.436993360519409,-1.3659427165985107
772.0,0.1149664968252182,-0.4743635952472687,1.4104830026626587,-2.29597544670105,-2.4313430786132812,-1.2955511808395386
773.0,0.11173693835735321,-0.4687635600566864,1.3713712692260742,-2.2038991451263428,-2.421983003616333,-1.2188022136688232
774.0,0.10625804215669632,-0.45861679315567017,1.3175867795944214,-2.0861029624938965,-2.404010772705078,-1.1204057931900024
775.0,0.10309574007987976,-0.4412565231323242,1.2680976390838623,-1.9996240139007568,-2.3800692558288574,-1.0445327758789062
776.0,0.09663905948400497,-0.4249957203865051,1.2115976810455322,-1.8981982469558716,-2.354813814163208,-0.9599164724349976
777.0,0.008081923238933086,-0.5093706250190735,1.3717730045318604,-2.343549966812134,-1.8084914684295654,-1.2061150074005127
778.0,-0.026354704052209854,-0.528292179107666,1.4319608211517334,-2.4683334827423096,-1.5936622619628906,1.5444353818893433
779.0,-0.021214943379163742,-0.5180289149284363,1.401997685432434,-2.437542676925659,-1.6151570081710815,1.549564003944397
780.0,-0.02334638684988022,-0.5067179799079895,1.3709913492202759,-2.4120898246765137,-1.6173824071884155,1.5474313497543335
781.0,-0.02923540212213993,-0.5007920265197754,1.3537521362304688,-2.396080255508423,-1.621137261390686,1.5415362119674683
782.0,-0.03165609389543533,-0.49180468916893005,1.3295063972473145,-2.375894069671631,-1.6215236186981201,1.5391179323196411
783.0,-0.029445383697748184,-0.4919147789478302,1.3239706754684448,-2.348273754119873,-1.66658616065979,1.5412639379501343
784.0,-0.01401278655976057,-0.49410560727119446,1.3248380422592163,-2.3148000240325928,-1.730993390083313,-1.0717403888702393
785.0,-0.013929754495620728,-0.5049235224723816,1.3591371774673462,-2.36689829826355,-1.7091292142868042,-1.1715508699417114
786.0,0.04310830682516098,-0.4704732894897461,1.2730447053909302,-2.1319527626037598,-2.02742075920105,-1.0615154504776
787.0,0.07388405501842499,-0.3905010223388672,1.092382788658142,-1.7271844148635864,-2.2604613304138184,-0.8090075850486755
788.0,0.08397626131772995,-0.40190333127975464,1.125112533569336,-1.7464042901992798,-2.3172447681427,-0.8390583992004395
789.0,0.07078900188207626,-0.36616456508636475,1.0282187461853027,-1.608728051185608,-2.2663962841033936,-0.7271943092346191
790.0,0.061067309230566025,-0.3482944369316101,0.9745672345161438,-1.5315842628479004,-2.2371997833251953,-0.6670957207679749
791.0,0.07590232044458389,-0.39081552624702454,1.0810000896453857,-1.6706501245498657,-2.2973825931549072,-0.7811166644096375
792.0,0.06754358857870102,-0.3717453181743622,1.0256015062332153,-1.5891494750976562,-2.2686238288879395,-0.7166562080383301
793.0,0.051760900765657425,-0.33446481823921204,0.9279475808143616,-1.4618383646011353,-2.2136645317077637,-0.6162270903587341
794.0,0.03818076103925705,-0.30691438913345337,0.8556841611862183,-1.372200608253479,-2.1701972484588623,-0.5468496680259705
795.0,0.06001609191298485,-0.364810049533844,0.993635356426239,-1.5341781377792358,-2.253207206726074,-0.6768926382064819
796.0,0.0467597171664238,-0.3341912627220154,0.9135574698448181,-1.4305657148361206,-2.20678973197937,-0.595658004283905
797.0,0.032557111233472824,-0.3077027499675751,0.8417922854423523,-1.339935064315796,-2.1636364459991455,-0.5271146297454834
798.0,0.015285391360521317,-0.2671339511871338,0.7478017210960388,-1.2402373552322388,-2.1034650802612305,-0.44935187697410583
799.0,0.021332528442144394,-0.2901185154914856,0.7912163138389587,-1.2744933366775513,-2.131655693054199,-0.478965163230896
800.0,0.005283042322844267,-0.2526516616344452,0.7053393721580505,-1.186492681503296,-2.075850009918213,-0.4114335775375366
