Sungjin-Park-dev/vision_inspection/data/trajectory/1158/collision_free_trajectory.csv
time,ur20-shoulder_pan_joint,ur20-shoulder_lift_joint,ur20-elbow_joint,ur20-wrist_1_joint,ur20-wrist_2_joint,ur20-wrist_3_joint
0.0,-0.39739498496055603,-0.43681758642196655,1.1770938634872437,0.3708324134349823,0.6293444037437439,-1.0213204622268677
1.0,-0.4050470292568207,-0.3753979802131653,1.0665419101715088,0.571931779384613,0.585904061794281,-1.2063963413238525
2.0,-0.40983033180236816,-0.33041658997535706,0.9935579299926758,0.7028641700744629,0.5685763359069824,-1.3291314840316772
3.0,-0.39420825242996216,-0.4564986228942871,1.221628189086914,0.292334645986557,0.653740644454956,-0.9532787203788757
4.0,-0.40230420231819153,-0.4145359992980957,1.1479246616363525,0.4226369857788086,0.61637943983078,-1.0759596824645996
5.0,-0.41434434056282043,-0.2643161416053772,0.8869893550872803,0.8928249478340149,0.5570764541625977,-1.5056737661361694
6.0,-0.4139264225959778,-0.30340805649757385,0.959977924823761,0.7617976665496826,0.5651600360870361,-1.3908575773239136
7.0,-0.41648241877555847,-0.22481903433799744,0.8245432376861572,0.9980192184448242,0.5574944615364075,-1.6025487184524536
8.0,-0.4132751226425171,-0.10372934490442276,0.6061496734619141,1.342046856880188,0.5817688703536987,-1.8949331045150757
9.0,-0.4185890257358551,-0.19250068068504333,0.7770592570304871,1.0750703811645508,0.5618666410446167,-1.675657868385315
10.0,-0.41695618629455566,-0.14907489717006683,0.6952402591705322,1.2046537399291992,0.5683779120445251,-1.7834755182266235
11.0,-0.42026206851005554,-0.16471964120864868,0.7346808910369873,1.1362435817718506,0.566675066947937,-1.7308977842330933
12.0,-0.4160543382167816,-0.09534253925085068,0.6012916564941406,1.3400722742080688,0.5843877196311951,-1.897260308265686
13.0,-0.41126590967178345,-0.04820111021399498,0.5039522051811218,1.4725208282470703,0.600841224193573,-1.996003270149231
14.0,-0.4023113548755646,0.06120411306619644,0.27853620052337646,1.7178137302398682,0.6418436169624329,-2.1546692848205566
15.0,-0.39106518030166626,0.19488270580768585,-1.567108890604982e-17,1.9728190898895264,0.6945050954818726,-2.29496693611145
16.0,-0.37444692850112915,0.19686327874660492,-1.567108890604982e-17,2.0745511054992676,0.7641642689704895,-2.433586597442627
17.0,-0.3831843137741089,0.1943531632423401,-1.567108890604982e-17,2.0239405632019043,0.7241900563240051,-2.360995292663574
18.0,-0.39422550797462463,0.188456729054451,-1.567108890604982e-17,1.9394019842147827,0.6695345044136047,-2.2420876026153564
19.0,-0.38546326756477356,0.18849770724773407,-1.567108890604982e-17,1.9987982511520386,0.7022439241409302,-2.3190133571624756
20.0,-0.37589913606643677,0.1916505992412567,-1.567108890604982e-17,2.063959836959839,0.7476890683174133,-2.409947395324707
21.0,-0.36587095260620117,0.19387836754322052,-1.567108890604982e-17,2.112201452255249,0.7922607064247131,-2.481407880783081
22.0,-0.358216792345047,0.1965179145336151,-1.567108890604982e-17,2.14666485786438,0.8293859958648682,-2.5354883670806885
23.0,-0.3377458453178406,0.19523853063583374,-1.567108890604982e-17,2.2118828296661377,0.9081191420555115,-2.634495735168457
24.0,-0.35801079869270325,0.19157440960407257,-1.567108890604982e-17,2.146967887878418,0.8204401731491089,-2.526578426361084
25.0,-0.3485684394836426,0.19036611914634705,-1.567108890604982e-17,2.1778485774993896,0.8545741438865662,-2.571610689163208
26.0,-0.32721394300460815,0.18835757672786713,-1.567108890604982e-17,2.239448070526123,0.9354661107063293,-2.666806221008301
27.0,-0.3131883144378662,0.18668818473815918,-1.567108890604982e-17,2.2727103233337402,0.9881772994995117,-2.72128963470459
28.0,-0.2971417307853699,0.18459171056747437,-1.567108890604982e-17,2.301166296005249,1.0447438955307007,-2.772900104522705
29.0,-0.32414156198501587,0.18343980610370636,-1.567108890604982e-17,2.2499825954437256,0.9398961067199707,-2.6738429069519043
30.0,-0.3433895707130432,0.1862202137708664,-1.567108890604982e-17,2.1958510875701904,0.8682602643966675,-2.59126877784729
31.0,-0.3577450215816498,0.1856352835893631,-1.567108890604982e-17,2.1454994678497314,0.8092079758644104,-2.5139212608337402
32.0,-0.3667261302471161,0.18714001774787903,-1.567108890604982e-17,2.1042122840881348,0.7746936082839966,-2.4584410190582275
33.0,-0.3745480477809906,0.18576210737228394,-1.567108890604982e-17,2.065664768218994,0.7405973672866821,-2.402446746826172
34.0,-0.38261109590530396,0.18347635865211487,-1.567108890604982e-17,2.0099146366119385,0.7029672861099243,-2.3257508277893066
35.0,-0.367220401763916,0.18031181395053864,-1.567108890604982e-17,2.0973803997039795,0.758556604385376,-2.4372305870056152
36.0,-0.3769846260547638,0.1795109659433365,-1.567108890604982e-17,2.0415079593658447,0.7171942591667175,-2.360753297805786
37.0,-0.38535135984420776,0.17488554120063782,-1.567108890604982e-17,1.9745641946792603,0.6739184260368347,-2.2671139240264893
38.0,-0.38971030712127686,0.1795908510684967,-1.567108890604982e-17,1.952908992767334,0.6674709916114807,-2.246323585510254
39.0,-0.39503538608551025,0.3159164488315582,-0.31105077266693115,2.0563886165618896,0.6361318230628967,-2.156825304031372
40.0,-0.40514254570007324,0.41185668110847473,-0.5361433625221252,2.0403077602386475,0.5919728875160217,-1.9797331094741821
41.0,-0.40199708938598633,0.3682466149330139,-0.42384204268455505,2.0505189895629883,0.6143327951431274,-2.075605869293213
42.0,-0.39742526412010193,0.30387258529663086,-0.26795467734336853,2.035983085632324,0.6435821056365967,-2.171189069747925
43.0,-0.40429043769836426,0.36478880047798157,-0.4019772410392761,2.03938627243042,0.6194291710853577,-2.085352659225464
44.0,-0.4079621136188507,0.42044001817703247,-0.5455893278121948,2.030083179473877,0.5915716886520386,-1.9669148921966553
45.0,-0.4117155969142914,0.46105703711509705,-0.6523155570030212,1.9911472797393799,0.5714635848999023,-1.841240406036377
46.0,-0.41280218958854675,0.4899771809577942,-0.7354806065559387,1.955283761024475,0.5610135197639465,-1.7345272302627563
47.0,-0.4101441204547882,0.4657437801361084,-0.6785998940467834,1.9858531951904297,0.565400242805481,-1.8089739084243774
48.0,-0.41164430975914,0.5220339894294739,-0.8448488712310791,1.890851378440857,0.5533135533332825,-1.5675524473190308
49.0,-0.40986931324005127,0.49357080459594727,-0.7676312327384949,1.9425989389419556,0.5557237863540649,-1.6857115030288696
50.0,-0.4093298614025116,0.5407518744468689,-0.912909746170044,1.847432255744934,0.5560010075569153,-1.4584661722183228
51.0,-0.40781134366989136,0.46500256657600403,-0.691630482673645,1.9869340658187866,0.5618605017662048,-1.793686866760254
52.0,-0.4049357771873474,0.430867075920105,-0.598198413848877,2.027311086654663,0.5782897472381592,-1.912180781364441
53.0,-0.3985366225242615,0.3731755316257477,-0.4571610689163208,2.0657479763031006,0.6059829592704773,-2.058298110961914
54.0,-0.40402108430862427,0.442710816860199,-0.6435275077819824,2.0156092643737793,0.5681861042976379,-1.8579949140548706
55.0,-0.4044153392314911,0.4788529574871063,-0.7565850019454956,1.9532971382141113,0.567640483379364,-1.6948679685592651
56.0,-0.38018184900283813,0.37123897671699524,-0.5461267828941345,1.9885574579238892,0.7281413078308105,-1.8912923336029053
57.0,-0.36587846279144287,0.29360342025756836,-0.3867380917072296,1.9636342525482178,0.8056240677833557,-1.9904202222824097
58.0,-0.39120543003082275,0.3039734959602356,-0.29707056283950806,2.0669384002685547,0.6381040215492249,-2.171428680419922
59.0,-0.37606680393218994,0.17447960376739502,-1.567108890604982e-17,2.039555311203003,0.7100622653961182,-2.3504040241241455
60.0,-0.348224014043808,0.211029514670372,-0.23306697607040405,1.8965026140213013,0.9007129073143005,-2.0380892753601074
61.0,-0.3418504595756531,0.1097881942987442,-1.567108890604982e-17,1.829740047454834,0.9213815927505493,-2.1393864154815674
62.0,-0.31981807947158813,0.09302913397550583,-1.567108890604982e-17,1.8087555170059204,1.0288251638412476,-2.1584577560424805
63.0,-0.3014726936817169,0.08514697104692459,-1.567108890604982e-17,1.814272403717041,1.1064449548721313,-2.221552848815918
64.0,-0.28347501158714294,0.09013458341360092,-1.567108890604982e-17,1.881922721862793,1.1604844331741333,-2.3870227336883545
65.0,-0.2578803598880768,0.06970056146383286,-1.567108890604982e-17,1.80800199508667,1.2724674940109253,-2.3938236236572266
66.0,-0.25409576296806335,0.051628176122903824,-1.567108890604982e-17,1.7008315324783325,1.3242806196212769,-2.2160489559173584
67.0,-0.26520422101020813,0.05321960896253586,-1.567108890604982e-17,1.6941087245941162,1.2856308221817017,-2.1359286308288574
68.0,-0.2793034017086029,0.057488515973091125,-1.567108890604982e-17,1.6959549188613892,1.2309963703155518,-2.076838970184326
69.0,-0.30442461371421814,0.14131119847297668,-0.15964148938655853,1.7904338836669922,1.1221486330032349,-2.0105538368225098
70.0,-0.3047812879085541,0.23704370856285095,-0.3854856789112091,1.8618191480636597,1.1332097053527832,-1.8974310159683228
71.0,-0.26383650302886963,0.2674819529056549,-0.5046838521957397,1.8525139093399048,1.3328895568847656,-1.7576082944869995
72.0,-0.25358089804649353,0.301541805267334,-0.5913817882537842,1.8712692260742188,1.3819445371627808,-1.6273771524429321
73.0,-0.3101096749305725,0.34440404176712036,-0.642540454864502,1.9065452814102173,1.1214032173156738,-1.6572028398513794
74.0,-0.309274822473526,0.28539717197418213,-0.4969555735588074,1.8889411687850952,1.1182082891464233,-1.8107502460479736
75.0,-0.3399743139743805,0.33344295620918274,-0.5623555183410645,1.9260234832763672,0.9649966359138489,-1.790223240852356
76.0,-0.3617086410522461,0.3852221965789795,-0.6467734575271606,1.9451462030410767,0.8487879633903503,-1.7405502796173096
77.0,-0.3392488360404968,0.420197993516922,-0.7892215251922607,1.91218101978302,0.9747660756111145,-1.5215882062911987
78.0,-0.28881046175956726,0.37002110481262207,-0.7302927374839783,1.9040286540985107,1.223098874092102,-1.4915869235992432
79.0,-0.29518458247184753,0.40864232182502747,-0.8186286687850952,1.9095288515090942,1.1891367435455322,-1.3814618587493896
80.0,-0.32114946842193604,0.4563544690608978,-0.9082647562026978,1.8969238996505737,1.059770107269287,-1.3177857398986816
81.0,-0.3219117224216461,0.48618030548095703,-0.9817395806312561,1.8774393796920776,1.0471786260604858,-1.2055714130401611
82.0,-0.3115653693675995,0.4985446333885193,-1.023664951324463,1.8721996545791626,1.087989330291748,-1.1151204109191895
83.0,-0.3306511640548706,0.5552675724029541,-1.1388487815856934,1.8039501905441284,0.9792212247848511,-0.990613579750061
84.0,-0.35701417922973633,0.46776390075683594,-0.8781751394271851,1.8954441547393799,0.876923680305481,-1.4371616840362549
85.0,-0.3839085102081299,0.47758233547210693,-0.8351552486419678,1.90606689453125,0.7153973579406738,-1.5412540435791016
86.0,-0.378593772649765,0.5208717584609985,-0.9677124619483948,1.8461127281188965,0.74409019947052,-1.3395518064498901
87.0,-0.37880921363830566,0.552695095539093,-1.0499335527420044,1.7963134050369263,0.7349961400032043,-1.2115236520767212
88.0,-0.378152072429657,0.5896212458610535,-1.1432783603668213,1.7308458089828491,0.7272284030914307,-1.0634243488311768
89.0,-0.40693187713623047,0.5278679728507996,-0.8934210538864136,1.8633813858032227,0.5523249506950378,-1.4851410388946533
90.0,-0.4059164822101593,0.5648635029792786,-0.9988328814506531,1.7858893871307373,0.5675843358039856,-1.3128687143325806
91.0,-0.3985205590724945,0.6005979776382446,-1.1182395219802856,1.7006187438964844,0.6037226319313049,-1.1101717948913574
92.0,-0.3925607204437256,0.6269967555999756,-1.1947215795516968,1.648508906364441,0.6392220854759216,-0.9842063784599304
93.0,-0.3814942240715027,0.6452844142913818,-1.2661628723144531,1.6024467945098877,0.6870154738426208,-0.8579024076461792
94.0,-0.35882049798965454,0.6510090231895447,-1.3157060146331787,1.6113396883010864,0.8049730062484741,-0.766248881816864
95.0,-0.3293992578983307,0.639807403087616,-1.3293732404708862,1.656625509262085,0.9446513056755066,-0.7043547630310059
96.0,-0.3042176067829132,0.571770191192627,-1.2054086923599243,1.7875949144363403,1.0807267427444458,-0.8159311413764954
97.0,-0.2912071645259857,0.6027308106422424,-1.285670280456543,1.7403463125228882,1.1137436628341675,-0.66410893201828
98.0,-0.2751953601837158,0.605786144733429,-1.3033283948898315,1.7385822534561157,1.1693402528762817,-0.5884349942207336
99.0,-0.24830417335033417,0.5278535485267639,-1.1383086442947388,1.8618055582046509,1.3032422065734863,-0.674286961555481
100.0,-0.22920764982700348,0.5317210555076599,-1.1545279026031494,1.8605996370315552,1.3581767082214355,-0.5478070974349976
101.0,-0.20015287399291992,0.5393950343132019,-1.1806014776229858,1.8506875038146973,1.4344708919525146,-0.3452220857143402
102.0,-0.23911182582378387,0.5896336436271667,-1.2864024639129639,1.770150899887085,1.2964824438095093,-0.4627803862094879
103.0,-0.22811047732830048,0.6202158331871033,-1.3565906286239624,1.7117146253585815,1.3207794427871704,-0.3501538336277008
104.0,-0.20476095378398895,0.6029533743858337,-1.3266322612762451,1.7408548593521118,1.4008080959320068,-0.26715341210365295
105.0,-0.166979119181633,0.5378269553184509,-1.1821973323822021,1.841381549835205,1.5479965209960938,-0.05805915966629982
106.0,-0.17328321933746338,0.6073980331420898,-1.3411903381347656,1.7200261354446411,1.5153599977493286,-0.08353973925113678
107.0,-0.13814756274223328,0.5992583632469177,-1.3207825422286987,1.719788908958435,1.6442818641662598,0.11341985315084457
108.0,-0.09464804083108902,0.5698699355125427,-1.2401368618011475,1.752429485321045,1.8025602102279663,0.4078299105167389
109.0,-0.08830854296684265,0.5086349248886108,-1.0886030197143555,1.850565791130066,1.8231799602508545,0.6788046360015869
110.0,-0.11560285836458206,0.5285688638687134,-1.1513431072235107,1.8324401378631592,1.7339593172073364,0.40616875886917114
111.0,-0.09841788560152054,0.4643019735813141,-0.977429211139679,1.9159393310546875,1.8008438348770142,0.9313364624977112
112.0,-0.09281190484762192,0.42345741391181946,-0.8669277429580688,1.943347692489624,1.816594123840332,1.286749243736267
113.0,-0.08123034238815308,0.42566990852355957,-0.8651362061500549,1.9430804252624512,1.825592041015625,1.3099318742752075
114.0,-0.08528843522071838,0.41409072279930115,-0.8415551781654358,1.9333432912826538,1.8219518661499023,1.3149484395980835
115.0,-0.08461295813322067,0.39971718192100525,-0.8089926838874817,1.9200537204742432,1.8213707208633423,1.3330419063568115
116.0,-0.09255456179380417,0.40071797370910645,-0.81580650806427,1.922691822052002,1.8157691955566406,1.3155807256698608
117.0,-0.11491682380437851,0.41919946670532227,-0.8666123747825623,1.9509923458099365,1.7407009601593018,1.191907286643982
118.0,-0.1257530301809311,0.4529077708721161,-0.957166314125061,1.9419848918914795,1.703096628189087,0.7780750393867493
119.0,-0.1332584023475647,0.4103122055530548,-0.8511382937431335,1.9526634216308594,1.6736335754394531,-1.7046319246292114
120.0,-0.1332584023475647,0.4103122055530548,-0.8511382937431335,1.9526634216308594,1.6736335754394531,-1.7046319246292114
121.0,-0.1332009732723236,0.4057110846042633,-0.8410237431526184,1.9471571445465088,1.6738101243972778,-1.6872140169143677
122.0,-0.1330820769071579,0.396181583404541,-0.8200749158859253,1.9357516765594482,1.6741764545440674,-1.6511352062225342
123.0,-0.13290569186210632,0.38202881813049316,-0.7889625430107117,1.918812870979309,1.6747217178344727,-1.5975472927093506
124.0,-0.13267678022384644,0.3636300265789032,-0.748516321182251,1.8967933654785156,1.675431728363037,-1.5278772115707397
125.0,-0.132400244474411,0.3413699269294739,-0.6995817422866821,1.8701565265655518,1.6762906312942505,-1.4435815811157227
126.0,-0.13208089768886566,0.31563401222229004,-0.6430065035820007,1.8393652439117432,1.6772830486297607,-1.3461215496063232
127.0,-0.13172310590744019,0.28680917620658875,-0.5796394944190979,1.804879069328308,1.6783946752548218,-1.236958622932434
128.0,-0.1313316524028778,0.25528234243392944,-0.5103299617767334,1.7671623229980469,1.6796119213104248,-1.1175557374954224
129.0,-0.13091148436069489,0.22143925726413727,-0.4359271824359894,1.726677417755127,1.6809228658676147,-0.9893763065338135
130.0,-0.13046783208847046,0.18566539883613586,-0.3572796583175659,1.6838884353637695,1.6823148727416992,-0.853884756565094
131.0,-0.13000555336475372,0.14834655821323395,-0.27523601055145264,1.639256477355957,1.6837745904922485,-0.7125452756881714
132.0,-0.12952949106693268,0.10986921936273575,-0.1906457245349884,1.5932447910308838,1.6852871179580688,-0.5668214559555054
133.0,-0.12904441356658936,0.0706201046705246,-0.10435837507247925,1.5463178157806396,1.6868398189544678,-0.4181767702102661
134.0,-0.1285553276538849,0.030985191464424133,-0.017223253846168518,1.498940348625183,1.6884171962738037,-0.2680741548538208
135.0,-0.12806685268878937,-0.008650078438222408,0.06991060078144073,1.4515752792358398,1.6900050640106201,-0.11797741055488586
136.0,-0.12758378684520721,-0.04789961129426956,0.1561935395002365,1.4046831130981445,1.691587209701538,0.030650468543171883
137.0,-0.12711086869239807,-0.08637650310993195,0.24077610671520233,1.3587257862091064,1.6931475400924683,0.17634671926498413
138.0,-0.1266527771949768,-0.12369348108768463,0.32280874252319336,1.3141636848449707,1.6946697235107422,0.317649245262146
139.0,-0.1262141466140747,-0.1594637930393219,0.40144258737564087,1.2714544534683228,1.6961374282836914,0.4530966579914093
140.0,-0.12579971551895142,-0.19330143928527832,0.4758290946483612,1.2310552597045898,1.697532296180725,0.5812274813652039
141.0,-0.12541353702545166,-0.2248212844133377,0.5451198816299438,1.1934261322021484,1.6988364458084106,0.7005807161331177
142.0,-0.1250602751970291,-0.2536375820636749,0.6084668040275574,1.1590266227722168,1.7000302076339722,0.8096966743469238
143.0,-0.12474507093429565,-0.27936461567878723,0.6650232672691345,1.1283153295516968,1.7010966539382935,0.9071170091629028
144.0,-0.12447284162044525,-0.3016161620616913,0.7139416933059692,1.1017520427703857,1.7020188570022583,0.9913830757141113
145.0,-0.12424822896718979,-0.3200075030326843,0.7543752193450928,1.0797966718673706,1.7027814388275146,1.061036229133606
146.0,-0.12407565861940384,-0.3341543972492218,0.7854783535003662,1.06290864944458,1.7033697366714478,1.1146178245544434
147.0,-0.12395958602428436,-0.34368008375167847,0.80642169713974,1.0515378713607788,1.703766107559204,1.150696873664856
148.0,-0.12390357255935669,-0.34827932715415955,0.8165342211723328,1.0460481643676758,1.703957438468933,1.168116569519043
149.0,-0.12390357255935669,-0.34827932715415955,0.8165342211723328,1.0460481643676758,1.703957438468933,1.168116569519043
150.0,-0.12390357255935669,-0.34827935695648193,0.8165343999862671,1.0460481643676758,1.703957438468933,1.1681166887283325
151.0,-0.12404724955558777,-0.34999677538871765,0.8206616640090942,1.0258070230484009,1.6851067543029785,1.1695475578308105
152.0,-0.12434535473585129,-0.35354509949684143,0.8292052745819092,0.9839338064193726,1.6461061239242554,1.1725118160247803
153.0,-0.12479081004858017,-0.35881906747817993,0.8419241905212402,0.9216365814208984,1.5880755186080933,1.1769278049468994
154.0,-0.12537333369255066,-0.3656824231147766,0.8584970235824585,0.8405027985572815,1.5124894380569458,1.182687520980835
155.0,-0.12608173489570618,-0.3739941716194153,0.8785911798477173,0.7421713471412659,1.4208699464797974,1.1896779537200928
156.0,-0.12690366804599762,-0.3836127519607544,0.9018710851669312,0.6282843351364136,1.3147448301315308,1.1977839469909668
157.0,-0.12782695889472961,-0.3943973779678345,0.9279987812042236,0.500483512878418,1.1956427097320557,1.206889271736145
158.0,-0.12883983552455902,-0.4062098264694214,0.9566373229026794,0.36041054129600525,1.0650923252105713,1.216876745223999
159.0,-0.12993039190769196,-0.418912798166275,0.9874497056007385,0.20970667898654938,0.9246230721473694,1.2276268005371094
160.0,-0.13108623027801514,-0.43236976861953735,1.0200997591018677,0.050012048333883286,0.7757643461227417,1.2390207052230835
161.0,-0.1322948932647705,-0.4464438855648041,1.0542504787445068,-0.11703486740589142,0.6200457811355591,1.250937581062317
162.0,-0.13354387879371643,-0.46099820733070374,1.0895636081695557,-0.289796382188797,0.45899727940559387,1.2632577419281006
163.0,-0.1348211020231247,-0.4758955240249634,1.1257011890411377,-0.46663379669189453,0.29414838552474976,1.2758625745773315
164.0,-0.13611438870429993,-0.4909974932670593,1.1623270511627197,-0.6459071636199951,0.127028226852417,1.2886345386505127
165.0,-0.13741186261177063,-0.506165623664856,1.199106216430664,-0.8259754180908203,-0.04083321988582611,1.3014557361602783
166.0,-0.13870173692703247,-0.5212615728378296,1.2357044219970703,-1.0051980018615723,-0.20790468156337738,1.3142086267471313
167.0,-0.13997222483158112,-0.5361473560333252,1.2717887163162231,-1.181935429573059,-0.37265515327453613,1.3267755508422852
168.0,-0.1412113755941391,-0.5506858825683594,1.3070265054702759,-1.3545472621917725,-0.5335549116134644,1.3390403985977173
169.0,-0.14240725338459015,-0.5647403597831726,1.3410859107971191,-1.5213909149169922,-0.6890751719474792,1.350888729095459
170.0,-0.14354856312274933,-0.5781729221343994,1.3736345767974854,-1.6808229684829712,-0.8376867771148682,1.3622078895568848
171.0,-0.14462420344352722,-0.5908438563346863,1.4043383598327637,-1.8312002420425415,-0.9778591394424438,1.3728846311569214
172.0,-0.14562299847602844,-0.6026126742362976,1.4328622817993164,-1.9708775281906128,-1.1080609560012817,1.382804036140442
173.0,-0.14653326570987701,-0.6133396625518799,1.4588702917099,-2.0982117652893066,-1.2267619371414185,1.3918499946594238
174.0,-0.14734354615211487,-0.6228865385055542,1.4820278882980347,-2.211559534072876,-1.3324331045150757,1.3999055624008179
175.0,-0.1480427384376526,-0.6311144232749939,1.5019999742507935,-2.3092782497406006,-1.423545479774475,1.4068529605865479
176.0,-0.1486198604106903,-0.6378860473632812,1.518451452255249,-2.38973069190979,-1.4985700845718384,1.4125746488571167
177.0,-0.14906316995620728,-0.6430650949478149,1.5310472249984741,-2.4512901306152344,-1.555984377861023,1.416955828666687
178.0,-0.14936067163944244,-0.6465225219726562,1.5394610166549683,-2.492392063140869,-1.594322681427002,1.4198836088180542
179.0,-0.14950285851955414,-0.6481658816337585,1.5434622764587402,-2.5119309425354004,-1.612550139427185,1.421277403831482
180.0,-0.14950285851955414,-0.6481658816337585,1.5434622764587402,-2.5119309425354004,-1.612550139427185,1.421277403831482
181.0,-0.16298308968544006,-0.6575886607170105,1.5665212869644165,-2.52520489692688,-1.5689082145690918,1.4079807996749878
182.0,-0.1601741760969162,-0.6643131971359253,1.586532473564148,-2.546079397201538,-1.58250892162323,1.410817265510559
183.0,-0.17896077036857605,-0.669866144657135,1.6500720977783203,-2.709536075592041,-1.5164543390274048,2.814091920852661
184.0,-0.1934216469526291,-0.6687893271446228,1.6683310270309448,-2.7655141353607178,-1.47957181930542,2.7097887992858887
185.0,-0.17597521841526031,-0.6640547513961792,1.5834664106369019,-2.5368571281433105,-1.5493967533111572,1.3949997425079346
186.0,-0.19484111666679382,-0.6675083041191101,1.6348618268966675,-2.676413059234619,-1.494359016418457,2.6396889686584473
187.0,-0.1859695017337799,-0.6608087420463562,1.5738157033920288,-2.5264763832092285,-1.54250168800354,1.3849607706069946
188.0,-0.2127993255853653,-0.6651027798652649,1.6402257680892944,-2.7016987800598145,-1.450179934501648,2.487840175628662
189.0,-0.19438397884368896,-0.6590681672096252,1.571964144706726,-2.531991481781006,-1.531148910522461,1.3765559196472168
190.0,-0.19399385154247284,-0.6472002267837524,1.535732626914978,-2.491455554962158,-1.5402958393096924,1.376848578453064
191.0,-0.2017643302679062,-0.6545336842536926,1.5584782361984253,-2.51731276512146,-1.525273084640503,1.369084358215332
192.0,-0.22179070115089417,-0.6620720028877258,1.6264257431030273,-2.6759889125823975,-1.4336230754852295,2.3742666244506836
193.0,-0.257393479347229,-0.6504796147346497,1.6910700798034668,-2.882984161376953,-1.2846393585205078,2.3494374752044678
194.0,-0.24043387174606323,-0.6563352942466736,1.618330478668213,-2.675645351409912,-1.382459282875061,2.225867509841919
195.0,-0.2718210816383362,-0.6460909247398376,1.6385385990142822,-2.7552783489227295,-1.259645700454712,2.136606454849243
196.0,-0.20730718970298767,-0.6487108469009399,1.5404846668243408,-2.4961531162261963,-1.5239520072937012,1.3634483814239502
197.0,-0.22258064150810242,-0.646517813205719,1.546194076538086,-2.5267860889434814,-1.476667881011963,1.34786057472229
198.0,-0.2682478129863739,-0.645037829875946,1.6011717319488525,-2.662404775619507,-1.2886778116226196,2.026115655899048
199.0,-0.25279325246810913,-0.6414600014686584,1.5525116920471191,-2.5590322017669678,-1.368154764175415,1.937671184539795
200.0,-0.24489597976207733,-0.6332031488418579,1.5150647163391113,-2.4998021125793457,-1.4096239805221558,1.8567363023757935
201.0,-0.21379338204860687,-0.6367805600166321,1.5062224864959717,-2.461238384246826,-1.5237761735916138,1.3568638563156128
202.0,-0.1993483155965805,-0.6229655146598816,1.4702996015548706,-2.4349780082702637,-1.548256754875183,1.371441125869751
203.0,-0.20401285588741302,-0.6326634287834167,1.49587082862854,-2.455428123474121,-1.538536548614502,1.366754174232483
204.0,-0.19710370898246765,-0.6356268525123596,1.5041766166687012,-2.4637978076934814,-1.5430394411087036,1.373702049255371
205.0,-0.19169974327087402,-0.6401428580284119,1.51659095287323,-2.475214958190918,-1.5446754693984985,1.3791325092315674
206.0,-0.1891709864139557,-0.6305798292160034,1.4908841848373413,-2.45345139503479,-1.5500422716140747,1.381648063659668
207.0,-0.1818533092737198,-0.6329600811004639,1.4974840879440308,-2.4598474502563477,-1.5529508590698242,1.3889825344085693
208.0,-0.17368948459625244,-0.622468888759613,1.4696553945541382,-2.4368515014648438,-1.5611605644226074,1.3971346616744995
209.0,-0.18123896420001984,-0.622524619102478,1.4696024656295776,-2.436121702194214,-1.5575357675552368,1.389579176902771
210.0,-0.18881836533546448,-0.6208174824714661,1.4648792743682861,-2.4314332008361816,-1.5544531345367432,1.3819881677627563
211.0,-0.18250618875026703,-0.6124217510223389,1.4429124593734741,-2.413621425628662,-1.5617468357086182,1.3883000612258911
212.0,-0.18754181265830994,-0.607573390007019,1.4301100969314575,-2.402575731277466,-1.5617053508758545,1.3832577466964722
213.0,-0.18287009000778198,-0.5985817313194275,1.406735897064209,-2.3832666873931885,-1.5665901899337769,1.3879269361495972
214.0,-0.18639834225177765,-0.5922214388847351,1.3903613090515137,-2.3699634075164795,-1.5697880983352661,1.3843979835510254
215.0,-0.19297361373901367,-0.6041863560676575,1.4212015867233276,-2.394909381866455,-1.5614240169525146,1.377821683883667
216.0,-0.1932218372821808,-0.6152654886245728,1.4501187801361084,-2.4186794757843018,-1.5550355911254883,1.3775746822357178
217.0,-0.19972023367881775,-0.6125008463859558,1.4426926374435425,-2.4118828773498535,-1.5530683994293213,1.3710646629333496
218.0,-0.20914718508720398,-0.6181105971336365,1.4569071531295776,-2.4216132164001465,-1.5405383110046387,1.3615864515304565
219.0,-0.22423402965068817,-0.6249146461486816,1.4763973951339722,-2.4384605884552,-1.4993603229522705,1.3460938930511475
220.0,-0.23701268434524536,-0.6167281866073608,1.457762360572815,-2.4229612350463867,-1.4512242078781128,1.3322312831878662
221.0,-0.21220052242279053,-0.6078101992607117,1.4297857284545898,-2.398703098297119,-1.5434019565582275,1.3585293292999268
222.0,-0.21495792269706726,-0.6006772518157959,1.4108474254608154,-2.381544351577759,-1.540269136428833,1.35574209690094
223.0,-0.20212748646736145,-0.6056087613105774,1.4247609376907349,-2.3973159790039062,-1.5572866201400757,1.3686602115631104
224.0,-0.20282958447933197,-0.5982561707496643,1.4057302474975586,-2.381838083267212,-1.5613418817520142,1.3679605722427368
225.0,-0.19500920176506042,-0.596336305141449,1.4009407758712769,-2.3785288333892822,-1.566133975982666,1.375786542892456
226.0,-0.1925535649061203,-0.5859320163726807,1.3740530014038086,-2.356078863143921,-1.569106101989746,1.378243088722229
227.0,-0.19283615052700043,-0.5776037573814392,1.3522467613220215,-2.3363823890686035,-1.563709020614624,1.3779608011245728
228.0,-0.19956761598587036,-0.5785040855407715,1.3544913530349731,-2.3380141258239746,-1.5616295337677002,1.3712248802185059
229.0,-0.22523067891597748,-0.5869089365005493,1.3725310564041138,-2.3344788551330566,-1.4925497770309448,1.3448641300201416
230.0,-0.20923441648483276,-0.5794785022735596,1.3565340042114258,-2.3379247188568115,-1.5523557662963867,1.3615294694900513
231.0,-0.22309336066246033,-0.5611381530761719,1.303500771522522,-2.2596914768218994,-1.4746167659759521,1.3467576503753662
232.0,-0.20116543769836426,-0.5655631422996521,1.3208179473876953,-2.307305335998535,-1.5510921478271484,1.3696125745773315
233.0,-0.1921008974313736,-0.5583576560020447,1.3025918006896973,-2.292295455932617,-1.5526801347732544,1.3786981105804443
234.0,-0.18519894778728485,-0.5615724325180054,1.3110134601593018,-2.300501823425293,-1.5588473081588745,1.3856117725372314
235.0,-0.18809497356414795,-0.5710962414741516,1.3354854583740234,-2.3219127655029297,-1.5628122091293335,1.382707953453064
236.0,-0.18006964027881622,-0.571776270866394,1.3373165130615234,-2.3238112926483154,-1.5653436183929443,1.3907357454299927
237.0,-0.18452869355678558,-0.5784031748771667,1.3544508218765259,-2.338798999786377,-1.5673365592956543,1.3862714767456055
238.0,-0.1813277304172516,-0.5853902697563171,1.372560739517212,-2.354501485824585,-1.5692929029464722,1.3894692659378052
239.0,-0.1730557382106781,-0.5784353017807007,1.354520320892334,-2.338818311691284,-1.568528413772583,1.397745132446289
240.0,-0.17157809436321259,-0.5671278834342957,1.3254626989364624,-2.313889741897583,-1.5664852857589722,1.3992342948913574
241.0,-0.16630403697490692,-0.5724579095840454,1.3391854763031006,-2.3258514404296875,-1.569222331047058,1.4045027494430542
242.0,-0.16764099895954132,-0.5845496654510498,1.3703490495681763,-2.352489948272705,-1.5702482461929321,1.4031566381454468
243.0,-0.1617925763130188,-0.5786229372024536,1.3550097942352295,-2.3392601013183594,-1.5696914196014404,1.4090083837509155
244.0,-0.1564052253961563,-0.5826315879821777,1.3653762340545654,-2.3481945991516113,-1.5708345174789429,1.4143933057785034
245.0,-0.15899530053138733,-0.5680812001228333,1.3280078172683716,-2.3164525032043457,-1.5699424743652344,1.4118165969848633
246.0,-0.161157488822937,-0.5593668818473816,1.3057798147201538,-2.2975423336029053,-1.5680413246154785,1.4096674919128418
247.0,-0.16828355193138123,-0.5586932897567749,1.3039664030075073,-2.295616865158081,-1.565205693244934,1.4025415182113647
248.0,-0.1558922678232193,-0.5462666153907776,1.2727649211883545,-2.270179510116577,-1.5687404870986938,1.4149588346481323
249.0,-0.15764492750167847,-0.5356477499008179,1.2461087703704834,-2.2478373050689697,-1.565995454788208,1.4132322072982788
250.0,-0.16620025038719177,-0.5334526300430298,1.2404460906982422,-2.2423689365386963,-1.5607616901397705,1.4046804904937744
251.0,-0.17202377319335938,-0.5232653617858887,1.2149490118026733,-2.220505952835083,-1.554327368736267,1.3988779783248901
252.0,-0.17433878779411316,-0.5345755219459534,1.243056297302246,-2.2436845302581787,-1.5559041500091553,1.3965308666229248
253.0,-0.1685427874326706,-0.5473405718803406,1.2752466201782227,-2.2713773250579834,-1.5629785060882568,1.4023041725158691
254.0,-0.1774260252714157,-0.5572748780250549,1.3002253770828247,-2.291888952255249,-1.5612127780914307,1.393397331237793
255.0,-0.18288274109363556,-0.5477362275123596,1.2759079933166504,-2.2705094814300537,-1.5548611879348755,1.3879482746124268
256.0,-0.18261106312274933,-0.5376208424568176,1.25041925907135,-2.2486932277679443,-1.5506387948989868,1.3882346153259277
257.0,-0.19376495480537415,-0.5475797057151794,1.2751245498657227,-2.268066644668579,-1.5457864999771118,1.377030849456787
258.0,-0.21228821575641632,-0.553766667842865,1.2866209745407104,-2.2578318119049072,-1.5055559873580933,1.3581526279449463
259.0,-0.22136889398097992,-0.5303553938865662,1.2173551321029663,-2.1373283863067627,-1.4441730976104736,0.8065453767776489
260.0,-0.22383001446723938,-0.5126679539680481,1.1687551736831665,-2.0576963424682617,-1.4162969589233398,0.7332912087440491
261.0,-0.20832744240760803,-0.513704240322113,1.1746104955673218,-2.097416877746582,-1.4661920070648193,0.6579771041870117
262.0,-0.19244760274887085,-0.5203799605369568,1.1999403238296509,-2.1715087890625,-1.5191335678100586,1.378533124923706
263.0,-0.18071414530277252,-0.5259197950363159,1.2212413549423218,-2.224296808242798,-1.5475506782531738,1.390157699584961
264.0,-0.191396102309227,-0.5059717893600464,1.1584218740463257,-2.104886770248413,-1.5032309293746948,1.379994511604309
265.0,-0.18780475854873657,-0.4862492084503174,1.103135108947754,-2.01576828956604,-1.4955366849899292,0.40866491198539734
266.0,-0.1743556410074234,-0.5032881498336792,1.1572803258895874,-2.13427472114563,-1.539109706878662,1.3969687223434448
267.0,-0.18204514682292938,-0.45243245363235474,1.0136061906814575,-1.8708429336547852,-1.4893039464950562,0.29568642377853394
268.0,-0.20201726257801056,-0.407427579164505,0.9046381711959839,-1.6660646200180054,-1.416501522064209,0.3469144403934479
269.0,-0.20783278346061707,-0.43945932388305664,0.981012225151062,-1.7758760452270508,-1.413598656654358,0.42083799839019775
270.0,-0.2149263322353363,-0.4698704779148102,1.056715726852417,-1.887614369392395,-1.4090735912322998,0.5268856883049011
271.0,-0.25288358330726624,-0.4604823589324951,1.0405670404434204,-1.7897107601165771,-1.2742866277694702,0.6583763360977173
272.0,-0.24958296120166779,-0.379048228263855,0.8554289937019348,-1.5081979036331177,-1.252352237701416,0.4822883903980255
273.0,-0.2604217827320099,-0.3960173726081848,0.897699773311615,-1.5490341186523438,-1.2188389301300049,0.5384411215782166
274.0,-0.2277986705303192,-0.39633482694625854,0.8849557638168335,-1.5941004753112793,-1.3321536779403687,0.44001713395118713
275.0,-0.2228616178035736,-0.3028761148452759,0.681928277015686,-1.3166780471801758,-1.3271828889846802,0.3175145983695984
276.0,-0.24498829245567322,-0.2791747450828552,0.6432234644889832,-1.2271205186843872,-1.2455368041992188,0.3574505150318146
277.0,-0.26298975944519043,-0.2537478506565094,0.6030020713806152,-1.1355448961257935,-1.176621675491333,0.36727574467658997
278.0,-0.27915123105049133,-0.28348368406295776,0.6753496527671814,-1.1886546611785889,-1.1183514595031738,0.42055633664131165
279.0,-0.28655096888542175,-0.34444403648376465,0.8055881261825562,-1.350584864616394,-1.1029322147369385,0.5075485706329346
280.0,-0.30374690890312195,-0.3427211344242096,0.817201554775238,-1.319203495979309,-1.031046986579895,0.5247035026550293
281.0,-0.31468692421913147,-0.37712562084198,0.8990731239318848,-1.4126023054122925,-0.993027925491333,0.5938783288002014
282.0,-0.33302390575408936,-0.4300832152366638,1.0323914289474487,-1.5771313905715942,-0.926921546459198,0.7245113253593445
283.0,-0.34645217657089233,-0.4404263496398926,1.0722975730895996,-1.6012301445007324,-0.8654167056083679,0.7569875717163086
284.0,-0.3551701605319977,-0.3878519833087921,0.9736206531524658,-1.3932815790176392,-0.8076805472373962,0.6256304383277893
285.0,-0.3455641567707062,-0.35770171880722046,0.900732159614563,-1.3137527704238892,-0.8504642248153687,0.569704532623291
286.0,-0.3347754180431366,-0.32375308871269226,0.8194745779037476,-1.2303061485290527,-0.8969637751579285,0.5132160782814026
287.0,-0.3142634630203247,-0.2695728838443756,0.6846593618392944,-1.1014091968536377,-0.9747334718704224,0.4310349225997925
288.0,-0.2987096309661865,-0.22645063698291779,0.5809323191642761,-1.0127742290496826,-1.0319160223007202,0.37781020998954773
289.0,-0.28665968775749207,-0.183134064078331,0.4845552444458008,-0.9403535723686218,-1.0779205560684204,0.33801475167274475
290.0,-0.2380739152431488,-0.07658996433019638,0.22456477582454681,-0.803328812122345,-1.2527623176574707,0.2358931452035904
291.0,-0.21606607735157013,-0.1874614953994751,0.440881609916687,-1.0448423624038696,-1.3371284008026123,0.2301996648311615
292.0,-0.21034622192382812,0.02800334244966507,-1.567108890604982e-17,-0.6248674392700195,-1.3450144529342651,0.1509706974029541
293.0,-0.18154799938201904,0.0796566978096962,-0.1417960673570633,-0.6772699356079102,-1.4479936361312866,0.11125431209802628
294.0,-0.14941304922103882,0.013201626017689705,-1.567108890604982e-17,-0.7598106861114502,-1.5528925657272339,0.01656363531947136
295.0,-0.13583607971668243,0.29605233669281006,-0.6441370844841003,-0.662954568862915,-1.6036795377731323,-0.052420247346162796
296.0,-0.15513136982917786,0.28439274430274963,-0.6171212792396545,-0.646090030670166,-1.5397534370422363,0.04612542316317558
297.0,-0.17188595235347748,0.29185032844543457,-0.6322700381278992,-0.6342948079109192,-1.4874554872512817,0.12209658324718475
298.0,-0.1960570365190506,0.32349225878715515,-0.6999192833900452,-0.6191865801811218,-1.4160726070404053,0.23337644338607788
299.0,-0.17877033352851868,0.378492146730423,-0.8263176083564758,-0.6784988641738892,-1.475814700126648,0.19656328856945038
300.0,-0.16332471370697021,0.41077572107315063,-0.89568692445755,-0.724100649356842,-1.522189736366272,0.1276896744966507
301.0,-0.1493319272994995,0.45422303676605225,-0.9836487770080566,-0.7830572128295898,-1.5603243112564087,0.03961285203695297
302.0,-0.15738801658153534,0.5084925293922424,-1.0880051851272583,-0.8439159989356995,-1.5499849319458008,0.13927894830703735
303.0,-0.16712407767772675,0.5185452699661255,-1.1081360578536987,-0.8454269766807556,-1.5376670360565186,1.4049698114395142
304.0,-0.15960641205310822,0.5729687213897705,-1.2097105979919434,-0.8923147916793823,-1.5632156133651733,1.4113141298294067
305.0,-0.16597284376621246,0.5688290596008301,-1.2010923624038696,-0.8941662907600403,-1.5579824447631836,1.4049549102783203
306.0,-0.15922728180885315,0.5591228604316711,-1.1804015636444092,-0.9012061357498169,-1.5608571767807007,1.4117319583892822
307.0,-0.15169556438922882,0.5614942312240601,-1.1852643489837646,-0.9005383849143982,-1.5665830373764038,1.419256329536438
308.0,-0.152167409658432,0.5813729166984558,-1.2273621559143066,-0.8876277804374695,-1.5687365531921387,1.41873037815094
309.0,-0.14984700083732605,0.5959874391555786,-1.2582591772079468,-0.8784103989601135,-1.5708136558532715,1.4210162162780762
310.0,-0.14051176607608795,0.5872328281402588,-1.2386401891708374,-0.8886980414390564,-1.5973082780838013,1.4303170442581177
311.0,-0.14824792742729187,0.5720609426498413,-1.207567572593689,-0.8940490484237671,-1.5704880952835083,1.4226722717285156
312.0,-0.14567843079566956,0.54920494556427,-1.159085750579834,-0.9093431234359741,-1.5695827007293701,1.4253073930740356
313.0,-0.13225588202476501,0.4918164014816284,-1.0541638135910034,-0.8394067883491516,-1.618457317352295,-0.27222150564193726
314.0,-0.11410373449325562,0.5315937995910645,-1.1226441860198975,-0.9009332656860352,-1.6907923221588135,-0.9876043200492859
315.0,-0.12344283610582352,0.5574837923049927,-1.1726025342941284,-0.9177089929580688,-1.6553969383239746,1.447052240371704
316.0,-0.12866373360157013,0.5746113061904907,-1.209773063659668,-0.9039155840873718,-1.6396026611328125,1.4419310092926025
317.0,-0.12047801166772842,0.5874152183532715,-1.2346009016036987,-0.9011048078536987,-1.6748112440109253,1.4497344493865967
318.0,-0.10548962652683258,0.5786401033401489,-1.210107684135437,-0.916617214679718,-1.7311590909957886,-1.4294853210449219
319.0,-0.09867357462644577,0.5668883919715881,-1.1821069717407227,-0.9286496043205261,-1.7557400465011597,-1.4253599643707275
320.0,-0.08113160729408264,0.5804747939109802,-1.199973702430725,-0.9319125413894653,-1.824004888534546,-1.49355947971344
321.0,-0.07972178608179092,0.5651635527610779,-1.167384147644043,-0.942328929901123,-1.8257160186767578,-1.467061161994934
322.0,-0.0750003457069397,0.5281784534454346,-1.0994086265563965,-0.8994342684745789,-1.8395899534225464,-1.2091244459152222
323.0,-0.09319044649600983,0.5294461846351624,-1.1104971170425415,-0.9020746946334839,-1.7757033109664917,-1.1630350351333618
324.0,-0.09913787990808487,0.4700663685798645,-1.0041778087615967,-0.824772834777832,-1.7517750263214111,-0.6966750621795654
325.0,-0.11638367176055908,0.3138030171394348,-0.6822213530540466,-0.6791036128997803,-1.681950569152832,-0.18995453417301178
326.0,-0.09374129772186279,0.324123740196228,-0.6979739665985107,-0.6890431642532349,-1.7736202478408813,-0.34723570942878723
327.0,-0.07070430368185043,0.3814721703529358,-0.81065434217453,-0.7297300100326538,-1.86857271194458,-0.5913962721824646
328.0,-0.11395882070064545,0.09861481189727783,-0.1913602501153946,-0.7054920196533203,-1.6891957521438599,-0.12060758471488953
329.0,-0.0926566794514656,0.15436860918998718,-0.31135091185569763,-0.678377091884613,-1.7743072509765625,-0.21977664530277252
330.0,-0.05338678136467934,0.3538564443588257,-0.7401708364486694,-0.7012799382209778,-1.915259838104248,-0.5718668103218079
331.0,-0.04608740657567978,0.1557847559452057,-0.28754374384880066,-0.6725397706031799,-1.940295696258545,-0.35882776975631714
332.0,-0.03306545689702034,0.19045421481132507,-0.3563876748085022,-0.6511892080307007,-1.9802746772766113,-0.4012170732021332
333.0,-0.04194619879126549,0.3430681824684143,-0.7086681723594666,-0.6865611672401428,-1.9468483924865723,-0.5717588067054749
334.0,-0.05277702584862709,0.5012180805206299,-1.0401544570922852,-0.8508737683296204,-1.888782024383545,-1.0412744283676147
335.0,-0.06667236983776093,0.4699013829231262,-0.9875192046165466,-0.820996105670929,-1.8683027029037476,-0.8920392394065857
336.0,-0.06497134268283844,0.5308255553245544,-1.0997393131256104,-0.897233784198761,-1.8554397821426392,-1.2128791809082031
337.0,-0.0628962516784668,0.5577349066734314,-1.1469734907150269,-0.927514910697937,-1.8424439430236816,-1.3718544244766235
338.0,-0.07137142866849899,0.5716241598129272,-1.1758569478988647,-0.9421129822731018,-1.8313273191452026,-1.476142168045044
339.0,-0.06776867806911469,0.5831632018089294,-1.197779893875122,-0.9359111189842224,-1.8306745290756226,-1.492071509361267
340.0,-0.0746518224477768,0.5893492698669434,-1.214491367340088,-0.9295312166213989,-1.8286218643188477,-1.5076417922973633
341.0,-0.07166370749473572,0.5990284085273743,-1.2329987287521362,-0.9237596988677979,-1.8268128633499146,-1.519240379333496
342.0,-0.0653865784406662,0.5967505574226379,-1.2246309518814087,-0.9279398322105408,-1.8292534351348877,-1.512264370918274
343.0,-0.06670600920915604,0.6113541722297668,-1.2557077407836914,-0.9177847504615784,-1.8261257410049438,-1.536528468132019
344.0,-0.0600137822329998,0.6143426299095154,-1.2581557035446167,-0.9183675646781921,-1.8280941247940063,-1.5369508266448975
345.0,-0.05793777108192444,0.601426362991333,-1.230063557624817,-0.9281806945800781,-1.8320457935333252,-1.5167258977890015
346.0,-0.060482122004032135,0.5837777853012085,-1.1948262453079224,-0.9388225674629211,-1.8338329792022705,-1.4904799461364746
347.0,-0.055902134627103806,0.5640369653701782,-1.1561509370803833,-0.9257363677024841,-1.8490121364593506,-1.3801759481430054
348.0,-0.04257253557443619,0.5087518095970154,-1.0497373342514038,-0.8486865162849426,-1.9080355167388916,-1.0652987957000732
349.0,-0.03001057356595993,0.3816550076007843,-0.7842671275138855,-0.7051234841346741,-1.9793939590454102,-0.6721826791763306
350.0,-0.027307569980621338,0.4473937451839447,-0.920863687992096,-0.763441801071167,-1.9731954336166382,-0.8459281325340271
351.0,-0.04188336431980133,0.5467188954353333,-1.1202296018600464,-0.8898577690124512,-1.8886250257492065,-1.2385003566741943
352.0,-0.052911289036273956,0.5868321061134338,-1.1966649293899536,-0.9407727718353271,-1.8387776613235474,-1.4946801662445068
353.0,-0.04855776205658913,0.5976345539093018,-1.216536521911621,-0.935513436794281,-1.8407337665557861,-1.5094404220581055
354.0,-0.03959917277097702,0.5713599324226379,-1.164602279663086,-0.9104112386703491,-1.877362608909607,-1.351558804512024
355.0,-0.025819219648838043,0.4926271438598633,-1.0103579759597778,-0.8089361786842346,-1.9590429067611694,-0.988815426826477
356.0,-0.006038143299520016,0.3870142102241516,-0.7771492004394531,-0.6818056106567383,-2.053767442703247,-0.7058963179588318
357.0,-0.009581456892192364,0.46190986037254333,-0.93851637840271,-0.7545382380485535,-2.0209543704986572,-0.888729453086853
358.0,-0.020077617838978767,0.5351225733757019,-1.0892484188079834,-0.847368061542511,-1.9538183212280273,-1.1418126821517944
359.0,-0.034545816481113434,0.587434709072113,-1.1932634115219116,-0.9131962060928345,-1.8756437301635742,-1.3998407125473022
360.0,-0.015511548146605492,0.5693410634994507,-1.1520156860351562,-0.8734598755836487,-1.9456186294555664,-1.266025185585022
361.0,-0.028800049796700478,0.6186331510543823,-1.250964879989624,-0.9162300825119019,-1.8665584325790405,-1.4946469068527222
362.0,-0.035422615706920624,0.6317422389984131,-1.279870629310608,-0.9175609946250916,-1.8419321775436401,-1.5517303943634033
363.0,-0.04204561188817024,0.6126982569694519,-1.2441438436508179,-0.9280794262886047,-1.8406352996826172,-1.5285379886627197
364.0,-0.04472729563713074,0.6274142861366272,-1.2763776779174805,-0.9165371656417847,-1.8346561193466187,-1.5504939556121826
365.0,-0.050010692328214645,0.6182364225387573,-1.2603431940078735,-0.9204010963439941,-1.8341442346572876,-1.5389662981033325
366.0,-0.05807754397392273,0.6250601410865784,-1.2792502641677856,-0.9123280644416809,-1.8272308111190796,-1.553930640220642
367.0,-0.051493365317583084,0.634161114692688,-1.2943530082702637,-0.9087458252906799,-1.8286406993865967,-1.5635079145431519
368.0,-0.05359729379415512,0.6536510586738586,-1.3360569477081299,-0.8946183919906616,-1.8216811418533325,-1.5958775281906128
369.0,-0.05423210188746452,0.6765227913856506,-1.3838677406311035,-0.8788880109786987,-1.816862940788269,-1.6340880393981934
370.0,-0.05791747197508812,0.6657952070236206,-1.3636387586593628,-0.8851866722106934,-1.8169320821762085,-1.6209659576416016
371.0,-0.05977312847971916,0.6474833488464355,-1.3267252445220947,-0.8968151211738586,-1.821472406387329,-1.5920006036758423
372.0,-0.06389735639095306,0.6327952146530151,-1.2986758947372437,-0.9044912457466125,-1.8224191665649414,-1.5690919160842896
373.0,-0.06696026027202606,0.6446969509124756,-1.3249362707138062,-0.8961191177368164,-1.8194700479507446,-1.5933921337127686
374.0,-0.06472649425268173,0.6570597290992737,-1.3493279218673706,-0.8887426257133484,-1.8172075748443604,-1.6126492023468018
375.0,-0.07106994092464447,0.6610990166664124,-1.361059546470642,-0.8845934867858887,-1.8152756690979004,-1.6275769472122192
376.0,-0.07369400560855865,0.6512110233306885,-1.342063546180725,-0.8901782035827637,-1.8181555271148682,-1.6125729084014893
377.0,-0.08217070251703262,0.6584807634353638,-1.361578106880188,-0.8839896321296692,-1.817327618598938,-1.6374567747116089
378.0,-0.09086009114980698,0.6569966077804565,-1.3635207414627075,-0.8813411593437195,-1.8036528825759888,-1.644637942314148
379.0,-0.07987502962350845,0.6484203934669495,-1.3396015167236328,-0.8906660079956055,-1.8193601369857788,-1.6156879663467407
380.0,-0.07229747623205185,0.6332445740699768,-1.3042259216308594,-0.9016261696815491,-1.8209638595581055,-1.5781118869781494
381.0,-0.07115981727838516,0.6224700808525085,-1.2813349962234497,-0.9086650013923645,-1.8224618434906006,-1.5576797723770142
382.0,-0.08246012777090073,0.6272363066673279,-1.297326922416687,-0.9029221534729004,-1.821029782295227,-1.579746961593628
383.0,-0.08373568207025528,0.6388384103775024,-1.3219494819641113,-0.895561933517456,-1.8195065259933472,-1.6027847528457642
384.0,-0.10166282206773758,0.6127187609672546,-1.2785667181015015,-0.8996444344520569,-1.753760576248169,-1.5416529178619385
385.0,-0.10237690806388855,0.6277160048484802,-1.3099207878112793,-0.8904509544372559,-1.7541605234146118,-1.5809932947158813
386.0,-0.0807017982006073,0.6109016537666321,-1.26261568069458,-0.9134735465049744,-1.8231258392333984,-1.5483344793319702
387.0,-0.07968655228614807,0.5985620021820068,-1.2365306615829468,-0.9214490652084351,-1.8244445323944092,-1.5254809856414795
388.0,-0.09885574877262115,0.5998975038528442,-1.250549554824829,-0.9089716672897339,-1.761927604675293,-1.5120489597320557
389.0,-0.12161682546138763,0.599374532699585,-1.2599220275878906,-0.893284797668457,-1.6735032796859741,1.4485849142074585
390.0,-0.1430366188287735,0.6068745851516724,-1.280336856842041,-0.8755196928977966,-1.5939284563064575,1.4277657270431519
391.0,-0.15328176319599152,0.6184537410736084,-1.305783748626709,-0.864130973815918,-1.5708738565444946,1.417542815208435
392.0,-0.1335892230272293,0.6205655336380005,-1.3071351051330566,-0.8737831711769104,-1.6340911388397217,1.43696129322052
393.0,-0.13700082898139954,0.6312727332115173,-1.3302593231201172,-0.8656004667282104,-1.6245334148406982,1.4336087703704834
394.0,-0.10517604649066925,0.6375530958175659,-1.3317092657089233,-0.882956326007843,-1.7456482648849487,-1.6070884466171265
395.0,-0.12237261235713959,0.6423962116241455,-1.3498276472091675,-0.8682236671447754,-1.6820974349975586,1.4476627111434937
396.0,-0.14232909679412842,0.6463457942008972,-1.3628449440002441,-0.853881299495697,-1.609516978263855,1.428362250328064
397.0,-0.12465737760066986,0.653746485710144,-1.3740516901016235,-0.8606913089752197,-1.6768038272857666,1.445432186126709
398.0,-0.11023435741662979,0.6638695001602173,-1.388535976409912,-0.8648977279663086,-1.7327555418014526,-1.6866766214370728
399.0,-0.11023435741662979,0.6638695001602173,-1.388535976409912,-0.8648977279663086,-1.7327555418014526,-1.6866766214370728
400.0,-0.10889890044927597,0.6446788907051086,-1.376910924911499,-0.8521087765693665,-1.7122631072998047,-1.6867824792861938
401.0,-0.10732517391443253,0.6146390438079834,-1.3528327941894531,-0.8256182670593262,-1.6698169708251953,-1.687002420425415
402.0,-0.1060788705945015,0.5801835656166077,-1.3170725107192993,-0.7862735986709595,-1.6067754030227661,-1.687331199645996
403.0,-0.10523857176303864,0.5436283946037292,-1.270584225654602,-0.7351222038269043,-1.5248194932937622,-1.6877615451812744
404.0,-0.104787178337574,0.5054942965507507,-1.2143406867980957,-0.6732357740402222,-1.4256625175476074,-1.6882864236831665
405.0,-0.10469643026590347,0.46606242656707764,-1.1493169069290161,-0.6016867160797119,-1.3110225200653076,-1.6888974905014038
406.0,-0.10493751615285873,0.42558753490448,-1.0764884948730469,-0.5215486288070679,-1.182620882987976,-1.6895873546600342
407.0,-0.10548153519630432,0.38432201743125916,-0.9968323111534119,-0.4338959753513336,-1.0421777963638306,-1.6903458833694458
408.0,-0.10629905015230179,0.3425193130970001,-0.9113242030143738,-0.33980312943458557,-0.8914137482643127,-1.6911627054214478
409.0,-0.1073603481054306,0.30043351650238037,-0.820939302444458,-0.2403443455696106,-0.7320485711097717,-1.6920280456542969
410.0,-0.108635812997818,0.258319616317749,-0.7266527414321899,-0.13659356534481049,-0.5658010244369507,-1.6929317712783813
411.0,-0.11009570211172104,0.2164323329925537,-0.6294407248497009,-0.029623854905366898,-0.39439070224761963,-1.6938632726669312
412.0,-0.11170996725559235,0.17502622306346893,-0.5302773714065552,0.07949185371398926,-0.21953706443309784,-1.6948126554489136
413.0,-0.1134481206536293,0.13435490429401398,-0.43013790249824524,0.18968072533607483,-0.04295991361141205,-1.6957706212997437
414.0,-0.1152794137597084,0.09467169642448425,-0.3299969434738159,0.299870103597641,0.13362078368663788,-1.696726679801941
415.0,-0.11717333644628525,0.05622924864292145,-0.2308303266763687,0.4089866876602173,0.3084852993488312,-1.6976722478866577
416.0,-0.11909978091716766,0.019280582666397095,-0.13361361622810364,0.5159582495689392,0.4799140691757202,-1.6985983848571777
417.0,-0.12102881819009781,-0.01592119038105011,-0.0393226258456707,0.619711697101593,0.6461868286132812,-1.6994967460632324
418.0,-0.12293072789907455,-0.049122270196676254,0.051066551357507706,0.7191735506057739,0.8055835366249084,-1.700358510017395
419.0,-0.12477550655603409,-0.08006832748651505,0.13657763600349426,0.813269853591919,0.9563831090927124,-1.7011771202087402
420.0,-0.12653319537639618,-0.10850455611944199,0.21623477339744568,0.9009268879890442,1.0968650579452515,-1.701943278312683
421.0,-0.1281733363866806,-0.13417647778987885,0.2890625298023224,0.9810700416564941,1.2253069877624512,-1.7026475667953491
422.0,-0.12966473400592804,-0.15683051943778992,0.35408544540405273,1.0526251792907715,1.3399876356124878,-1.70327889919281
423.0,-0.13097570836544037,-0.17621393501758575,0.41032809019088745,1.1145174503326416,1.439182996749878,-1.703827142715454
424.0,-0.13207493722438812,-0.19207514822483063,0.4568154513835907,1.1656734943389893,1.5211719274520874,-1.7042826414108276
425.0,-0.13293132185935974,-0.20416337251663208,0.492574542760849,1.2050224542617798,1.584238052368164,-1.7046343088150024
426.0,-0.13351455330848694,-0.21223387122154236,0.5166515707969666,1.2315161228179932,1.626699686050415,-1.7048726081848145
427.0,-0.13379891216754913,-0.2161007523536682,0.5282759666442871,1.2443068027496338,1.647199273109436,-1.7049880027770996
428.0,-0.13379891216754913,-0.2161007523536682,0.5282759666442871,1.2443068027496338,1.647199273109436,-1.7049880027770996
429.0,-0.15470927953720093,-0.19583582878112793,0.4855736792087555,1.2810697555541992,1.5707963705062866,-1.7255055904388428
430.0,-0.1597128063440323,-0.21893955767154694,0.535653829574585,1.2495049238204956,1.5693352222442627,-1.730507493019104
431.0,-0.1668033003807068,-0.20714063942432404,0.5100709795951843,1.2656545639038086,1.5696860551834106,-1.73759925365448
432.0,-0.17376208305358887,-0.19337889552116394,0.4801965355873108,1.2842270135879517,1.5707266330718994,-1.7445584535598755
433.0,-0.17491573095321655,-0.22376297414302826,0.5461553335189819,1.2430052757263184,1.5669245719909668,-1.7457102537155151
434.0,-0.17343810200691223,-0.2466038018465042,0.5956903696060181,1.2113312482833862,1.5654369592666626,-1.744226098060608
435.0,-0.16583649814128876,-0.23413503170013428,0.5686432719230652,1.228664517402649,1.5669779777526855,-1.736628532409668
436.0,-0.16567909717559814,-0.2545999586582184,0.6130132079124451,1.2000763416290283,1.5657727718353271,-1.7364634275436401
437.0,-0.15536248683929443,-0.24481135606765747,0.5915864109992981,1.213123083114624,1.5724549293518066,-1.726150393486023
438.0,-0.1308724284172058,-0.23888066411018372,0.5776989459991455,1.2109553813934326,1.6609441041946411,-1.7022000551223755
439.0,-0.13535112142562866,-0.2612863779067993,0.6261448264122009,1.1809273958206177,1.6478440761566162,-1.7065385580062866
440.0,-0.11990795284509659,-0.27704310417175293,0.6620707511901855,1.150510311126709,1.7068060636520386,-1.6918063163757324
441.0,-0.15980631113052368,-0.27518507838249207,0.6576331257820129,1.1708911657333374,1.5652223825454712,-1.7305786609649658
442.0,-0.14826180040836334,-0.2976536154747009,0.7052053213119507,1.1335930824279785,1.6072701215744019,-1.7191146612167358
443.0,-0.16448622941970825,-0.3047408163547516,0.7217850685119629,1.128510594367981,1.5626071691513062,-1.7352309226989746
444.0,-0.15795186161994934,-0.31934595108032227,0.75296950340271,1.1055231094360352,1.5765008926391602,-1.7286773920059204
445.0,-0.17352962493896484,-0.32033148407936096,0.7558783292770386,1.1065133810043335,1.556128978729248,-1.7442615032196045
446.0,-0.17706164717674255,-0.3380582630634308,0.7944641709327698,1.0806318521499634,1.55341637134552,-1.7477672100067139
447.0,-0.18333524465560913,-0.32700875401496887,0.7706698775291443,1.0974994897842407,1.5496402978897095,-1.7540721893310547
448.0,-0.18732503056526184,-0.347339928150177,0.8150415420532227,1.0679014921188354,1.54490065574646,-1.758037805557251
449.0,-0.17378230392932892,-0.35696715116500854,0.8355492353439331,1.0524187088012695,1.5527619123458862,-1.7444499731063843
450.0,-0.1649751216173172,-0.33391186594963074,0.7851676344871521,1.085951566696167,1.5598818063735962,-1.7356798648834229
451.0,-0.12692634761333466,-0.3334560990333557,0.7833719849586487,1.0705430507659912,1.6901737451553345,-1.6985597610473633
452.0,-0.11655230820178986,-0.2945314645767212,0.7011599540710449,1.122737169265747,1.721970796585083,1.3021857738494873
453.0,-0.10786625742912292,-0.31356292963027954,0.7455945611000061,1.0889524221420288,1.7572463750839233,1.3080744743347168
454.0,-0.09868977218866348,-0.32555627822875977,0.7754178047180176,1.0647454261779785,1.7929227352142334,1.320815086364746
455.0,-0.0850801095366478,-0.31615182757377625,0.7616018652915955,1.0717079639434814,1.8193824291229248,1.355943202972412
456.0,-0.08346600085496902,-0.2943038046360016,0.7145119905471802,1.1035481691360474,1.8192293643951416,1.381635308265686
457.0,-0.08281397074460983,-0.26632100343704224,0.6534987092018127,1.14413583278656,1.8179550170898438,1.4107093811035156
458.0,-0.09120635688304901,-0.27143824100494385,0.6601526141166687,1.1402368545532227,1.8131884336471558,1.398095965385437
459.0,-0.08953697234392166,-0.24800002574920654,0.6097187399864197,1.1732349395751953,1.8150440454483032,1.423588752746582
460.0,-0.10625126957893372,-0.24100250005722046,0.5876787900924683,1.1941064596176147,1.7529629468917847,1.4065656661987305
461.0,-0.10556035488843918,-0.21849888563156128,0.5388595461845398,1.2255187034606934,1.7528499364852905,1.4340025186538696
462.0,-0.08702139556407928,-0.22141923010349274,0.5529786348342896,1.209926962852478,1.8152859210968018,1.4502639770507812
463.0,-0.08392301201820374,-0.19795122742652893,0.5034064650535583,1.241432785987854,1.8157187700271606,1.472496747970581
464.0,-0.07173013687133789,-0.19000278413295746,0.4927191138267517,1.2478101253509521,1.8143177032470703,1.4869168996810913
465.0,-0.07290880382061005,-0.213868647813797,0.5442162156105042,1.215141773223877,1.8155736923217773,1.4667237997055054
466.0,-0.06375521421432495,-0.19956304132938385,0.5178905725479126,1.2317533493041992,1.8168383836746216,1.4859381914138794
467.0,-0.06705924868583679,-0.22842741012573242,0.5793280005455017,1.192905306816101,1.8190499544143677,1.461362361907959
468.0,-0.07600558549165726,-0.24414409697055817,0.6087350845336914,1.1735515594482422,1.817812442779541,1.43798828125
469.0,-0.07308504730463028,-0.2618948221206665,0.6492589116096497,1.1471147537231445,1.8190617561340332,1.4239963293075562
470.0,-0.06853308528661728,-0.27449172735214233,0.6794942021369934,1.1275900602340698,1.8229045867919922,1.4187498092651367
471.0,-0.0746736004948616,-0.28821223974227905,0.7060971260070801,1.109398365020752,1.8207942247390747,1.396588921546936
472.0,-0.07377122342586517,-0.31000232696533203,0.754513680934906,1.0769518613815308,1.8233941793441772,1.3757520914077759
473.0,-0.0780465304851532,-0.32647329568862915,0.7883137464523315,1.053730845451355,1.823128581047058,1.3528889417648315
474.0,-0.07753581553697586,-0.3428310751914978,0.8246727585792542,1.028846025466919,1.8251538276672363,1.3360352516174316
475.0,-0.06947548687458038,-0.3400079607963562,0.8230957388877869,1.0305489301681519,1.8291809558868408,1.350487470626831
476.0,-0.07006575912237167,-0.323253333568573,0.7858171463012695,1.0560179948806763,1.8269060850143433,1.3673417568206787
477.0,-0.06518471986055374,-0.2944864332675934,0.7253261208534241,1.0974102020263672,1.8271108865737915,1.4044225215911865
478.0,-0.06129034608602524,-0.32317420840263367,0.7906684279441833,1.0534275770187378,1.832646131515503,1.3803099393844604
479.0,-0.05345572903752327,-0.36743617057800293,0.8819319605827332,0.9391734004020691,1.8661307096481323,1.186617374420166
480.0,-0.05544617399573326,-0.4198057949542999,0.9845424890518188,0.7952997088432312,1.8832814693450928,0.9628264904022217
481.0,-0.05625107139348984,-0.48209911584854126,1.1107287406921387,0.5879297256469727,1.8981459140777588,0.7156460285186768
482.0,-0.07025010138750076,-0.41363048553466797,0.9671412706375122,0.8400680422782898,1.8517124652862549,0.9972333312034607
483.0,-0.07287204265594482,-0.4821585416793823,1.102830410003662,0.6217966675758362,1.8590587377548218,0.6954402923583984
484.0,-0.08256211876869202,-0.584906816482544,1.3325937986373901,0.1958601325750351,1.8281766176223755,0.33769384026527405
485.0,-0.2213861644268036,-0.6661731004714966,1.5932238101959229,-0.34173130989074707,1.31913161277771,-0.1635729819536209
486.0,-0.18045097589492798,-0.6703346371650696,1.5975106954574585,-0.3545877933502197,1.468680739402771,-0.06561773270368576
487.0,-0.14462685585021973,-0.662257730960846,1.560671329498291,-0.276382714509964,1.6003715991973877,0.021198613569140434
488.0,-0.10244495421648026,-0.6311109066009521,1.4577257633209229,-0.05887162312865257,1.7571626901626587,0.17698818445205688
489.0,-0.11924915015697479,-0.657524049282074,1.580649733543396,-0.351736456155777,1.6861058473587036,0.0738372951745987
490.0,-0.07437204569578171,-0.6269684433937073,1.4748859405517578,-0.1374163031578064,1.8443857431411743,0.22841376066207886
491.0,-0.054945871233940125,-0.552241325378418,1.2699105739593506,0.2883895933628082,1.9087709188461304,0.4821510314941406
492.0,-0.03979402408003807,-0.5251378417015076,1.2164596319198608,0.3711875081062317,1.9515879154205322,0.5883101224899292
493.0,-0.024484815075993538,-0.505733072757721,1.1834150552749634,0.40846335887908936,1.9947936534881592,0.6632622480392456
494.0,-0.01757219433784485,-0.4703492820262909,1.1094191074371338,0.5304921269416809,2.0064704418182373,0.7827661633491516
495.0,-0.018831433728337288,-0.4240252375602722,1.0100129842758179,0.698188304901123,1.9848036766052246,0.9384850263595581
496.0,-0.03648749738931656,-0.41638341546058655,0.9853401184082031,0.764996349811554,1.9288806915283203,0.9676995873451233
497.0,-0.04165473207831383,-0.34519627690315247,0.8407731652259827,0.9723896980285645,1.88041090965271,1.2442392110824585
498.0,-0.05090273544192314,-0.2959561347961426,0.7366775870323181,1.090303897857666,1.8369953632354736,1.4206726551055908
499.0,-0.04063175991177559,-0.2758822441101074,0.6984692215919495,1.11630380153656,1.844153881072998,1.4531186819076538
500.0,-0.04103906452655792,-0.25670772790908813,0.6559435129165649,1.143742322921753,1.839166522026062,1.4662411212921143
501.0,-0.049650706350803375,-0.2719727158546448,0.6845982074737549,1.1248743534088135,1.8337174654006958,1.4433324337005615
502.0,-0.053364552557468414,-0.25425031781196594,0.6435009837150574,1.1513043642044067,1.82803213596344,1.4524465799331665
503.0,-0.05727941542863846,-0.2834472954273224,0.7054921388626099,1.1107162237167358,1.8310383558273315,1.423972725868225
504.0,-0.06021592766046524,-0.26572099328041077,0.6648411750793457,1.1373618841171265,1.8261522054672241,1.4357205629348755
505.0,-0.060407932847738266,-0.2417084276676178,0.6120414733886719,1.171714186668396,1.8232117891311646,1.4561550617218018
506.0,-0.053321219980716705,-0.22475947439670563,0.5788163542747498,1.1929504871368408,1.8235803842544556,1.475946307182312
507.0,-0.04653069004416466,-0.23973658680915833,0.6154117584228516,1.1696151494979858,1.829685926437378,1.4714727401733398
508.0,-0.04473811015486717,-0.21528030931949615,0.5626985430717468,1.2029156684875488,1.8266323804855347,1.4900987148284912
509.0,-0.03827796131372452,-0.22089479863643646,0.5787492394447327,1.1930087804794312,1.8326390981674194,1.4939345121383667
510.0,-0.03936767578125,-0.18875129520893097,0.5075514912605286,1.2373552322387695,1.8252537250518799,1.5126943588256836
511.0,-0.049435943365097046,-0.20129281282424927,0.5294783115386963,1.2240720987319946,1.82211434841156,1.4963772296905518
512.0,-0.04430312290787697,-0.1684398502111435,0.4602857828140259,1.2665331363677979,1.8200708627700806,1.5205031633377075
513.0,-0.04763485863804817,-0.14438287913799286,0.40578174591064453,1.2997852563858032,1.819812297821045,1.5318121910095215
514.0,-0.04493175446987152,-0.11061202734708786,0.3333587348461151,1.3426812887191772,1.8244142532348633,1.5494037866592407
515.0,-0.04392130300402641,-0.0662764385342598,0.23702123761177063,1.3987486362457275,1.8284722566604614,1.5656837224960327
516.0,-0.03982996940612793,-0.12517374753952026,0.36793407797813416,1.321522831916809,1.8257960081100464,1.5449808835983276
517.0,-0.037533264607191086,-0.08071593195199966,0.27191537618637085,1.3775197267532349,1.8309427499771118,1.5627212524414062
518.0,-0.030164416879415512,0.0053595262579619884,0.08792484551668167,1.4810411930084229,1.8454105854034424,1.5838103294372559
519.0,-0.027741320431232452,-0.059490788727998734,0.23082521557807922,1.400231957435608,1.8465538024902344,1.573624610900879
520.0,-0.03246907889842987,-0.10493128001689911,0.32759031653404236,1.3447239398956299,1.8323287963867188,1.5575954914093018
521.0,-0.033604156225919724,-0.13676349818706512,0.39669638872146606,1.304242491722107,1.8217663764953613,1.5441418886184692
522.0,-0.032354313880205154,-0.16846035420894623,0.46683764457702637,1.261918067932129,1.8252484798431396,1.5291013717651367
523.0,-0.012440241873264313,-0.12322649359703064,0.3806525468826294,1.3134706020355225,1.898862600326538,1.5711077451705933
524.0,-0.0011497157393023372,-0.15020357072353363,0.4462651312351227,1.2651219367980957,1.9434605836868286,1.5443997383117676
525.0,0.0028931223787367344,-0.1844629943370819,0.522252082824707,1.2058165073394775,1.9635248184204102,1.4998502731323242
526.0,-0.020722925662994385,-0.18461710214614868,0.508371114730835,1.2317113876342773,1.8700553178787231,1.5188368558883667
527.0,-0.02631591074168682,-0.2168196439743042,0.5758534669876099,1.1908718347549438,1.8569068908691406,1.4968985319137573
528.0,-0.03132467716932297,-0.24058733880519867,0.6256816387176514,1.161634922027588,1.8490257263183594,1.4833756685256958
529.0,-0.01849788799881935,-0.2700953483581543,0.692836582660675,1.0887622833251953,1.9060986042022705,1.392313003540039
530.0,-0.00868426263332367,-0.24870023131370544,0.6518688797950745,1.112125039100647,1.9323201179504395,1.4149879217147827
531.0,-0.0006402366561815143,-0.3016953766345978,0.7670952081680298,0.9864144921302795,1.9859483242034912,1.2826457023620605
532.0,0.011740571819245815,-0.28095927834510803,0.7318836450576782,1.0069249868392944,2.0271692276000977,1.3188762664794922
533.0,0.023663252592086792,-0.2425038367509842,0.6604902744293213,1.0635044574737549,2.0666472911834717,1.3847688436508179
534.0,0.034030091017484665,-0.20214934647083282,0.5857387185096741,1.1218940019607544,2.106492519378662,1.4433541297912598
535.0,0.061020053923130035,-0.1930968463420868,0.5981809496879578,1.076591968536377,2.2426626682281494,1.428213119506836
536.0,0.057247936725616455,-0.24173535406589508,0.6933332681655884,0.9768183827400208,2.2291312217712402,1.3406398296356201
537.0,0.038182348012924194,-0.28211262822151184,0.7562404274940491,0.9360578060150146,2.1439831256866455,1.2805030345916748
538.0,0.030114470049738884,-0.3193277418613434,0.826237142086029,0.8642765879631042,2.120417356491089,1.2012979984283447
539.0,0.020354248583316803,-0.3534923791885376,0.8896393775939941,0.8008875846862793,2.0936219692230225,1.1258245706558228
540.0,0.007438110653311014,-0.37002286314964294,0.9142829179763794,0.7920444011688232,2.050391674041748,1.0930733680725098
541.0,-0.013864467851817608,-0.31653743982315063,0.7916252613067627,0.9831159710884094,1.9452487230300903,1.270978331565857
542.0,-0.013961690478026867,-0.3539275825023651,0.8686410784721375,0.8917836546897888,1.9656577110290527,1.1638622283935547
543.0,-0.008204233832657337,-0.40109220147132874,0.9686269760131836,0.7424548864364624,2.008894443511963,1.0092374086380005
544.0,-0.00020802841754630208,-0.4667024612426758,1.115385890007019,0.4875410795211792,2.0642216205596924,0.7955058217048645
545.0,-0.033190757036209106,-0.5844335556030273,1.3799529075622559,0.015781916677951813,1.9808919429779053,0.39754819869995117
546.0,-0.05986902490258217,-0.6288923025131226,1.5166257619857788,-0.268772691488266,1.8874045610427856,0.2182513177394867
547.0,-0.015359114855527878,-0.5706361532211304,1.3615399599075317,0.017900502309203148,2.039799928665161,0.4423610270023346
548.0,0.004417341202497482,-0.5304405093193054,1.273315668106079,0.16575276851654053,2.103706121444702,0.5775569081306458
549.0,0.020813778042793274,-0.4579848051071167,1.1156907081604004,0.4388115108013153,2.1417346000671387,0.8110724091529846
550.0,0.023860406130552292,-0.52646803855896,1.2899917364120483,0.07403478026390076,2.1825547218322754,0.5675927996635437
551.0,0.0018436622340232134,-0.5701723694801331,1.3971787691116333,-0.10734705626964569,2.101849317550659,0.4177516996860504
552.0,-0.01594141498208046,-0.5897407531738281,1.4407044649124146,-0.16689352691173553,2.036562442779541,0.3510414659976959
553.0,-0.036134395748376846,-0.6078904867172241,1.482328176498413,-0.22329379618167877,1.965373158454895,0.2849583029747009
554.0,-0.063994400203228,-0.624645471572876,1.5284969806671143,-0.28461962938308716,1.8660943508148193,0.20452766120433807
555.0,-0.09995017200708389,-0.6451491713523865,1.5668904781341553,-0.3342203199863434,1.748096227645874,0.11692322790622711
556.0,-0.14763109385967255,-0.6584771871566772,1.5976377725601196,-0.3683345317840576,1.5861282348632812,0.009844453074038029
557.0,-0.2059069573879242,-0.6625248193740845,1.60202956199646,-0.3587108254432678,1.376965880393982,-0.12574952840805054
558.0,-0.2660273015499115,-0.6452043652534485,1.5761253833770752,-0.3112279176712036,1.1636643409729004,-0.2753331959247589
559.0,-0.24176648259162903,-0.6525551080703735,1.5956017971038818,-0.34594377875328064,1.2494893074035645,-0.21150340139865875
560.0,-0.19647859036922455,-0.6575456857681274,1.608588457107544,-0.3720921576023102,1.412116527557373,-0.1029244214296341
561.0,-0.2527064085006714,-0.6446643471717834,1.593019962310791,-0.3410821855068207,1.215061902999878,-0.23744262754917145
562.0,-0.2801130712032318,-0.6324031352996826,1.5699999332427979,-0.3009568750858307,1.1192810535430908,-0.3120535910129547
563.0,-0.22185109555721283,-0.6505070924758911,1.6080634593963623,-0.3691801428794861,1.3203682899475098,-0.1638636440038681
564.0,-0.13860216736793518,-0.6503414511680603,1.5998378992080688,-0.37677210569381714,1.617082118988037,0.029826456680893898
565.0,-0.11028742790222168,-0.6423283815383911,1.5809153318405151,-0.35317203402519226,1.7092589139938354,0.091244637966156
566.0,-0.20549513399600983,-0.6471388936042786,1.6160705089569092,-0.385470986366272,1.380824327468872,-0.124012790620327
567.0,-0.17442423105239868,-0.6464665532112122,1.6167384386062622,-0.3938732147216797,1.4919556379318237,-0.0511513389647007
568.0,-0.14315035939216614,-0.6455230712890625,1.6057448387145996,-0.38518840074539185,1.5994477272033691,0.018564091995358467
569.0,-0.12162203341722488,-0.6388263702392578,1.5949406623840332,-0.37267550826072693,1.6673524379730225,0.06355143338441849
570.0,-0.09317316114902496,-0.6307938694953918,1.5683356523513794,-0.33737725019454956,1.7629483938217163,0.12996037304401398
571.0,-0.06511081755161285,-0.618970513343811,1.53510320186615,-0.29371196031570435,1.855888843536377,0.19913896918296814
572.0,-0.03589467331767082,-0.6027756333351135,1.4874019622802734,-0.23017945885658264,1.958563208580017,0.2823609709739685
573.0,0.004844626411795616,-0.563278079032898,1.395583987236023,-0.10500545799732208,2.104191541671753,0.42498379945755005
574.0,0.020831767469644547,-0.5415452718734741,1.342240333557129,-0.03098815493285656,2.1680798530578613,0.4990118443965912
575.0,0.03803244233131409,-0.5113345980644226,1.2769964933395386,0.06025775894522667,2.235259532928467,0.5894442796707153
576.0,0.0493038073182106,-0.48469042778015137,1.224256992340088,0.13591645658016205,2.2780978679656982,0.6616989970207214
577.0,-2.7459537982940674,2.5598983764648438,1.0353485345840454,1.3482933044433594,-0.6516587138175964,1.2829961776733398
578.0,-2.7627580165863037,2.5645294189453125,1.066567063331604,1.335936427116394,-0.7402634620666504,1.2318394184112549
579.0,-2.7863340377807617,2.6212589740753174,0.9664130210876465,1.252211093902588,-0.8833074569702148,1.371477484703064
580.0,-2.767765998840332,2.636138677597046,0.8906340003013611,1.2449597120285034,-0.7947025299072266,1.4861831665039062
581.0,-2.7492659091949463,2.6334736347198486,0.8481832146644592,1.238874912261963,-0.6850857734680176,1.5602809190750122
582.0,-2.7537591457366943,2.678957462310791,0.7366356253623962,1.2025259733200073,-0.716511070728302,1.6955267190933228
583.0,-2.7493927478790283,2.704206705093384,0.6508950591087341,1.1759458780288696,-0.6874808073043823,1.803736686706543
584.0,-2.741546630859375,2.6426942348480225,0.7938889265060425,1.2201565504074097,-0.6457204222679138,1.6404333114624023
585.0,-2.7426300048828125,2.683687448501587,0.6792372465133667,1.1829954385757446,-0.66178959608078,1.7806471586227417
586.0,-2.739708662033081,2.64924955368042,0.7629122734069824,1.2147916555404663,-0.656299889087677,1.6784796714782715
587.0,-2.743405342102051,2.7119929790496826,0.5992103219032288,1.1736440658569336,-0.6796900629997253,1.8601539134979248
588.0,-2.7484729290008545,2.7596070766448975,0.48804765939712524,1.1577298641204834,-0.6942731738090515,1.9620471000671387
589.0,-2.7525742053985596,2.813812017440796,0.3577887713909149,1.1712009906768799,-0.7171727418899536,2.0455849170684814
590.0,-2.7580246925354004,2.8664448261260986,0.24452951550483704,1.1846638917922974,-0.7269864678382874,2.1056594848632812
591.0,-2.7499043941497803,2.7555322647094727,0.5067991614341736,1.1488643884658813,-0.6852170825004578,1.9523392915725708
592.0,-2.7644059658050537,2.8165431022644043,0.3988759219646454,1.1839112043380737,-0.7657141089439392,1.9928470849990845
593.0,-2.768001079559326,2.975651502609253,-1.567108890604982e-17,1.2354146242141724,-0.7615135312080383,2.2188594341278076
594.0,-2.774263381958008,2.970505952835083,-1.567108890604982e-17,1.1893236637115479,-0.7959327101707458,2.2932300567626953
595.0,-2.767679452896118,2.9687981605529785,-1.567108890604982e-17,1.2325407266616821,-0.7824127078056335,2.2398078441619873
596.0,-2.784379243850708,2.9654884338378906,-1.567108890604982e-17,1.1365000009536743,-0.84273362159729,2.381165027618408
597.0,-2.7935431003570557,2.964388608932495,-1.567108890604982e-17,1.0944525003433228,-0.8746305704116821,2.4444711208343506
598.0,-2.804243326187134,2.9668686389923096,-1.567108890604982e-17,1.0486698150634766,-0.9015758633613586,2.5037083625793457
599.0,-2.793567419052124,2.969118356704712,-1.567108890604982e-17,1.089860439300537,-0.8602002859115601,2.4359424114227295
600.0,-2.823315382003784,3.0062360763549805,-1.567108890604982e-17,1.1965073347091675,-0.9964415431022644,2.370347499847412
601.0,-2.825227737426758,3.0324509143829346,-1.567108890604982e-17,1.3411930799484253,-1.0396474599838257,2.178546190261841
602.0,-2.8248441219329834,3.039219379425049,-1.567108890604982e-17,1.3829340934753418,-1.0489929914474487,2.1106293201446533
603.0,-2.79722261428833,3.0031139850616455,-1.567108890604982e-17,1.2648102045059204,-0.9078105092048645,2.2293498516082764
604.0,-2.803579568862915,3.0242421627044678,-1.567108890604982e-17,1.3654367923736572,-0.9594565033912659,2.0983333587646484
605.0,-2.799863338470459,2.9331088066101074,0.2115776091814041,1.3002780675888062,-0.9567093253135681,2.0146501064300537
606.0,-2.8053619861602783,2.8621208667755127,0.3940051794052124,1.2597755193710327,-0.9924181699752808,1.9199999570846558
607.0,-2.823894739151001,2.838327407836914,0.4846121668815613,1.255845546722412,-1.0809472799301147,1.849052906036377
608.0,-2.8384647369384766,2.9007978439331055,0.35761305689811707,1.3073651790618896,-1.1353017091751099,1.9075173139572144
609.0,-2.8320696353912354,3.003093719482422,0.11225605756044388,1.3942188024520874,-1.0959126949310303,1.9934542179107666
610.0,-2.8527841567993164,2.9444665908813477,0.27536243200302124,1.3530257940292358,-1.18744957447052,1.9300050735473633
611.0,-2.8519859313964844,3.066452741622925,-1.567108890604982e-17,1.477213978767395,-1.1730239391326904,1.9850884675979614
612.0,-2.871652841567993,2.9545552730560303,0.2750381827354431,1.3782109022140503,-1.2569584846496582,1.8985515832901
613.0,-2.867464780807495,3.07528018951416,-1.567108890604982e-17,1.4995397329330444,-1.228421926498413,1.9619226455688477
614.0,-2.87180495262146,3.0738468170166016,-1.567108890604982e-17,1.4803028106689453,-1.2276502847671509,2.013660430908203
615.0,-2.879692792892456,3.0756425857543945,-1.567108890604982e-17,1.4761351346969604,-1.2414419651031494,2.0351626873016357
616.0,-2.8779561519622803,3.068215847015381,-1.567108890604982e-17,1.4297152757644653,-1.2166169881820679,2.1315579414367676
617.0,-2.8594629764556885,3.0467114448547363,-1.567108890604982e-17,1.335083246231079,-1.141762375831604,2.260589599609375
618.0,-2.8599889278411865,3.0578129291534424,-1.567108890604982e-17,1.402170181274414,-1.1638821363449097,2.148326873779297
619.0,-2.843439817428589,3.0439648628234863,-1.567108890604982e-17,1.3582509756088257,-1.1037641763687134,2.189455270767212
620.0,-2.8423824310302734,3.0241904258728027,-1.567108890604982e-17,1.2462815046310425,-1.0724738836288452,2.3511180877685547
621.0,-2.849731683731079,3.0183792114257812,-1.567108890604982e-17,1.194942593574524,-1.085033893585205,2.4333248138427734
622.0,-2.8628346920013428,3.0285468101501465,-1.567108890604982e-17,1.2215827703475952,-1.128426432609558,2.4318134784698486
623.0,-2.877596855163574,3.0472958087921143,-1.567108890604982e-17,1.297589659690857,-1.179510235786438,2.360913038253784
624.0,-2.881922960281372,3.03481388092041,-1.567108890604982e-17,1.216029405593872,-1.1802533864974976,2.488308906555176
625.0,-2.8688061237335205,3.0081491470336914,-1.567108890604982e-17,1.0953700542449951,-1.1299958229064941,2.59244441986084
626.0,-2.876847505569458,2.9931163787841797,-1.567108890604982e-17,0.9991620182991028,-1.1451197862625122,2.7016501426696777
627.0,-2.9015655517578125,2.9646518230438232,-1.567108890604982e-17,0.8269953727722168,-1.2232218980789185,2.888190746307373
628.0,-2.8835432529449463,2.9649240970611572,-1.567108890604982e-17,0.8536285161972046,-1.1642335653305054,2.8338816165924072
629.0,-2.860654354095459,2.9661173820495605,-1.567108890604982e-17,0.8928807377815247,-1.0874598026275635,2.756373882293701
630.0,-2.845688819885254,2.972895860671997,-1.567108890604982e-17,0.958020806312561,-1.0406341552734375,2.6702473163604736
631.0,-2.820064067840576,2.965332508087158,-1.567108890604982e-17,0.9963839650154114,-0.9570382833480835,2.58847713470459
632.0,-2.8364758491516113,2.964171886444092,-1.567108890604982e-17,0.9517814517021179,-1.0130566358566284,2.663875102996826
633.0,-2.846397638320923,2.962559461593628,-1.567108890604982e-17,0.9304612874984741,-1.0496132373809814,2.706188678741455
634.0,-2.8745124340057373,2.9627320766448975,-1.567108890604982e-17,0.8721256256103516,-1.13958740234375,2.8073558807373047
635.0,-2.8887927532196045,2.961751937866211,-1.567108890604982e-17,0.8525135517120361,-1.1872361898422241,2.8518686294555664
636.0,-2.9300785064697266,2.9597229957580566,-1.567108890604982e-17,0.8028333187103271,-1.3234658241271973,2.9682178497314453
637.0,-2.915895462036133,2.959550142288208,-1.567108890604982e-17,0.8207876086235046,-1.2778815031051636,2.930371046066284
638.0,-2.9019088745117188,2.9596571922302246,-1.567108890604982e-17,0.8369916081428528,-1.2335156202316284,2.8926472663879395
639.0,-2.8905844688415527,2.9583401679992676,-1.567108890604982e-17,0.8571813106536865,-1.1993151903152466,2.85941481590271
640.0,-2.877642869949341,2.9581990242004395,-1.567108890604982e-17,0.8766008615493774,-1.1590379476547241,2.8206095695495605
641.0,-2.863999128341675,2.959623098373413,-1.567108890604982e-17,0.8999805450439453,-1.1123936176300049,2.772723913192749
642.0,-2.8358304500579834,2.9606196880340576,-1.567108890604982e-17,0.9600570797920227,-1.0196642875671387,2.6643741130828857
643.0,-2.824511766433716,2.9605584144592285,-1.567108890604982e-17,0.9900882244110107,-0.9846096038818359,2.616008996963501
644.0,-2.856135129928589,2.9577620029449463,-1.567108890604982e-17,0.9187741875648499,-1.0919880867004395,2.747004985809326
645.0,-2.906202793121338,2.9541261196136475,-1.567108890604982e-17,0.843817412853241,-1.2568250894546509,2.908043622970581
646.0,-2.892258882522583,2.9545915126800537,-1.567108890604982e-17,0.8627354502677917,-1.2116448879241943,2.866955518722534
647.0,-2.8700242042541504,2.9551572799682617,-1.567108890604982e-17,0.8972330689430237,-1.1415728330612183,2.7975575923919678
648.0,-2.8563992977142334,2.9541285037994385,-1.567108890604982e-17,0.925190806388855,-1.1016544103622437,2.751685619354248
649.0,-2.836503028869629,2.955517530441284,-1.567108890604982e-17,0.9673944711685181,-1.0355240106582642,2.6732113361358643
650.0,-2.824796676635742,2.9564881324768066,-1.567108890604982e-17,0.9957760572433472,-0.996752917766571,2.6226203441619873
651.0,-2.808204412460327,2.9607112407684326,-1.567108890604982e-17,1.0402320623397827,-0.9328312277793884,2.537020206451416
652.0,-2.7926011085510254,2.960920810699463,-1.567108890604982e-17,1.1012088060379028,-0.8826311230659485,2.4458649158477783
653.0,-2.79960560798645,2.958859920501709,-1.567108890604982e-17,1.0761138200759888,-0.9105749726295471,2.4901864528656006
654.0,-2.8152990341186523,2.956723690032959,-1.567108890604982e-17,1.024535059928894,-0.9660712480545044,2.5766537189483643
655.0,-2.8210833072662354,2.9531357288360596,-1.567108890604982e-17,1.0127421617507935,-0.9940482378005981,2.60896635055542
656.0,-2.8054111003875732,2.9546444416046143,-1.567108890604982e-17,1.0581567287445068,-0.9419568181037903,2.5315866470336914
657.0,-2.7968568801879883,2.9552438259124756,-1.567108890604982e-17,1.090359091758728,-0.9131941795349121,2.4812769889831543
658.0,-2.800119161605835,2.951685667037964,-1.567108890604982e-17,1.081773281097412,-0.9341199994087219,2.506587266921997
659.0,-2.7899980545043945,2.951892852783203,-1.567108890604982e-17,1.11943519115448,-0.9029589295387268,2.4488658905029297
660.0,-2.78719425201416,2.956418991088867,-1.567108890604982e-17,1.126450777053833,-0.880348265171051,2.4231116771698
661.0,-2.7730159759521484,2.9584403038024902,-1.567108890604982e-17,1.196265459060669,-0.8311330080032349,2.3174455165863037
662.0,-2.782867908477783,2.960137367248535,-1.567108890604982e-17,1.1464756727218628,-0.8549343943595886,2.3831591606140137
663.0,-2.7645926475524902,2.9646403789520264,-1.567108890604982e-17,1.250841736793518,-0.7868699431419373,2.2257492542266846
664.0,-2.7739503383636475,2.9646573066711426,-1.567108890604982e-17,1.1906616687774658,-0.813848078250885,2.3074915409088135
665.0,-2.761009454727173,2.9702959060668945,-1.567108890604982e-17,1.2795765399932861,-0.7593384385108948,2.1730358600616455
666.0,-2.7558631896972656,2.896717071533203,0.1629033237695694,1.232688546180725,-0.743274986743927,2.116109609603882
667.0,-2.74892520904541,2.795912504196167,0.3899761736392975,1.1797133684158325,-0.7185055613517761,2.0183727741241455
668.0,-2.7521908283233643,2.8627684116363525,0.23108984529972076,1.222282886505127,-0.7428060173988342,2.087357521057129
669.0,-2.755704164505005,2.964604139328003,-1.567108890604982e-17,1.3099498748779297,-0.7633764743804932,2.1457202434539795
670.0,-2.7456600666046143,2.7852413654327393,0.40442582964897156,1.192033052444458,-0.7231607437133789,2.00019907951355
671.0,-2.760690212249756,2.9607644081115723,-1.567108890604982e-17,1.2732198238372803,-0.7886663675308228,2.205146312713623
672.0,-2.7548484802246094,2.9602019786834717,-1.567108890604982e-17,1.3113207817077637,-0.7748908400535583,2.154433250427246
673.0,-2.7479448318481445,2.836477041244507,0.2799666225910187,1.2252153158187866,-0.7445909976959229,2.0570497512817383
674.0,-2.741831064224243,2.767028570175171,0.43682241439819336,1.2024486064910889,-0.7248058319091797,1.9702365398406982
675.0,-2.7343251705169678,2.6755728721618652,0.6568819284439087,1.2137597799301147,-0.6918488144874573,1.785247802734375
676.0,-2.7373135089874268,2.7210612297058105,0.541046679019928,1.2061930894851685,-0.7129573822021484,1.8888661861419678
677.0,-2.748225212097168,2.8798091411590576,0.17517723143100739,1.2703906297683716,-0.7589448690414429,2.0825963020324707
678.0,-2.731853485107422,2.6604087352752686,0.6858121156692505,1.2274237871170044,-0.6943082809448242,1.7505426406860352
679.0,-2.750058174133301,2.7149648666381836,0.5976691246032715,1.2420899868011475,-0.829487144947052,1.8020291328430176
680.0,-2.7930095195770264,2.7710514068603516,0.5482053160667419,1.2959480285644531,-1.097239375114441,1.7813979387283325
681.0,-2.8564133644104004,2.760450601577759,0.6290419697761536,1.3125449419021606,-1.471758484840393,-1.284220814704895
682.0,-2.859492540359497,2.7519986629486084,0.6504585146903992,1.3097937107086182,-1.5281058549880981,-1.2884520292282104
683.0,-2.859110116958618,2.7694313526153564,0.6128473281860352,1.3284380435943604,-1.5295453071594238,-1.2880809307098389
684.0,-2.8598062992095947,2.7979001998901367,0.5514481067657471,1.3586779832839966,-1.5320193767547607,-1.2887985706329346
685.0,-2.8643908500671387,2.814479112625122,0.5137899518013,1.3697952032089233,-1.5090312957763672,-1.2930524349212646
686.0,-2.862523317337036,2.821950912475586,0.49969902634620667,1.384600281715393,-1.533801794052124,-1.291533350944519
687.0,-2.8619160652160645,2.8454854488372803,0.4485749900341034,1.4098247289657593,-1.5321719646453857,-1.2909061908721924
688.0,-2.784219741821289,2.833683967590332,0.38160955905914307,1.3152216672897339,-1.028773307800293,1.9132471084594727
689.0,-2.8297531604766846,2.8656156063079834,0.37352555990219116,1.3893758058547974,-1.2853717803955078,1.8609483242034912
690.0,-2.8410329818725586,2.900796413421631,0.3062689006328583,1.4334040880203247,-1.3433574438095093,1.880053162574768
691.0,-2.8729512691497803,2.869210958480835,0.39899763464927673,1.4387683868408203,-1.5499011278152466,-1.30209481716156
692.0,-2.8630902767181396,2.8776841163635254,0.3788359463214874,1.444848895072937,-1.5316908359527588,-1.292075276374817
693.0,-2.8755929470062256,2.9128000736236572,0.3046433627605438,1.487065315246582,-1.5496275424957275,-1.3047362565994263
694.0,-2.869127035140991,2.955294132232666,0.21094027161598206,1.5319856405258179,-1.5350590944290161,-1.2981544733047485
695.0,-2.8813765048980713,2.990074872970581,0.13804411888122559,1.5780847072601318,-1.5543245077133179,-1.310544490814209
696.0,-2.871520519256592,3.052314043045044,-1.567108890604982e-17,1.642770767211914,-1.5348116159439087,-1.3005517721176147
697.0,-2.8782870769500732,3.052746295928955,-1.567108890604982e-17,1.643128514289856,-1.5372803211212158,-1.3073464632034302
698.0,-2.8764076232910156,3.0527236461639404,-1.567108890604982e-17,1.6386964321136475,-1.5340406894683838,-1.3054429292678833
699.0,-2.8810698986053467,3.0530731678009033,-1.567108890604982e-17,1.6350131034851074,-1.5333024263381958,-1.31011164188385
700.0,0.013249194249510765,0.649337649345398,-1.2054495811462402,-0.9450226426124573,-1.819084644317627,-1.294145941734314
701.0,0.09034925699234009,0.6465259194374084,-1.1425609588623047,-0.8352230787277222,-2.309379816055298,-1.2227965593338013
702.0,0.08032495528459549,0.684722363948822,-1.223179817199707,-0.9034448862075806,-2.219339370727539,-1.359420657157898
703.0,0.10990235209465027,0.7230090498924255,-1.246788740158081,-0.8995808362960815,-2.4382379055023193,-1.3784763813018799
704.0,0.10707278549671173,0.695677638053894,-1.2092431783676147,-0.8552895784378052,-2.4329612255096436,-1.307411789894104
705.0,0.10416541993618011,0.6655329465866089,-1.1640833616256714,-0.8110949993133545,-2.423968553543091,-1.2299007177352905
706.0,0.09917644411325455,0.625660240650177,-1.1011406183242798,-0.7590172290802002,-2.406372308731079,-1.1303462982177734
707.0,0.09631876647472382,0.5958677530288696,-1.0425419807434082,-0.732687771320343,-2.3826754093170166,-1.0536112785339355
708.0,0.09038041532039642,0.557518720626831,-0.974003255367279,-0.7007298469543457,-2.357572078704834,-0.9678615927696228
709.0,0.007537792902439833,0.6244628429412842,-1.1584917306900024,-0.9472500085830688,-1.8085402250289917,-1.2066725492477417
710.0,-0.024543343111872673,0.6605151891708374,-1.2267135381698608,-0.9984250068664551,-1.5936510562896729,1.546247124671936
711.0,-0.019772212952375412,0.6432823538780212,-1.1925370693206787,-1.0042552947998047,-1.6151320934295654,1.551007866859436
712.0,-0.021775588393211365,0.6257714629173279,-1.1567156314849854,-1.0167992115020752,-1.6173462867736816,1.5490034818649292
713.0,-0.027279939502477646,0.6155316233634949,-1.136538028717041,-1.0220154523849487,-1.6210830211639404,1.543493390083313
714.0,-0.02955562248826027,0.6016851663589478,-1.1081531047821045,-1.0316178798675537,-1.6214550733566284,1.5412200689315796
715.0,-0.027495233342051506,0.596500039100647,-1.1016610860824585,-1.0108697414398193,-1.6664795875549316,1.5432201623916626
716.0,-0.013084247708320618,0.5954484939575195,-1.1030532121658325,-0.9763134717941284,-1.7309129238128662,-1.0708032846450806
717.0,-0.012996260076761246,0.6167705655097961,-1.1431593894958496,-0.9861660003662109,-1.709074854850769,-1.170609951019287
718.0,0.04028979688882828,0.5706912875175476,-1.0440011024475098,-0.8574174642562866,-2.028092861175537,-1.0645655393600464
719.0,0.06923861056566238,0.47266194224357605,-0.8222925066947937,-0.6789587140083313,-2.2628650665283203,-0.8141655921936035
720.0,0.07864983379840851,0.4949009418487549,-0.865280270576477,-0.6570392847061157,-2.3200082778930664,-0.8452690243721008
721.0,0.06639089435338974,0.43022555112838745,-0.7366310358047485,-0.6432586908340454,-2.268961191177368,-0.7318533658981323
722.0,0.057312581688165665,0.39007535576820374,-0.660370409488678,-0.6373468041419983,-2.2395145893096924,-0.6708599925041199
723.0,0.07113469392061234,0.4610644578933716,-0.8075481653213501,-0.6375156044960022,-2.3000292778015137,-0.7864282131195068
724.0,0.06334913522005081,0.4220914840698242,-0.7326040863990784,-0.6276215314865112,-2.271108865737915,-0.7210708260536194
725.0,0.04860513284802437,0.3515504002571106,-0.5899056196212769,-0.6318097114562988,-2.2157013416290283,-0.6192411184310913
726.0,0.035881225019693375,0.2921491861343384,-0.46933266520500183,-0.647402286529541,-2.1717593669891357,-0.5488946437835693
727.0,0.056312140077352524,0.39477190375328064,-0.6873096227645874,-0.6151906251907349,-2.255490779876709,-0.6806541085243225
728.0,0.04391563683748245,0.3352862298488617,-0.5668324828147888,-0.6212366819381714,-2.208662509918213,-0.598320484161377
729.0,0.030600199475884438,0.2736353874206543,-0.4431789517402649,-0.6372548341751099,-2.1649909019470215,-0.5288184285163879
730.0,0.014379437081515789,0.17024020850658417,-0.2205006331205368,-0.7096772789955139,-2.1041219234466553,-0.4500763416290283
731.0,0.020059969276189804,0.22087609767913818,-0.33822789788246155,-0.6566028594970703,-2.132565975189209,-0.4800155758857727
732.0,0.0049716513603925705,0.06485683470964432,-1.567108890604982e-17,-0.798777163028717,-2.0760812759399414,-0.411671906709671
733.0,-0.005626508966088295,0.06357263028621674,-1.567108890604982e-17,-0.7754595279693604,-2.0399699211120605,-0.3719613254070282
734.0,-0.013363437727093697,0.05888214334845543,-1.567108890604982e-17,-0.7533020973205566,-2.020282506942749,-0.34719350934028625
735.0,-0.04419305920600891,0.05906446650624275,-1.567108890604982e-17,-0.7018187046051025,-1.9107956886291504,-0.24472063779830933
736.0,-0.02375842072069645,0.06089407578110695,-1.567108890604982e-17,-0.7359445691108704,-1.978590726852417,-0.30740612745285034
737.0,-0.031162945553660393,0.06426459550857544,-1.567108890604982e-17,-0.7300522923469543,-1.9478914737701416,-0.2815273106098175
738.0,-0.017238987609744072,0.06508758664131165,-1.567108890604982e-17,-0.754520833492279,-1.9954553842544556,-0.32742875814437866
739.0,0.004677563905715942,0.06995575875043869,-1.567108890604982e-17,-0.8048493266105652,-2.0652644634246826,-0.4051659405231476
740.0,-0.006846023257821798,0.06939183920621872,-1.567108890604982e-17,-0.7809675335884094,-2.0246529579162598,-0.3614422082901001
741.0,-0.020404648035764694,0.06911835819482803,-1.567108890604982e-17,-0.7539145350456238,-1.9769283533096313,-0.3120732009410858
742.0,-0.029592547565698624,0.07193733751773834,-1.567108890604982e-17,-0.7438119053840637,-1.9405628442764282,-0.2798788845539093
743.0,0.009924596175551414,0.07514839619398117,-1.567108890604982e-17,-0.8249634504318237,-2.074843168258667,-0.42266201972961426
744.0,0.020005177706480026,0.19277498126029968,-0.2553175389766693,-0.7130187749862671,-2.111293315887451,-0.46727070212364197
745.0,0.03036182001233101,0.2521505355834961,-0.3746974468231201,-0.6831075549125671,-2.141456127166748,-0.5124101638793945
746.0,0.03996846452355385,0.30471447110176086,-0.48451659083366394,-0.6578876376152039,-2.1752045154571533,-0.5629358887672424
747.0,0.033103201538324356,0.42001989483833313,-0.7399803996086121,-0.7444742321968079,-2.0906431674957275,-0.7304339408874512
748.0,-0.028461026027798653,0.5734274387359619,-1.058409333229065,-1.0006827116012573,-1.6909128427505493,-0.9519488215446472
749.0,-0.033612895756959915,0.5888257026672363,-1.0823414325714111,-1.0383914709091187,-1.6235566139221191,1.537164330482483
750.0,-0.039519213140010834,0.5713229179382324,-1.0468547344207764,-1.0486986637115479,-1.6236547231674194,1.53126859664917
751.0,-0.04446399584412575,0.5591620802879333,-1.022515058517456,-1.0543212890625,-1.6243391036987305,1.526336908340454
752.0,-0.044865865260362625,0.5665355920791626,-1.0400669574737549,-1.0383131504058838,-1.643345594406128,1.5258989334106445
753.0,-0.016659127548336983,0.5127629637718201,-0.9447314739227295,-0.9240042567253113,-1.8077601194381714,-0.8219472169876099
754.0,-0.03383689746260643,0.5152428150177002,-0.9484145045280457,-0.9659690260887146,-1.7409287691116333,-0.7735835313796997
755.0,-0.032410044223070145,0.4631250202655792,-0.8484913110733032,-0.9101610779762268,-1.7928589582443237,-0.6622934341430664
756.0,-0.008612561039626598,0.2653481662273407,-0.4263501465320587,-0.7741827368736267,-1.9705379009246826,-0.4854258596897125
757.0,-0.03754083439707756,0.40047022700309753,-0.7233452796936035,-0.8690961003303528,-1.8180702924728394,-0.5513036847114563
758.0,-0.05901395529508591,0.5466791391372681,-0.998816728591919,-1.057538390159607,-1.6227835416793823,1.5118238925933838
759.0,-0.05205092951655388,0.5437954664230347,-0.9916782379150391,-1.061422348022461,-1.6233264207839966,1.5187807083129883
760.0,-0.058192189782857895,0.5311462879180908,-0.9663390517234802,-1.0667812824249268,-1.6223160028457642,1.5126765966415405
761.0,-0.06715158373117447,0.5187186598777771,-0.9420561194419861,-1.0688835382461548,-1.620732307434082,1.5037856101989746
762.0,-0.06809408217668533,0.5331836342811584,-0.9723907113075256,-1.060943603515625,-1.6207764148712158,1.5028032064437866
763.0,-0.07447987049818039,0.5263976454734802,-0.958886981010437,-1.0645267963409424,-1.6184895038604736,1.4964535236358643
764.0,-0.034443970769643784,0.2830147445201874,-0.474499374628067,-0.8146389126777649,-1.8732248544692993,-0.43949612975120544
765.0,-0.0610986053943634,0.42610815167427063,-0.7760283350944519,-0.9244655966758728,-1.7346583604812622,-0.49058327078819275
766.0,-0.06293973326683044,0.36847615242004395,-0.6605980396270752,-0.8788331747055054,-1.7574297189712524,-0.4137237071990967
767.0,-0.08304187655448914,0.5080593228340149,-0.9241727590560913,-1.0588068962097168,-1.6183701753616333,1.488072156906128
768.0,-0.07546115666627884,0.5066524147987366,-0.9185311198234558,-1.0701477527618408,-1.6182934045791626,1.4955705404281616
769.0,-0.0883832573890686,0.4907059967517853,-0.8892126679420471,-1.0619580745697021,-1.616127371788025,1.4828965663909912
770.0,-0.08173258602619171,0.4481603801250458,-0.8176425695419312,-0.975243866443634,-1.668386697769165,-0.4007090628147125
771.0,-0.09649251401424408,0.4842361807823181,-0.8768508434295654,-1.0606176853179932,-1.6112799644470215,1.4749314785003662
772.0,-0.10444140434265137,0.4771212041378021,-0.8626450896263123,-1.0621659755706787,-1.604512333869934,1.4671258926391602
773.0,-0.0976419523358345,0.46519142389297485,-0.8473322987556458,-1.0131999254226685,-1.6365118026733398,-0.35475289821624756
774.0,-0.06454504281282425,0.06838448345661163,-1.567108890604982e-17,-0.7519317865371704,-1.8225810527801514,-0.20021122694015503
775.0,-0.0919613391160965,0.2806936204433441,-0.479800820350647,-0.861297070980072,-1.7017593383789062,-0.22915023565292358
776.0,-0.09322573244571686,0.06209564581513405,-1.567108890604982e-17,-0.8641236424446106,-1.7288159132003784,-0.16127270460128784
777.0,-0.11212793737649918,0.4829849600791931,-0.8770735263824463,-1.0507408380508423,-1.6008853912353516,1.459546446800232
778.0,-0.11805776506662369,0.47247955203056335,-0.852003812789917,-1.069933295249939,-1.5916668176651,1.4536081552505493
779.0,-0.12512139976024628,0.4658237397670746,-0.8451659679412842,-1.0368455648422241,-1.590227723121643,-0.12403078377246857
780.0,-0.12321949005126953,0.37478917837142944,-0.6764922738075256,-0.9134063124656677,-1.611918568611145,-0.1102166473865509
781.0,-0.13457342982292175,0.29041677713394165,-0.5030853152275085,-0.8581019639968872,-1.5911122560501099,-0.03716617822647095
782.0,-0.05666397884488106,0.06676621735095978,-1.567108890604982e-17,-0.6979103088378906,-1.857795238494873,-0.2040124386548996
783.0,-0.043417371809482574,0.06731797754764557,-1.567108890604982e-17,-0.7162832617759705,-1.901741623878479,-0.24167105555534363
784.0,-0.05931321904063225,0.06073863059282303,-1.567108890604982e-17,-0.685573160648346,-1.857694149017334,-0.20132824778556824
785.0,-0.057419247925281525,0.05491179972887039,-1.567108890604982e-17,-0.6786829233169556,-1.8721028566360474,-0.21039892733097076
786.0,-0.03672424703836441,0.05503984913229942,-1.567108890604982e-17,-0.7076602578163147,-1.943591833114624,-0.27151599526405334
787.0,-0.02565707080066204,0.0536235049366951,-1.567108890604982e-17,-0.7222887277603149,-1.9840549230575562,-0.3072466254234314
788.0,-0.05088229849934578,0.050931502133607864,-1.567108890604982e-17,-0.6797652840614319,-1.8990488052368164,-0.23032236099243164
789.0,-0.06260775774717331,0.04958414286375046,-1.567108890604982e-17,-0.6639671921730042,-1.8613253831863403,-0.19940085709095
790.0,-0.07700005918741226,0.05049106478691101,-1.567108890604982e-17,-0.6476278305053711,-1.8093923330307007,-0.15933428704738617
791.0,-0.16815818846225739,0.04492548480629921,-1.567108890604982e-17,-0.612117350101471,-1.4886152744293213,0.05224394425749779
792.0,-0.15079236030578613,0.040073685348033905,-1.567108890604982e-17,-0.6038729548454285,-1.5465857982635498,0.01530456356704235
793.0,-0.1331651210784912,0.03860865905880928,-1.567108890604982e-17,-0.6046769022941589,-1.6063507795333862,-0.022583965212106705
794.0,-0.1049632728099823,0.041135452687740326,-1.567108890604982e-17,-0.6200072169303894,-1.7139288187026978,-0.09295748174190521
795.0,-0.08575107902288437,0.04252326861023903,-1.567108890604982e-17,-0.6297867894172668,-1.788112998008728,-0.14253681898117065
796.0,-0.06606809794902802,0.04257388040423393,-1.567108890604982e-17,-0.6476570963859558,-1.856317400932312,-0.19239194691181183
797.0,-0.05399303510785103,0.04540484771132469,-1.567108890604982e-17,-0.667736828327179,-1.896650791168213,-0.22574949264526367
798.0,-0.03800841048359871,0.045831721276044846,-1.567108890604982e-17,-0.6904114484786987,-1.9513047933578491,-0.2722397446632385
