Sungjin-Park-dev/vision_inspection/data/trajectory/1158/joint_trajectory_dp.csv
time,ur20-shoulder_pan_joint,ur20-shoulder_lift_joint,ur20-elbow_joint,ur20-wrist_1_joint,ur20-wrist_2_joint,ur20-wrist_3_joint,target-POS_X,target-POS_Y,target-POS_Z,target-ROT_X,target-ROT_Y,target-ROT_Z,target-ROT_W
0.0,-0.05014771968126297,-0.7886647582054138,2.021711826324463,-2.8107545375823975,-1.8281458616256714,-1.5979433059692383,1.0161622762680054,0.1109304204583168,0.012169177643954754,0.9916563034057617,-0.011848357506096363,-0.0015336013166233897,0.12835581600666046
1.0,-0.04340517520904541,-0.7827013731002808,2.004664659500122,-2.794969081878662,-1.8407607078552246,-1.5790807008743286,1.0258418321609497,0.11544451117515564,0.011009017936885357,0.99074786901474,-0.017548413947224617,-0.0023832935839891434,0.1345559060573578
2.0,-0.02929811365902424,-0.7747692465782166,1.9805262088775635,-2.7561750411987305,-1.8802067041397095,-1.5039623975753784,1.0364465713500977,0.1237076073884964,0.008439059369266033,0.9869400858879089,-0.04590301960706711,-0.007173892110586166,0.154242604970932
3.0,-0.0030190544202923775,-0.7685227990150452,1.9866538047790527,-2.755211591720581,-1.946092963218689,-1.479037880897522,1.0262194871902466,0.14134399592876434,0.002752418629825115,0.9813522696495056,-0.043391671031713486,-0.008271681144833565,0.1870735138654709
4.0,0.007325686514377594,-0.7600600719451904,1.9570417404174805,-2.6984450817108154,-1.985783338546753,-1.4002275466918945,1.0389622449874878,0.14640459418296814,-8.89348957571201e-05,0.9752887487411499,-0.07261782884597778,-0.015493392944335938,0.20808292925357819
5.0,-0.008016549982130527,-0.760819673538208,1.9332524538040161,-2.663300037384033,-1.9546476602554321,-1.3600836992263794,1.0554742813110352,0.13475868105888367,0.003687734715640545,0.9758267998695374,-0.09948144108057022,-0.019735416397452354,0.19358734786510468
6.0,0.04479071870446205,-0.7330284714698792,1.889888882637024,-2.5346932411193848,-2.1200339794158936,-1.2126461267471313,1.058335781097412,0.16800594329833984,-0.01378526259213686,0.9503930807113647,-0.12369062751531601,-0.03683336824178696,0.2830139994621277
7.0,0.05196249112486839,-0.7145891785621643,1.8224490880966187,-2.371992349624634,-2.1663095951080322,-1.0568808317184448,1.0824342966079712,0.17089927196502686,-0.020694738253951073,0.9299485087394714,-0.17266905307769775,-0.05926209315657616,0.3191695213317871
8.0,0.03893939033150673,-0.7179796099662781,1.8115874528884888,-2.3579585552215576,-2.1321003437042236,-1.0344778299331665,1.0908976793289185,0.1614581048488617,-0.016512854024767876,0.9308086037635803,-0.1927596628665924,-0.06297437846660614,0.3040941655635834
9.0,0.026543986052274704,-0.7375560998916626,1.8723784685134888,-2.508847236633301,-2.074669599533081,-1.1792293787002563,1.0717761516571045,0.1550011783838272,-0.008217801339924335,0.9521854519844055,-0.1508408933877945,-0.04157064110040665,0.2624153196811676
10.0,0.026908742263913155,-0.718350887298584,1.7924294471740723,-2.320248603820801,-2.106257677078247,-0.9877309799194336,1.1012132167816162,0.15195399522781372,-0.013599102385342121,0.9268738627433777,-0.22014069557189941,-0.07025879621505737,0.29581552743911743
11.0,0.05520511418581009,-0.6697157025337219,1.6819955110549927,-2.011866807937622,-2.222468376159668,-0.7564600706100464,1.1220018863677979,0.16958162188529968,-0.035899821668863297,0.8777233362197876,-0.2530366778373718,-0.11271610856056213,0.39098501205444336
12.0,0.030803952366113663,-0.6665248870849609,1.6437203884124756,-1.9498405456542969,-2.1587963104248047,-0.6832343339920044,1.1403568983078003,0.1506035029888153,-0.030603354796767235,0.8674296736717224,-0.30225884914398193,-0.1300494521856308,0.3732191026210785
13.0,0.02791426330804825,-0.7039418816566467,1.7448164224624634,-2.2061259746551514,-2.1242012977600098,-0.8858432769775391,1.1162405014038086,0.1511157900094986,-0.018014704808592796,0.9096124768257141,-0.2519369125366211,-0.08817858248949051,0.3183668255805969
14.0,0.005015530623495579,-0.7141930460929871,1.7471275329589844,-2.2278807163238525,-2.066063165664673,-0.8778572082519531,1.1223533153533936,0.13329723477363586,-0.009651419706642628,0.9120807647705078,-0.2780672013759613,-0.08786776661872864,0.28821274638175964
15.0,-0.0009610694251023233,-0.738835871219635,1.8317608833312988,-2.438387632369995,-2.0226829051971436,-1.0873881578445435,1.0967435836791992,0.1325688362121582,-0.001168851857073605,0.9461830258369446,-0.20779474079608917,-0.053220234811306,0.2423357218503952
16.0,0.012316491454839706,-0.74137282371521,1.865469217300415,-2.5068912506103516,-2.0404863357543945,-1.1728827953338623,1.079634189605713,0.14447021484375,-0.0037275152280926704,0.9545016884803772,-0.16408771276474,-0.04218685254454613,0.2454017698764801
17.0,-0.013607935048639774,-0.7586362957954407,1.914918065071106,-2.6349053382873535,-1.951681137084961,-1.3270857334136963,1.0663940906524658,0.1291411817073822,0.005013297311961651,0.9738897681236267,-0.11720246076583862,-0.0232307817786932,0.19303536415100098
18.0,-0.032848455011844635,-0.770484983921051,1.9552868604660034,-2.721569299697876,-1.8853296041488647,-1.4612010717391968,1.051573634147644,0.11879152059555054,0.009518067352473736,0.9852021932601929,-0.06761534512042999,-0.010783696547150612,0.15712586045265198
19.0,-0.028116274625062943,-0.7604718804359436,1.9044080972671509,-2.6250343322753906,-1.9250017404556274,-1.3170770406723022,1.075639009475708,0.11728915572166443,0.008721779100596905,0.9747303128242493,-0.13029548525810242,-0.024041203781962395,0.17985036969184875
20.0,-0.04060639813542366,-0.7700636386871338,1.9482190608978271,-2.7203190326690674,-1.874464750289917,-1.4753071069717407,1.0580613613128662,0.11200085282325745,0.011420334689319134,0.9862538576126099,-0.06504589319229126,-0.009996244683861732,0.15156735479831696
21.0,-0.05487014725804329,-0.7722824215888977,1.9501348733901978,-2.7393367290496826,-1.8452554941177368,-1.536450743675232,1.061547040939331,0.10111478716135025,0.014614964835345745,0.9896310567855835,-0.04353708028793335,-0.006015779450535774,0.13674324750900269
22.0,-0.06200691685080528,-0.7713161706924438,1.9384154081344604,-2.725800037384033,-1.8431767225265503,-1.5258638858795166,1.069630742073059,0.0933869332075119,0.016531744971871376,0.9893503189086914,-0.05212842673063278,-0.007150551769882441,0.13571099936962128
23.0,-0.07333977520465851,-0.7740578055381775,1.9361815452575684,-2.7206809520721436,-1.8375818729400635,-1.524402379989624,1.0723333358764648,0.08196770399808884,0.019403958693146706,0.9893709421157837,-0.058486077934503555,-0.007856379263103008,0.13290128111839294
24.0,-0.07770854979753494,-0.7796414494514465,1.952797293663025,-2.736424207687378,-1.832942247390747,-1.5417556762695312,1.0627037286758423,0.07875216007232666,0.02023875154554844,0.9900296330451965,-0.05240003764629364,-0.006910646799951792,0.13056756556034088
25.0,-0.06761869043111801,-0.777817964553833,1.9572426080703735,-2.743288993835449,-1.8374522924423218,-1.544495940208435,1.0587941408157349,0.0890045240521431,0.017640376463532448,0.9900480508804321,-0.046065185219049454,-0.006180494092404842,0.13283321261405945
26.0,-0.07195305824279785,-0.7837055325508118,1.9759074449539185,-2.761591911315918,-1.8332618474960327,-1.565375804901123,1.0478689670562744,0.08585476875305176,0.01845669187605381,0.9906628727912903,-0.038252584636211395,-0.005049081519246101,0.1307607889175415
27.0,-0.06224919483065605,-0.7803559899330139,1.973496437072754,-2.761140823364258,-1.8364919424057007,-1.5601484775543213,1.0481462478637695,0.09546458721160889,0.016064876690506935,0.9905361533164978,-0.03593429923057556,-0.004802338778972626,0.13237744569778442
28.0,-0.052411388605833054,-0.7779676914215088,1.9754703044891357,-2.7652785778045654,-1.8425556421279907,-1.5595442056655884,1.0455678701400757,0.10495131462812424,0.013647149316966534,0.990286111831665,-0.031328506767749786,-0.004283561836928129,0.13540229201316833
29.0,-0.06028728559613228,-0.7843313217163086,1.991556167602539,-2.7792229652404785,-1.8329211473464966,-1.5754334926605225,1.036623477935791,0.09873773902654648,0.015270735137164593,0.9910374879837036,-0.027661340311169624,-0.003646301105618477,0.13063794374465942
30.0,-0.05094677954912186,-0.7823876142501831,1.995046615600586,-2.7849438190460205,-1.8383948802947998,-1.5764250755310059,1.033137559890747,0.10772808641195297,0.012952263467013836,0.9908053278923035,-0.022553803399205208,-0.0030358668882399797,0.1333678811788559
31.0,-0.058527566492557526,-0.7881981134414673,2.009638547897339,-2.7973744869232178,-1.8293908834457397,-1.5908845663070679,1.0250173807144165,0.10175879299640656,0.01449942123144865,0.9914599657058716,-0.01938912831246853,-0.002521517453715205,0.12893737852573395
32.0,-0.05535753816366196,-0.7937782406806946,2.037882089614868,-2.8263843059539795,-1.8234151601791382,-1.616713523864746,1.0067074298858643,0.10689753293991089,0.013190696947276592,0.9920028448104858,-0.005405821371823549,-0.0006871620425954461,0.1260986477136612
33.0,-0.06360553950071335,-0.7989485859870911,2.0509254932403564,-2.8386192321777344,-1.8185734748840332,-1.6353236436843872,0.9996353387832642,0.09982035309076309,0.01500644814223051,0.9923049211502075,-0.0005217124125920236,-6.509828381240368e-05,0.12381792068481445
34.0,-0.07485577464103699,-0.8023320436477661,2.052682876586914,-2.839428424835205,-1.8156582117080688,-1.6460726261138916,1.0001204013824463,0.08904870599508286,0.017693812027573586,0.9924735426902771,-0.0009075725683942437,-0.00011198117135791108,0.12245670706033707
35.0,-0.06970246881246567,-0.795090913772583,2.026378631591797,-2.8132615089416504,-1.822916030883789,-1.6155755519866943,1.0160964727401733,0.0919649675488472,0.016968587413430214,0.9919636845588684,-0.013064827769994736,-0.001657339045777917,0.125835582613945
36.0,-0.08183974772691727,-0.7992162704467773,2.029984474182129,-2.8155364990234375,-1.820680856704712,-1.6272404193878174,1.015397310256958,0.08010382205247879,0.01994430460035801,0.9920896291732788,-0.013468727469444275,-0.001694238861091435,0.12479550391435623
37.0,-0.07507188618183136,-0.7935256361961365,2.0130627155303955,-2.798750400543213,-1.824637770652771,-1.6043014526367188,1.025142788887024,0.08560552448034286,0.018544698134064674,0.9917222857475281,-0.021147115156054497,-0.0026999793481081724,0.1266191303730011
38.0,-0.07606793940067291,-0.78959721326828,1.9953914880752563,-2.780813217163086,-1.8286731243133545,-1.5873525142669678,1.036314845085144,0.08313524723052979,0.019160771742463112,0.991249680519104,-0.02977580390870571,-0.003861173754557967,0.12854018807411194
39.0,-0.08199246972799301,-0.7878229022026062,1.9805773496627808,-2.7637627124786377,-1.8272662162780762,-1.5716317892074585,1.046116828918457,0.07643827050924301,0.020837003365159035,0.9909722805023193,-0.04024781659245491,-0.005189655814319849,0.12777847051620483
40.0,-0.08900562673807144,-0.7939119338989258,1.997666358947754,-2.7799177169799805,-1.8226687908172607,-1.592328667640686,1.0363000631332397,0.07071079313755035,0.02225547470152378,0.9915010929107666,-0.033799853175878525,-0.004280234221369028,0.12555842101573944
41.0,-0.09191610664129257,-0.7915108799934387,1.9844762086868286,-2.766037702560425,-1.8243571519851685,-1.5798691511154175,1.0447801351547241,0.06667796522378922,0.02323455549776554,0.9911166429519653,-0.04122121259570122,-0.005254432093352079,0.12633678317070007
42.0,-0.08765996992588043,-0.7857658863067627,1.9655922651290894,-2.746816396713257,-1.8273038864135742,-1.5557941198349,1.0558841228485107,0.06968075037002563,0.022481048479676247,0.9904911518096924,-0.0506439283490181,-0.006531835999339819,0.12774930894374847
43.0,-0.0917317122220993,-0.7819074988365173,1.9459818601608276,-2.7261037826538086,-1.8293061256408691,-1.5365142822265625,1.0682613849639893,0.06396760791540146,0.02387639321386814,0.9897165894508362,-0.061875443905591965,-0.008047112263739109,0.12871600687503815
44.0,-0.1048511490225792,-0.7860015034675598,1.9478429555892944,-2.726194381713867,-1.8277562856674194,-1.5454479455947876,1.0683873891830444,0.05024540424346924,0.02732730843126774,0.9896787405014038,-0.06410536170005798,-0.008284449577331543,0.1278979480266571
45.0,-0.10517945140600204,-0.7817835807800293,1.9308381080627441,-2.7080559730529785,-1.828018069267273,-1.524463176727295,1.0786292552947998,0.048775866627693176,0.027677441015839577,0.9889366030693054,-0.07430326193571091,-0.009619231335818768,0.1280268430709839
46.0,-0.09439700096845627,-0.7784025073051453,1.929517388343811,-2.708611011505127,-1.8306959867477417,-1.5190842151641846,1.0784541368484497,0.0599626824259758,0.024861151352524757,0.9889646172523499,-0.07151313871145248,-0.009357874281704426,0.12941128015518188
47.0,-0.08853736519813538,-0.7726626992225647,1.9142467975616455,-2.694363832473755,-1.833990216255188,-1.5016487836837769,1.0870853662490845,0.06498900055885315,0.023579532280564308,0.9883270859718323,-0.07689827680587769,-0.01020194124430418,0.13111938536167145
48.0,-0.10016126185655594,-0.7755580544471741,1.9126991033554077,-2.6903786659240723,-1.831356406211853,-1.5027379989624023,1.089064121246338,0.05261291563510895,0.026684576645493507,0.9880781173706055,-0.08215902000665665,-0.010788784362375736,0.1297503560781479
49.0,-0.09604792296886444,-0.7698392271995544,1.8706202507019043,-2.589754581451416,-1.8460166454315186,-1.2777260541915894,1.1057990789413452,0.05326661467552185,0.025572309270501137,0.9721295237541199,-0.1858414113521576,-0.026836654171347618,0.14038152992725372
50.0,-0.0770682692527771,-0.7352054119110107,1.7260565757751465,-2.21173357963562,-1.9057705402374268,-0.7332794070243835,1.1465321779251099,0.062185466289520264,0.013421173207461834,0.8840019106864929,-0.40266016125679016,-0.09844790399074554,0.2161329686641693
51.0,-0.09322900325059891,-0.7083810567855835,1.6367897987365723,-1.9963566064834595,-1.8795748949050903,-0.5047835111618042,1.1692336797714233,0.04545772448182106,0.008099253289401531,0.8216795921325684,-0.49216800928115845,-0.14769382774829865,0.24657635390758514
52.0,-0.12221293896436691,-0.7100041508674622,1.623171091079712,-1.9583348035812378,-1.7937920093536377,-0.36424535512924194,1.1730908155441284,0.02404532954096794,0.011362696997821331,0.7733669281005859,-0.5689456462860107,-0.16571810841560364,0.22526033222675323
53.0,-0.0942760780453682,-0.7525395154953003,1.7715785503387451,-2.326681137084961,-1.8703069686889648,-0.8308106064796448,1.1362926959991455,0.04872313141822815,0.021114492788910866,0.9041385650634766,-0.3792461156845093,-0.07609961926937103,0.18142469227313995
54.0,-0.10658448189496994,-0.7709743976593018,1.8557740449905396,-2.550342559814453,-1.8391757011413574,-1.1916688680648804,1.1121904850006104,0.04200483113527298,0.027958640828728676,0.9622896313667297,-0.23115292191505432,-0.03349635750055313,0.13944533467292786
55.0,-0.12074501067399979,-0.7556782364845276,1.7542107105255127,-2.2726023197174072,-1.7979058027267456,-0.6347517967224121,1.1421639919281006,0.02889210358262062,0.024497264996170998,0.8570733666419983,-0.4809328615665436,-0.09040362387895584,0.1611088514328003
56.0,-0.147959366440773,-0.7389763593673706,1.6841338872909546,-2.091362714767456,-1.7181556224822998,-0.3140260577201843,1.1599414348602295,0.007427124306559563,0.021509045735001564,0.7541757225990295,-0.6179683804512024,-0.14077511429786682,0.17180359363555908
57.0,-0.1823604851961136,-0.783169686794281,1.828139066696167,-2.4331095218658447,-1.6159850358963013,-0.2398490607738495,1.1221493482589722,-0.009633352048695087,0.03369302675127983,0.725336492061615,-0.6819584965705872,-0.06432885676622391,0.06842067837715149
58.0,-0.19928158819675446,-0.7921391129493713,1.876694679260254,-2.5507559776306152,-1.5743305683135986,1.3725886344909668,1.1063944101333618,-0.018947912380099297,0.035592805594205856,0.0004438462492544204,0.9986312389373779,0.008590986020863056,-0.05159347131848335
59.0,-0.19979366660118103,-0.7578037977218628,1.7283624410629272,-2.170091390609741,-1.577843427658081,-0.01809896156191826,1.1473726034164429,-0.028367364779114723,0.025875503197312355,-0.6295401453971863,0.754720151424408,0.14175671339035034,-0.11824455857276917
60.0,-0.21589335799217224,-0.7666183710098267,1.7548744678497314,-2.224287509918213,-1.547157645225525,0.06784453243017197,1.1393365859985352,-0.04035864397883415,0.02772725559771061,-0.5900201797485352,0.7899291515350342,0.13379496335983276,-0.09993520379066467
61.0,-0.21409814059734344,-0.7166523337364197,1.6236354112625122,-1.9190984964370728,-1.5464847087860107,0.03886802867054939,1.1694350242614746,-0.044735949486494064,0.013316850177943707,-0.5858333706855774,0.762005090713501,0.2187686562538147,-0.16819044947624207
62.0,-0.17708328366279602,-0.6843512058258057,1.5543972253799438,-1.7885339260101318,-1.6335994005203247,-0.08198057860136032,1.1862682104110718,-0.01793673448264599,0.005165989510715008,-0.6443617939949036,0.693798840045929,0.2356625646352768,-0.21887028217315674
63.0,-0.14874807000160217,-0.6524372696876526,1.4944334030151367,-1.6717640161514282,-1.714764952659607,-0.15553726255893707,1.1981174945831299,0.0013156428467482328,-0.004145477898418903,0.6779966354370117,-0.6367036700248718,-0.25145724415779114,0.2677653431892395
64.0,-0.20006060600280762,-0.6772933006286621,1.5405272245407104,-1.7474169731140137,-1.5752971172332764,-0.005491054616868496,1.187219262123108,-0.036354146897792816,0.0024112118408083916,-0.5986056327819824,0.7268879413604736,0.25983965396881104,-0.2139827311038971
65.0,-0.23557570576667786,-0.6715542078018188,1.5336912870407104,-1.7087193727493286,-1.4948019981384277,0.08562041074037552,1.1838853359222412,-0.06541427969932556,-0.0013992834137752652,-0.5356939435005188,0.7658076286315918,0.29152271151542664,-0.2039245218038559
66.0,-0.22010131180286407,-0.6268004179000854,1.4502919912338257,-1.5465703010559082,-1.5282423496246338,0.0375262014567852,1.200007438659668,-0.055777326226234436,-0.01405285019427538,-0.5493417978286743,0.7271672487258911,0.3284538686275482,-0.24813196063041687
67.0,-0.1679738163948059,-0.558745265007019,1.3340026140213013,-1.3430110216140747,-1.6578619480133057,-0.05540388077497482,1.2218048572540283,-0.016922902315855026,-0.03371782228350639,-0.5992160439491272,0.6393679976463318,0.35155677795410156,-0.3294791877269745
68.0,-0.13539986312389374,-0.5819623470306396,1.3725665807724,-1.424443006515503,-1.7499570846557617,-0.130240336060524,1.2170817852020264,0.009298608638346195,-0.02611139975488186,0.6554039716720581,-0.6015204787254333,-0.30884045362472534,0.33650603890419006
69.0,-0.10761094838380814,-0.6042532920837402,1.4189636707305908,-1.5208027362823486,-1.8299100399017334,-0.2151160091161728,1.2095900774002075,0.031734153628349304,-0.022095059975981712,0.7061124444007874,-0.5612553358078003,-0.26864245533943176,0.33797767758369446
70.0,-0.08103854954242706,-0.6667712330818176,1.5501000881195068,-1.800801396369934,-1.903778076171875,-0.4035745859146118,1.1859807968139648,0.054739754647016525,-0.006396067328751087,0.7890093326568604,-0.5026827454566956,-0.1898001730442047,0.29790985584259033
71.0,-0.06913458555936813,-0.6080721616744995,1.4430714845657349,-1.5663537979125977,-1.9274232387542725,-0.30359718203544617,1.2026609182357788,0.06420563161373138,-0.02656550519168377,0.7502411007881165,-0.5000659823417664,-0.23988670110702515,0.3598982095718384
72.0,-0.060006845742464066,-0.6895154118537903,1.615248680114746,-1.9449043273925781,-1.9471383094787598,-0.538403332233429,1.170235276222229,0.0742451548576355,-0.00330460537225008,0.8341561555862427,-0.4474577009677887,-0.15241700410842896,0.28413763642311096
73.0,-0.039052288979291916,-0.6943336725234985,1.6442598104476929,-2.0075132846832275,-1.9899442195892334,-0.625429630279541,1.160438895225525,0.09296724200248718,-0.005831998772919178,0.8587357401847839,-0.400566428899765,-0.13508884608745575,0.28960397839546204
74.0,-0.046405721455812454,-0.7332140803337097,1.7509058713912964,-2.2666726112365723,-1.955816388130188,-0.8448110222816467,1.1346100568771362,0.09051229059696198,0.00710673164576292,0.9090371131896973,-0.3365378975868225,-0.08532138913869858,0.23046532273292542
75.0,-0.06456270068883896,-0.745949387550354,1.7792729139328003,-2.343204975128174,-1.9150819778442383,-0.9015315771102905,1.1298702955245972,0.07618190348148346,0.013932879082858562,0.9198218584060669,-0.3296307921409607,-0.07177934050559998,0.20029743015766144
76.0,-0.0697551965713501,-0.7664122581481934,1.888659954071045,-2.6223857402801514,-1.864027738571167,-1.3306605815887451,1.0937296152114868,0.08036398142576218,0.018937701359391212,0.9776060581207275,-0.14747685194015503,-0.022393466904759407,0.1484435647726059
77.0,-0.08214357495307922,-0.7746903896331787,1.9287283420562744,-2.710629463195801,-1.8342790603637695,-1.5163060426712036,1.077755331993103,0.07262714207172394,0.021714309230446815,0.9890609383583069,-0.06673979759216309,-0.008856303058564663,0.1312473714351654
78.0,-0.056059520691633224,-0.7651649117469788,1.8985034227371216,-2.634711980819702,-1.8781862258911133,-1.3449065685272217,1.0861036777496338,0.09360562264919281,0.015526617877185345,0.9785658717155457,-0.13350798189640045,-0.02119554951786995,0.1553558111190796
79.0,-0.03562624379992485,-0.7424612045288086,1.8000121116638184,-2.3836350440979004,-1.9613277912139893,-0.9902316331863403,1.117270588874817,0.10253041982650757,0.007263953797519207,0.9349962472915649,-0.27269136905670166,-0.06349019706249237,0.21769334375858307
80.0,-0.032547369599342346,-0.7575346231460571,1.8809337615966797,-2.5773396492004395,-1.9294683933258057,-1.248071312904358,1.0870946645736694,0.11151913553476334,0.00956114660948515,0.9686667919158936,-0.16332054138183594,-0.03110872022807598,0.18450823426246643
81.0,-0.028119737282395363,-0.7452536225318909,1.8224295377731323,-2.4340436458587646,-1.9671739339828491,-1.058242678642273,1.1077585220336914,0.11032579839229584,0.006250943057239056,0.9450305700302124,-0.2400747835636139,-0.05465898662805557,0.21515969932079315
82.0,-0.015937073156237602,-0.7064396142959595,1.6991634368896484,-2.1265997886657715,-2.0309360027313232,-0.7602134346961975,1.141674280166626,0.11429984867572784,-0.007121135480701923,0.8903402090072632,-0.3364587128162384,-0.10843276232481003,0.28693580627441406
83.0,-0.02730829454958439,-0.6977816820144653,1.6637940406799316,-2.047367572784424,-2.011669635772705,-0.6754193902015686,1.1531058549880981,0.10370887815952301,-0.007349644787609577,0.8713359236717224,-0.37399813532829285,-0.1252879947423935,0.29189425706863403
84.0,-0.04730256646871567,-0.6126234531402588,1.46405029296875,-1.6026878356933594,-1.978783369064331,-0.3548707365989685,1.1958853006362915,0.08332540839910507,-0.02927575819194317,0.7725652456283569,-0.4652005136013031,-0.22291119396686554,0.3701918125152588
85.0,-0.028164735063910484,-0.612199604511261,1.4755207300186157,-1.6174046993255615,-2.027144432067871,-0.39243441820144653,1.1904181241989136,0.0995202586054802,-0.033091720193624496,0.7871482372283936,-0.4332190752029419,-0.21166902780532837,0.3845973312854767
86.0,-0.00799356959760189,-0.6394743919372559,1.5451383590698242,-1.7574132680892944,-2.072725534439087,-0.50254225730896,1.1731457710266113,0.11738976836204529,-0.029353803023695946,0.8233734965324402,-0.3897038996219635,-0.1764851212501526,0.3728809654712677
87.0,0.006232190411537886,-0.6409300565719604,1.5605026483535767,-1.7792651653289795,-2.106534481048584,-0.5349441766738892,1.1659470796585083,0.12950243055820465,-0.03233620896935463,0.8322135210037231,-0.36491885781288147,-0.16763539612293243,0.38229992985725403
88.0,-0.011814611963927746,-0.588466227054596,1.4486360549926758,-1.5563677549362183,-2.06447696685791,-0.37710991501808167,1.191675066947937,0.11381089687347412,-0.046903032809495926,0.7823033928871155,-0.4127545952796936,-0.21769662201404572,0.4126054346561432
89.0,-0.04537862166762352,-0.569219172000885,1.3960270881652832,-1.4761815071105957,-1.9781595468521118,-0.29218482971191406,1.2081730365753174,0.08514916896820068,-0.047806721180677414,0.7472014427185059,-0.4682868719100952,-0.2504367232322693,0.3995983600616455
90.0,-0.07729209959506989,-0.5545928478240967,1.3581775426864624,-1.4185820817947388,-1.8976367712020874,-0.22301386296749115,1.2192437648773193,0.05748913809657097,-0.048750896006822586,0.7118916511535645,-0.5161558389663696,-0.27954280376434326,0.3855505883693695
91.0,-0.09531218558549881,-0.5545386672019958,1.3453470468521118,-1.3855026960372925,-1.855978012084961,-0.18803802132606506,1.2213952541351318,0.04154137894511223,-0.04276895895600319,0.6910839080810547,-0.5396449565887451,-0.29592299461364746,0.3789669871330261
92.0,-0.11887406557798386,-0.554202139377594,1.3375089168548584,-1.369747281074524,-1.7920225858688354,-0.14476953446865082,1.22335946559906,0.02221588045358658,-0.040241602808237076,0.6637404561042786,-0.5739381909370422,-0.313716322183609,0.36280253529548645
93.0,-0.14642448723316193,-0.5505686402320862,1.3285974264144897,-1.3545541763305664,-1.7150664329528809,-0.09321045875549316,1.2256078720092773,-2.193264663219452e-06,-0.040971677750349045,0.6281284689903259,-0.6125195622444153,-0.3350231647491455,0.3435606360435486
94.0,-0.1440371870994568,-0.5380263924598694,1.3187438249588013,-1.3590325117111206,-1.7183657884597778,-0.09568554162979126,1.230155110359192,0.0017547248862683773,-0.05164724215865135,0.6303622722625732,-0.6107207536697388,-0.3334636688232422,0.34418827295303345
95.0,-0.18883590400218964,-0.5365069508552551,1.3176445960998535,-1.3447234630584717,-1.6003690958023071,-0.01868380792438984,1.2283796072006226,-0.03476649150252342,-0.05322645977139473,-0.5698471665382385,0.6650322675704956,0.3665478825569153,-0.31408438086509705
96.0,-0.16498665511608124,-0.541354238986969,1.3203822374343872,-1.3492594957351685,-1.661116600036621,-0.05777888000011444,1.2281643152236938,-0.014831578359007835,-0.048540566116571426,-0.6018279790878296,0.637664794921875,0.3496740758419037,-0.33002233505249023
97.0,-0.18306687474250793,-0.5464591383934021,1.3245254755020142,-1.3405569791793823,-1.613804817199707,-0.027098586782813072,1.2252107858657837,-0.029166318476200104,-0.044193465262651443,-0.5767793655395508,0.6585790514945984,0.36359307169914246,-0.3184325098991394
98.0,-0.20291121304035187,-0.5518668293952942,1.3334192037582397,-1.3429481983184814,-1.5668035745620728,0.002510999795049429,1.2213692665100098,-0.04544873163104057,-0.04204903915524483,-0.5514715909957886,0.6797508001327515,0.3755110204219818,-0.30464643239974976
99.0,-0.2227480709552765,-0.5477638244628906,1.336792230606079,-1.351677417755127,-1.5195696353912354,0.032280534505844116,1.2203137874603271,-0.06221659481525421,-0.04886707291007042,-0.5254300832748413,0.7002055048942566,0.3866136968135834,-0.2901126742362976
100.0,-0.23830534517765045,-0.5572925209999084,1.3512754440307617,-1.357256531715393,-1.4829764366149902,0.05533215403556824,1.214296817779541,-0.07420622557401657,-0.04423167183995247,-0.5044921636581421,0.7151484489440918,0.3953218460083008,-0.27887460589408875
101.0,-0.25611695647239685,-0.565575361251831,1.367180347442627,-1.3666414022445679,-1.4400112628936768,0.08249236643314362,1.2078890800476074,-0.08772878348827362,-0.04175794497132301,-0.47952696681022644,0.7317723631858826,0.40508967638015747,-0.2654533088207245
102.0,-0.2219076305627823,-0.5580030679702759,1.3441033363342285,-1.346591830253601,-1.521132469177246,0.031147880479693413,1.2167997360229492,-0.06063330918550491,-0.03975849226117134,-0.5260917544364929,0.6990715861320496,0.3869478404521942,-0.2912006378173828
103.0,-0.23838603496551514,-0.5695167183876038,1.3602641820907593,-1.3514741659164429,-1.4822174310684204,0.05549447610974312,1.2099533081054688,-0.07313008606433868,-0.03354712203145027,-0.5038434863090515,0.7148427367210388,0.39635536074638367,-0.27936363220214844
104.0,-0.2575235664844513,-0.5753002762794495,1.3750040531158447,-1.3629117012023926,-1.4363757371902466,0.0844203531742096,1.2041682004928589,-0.08790557086467743,-0.03361763432621956,-0.47723355889320374,0.7326601147651672,0.4065912067890167,-0.2648416757583618
105.0,-0.27871817350387573,-0.5748975872993469,1.389241337776184,-1.3839608430862427,-1.3870145082473755,0.1165076419711113,1.1991883516311646,-0.10476994514465332,-0.040915850549936295,-0.4477781355381012,0.751404345035553,0.41633176803588867,-0.2481011003255844
106.0,-0.30643555521965027,-0.5861040949821472,1.419441819190979,-1.4105085134506226,-1.3219764232635498,0.1589946299791336,1.1873235702514648,-0.12499552965164185,-0.04137664660811424,-0.4076010584831238,0.7734900712966919,0.4293893575668335,-0.22627253830432892
107.0,-0.3241073787212372,-0.5899136662483215,1.4393970966339111,-1.4352846145629883,-1.2807782888412476,0.18750935792922974,1.1799360513687134,-0.1378159523010254,-0.04587284103035927,-0.3815043866634369,0.7869840860366821,0.43631765246391296,-0.21151268482208252
108.0,-0.29401206970214844,-0.573497474193573,1.4000096321105957,-1.4016920328140259,-1.3513696193695068,0.14019005000591278,1.1954621076583862,-0.11686669290065765,-0.04760606959462166,-0.42596879601478577,0.7642131447792053,0.42300763726234436,-0.23578248918056488
109.0,-0.28024929761886597,-0.5612019896507263,1.3802857398986816,-1.3919453620910645,-1.3853391408920288,0.11838172376155853,1.2034927606582642,-0.10762697458267212,-0.05334092304110527,-0.4466651976108551,0.7529027462005615,0.415701299905777,-0.2466178834438324
110.0,-0.2377578616142273,-0.547036349773407,1.3433271646499634,-1.361585259437561,-1.4847677946090698,0.054450999945402145,1.2180184125900269,-0.07471682131290436,-0.05303940549492836,-0.5056908130645752,0.7149255275726318,0.3942151665687561,-0.27884161472320557
111.0,-0.2614605724811554,-0.5514568090438843,1.3597182035446167,-1.3770018815994263,-1.4296903610229492,0.08965395390987396,1.2116140127182007,-0.09367545694112778,-0.05548585578799248,-0.47333505749702454,0.7365888357162476,0.4064246416091919,-0.2611701786518097
112.0,-0.288157194852829,-0.5528748631477356,1.3800840377807617,-1.4045190811157227,-1.3678181171417236,0.13055309653282166,1.204174518585205,-0.11483941227197647,-0.06335543841123581,-0.43592023849487305,0.7597745060920715,0.41842737793922424,-0.24007250368595123
113.0,-0.2657853066921234,-0.5429922342300415,1.3557307720184326,-1.3837502002716064,-1.4218130111694336,0.09506534785032272,1.2135127782821655,-0.09829825162887573,-0.06396705657243729,-0.4684193730354309,0.740156352519989,0.4076637625694275,-0.2579963207244873
114.0,-0.24642209708690643,-0.539959192276001,1.3426828384399414,-1.3713579177856445,-1.4641809463500977,0.06789829581975937,1.2188488245010376,-0.08239002525806427,-0.06151123717427254,-0.494027316570282,0.7236360311508179,0.39804691076278687,-0.2717472016811371
115.0,-0.2166576236486435,-0.5342888236045837,1.3245666027069092,-1.355741024017334,-1.533413290977478,0.023712821304798126,1.2259407043457031,-0.05812837556004524,-0.05964210256934166,-0.5336973667144775,0.6948981881141663,0.382234662771225,-0.2935648262500763
116.0,-0.1984405219554901,-0.5255205035209656,1.3120232820510864,-1.3531250953674316,-1.5763355493545532,-0.0035241080913692713,1.2313082218170166,-0.04344833642244339,-0.06433289498090744,-0.557609498500824,0.6763579845428467,0.37133532762527466,-0.3061397969722748
117.0,-0.16341407597064972,-0.5281515717506409,1.3097667694091797,-1.353440523147583,-1.6617436408996582,-0.05838175490498543,1.2329330444335938,-0.013780501671135426,-0.059736330062150955,-0.6028562188148499,0.6372049450874329,0.3487806022167206,-0.3299795091152191
118.0,-0.14009574055671692,-0.5283508896827698,1.3113746643066406,-1.3635363578796387,-1.7267793416976929,-0.10154460370540619,1.233618974685669,0.004816523287445307,-0.060003746300935745,0.6348990797996521,-0.6064653396606445,-0.33061546087265015,0.34611618518829346
119.0,-0.10907361656427383,-0.5395443439483643,1.3287545442581177,-1.380263090133667,-1.815804362297058,-0.16136504709720612,1.2278897762298584,0.03008616343140602,-0.05377001687884331,0.6748268008232117,-0.5611646771430969,-0.3064393699169159,0.3685077428817749
120.0,-0.09316162765026093,-0.5393324494361877,1.335447907447815,-1.398134708404541,-1.8520665168762207,-0.18846064805984497,1.2268296480178833,0.04423363134264946,-0.05701138451695442,0.692296028137207,-0.5410668253898621,-0.2940196692943573,0.3761987090110779
121.0,-0.0675295740365982,-0.5453618764877319,1.3582215309143066,-1.4414016008377075,-1.9140312671661377,-0.23991064727306366,1.2213082313537598,0.0668131560087204,-0.06006644293665886,0.7218433618545532,-0.5057445764541626,-0.27106884121894836,0.3868934214115143
122.0,-0.049913495779037476,-0.5584249496459961,1.3832805156707764,-1.4711586236953735,-1.9606173038482666,-0.2791963219642639,1.2131928205490112,0.08193497359752655,-0.05528755113482475,0.7415525317192078,-0.47815126180648804,-0.25502729415893555,0.3955152928829193
123.0,-0.03200618922710419,-0.5666353702545166,1.4074807167053223,-1.5097498893737793,-2.00545597076416,-0.32133302092552185,1.2059316635131836,0.09748323261737823,-0.05577314272522926,0.7607219815254211,-0.4500376284122467,-0.23815025389194489,0.40255773067474365
124.0,-0.018052423372864723,-0.5670844316482544,1.4236522912979126,-1.5472325086593628,-2.0340373516082764,-0.3537648916244507,1.2016627788543701,0.11037729680538177,-0.06198917701840401,0.7745510935783386,-0.4301464557647705,-0.22514300048351288,0.4054078459739685
125.0,-0.0014207331696525216,-0.5806368589401245,1.4557900428771973,-1.5916825532913208,-2.0796031951904297,-0.4012512266635895,1.1909229755401611,0.12414310872554779,-0.058854032307863235,0.7917631268501282,-0.3998737931251526,-0.20816130936145782,0.41216620802879333
126.0,0.019350538030266762,-0.5948137044906616,1.497899055480957,-1.6579221487045288,-2.133042335510254,-0.46481549739837646,1.1766986846923828,0.14153937995433807,-0.05835798755288124,0.8118035793304443,-0.36169368028640747,-0.18656782805919647,0.418742299079895
127.0,0.043455250561237335,-0.6110965013504028,1.5530179738998413,-1.7511082887649536,-2.1944549083709717,-0.5495433211326599,1.1575806140899658,0.16132685542106628,-0.05898560211062431,0.8336353898048401,-0.3143142759799957,-0.16022512316703796,0.42495471239089966
128.0,0.0054543898440897465,-0.595644474029541,1.4768989086151123,-1.606275200843811,-2.1061787605285645,-0.4245205521583557,1.182763934135437,0.12873391807079315,-0.04954097047448158,0.7988130450248718,-0.3835063576698303,-0.20059779286384583,0.41782912611961365
129.0,0.025280609726905823,-0.6087560057640076,1.5190032720565796,-1.6755850315093994,-2.15787410736084,-0.48902827501296997,1.1686677932739258,0.14511637389659882,-0.05006610229611397,0.8177620768547058,-0.34591472148895264,-0.1792108714580536,0.4236646592617035
130.0,0.049143578857183456,-0.6272770762443542,1.5785014629364014,-1.775329351425171,-2.2219698429107666,-0.5798519253730774,1.1479321718215942,0.16406452655792236,-0.04928244277834892,0.8391063809394836,-0.2962746024131775,-0.15188822150230408,0.4301765263080597
131.0,0.060915011912584305,-0.6330934166908264,1.6075832843780518,-1.8319933414459229,-2.2503418922424316,-0.6281548738479614,1.137647032737732,0.17361071705818176,-0.05164027586579323,0.848675549030304,-0.27177664637565613,-0.13838396966457367,0.43213093280792236
132.0,0.07267434149980545,-0.642913281917572,1.644213080406189,-1.8990460634231567,-2.283729076385498,-0.6870620250701904,1.1243635416030884,0.18220072984695435,-0.05116603150963783,0.8582848310470581,-0.24308259785175323,-0.12315647304058075,0.43484535813331604
133.0,0.08809757232666016,-0.6524391770362854,1.6935697793960571,-1.9994962215423584,-2.324244976043701,-0.7721408009529114,1.106041669845581,0.1934984028339386,-0.05286566540598869,0.8698241114616394,-0.20444022119045258,-0.10273421555757523,0.437099426984787
134.0,0.0975792407989502,-0.6602140665054321,1.729659914970398,-2.073197364807129,-2.3527283668518066,-0.8359304070472717,1.0923867225646973,0.1996471881866455,-0.051985155791044235,0.8763444423675537,-0.176838219165802,-0.08862591534852982,0.4391971230506897
135.0,0.10799597948789597,-0.6663068532943726,1.7727739810943604,-2.170530080795288,-2.3824002742767334,-0.9176312685012817,1.0757296085357666,0.20622220635414124,-0.05263114348053932,0.8832526803016663,-0.14416201412677765,-0.07187417894601822,0.4403591454029083
136.0,0.12393124401569366,-0.6672739386558533,1.8415992259979248,-2.3507165908813477,-2.4220893383026123,-1.0653636455535889,1.047825813293457,0.21612969040870667,-0.05751935765147209,0.8922589421272278,-0.08989925682544708,-0.044357750564813614,0.4402550458908081
137.0,0.10999423265457153,-0.6571154594421387,1.7676056623458862,-2.176562547683716,-2.3741321563720703,-0.9161009192466736,1.0773462057113647,0.20948299765586853,-0.06081969663500786,0.8846648335456848,-0.14572462439537048,-0.07198060303926468,0.4369797110557556
138.0,0.12373638153076172,-0.6581336855888367,1.824286699295044,-2.322420597076416,-2.4069526195526123,-1.0355623960494995,1.0541125535964966,0.2182665467262268,-0.06514731049537659,0.8925183415412903,-0.1009211391210556,-0.04938998073339462,0.43679118156433105
139.0,0.11172426491975784,-0.6458225250244141,1.7586215734481812,-2.177380084991455,-2.3624486923217773,-0.9088783860206604,1.0803338289260864,0.2129896581172943,-0.07056491076946259,0.885919988155365,-0.1497291922569275,-0.07315899431705475,0.43286827206611633
140.0,0.10448792576789856,-0.646913468837738,1.7345736026763916,-2.113424301147461,-2.3485710620880127,-0.8582096695899963,1.089877724647522,0.2075321525335312,-0.06603962182998657,0.8808600902557373,-0.16943639516830444,-0.08349239081144333,0.43405741453170776
141.0,0.09175847470760345,-0.6439817547798157,1.6944332122802734,-2.0201375484466553,-2.3208835124969482,-0.7824251651763916,1.1056883335113525,0.1979600489139557,-0.061618637293577194,0.872424304485321,-0.20141106843948364,-0.10017327219247818,0.4339066445827484
142.0,0.07990328222513199,-0.6371952295303345,1.6550999879837036,-1.937857747077942,-2.2906417846679688,-0.7135434746742249,1.1204326152801514,0.18930989503860474,-0.05980444326996803,0.8633301258087158,-0.23186179995536804,-0.11625731736421585,0.4328804016113281
143.0,0.06536391377449036,-0.6195253133773804,1.6042853593826294,-1.854297161102295,-2.2435004711151123,-0.6357033252716064,1.139363169670105,0.17965902388095856,-0.0652729943394661,0.8517791032791138,-0.2706686854362488,-0.13584622740745544,0.4275004267692566
144.0,0.052475277334451675,-0.6064726114273071,1.565828800201416,-1.7921643257141113,-2.206295967102051,-0.5782783031463623,1.1535532474517822,0.17015013098716736,-0.06810541450977325,0.8409580588340759,-0.3008080720901489,-0.15148623287677765,0.42350447177886963
145.0,0.03272057697176933,-0.5948512554168701,1.5183749198913574,-1.7053768634796143,-2.157869577407837,-0.5028533935546875,1.1700255870819092,0.1538885533809662,-0.06551103293895721,0.8229703307151794,-0.34063297510147095,-0.17386960983276367,0.42006951570510864
146.0,0.019845157861709595,-0.5818716287612915,1.487708568572998,-1.663894772529602,-2.1222145557403564,-0.4604460895061493,1.1812353134155273,0.14363141357898712,-0.06943829357624054,0.8115138411521912,-0.36640241742134094,-0.18731138110160828,0.41486018896102905
147.0,0.00624335091561079,-0.568614661693573,1.4552987813949585,-1.6179049015045166,-2.082962989807129,-0.4142119586467743,1.1923439502716064,0.1328294277191162,-0.07266465574502945,0.7974144816398621,-0.39392441511154175,-0.2024589627981186,0.40983423590660095
148.0,0.032966624945402145,-0.5818163156509399,1.5071805715560913,-1.708853006362915,-2.145113706588745,-0.4960550367832184,1.174663782119751,0.15597712993621826,-0.07639297097921371,0.8222980499267578,-0.3465387225151062,-0.17529045045375824,0.4159448444843292
149.0,0.02571932040154934,-0.5683538913726807,1.4844081401824951,-1.6868160963058472,-2.1188530921936035,-0.4684334695339203,1.1832363605499268,0.15108376741409302,-0.08377325534820557,0.8153150677680969,-0.36412063241004944,-0.18358242511749268,0.4110657572746277
150.0,0.012547936290502548,-0.5604667067527771,1.4579746723175049,-1.6435260772705078,-2.088050603866577,-0.428664892911911,1.192476511001587,0.13967305421829224,-0.08317205309867859,0.8030127882957458,-0.3874731659889221,-0.19678033888339996,0.4078143537044525
151.0,-0.012568885460495949,-0.5525553822517395,1.418749213218689,-1.5702710151672363,-2.033433675765991,-0.3623104691505432,1.2051637172698975,0.11699646711349487,-0.07724445313215256,0.778992235660553,-0.4275655746459961,-0.22068266570568085,0.4020671844482422
152.0,-0.022799251601099968,-0.553629457950592,1.4067764282226562,-1.5387842655181885,-2.0132415294647217,-0.33688783645629883,1.2081365585327148,0.10742206871509552,-0.07103884220123291,0.7684721350669861,-0.44220972061157227,-0.2306729108095169,0.400863379240036
153.0,-0.050051651895046234,-0.5355049967765808,1.3653372526168823,-1.4831830263137817,-1.9442988634109497,-0.27237483859062195,1.2216740846633911,0.08368273079395294,-0.07530795782804489,0.7395719885826111,-0.48580294847488403,-0.25576791167259216,0.3893734812736511
154.0,-0.048697881400585175,-0.5274813175201416,1.3601130247116089,-1.4900463819503784,-1.9410879611968994,-0.2724210321903229,1.2243037223815918,0.08566491305828094,-0.0828234925866127,0.7401646375656128,-0.48681002855300903,-0.2548975944519043,0.3875560760498047
155.0,-0.025047270581126213,-0.538081169128418,1.3912217617034912,-1.5387637615203857,-1.9960185289382935,-0.3254471719264984,1.2145272493362427,0.10696381330490112,-0.08319790661334991,0.7646369934082031,-0.4513489603996277,-0.23383834958076477,0.3961489796638489
156.0,-0.011647633276879787,-0.5409311056137085,1.4098029136657715,-1.5763124227523804,-2.024517774581909,-0.35859254002571106,1.2090373039245605,0.11929420381784439,-0.08746717870235443,0.7784633040428162,-0.4313502013683319,-0.22100865840911865,0.3988572359085083
157.0,0.0029812336433678865,-0.5461243391036987,1.431497573852539,-1.6144942045211792,-2.056299924850464,-0.39497166872024536,1.2018492221832275,0.13257889449596405,-0.0898364707827568,0.7923023700714111,-0.40849772095680237,-0.20768149197101593,0.40280893445014954
158.0,-0.02476024068892002,-0.526335597038269,1.3818132877349854,-1.5446662902832031,-1.987177848815918,-0.3216836154460907,1.2187061309814453,0.1084536463022232,-0.09342199563980103,0.763822078704834,-0.45537322759628296,-0.23422297835350037,0.3928748667240143
159.0,-0.04028259217739105,-0.5209839344024658,1.362187385559082,-1.5106408596038818,-1.9520725011825562,-0.2863677442073822,1.2247018814086914,0.09433986246585846,-0.09165263921022415,0.7477087378501892,-0.4784596562385559,-0.2481764853000641,0.3878355920314789
160.0,-0.060122981667518616,-0.5116102695465088,1.3364306688308716,-1.4707934856414795,-1.905476689338684,-0.24273879826068878,1.2325254678726196,0.07639707624912262,-0.0917910486459732,0.7258351445198059,-0.5073963403701782,-0.2661013901233673,0.38066044449806213
161.0,-0.0751434788107872,-0.5113208293914795,1.3257322311401367,-1.444628357887268,-1.8741068840026855,-0.21451975405216217,1.2349315881729126,0.06237976253032684,-0.08737703412771225,0.7099012732505798,-0.5265451669692993,-0.27865442633628845,0.3756888210773468
162.0,-0.09252053499221802,-0.5052815675735474,1.3097871541976929,-1.4187407493591309,-1.8340858221054077,-0.18152441084384918,1.2392725944519043,0.04654659330844879,-0.08751112222671509,0.6901755332946777,-0.5494489073753357,-0.29330316185951233,0.3684249222278595
163.0,-0.11133912205696106,-0.5035282969474792,1.2992641925811768,-1.3943448066711426,-1.790829062461853,-0.14778995513916016,1.2412686347961426,0.029589049518108368,-0.08478830754756927,0.6682436466217041,-0.5730658769607544,-0.30881768465042114,0.3601076602935791
164.0,-0.07494742423295975,-0.5239896774291992,1.336241364479065,-1.439359426498413,-1.883590579032898,-0.2194117307662964,1.2302567958831787,0.061573609709739685,-0.07646661251783371,0.7117512822151184,-0.5220881700515747,-0.27794691920280457,0.3789188861846924
165.0,-0.09857936948537827,-0.5162409543991089,1.3141484260559082,-1.4012864828109741,-1.8262697458267212,-0.17241136729717255,1.2359015941619873,0.04056762903928757,-0.07576192915439606,0.6836946606636047,-0.5541365742683411,-0.29900074005126953,0.3689076006412506
166.0,-0.06703586131334305,-0.5350815653800964,1.350329041481018,-1.4470102787017822,-1.9076497554779053,-0.23732158541679382,1.2250468730926514,0.06809328496456146,-0.06913044303655624,0.7211561799049377,-0.5085496306419373,-0.2711145877838135,0.38445794582366943
167.0,-0.04668072611093521,-0.547484815120697,1.37806236743927,-1.4850300550460815,-1.9601019620895386,-0.28337159752845764,1.2165169715881348,0.08576218783855438,-0.06629162281751633,0.7442419528961182,-0.4771706759929657,-0.25224536657333374,0.39342644810676575
168.0,-0.0834016427397728,-0.5292328596115112,1.3347598314285278,-1.4223363399505615,-1.869004726409912,-0.20540207624435425,1.2294248342514038,0.05343390256166458,-0.06929519027471542,0.7031204104423523,-0.5311070084571838,-0.28497645258903503,0.377273827791214
169.0,-0.1002940684556961,-0.5276018977165222,1.3225535154342651,-1.394115924835205,-1.8292135000228882,-0.1727781593799591,1.231789469718933,0.03842748701572418,-0.065562404692173,0.6831116676330566,-0.5531473159790039,-0.3000834584236145,0.37058931589126587
170.0,-0.11386738717556,-0.5195679664611816,1.3112503290176392,-1.3843121528625488,-1.794893503189087,-0.1485385149717331,1.235466480255127,0.026506612077355385,-0.0703728199005127,0.6674498319625854,-0.571664035320282,-0.3104151785373688,0.3624271750450134
171.0,-0.14513492584228516,-0.5185519456863403,1.3026951551437378,-1.363580346107483,-1.7101480960845947,-0.09064295142889023,1.237059473991394,0.0006636348553001881,-0.06806070357561111,0.627403736114502,-0.6143998503684998,-0.33472707867622375,0.3418115973472595
172.0,-0.16357742249965668,-0.512008011341095,1.2964584827423096,-1.3574446439743042,-1.6569019556045532,-0.05542997270822525,1.2386326789855957,-0.01416880264878273,-0.07336229085922241,-0.6012338399887085,0.6392095685005188,0.3492809236049652,-0.3285300135612488
173.0,-0.18057352304458618,-0.5174583196640015,1.301958680152893,-1.3534340858459473,-1.6184630393981934,-0.030460216104984283,1.2357792854309082,-0.02875806763768196,-0.06933656334877014,-0.5804880261421204,0.6573390960693359,0.360211580991745,-0.31809836626052856
174.0,-0.2299768030643463,-0.5266404747962952,1.3235633373260498,-1.3645756244659424,-1.5045770406723022,0.04216965287923813,1.2266093492507935,-0.07025108486413956,-0.06869849562644958,-0.5172051787376404,0.7076275944709778,0.3886672854423523,-0.284076988697052
175.0,-0.25412696599960327,-0.533024251461029,1.3415964841842651,-1.3799724578857422,-1.4478641748428345,0.07867707312107086,1.2196041345596313,-0.08956494182348251,-0.0695648044347763,-0.48433879017829895,0.7306028008460999,0.4011439383029938,-0.26593050360679626
176.0,-0.2119234949350357,-0.5123796463012695,1.3059492111206055,-1.3635333776474,-1.545032262802124,0.016509346663951874,1.2342925071716309,-0.05589760094881058,-0.07791491597890854,-0.5407696962356567,0.6908541321754456,0.37788423895835876,-0.2957908511161804
177.0,-0.18799073994159698,-0.5084492564201355,1.2954745292663574,-1.3563376665115356,-1.601304054260254,-0.019519425928592682,1.2384870052337646,-0.035792380571365356,-0.0774758905172348,-0.5714339017868042,0.6654805541038513,0.3643238842487335,-0.3128371238708496
178.0,-0.1436918079853058,-0.50743168592453,1.2934603691101074,-1.3668200969696045,-1.711280345916748,-0.09163933992385864,1.241038203239441,0.001698049483820796,-0.0774257630109787,0.628514289855957,-0.6136856079101562,-0.3338477611541748,0.3419146239757538
179.0,-0.16646045446395874,-0.5028984546661377,1.2893295288085938,-1.3608558177947998,-1.6501718759536743,-0.05127522349357605,1.2417502403259277,-0.017221879214048386,-0.08135335892438889,-0.5980697274208069,0.6427543759346008,0.3504743278026581,-0.3261091709136963
180.0,-0.13359719514846802,-0.49961990118026733,1.288949966430664,-1.3749123811721802,-1.7374029159545898,-0.10953883826732635,1.2434977293014526,0.009865215048193932,-0.08487097173929214,0.6415178179740906,-0.6008085012435913,-0.3260302245616913,0.3481212258338928
181.0,-0.15626446902751923,-0.49455422163009644,1.281984567642212,-1.3650254011154175,-1.6733921766281128,-0.06664936244487762,1.2451450824737549,-0.0086896987631917,-0.08814017474651337,-0.6104726195335388,0.6315797567367554,0.34365084767341614,-0.3321661353111267
182.0,-0.13601276278495789,-0.4885646402835846,1.2788913249969482,-1.3758254051208496,-1.7278270721435547,-0.10332357883453369,1.2474676370620728,0.007792703807353973,-0.09390034526586533,0.6375228762626648,-0.6053697466850281,-0.32813897728919983,0.345567524433136
183.0,-0.11718040704727173,-0.4930611848831177,1.2886940240859985,-1.3930983543395996,-1.771828055381775,-0.13504008948802948,1.245342493057251,0.024763140827417374,-0.09296613186597824,0.6602703332901001,-0.5827975869178772,-0.3134714663028717,0.3551419973373413
184.0,-0.08930650353431702,-0.49386996030807495,1.302381992340088,-1.429102897644043,-1.832810640335083,-0.183079332113266,1.243054747581482,0.05036754161119461,-0.09838168323040009,0.6921634078025818,-0.5493125915527344,-0.29102224111557007,0.36670368909835815
185.0,-0.10745344310998917,-0.4885851740837097,1.288334608078003,-1.4049104452133179,-1.790531873703003,-0.1496524214744568,1.246565818786621,0.03387217968702316,-0.09838689118623734,0.6707252860069275,-0.5724817514419556,-0.30615490674972534,0.3586941361427307
186.0,-0.16331323981285095,-0.4858376979827881,1.2751778364181519,-1.3677400350570679,-1.657090425491333,-0.05621085688471794,1.247953176498413,-0.015406174585223198,-0.09591319411993027,-0.6023839116096497,0.6398897767066956,0.34742608666419983,-0.3270623981952667
187.0,-0.18688364326953888,-0.4862448275089264,1.2771960496902466,-1.3648922443389893,-1.6030590534210205,-0.020852593705058098,1.2464491128921509,-0.036194898188114166,-0.0965094193816185,-0.5732502937316895,0.6653688549995422,0.3622804880142212,-0.31212371587753296
188.0,-0.21691910922527313,-0.49354642629623413,1.2924022674560547,-1.3728556632995605,-1.5353482961654663,0.022912828251719475,1.2401670217514038,-0.061893150210380554,-0.09498331695795059,-0.5355773568153381,0.6960488557815552,0.3789900839328766,-0.2916153073310852
189.0,-0.1787959337234497,-0.49654003977775574,1.2850183248519897,-1.362021803855896,-1.6218634843826294,-0.03296203911304474,1.2433390617370605,-0.028451213613152504,-0.08733361959457397,-0.5831696391105652,0.6564034223556519,0.35778331756591797,-0.3178660571575165
190.0,-0.20224428176879883,-0.5017616748809814,1.2943791151046753,-1.364382266998291,-1.5668210983276367,0.002557892119511962,1.2392812967300415,-0.04830355569720268,-0.08553485572338104,-0.5532673597335815,0.6815069317817688,0.37188273668289185,-0.3019053339958191
191.0,-0.2407516986131668,-0.5153468251228333,1.3204444646835327,-1.377651333808899,-1.4789960384368896,0.05902070552110672,1.228559136390686,-0.08009377121925354,-0.08133295923471451,-0.5029500126838684,0.7188816070556641,0.39317238330841064,-0.2750745713710785
192.0,-0.24209919571876526,-0.5044069886207581,1.3123997449874878,-1.3829731941223145,-1.4778822660446167,0.06005110964179039,1.2320055961608887,-0.08245089650154114,-0.0911182090640068,-0.5022504329681396,0.7200561165809631,0.39271825551986694,-0.27392712235450745
193.0,-0.2750740349292755,-0.5147027373313904,1.3402286767959595,-1.4054282903671265,-1.4041376113891602,0.10823695361614227,1.2207671403884888,-0.10908710956573486,-0.09151603281497955,-0.4576883018016815,0.7487967610359192,0.4090418517589569,-0.2500193119049072
194.0,-0.2812359631061554,-0.5073118209838867,1.3388391733169556,-1.4148343801498413,-1.3931034803390503,0.11611959338188171,1.2213771343231201,-0.11523841321468353,-0.10000352561473846,-0.4505678713321686,0.7536881566047668,0.4106878638267517,-0.2455163151025772
195.0,-0.2643795311450958,-0.5003581643104553,1.3212957382202148,-1.4003695249557495,-1.430800199508667,0.09105603396892548,1.228363275527954,-0.10199710726737976,-0.10037437826395035,-0.4737052619457245,0.7393910884857178,0.4028531610965729,-0.25809574127197266
196.0,-0.20277227461338043,-0.4831037223339081,1.279283046722412,-1.3718472719192505,-1.5670379400253296,0.0024391626939177513,1.2457144260406494,-0.05031995475292206,-0.10169407725334167,-0.5537595152854919,0.6823093891143799,0.37059417366981506,-0.3007727563381195
197.0,-0.23427757620811462,-0.4874894320964813,1.2943615913391113,-1.383538842201233,-1.4973971843719482,0.047660864889621735,1.2393922805786133,-0.07751520723104477,-0.1035868301987648,-0.5137010216712952,0.7127366662025452,0.3874654769897461,-0.2792636454105377
198.0,-0.253598690032959,-0.49651703238487244,1.3180675506591797,-1.419990062713623,-1.4554340839385986,0.07832465320825577,1.2332731485366821,-0.0936492383480072,-0.10459249466657639,-0.4905165731906891,0.7343012690544128,0.390198290348053,-0.2606542110443115
199.0,-0.2729109823703766,-0.5728068947792053,1.472125768661499,-1.7397514581680298,-1.4250115156173706,0.1608073115348816,1.2105929851531982,-0.10683716833591461,-0.08700279891490936,-0.47964638471603394,0.7990332841873169,0.3108956217765808,-0.18662546575069427
200.0,-0.2946012616157532,-0.5066714882850647,1.348402500152588,-1.4293415546417236,-1.3653998374938965,0.13502806425094604,1.217461109161377,-0.12647861242294312,-0.10518227517604828,-0.4329284727573395,0.764155387878418,0.4160338044166565,-0.23570187389850616
201.0,-0.3162967264652252,-0.5171778798103333,1.3774279356002808,-1.4618281126022339,-1.3188916444778442,0.1694575548171997,1.206894040107727,-0.14303988218307495,-0.10576390475034714,-0.4031114876270294,0.7820118069648743,0.4225185215473175,-0.2177998572587967
202.0,-0.3198661804199219,-0.6031803488731384,1.5536340475082397,-1.8623266220092773,-1.337357759475708,0.2902832627296448,1.1827374696731567,-0.14243049919605255,-0.08386876434087753,-0.4008261561393738,0.8508477210998535,0.3073081374168396,-0.14476990699768066
203.0,-0.2815392017364502,-0.6636227369308472,1.78667151927948,-2.5704843997955322,-1.5188847780227661,1.29043710231781,1.1470991373062134,-0.114193394780159,-0.06212056055665016,0.0021884478628635406,0.997761070728302,0.04197327792644501,-0.052022337913513184
204.0,-0.2934638559818268,-0.66312575340271,1.781642198562622,-2.5487849712371826,-1.5054669380187988,0.43237069249153137,1.1465147733688354,-0.12596412003040314,-0.06326429545879364,-0.40670329332351685,0.9102787971496582,0.07063327729701996,-0.03155823051929474
205.0,-0.27906882762908936,-0.6567533612251282,1.7681256532669067,-2.5561416149139404,-1.5212748050689697,1.2930352687835693,1.1576745510101318,-0.11469292640686035,-0.06345822662115097,0.0022114762105047703,0.9977081418037415,0.041058968752622604,-0.053737543523311615
206.0,-0.27585336565971375,-0.6572959423065186,1.7317259311676025,-2.4119691848754883,-1.4910156726837158,0.32365143299102783,1.163524866104126,-0.10768110305070877,-0.06426192820072174,-0.4591357111930847,0.8798331618309021,0.10889739543199539,-0.05682745948433876
207.0,-0.26963555812835693,-0.6499534845352173,1.6940603256225586,-2.3107454776763916,-1.4791290760040283,0.28375133872032166,1.1739634275436401,-0.1012546569108963,-0.06631302088499069,-0.47485730051994324,0.8657698631286621,0.13850073516368866,-0.07596486806869507
208.0,-0.2684202790260315,-0.654560923576355,1.7555146217346191,-2.532935380935669,-1.5252286195755005,0.3151710629463196,1.1641769409179688,-0.10446177423000336,-0.06334204226732254,-0.4711466133594513,0.8790319561958313,0.06430868804454803,-0.0344683900475502
209.0,-0.25854969024658203,-0.6506770849227905,1.7486321926116943,-2.5414695739746094,-1.53494393825531,1.3137933015823364,1.1705474853515625,-0.09594220668077469,-0.0634850561618805,0.0019116856856271625,0.9978141784667969,0.03350837901234627,-0.056926269084215164
210.0,-0.247070774435997,-0.6474757194519043,1.7391102313995361,-2.535853862762451,-1.5423460006713867,1.3253146409988403,1.1769932508468628,-0.08504429459571838,-0.06351175904273987,0.0016925395466387272,0.9978959560394287,0.02918536402285099,-0.05787072703242302
211.0,-0.2466009259223938,-0.6508693695068359,1.7142459154129028,-2.411787986755371,-1.525131106376648,0.19919940829277039,1.1768989562988281,-0.08172030001878738,-0.06379563361406326,-0.5277263522148132,0.8418334722518921,0.09593880921602249,-0.060141872614622116
212.0,-0.23382307589054108,-0.6478647589683533,1.7277367115020752,-2.4951846599578857,-1.5464624166488647,0.1539972871541977,1.18012273311615,-0.07059919089078903,-0.0631968080997467,-0.555087149143219,0.8280702829360962,0.06528782099485397,-0.04376492276787758
213.0,-0.22185784578323364,-0.6365414261817932,1.6468782424926758,-2.240277051925659,-1.5430256128311157,0.0781240314245224,1.1953870058059692,-0.059202276170253754,-0.06714867055416107,-0.5829550623893738,0.7944911122322083,0.13717393577098846,-0.10065089166164398
214.0,-0.21003933250904083,-0.628272294998169,1.6160837411880493,-2.1621272563934326,-1.5561292171478271,0.035018738359212875,1.202237606048584,-0.04846668243408203,-0.06922953575849533,-0.602173924446106,0.7736602425575256,0.15551519393920898,-0.1210443377494812
215.0,-0.21246680617332458,-0.6439120173454285,1.7162328958511353,-2.4885752201080322,-1.5619639158248901,0.05663539841771126,1.1877524852752686,-0.04920726642012596,-0.06321877986192703,-0.6037756204605103,0.7933957576751709,0.06152867153286934,-0.04682342708110809
216.0,-0.20290398597717285,-0.6394389271736145,1.7153289318084717,-2.5214903354644775,-1.5697317123413086,1.3694322109222412,1.1929773092269897,-0.04005987197160721,-0.06355509907007217,0.0008017285726964474,0.998041033744812,0.013079432770609856,-0.06117681786417961
217.0,-0.20019574463367462,-0.6462070345878601,1.7253901958465576,-2.5088388919830322,-1.5707013607025146,1.3725388050079346,1.1848325729370117,-0.035307709127664566,-0.06221253052353859,0.0009700246737338603,0.9975104928016663,0.014001494273543358,-0.06910761445760727
218.0,-0.18804411590099335,-0.6379713416099548,1.7107601165771484,-2.5179922580718994,-1.5785640478134155,1.3842272758483887,1.1958121061325073,-0.024167101830244064,-0.06354488432407379,0.0004923555534332991,0.9980213642120361,0.007877372205257416,-0.06237883120775223
219.0,-0.17500488460063934,-0.6378813982009888,1.7089886665344238,-2.512925148010254,-1.5863268375396729,1.397255539894104,1.1963461637496948,-0.009846009314060211,-0.06347575783729553,0.0002300547348568216,0.9978913068771362,0.003542189486324787,-0.06481008231639862
220.0,-0.17901888489723206,-0.6376121044158936,1.661341905593872,-2.314826011657715,-1.5894420146942139,-0.06482071429491043,1.1985970735549927,-0.015552656725049019,-0.0651746541261673,-0.6600440144538879,0.7381243109703064,0.10413254052400589,-0.09311719983816147
221.0,-0.18926645815372467,-0.6340945959091187,1.6428155899047852,-2.2559475898742676,-1.584827184677124,-0.041813064366579056,1.2010198831558228,-0.027616143226623535,-0.06652802228927612,-0.6454117298126221,0.7466260194778442,0.12197025865316391,-0.10543569922447205
222.0,-0.17993269860744476,-0.4803454577922821,1.2768888473510742,-1.3904953002929688,-1.6176838874816895,-0.03164074942469597,1.2500967979431152,-0.030445128679275513,-0.10463681071996689,-0.5846300721168518,0.6616044044494629,0.35186704993247986,-0.3109290897846222
223.0,-0.16158147156238556,-0.4745498299598694,1.2656381130218506,-1.372045874595642,-1.6609137058258057,-0.05901680514216423,1.2520182132720947,-0.014498956501483917,-0.10551653802394867,-0.6048288941383362,0.6383422613143921,0.3456263244152069,-0.3274807631969452
224.0,-0.12687808275222778,-0.47877758741378784,1.27366042137146,-1.3893051147460938,-1.7421047687530518,-0.1147293969988823,1.2508336305618286,0.016551321372389793,-0.10383736342191696,0.646969735622406,-0.597784698009491,-0.32124945521354675,0.34768152236938477
225.0,-0.15010018646717072,-0.6177457571029663,1.585835576057434,-2.1090965270996094,-1.6548290252685547,-0.18110854923725128,1.2111839056015015,0.007010807283222675,-0.07088577002286911,0.7070856690406799,-0.673017680644989,-0.14959007501602173,0.15716226398944855
226.0,-0.16832196712493896,-0.6429118514060974,1.703294277191162,-2.452448844909668,-1.5969082117080688,-0.1435278058052063,1.19163179397583,-0.002698746044188738,-0.06283874064683914,-0.6962749361991882,0.7120875716209412,0.06447944790124893,-0.0630476176738739
227.0,-0.15998362004756927,-0.6390862464904785,1.7089083194732666,-2.503471851348877,-1.598575472831726,1.412325143814087,1.1948602199554443,0.0064529613591730595,-0.06327448785305023,-0.00019730732310563326,0.9975540041923523,-0.0028180910740047693,-0.06984326988458633
228.0,-0.1501784324645996,-0.6379382610321045,1.7133891582489014,-2.5283079147338867,-1.6000628471374512,1.4216593503952026,1.195016622543335,0.017894349992275238,-0.0633644387125969,-0.00034263188717886806,0.9981552362442017,-0.005657709203660488,-0.06044846400618553
229.0,-0.1328403651714325,-0.6393429636955261,1.7217330932617188,-2.5460081100463867,-1.607762098312378,1.438689112663269,1.1910659074783325,0.037874482572078705,-0.06322433799505234,-0.0006239559152163565,0.9983941912651062,-0.011219772510230541,-0.0555228628218174
230.0,-0.12671858072280884,-0.6461371779441833,1.7328463792800903,-2.53367280960083,-1.6246509552001953,1.4449628591537476,1.1814210414886475,0.0437372624874115,-0.06222909316420555,-0.0012244547251611948,0.9977226257324219,-0.018868546932935715,-0.0647461786866188
231.0,-0.1392604410648346,-0.6433761119842529,1.7244865894317627,-2.526773691177368,-1.6124275922775269,1.4325920343399048,1.186892032623291,0.030116349458694458,-0.062492500990629196,-0.0007745017646811903,0.9978277683258057,-0.011929115280508995,-0.06478430330753326
232.0,-0.1355821192264557,-0.6265689730644226,1.618625521659851,-2.1976890563964844,-1.6715195178985596,-0.25718945264816284,1.2049527168273926,0.022824160754680634,-0.06856527924537659,0.7414472699165344,-0.6441440582275391,-0.12328024953603745,0.14190272986888885
233.0,-0.10610280930995941,-0.5885534286499023,1.5080572366714478,-1.9136841297149658,-1.758244514465332,-0.27906742691993713,1.2210456132888794,0.04317520558834076,-0.07862376421689987,0.7478426098823547,-0.5937551856040955,-0.18465225398540497,0.23257197439670563
234.0,-0.08648056536912918,-0.576748251914978,1.4827477931976318,-1.8466291427612305,-1.8047934770584106,-0.3077978491783142,1.222092866897583,0.05989106371998787,-0.08230637013912201,0.7599503993988037,-0.5616324543952942,-0.194455087184906,0.263119101524353
235.0,-0.06128556653857231,-0.5096836686134338,1.3467563390731812,-1.5246840715408325,-1.8888458013534546,-0.25140702724456787,1.2353041172027588,0.07723423838615417,-0.10044737905263901,0.7313694953918457,-0.5162649154663086,-0.25697776675224304,0.36404895782470703
236.0,-0.03312702476978302,-0.5123856663703918,1.3612841367721558,-1.5292080640792847,-1.9591258764266968,-0.29730677604675293,1.2260706424713135,0.10202273726463318,-0.10169506072998047,0.7537011504173279,-0.4722641110420227,-0.24268339574337006,0.3873060345649719
237.0,-0.11651952564716339,-0.6417098045349121,1.732338786125183,-2.563183546066284,-1.615095853805542,1.4547792673110962,1.185180425643921,0.05676736310124397,-0.06306304782629013,-0.0008366229594685137,0.9985491633415222,-0.016277220100164413,-0.051323819905519485
238.0,-0.10951276868581772,-0.6441197991371155,1.7401933670043945,-2.5706324577331543,-1.6200740337371826,1.4617112874984741,1.1802687644958496,0.06479135155677795,-0.06289996951818466,-0.000971485860645771,0.9985396265983582,-0.01921578124165535,-0.05048282817006111
239.0,-0.10483881831169128,-0.6487864851951599,1.7408183813095093,-2.5354082584381104,-1.6462854146957397,-0.5320502519607544,1.174454689025879,0.06682699173688889,-0.06248721852898598,0.8399286270141602,-0.53763747215271,-0.03985755145549774,0.06226779893040657
240.0,-0.1008068174123764,-0.6450772285461426,1.74741792678833,-2.586500406265259,-1.6200543642044067,1.4702869653701782,1.1767240762710571,0.07536415010690689,-0.06292728334665298,-0.0009178946493193507,0.9987590909004211,-0.020128600299358368,-0.04554492607712746
241.0,-0.10055281966924667,-0.6510462760925293,1.7617793083190918,-2.59138560295105,-1.6295008659362793,1.4705305099487305,1.1674503087997437,0.07513389736413956,-0.06199387088418007,-0.0011790117714554071,0.9985544085502625,-0.0246560238301754,-0.04774928465485573
242.0,-0.06948018819093704,-0.6408540606498718,1.681530237197876,-2.3268978595733643,-1.754171371459961,-0.5574379563331604,1.1789028644561768,0.09123918414115906,-0.06734509021043777,0.8514456748962402,-0.49687516689300537,-0.08457248657941818,0.14492347836494446
243.0,-0.09143999963998795,-0.6539376974105835,1.7786489725112915,-2.623293876647949,-1.6264101266860962,1.479486346244812,1.1591036319732666,0.08694563806056976,-0.06187641993165016,-0.0009387389291077852,0.9989620447158813,-0.024376610293984413,-0.03846985474228859
244.0,-0.0852438285946846,-0.6493741869926453,1.7664575576782227,-2.6143205165863037,-1.6230837106704712,1.4856939315795898,1.165727138519287,0.09402640908956528,-0.06281314045190811,-0.0008905703434720635,0.9989823698997498,-0.022901274263858795,-0.038847796618938446
245.0,-0.08168376237154007,-0.6558560132980347,1.7807044982910156,-2.6124136447906494,-1.640951156616211,1.4892330169677734,1.1551131010055542,0.0962558388710022,-0.06208561733365059,-0.0013988821301609278,0.9985196590423584,-0.03153321146965027,-0.0442965105175972
246.0,-0.07374259829521179,-0.6533278822898865,1.7835233211517334,-2.637528657913208,-1.624355673789978,1.4971147775650024,1.15556001663208,0.10789619386196136,-0.06272587925195694,-0.0008190156659111381,0.999138355255127,-0.024354668334126472,-0.03359971567988396
247.0,-0.06633254140615463,-0.657345712184906,1.7983192205429077,-2.653074264526367,-1.6270359754562378,1.5044876337051392,1.146268367767334,0.11660408228635788,-0.06255539506673813,-0.0008131131180562079,0.9991743564605713,-0.026098350062966347,-0.031130006536841393
248.0,-0.07175185531377792,-0.6583845019340515,1.7898144721984863,-2.6192548274993896,-1.6535041332244873,1.4990813732147217,1.1483665704727173,0.1061992347240448,-0.06222892180085182,-0.0016962222289294004,0.9982854127883911,-0.03823035955429077,-0.0442923828959465
249.0,-0.04720967262983322,-0.65720134973526,1.761505365371704,-2.5067458152770996,-1.740914225578308,-0.7834387421607971,1.148734211921692,0.12080059945583344,-0.0645555704832077,0.9105576872825623,-0.39585360884666443,-0.04748385399580002,0.10922419279813766
250.0,0.006464233156293631,-0.6180813908576965,1.6260576248168945,-2.1042308807373047,-1.9749418497085571,-0.6533492803573608,1.1672794818878174,0.1478727161884308,-0.07947765290737152,0.8758760094642639,-0.3765137791633606,-0.11918617784976959,0.27726027369499207
251.0,0.029996884986758232,-0.6222472190856934,1.6544028520584106,-2.1413824558258057,-2.035216808319092,-0.7330819964408875,1.150951862335205,0.16648298501968384,-0.08125843107700348,0.8918312788009644,-0.3238779604434967,-0.1078033596277237,0.2968476116657257
252.0,-0.05606537312269211,-0.668756902217865,1.8469398021697998,-2.7157061100006104,-1.6199309825897217,1.5146994590759277,1.1183035373687744,0.1309620887041092,-0.06183319166302681,-0.0004243780567776412,0.9995598793029785,-0.02359064295887947,-0.017981337383389473
253.0,-0.04103149473667145,-0.6650290489196777,1.8061145544052124,-2.6033520698547363,-1.7132543325424194,-0.9162296652793884,1.13010835647583,0.13284780085086823,-0.06331968307495117,0.9376765489578247,-0.33583590388298035,-0.03011517971754074,0.08408361673355103
254.0,-0.06579219549894333,-0.6631745100021362,1.8217359781265259,-2.6837408542633057,-1.6265723705291748,1.504981279373169,1.1335792541503906,0.11812691390514374,-0.06185336783528328,-0.0006473454413935542,0.9993511438369751,-0.026317734271287918,-0.02458135038614273
255.0,-0.05702221393585205,-0.6616103649139404,1.8169435262680054,-2.6770126819610596,-1.6255465745925903,1.5137661695480347,1.1349225044250488,0.1280837059020996,-0.06251061707735062,-0.0006760958931408823,0.9993239045143127,-0.025919917970895767,-0.026066390797495842
256.0,-0.05047447606921196,-0.6628279089927673,1.8243566751480103,-2.688807964324951,-1.6223175525665283,1.5203083753585815,1.1302099227905273,0.13620471954345703,-0.06266768276691437,-0.000567141454666853,0.9994316101074219,-0.024621400982141495,-0.023021401837468147
257.0,-0.04599301889538765,-0.6660817265510559,1.8371343612670898,-2.702434778213501,-1.6227481365203857,1.524781346321106,1.1221424341201782,0.14154461026191711,-0.06256069988012314,-0.0005228131776675582,0.9994685649871826,-0.025034509599208832,-0.02087259851396084
258.0,-0.050635926425457,-0.6708759069442749,1.8562517166137695,-2.7257421016693115,-1.616716742515564,1.5201340913772583,1.112075924873352,0.13780666887760162,-0.06197412684559822,-0.0003624586097430438,0.999620795249939,-0.022156018763780594,-0.016353173181414604
259.0,-0.008555839769542217,-0.6640698909759521,1.7911370992660522,-2.511463165283203,-1.8229111433029175,-0.923457682132721,1.1218538284301758,0.1529167890548706,-0.06691236793994904,0.9388863444328308,-0.30708083510398865,-0.04835296794772148,0.1478370875120163
260.0,-0.0028945263475179672,-0.6691814661026001,1.8189276456832886,-2.5664336681365967,-1.8183916807174683,-1.0058561563491821,1.1088428497314453,0.1599762737751007,-0.06629296392202377,0.9524547457695007,-0.26802489161491394,-0.03924785926938057,0.13947142660617828
261.0,-0.04055418819189072,-0.6749206185340881,1.8716355562210083,-2.7379696369171143,-1.6219602823257446,1.5302093029022217,1.1009005308151245,0.1485971361398697,-0.06213386729359627,-0.0003942502080462873,0.9995637536048889,-0.024956459179520607,-0.015790630131959915
262.0,-0.038093674927949905,-0.6707759499549866,1.8569766283035278,-2.724506139755249,-1.6204017400741577,1.532678246498108,1.1094087362289429,0.15120749175548553,-0.06255833059549332,-0.00041507670539431274,0.9995605945587158,-0.024160193279385567,-0.017172643914818764
263.0,-0.029225237667560577,-0.6769354343414307,1.8828734159469604,-2.7516417503356934,-1.6181442737579346,1.541548490524292,1.0925166606903076,0.16184154152870178,-0.06254521012306213,-0.0003082540351897478,0.9996411204338074,-0.023293131962418556,-0.013228937983512878
264.0,-0.021780868992209435,-0.6802077293395996,1.8840439319610596,-2.7238266468048096,-1.6939550638198853,1.5488805770874023,1.0866234302520752,0.15841645002365112,-0.06274960190057755,-0.001630426966585219,0.9977824687957764,-0.0609520748257637,-0.026690008118748665
265.0,-0.027057576924562454,-0.684039294719696,1.904987096786499,-2.760525703430176,-1.6523282527923584,1.543663740158081,1.076966404914856,0.15935534238815308,-0.06222094967961311,-0.0006736076320521533,0.9990474581718445,-0.04031223803758621,-0.01669383980333805
266.0,-0.024922464042901993,-0.6813420653343201,1.901387095451355,-2.770406723022461,-1.6168469190597534,1.5458532571792603,1.0805385112762451,0.16702187061309814,-0.06247358396649361,-0.00024555213167332113,0.9996827244758606,-0.022760283201932907,-0.010785199701786041
267.0,-0.02660292387008667,-0.685861349105835,1.9196772575378418,-2.7882561683654785,-1.6148290634155273,1.544171690940857,1.069562315940857,0.16581648588180542,-0.06221233680844307,-0.00019089612760581076,0.9997242093086243,-0.021788492798805237,-0.008758912794291973
268.0,-0.019011365249753,-0.6883066892623901,1.9312494993209839,-2.7994003295898438,-1.6143029928207397,1.5517691373825073,1.0609678030014038,0.17415128648281097,-0.06244005635380745,-0.00016385338676627725,0.9997377991676331,-0.021610787138342857,-0.007580030243843794
269.0,-0.010058624669909477,-0.6893032193183899,1.9282708168029785,-2.7749345302581787,-1.701028823852539,1.5606584548950195,1.0582293272018433,0.1703263372182846,-0.06286413967609406,-0.0011726703960448503,0.9977293610572815,-0.06488160043954849,-0.018032962456345558
270.0,-0.032811425626277924,-0.6939722299575806,1.9587852954864502,-2.833188056945801,-1.587448239326477,1.5379804372787476,1.0470114946365356,0.16417132318019867,-0.06188514456152916,-1.2283288924663793e-05,0.9999645948410034,-0.00828163605183363,-0.0014831434236839414
271.0,-0.015077519230544567,-0.693490743637085,1.9542217254638672,-2.82124400138855,-1.6124132871627808,1.5557066202163696,1.045757532119751,0.17883384227752686,-0.062434930354356766,-0.00011306595843052492,0.9997702836990356,-0.020726829767227173,-0.005453799851238728
272.0,-0.02271166443824768,-0.6973162889480591,1.9713008403778076,-2.8386330604553223,-1.6239622831344604,1.5480531454086304,1.036368727684021,0.1693083792924881,-0.06205089017748833,-9.746378782438114e-05,0.9996419548988342,-0.02650303952395916,-0.003676140448078513
273.0,0.07322266697883606,-0.6672609448432922,1.8955587148666382,-2.65474271774292,-2.0591278076171875,-1.2703362703323364,1.047638177871704,0.20580348372459412,-0.07440188527107239,0.9635494351387024,-0.09240450710058212,-0.023967286571860313,0.24991926550865173
274.0,0.05604095011949539,-0.6800902485847473,1.9354791641235352,-2.7380435466766357,-1.9674280881881714,-1.3459117412567139,1.032861590385437,0.1995573192834854,-0.07016485929489136,0.9766915440559387,-0.07393950968980789,-0.01521165482699871,0.20093579590320587
275.0,-0.016622042283415794,-0.7012463808059692,1.9909932613372803,-2.856778860092163,-1.6411699056625366,1.5541332960128784,1.0224556922912598,0.1731797307729721,-0.06218907609581947,-8.67258058860898e-05,0.9993792772293091,-0.03514325991272926,-0.002466247184202075
276.0,-0.014950405806303024,-0.698471188545227,1.976647973060608,-2.842517852783203,-1.609351634979248,1.5558351278305054,1.0314464569091797,0.17965249717235565,-0.062327463179826736,-6.759128154953942e-05,0.9998090863227844,-0.019225949421525,-0.003514956682920456
277.0,-0.011981954798102379,-0.7017192840576172,1.9922958612442017,-2.857104778289795,-1.6098263263702393,1.5588053464889526,1.0207760334014893,0.18276171386241913,-0.06238948181271553,-4.6142573410179466e-05,0.9998073577880859,-0.01948675699532032,-0.0023674373514950275
278.0,-0.027612797915935516,-0.7055381536483765,2.008768081665039,-2.873061180114746,-1.5873582363128662,1.5431797504425049,1.0131117105484009,0.17053833603858948,-0.06194491311907768,-5.876214345335029e-06,0.9999656081199646,-0.008264366537332535,-0.0007110058213584125
279.0,0.056518930941820145,-0.6822164058685303,1.9649832248687744,-2.800940752029419,-1.9613300561904907,-1.4333099126815796,1.0179593563079834,0.20008359849452972,-0.06974119693040848,0.9800595641136169,-0.03458947688341141,-0.006901555694639683,0.19554893672466278
280.0,0.14966869354248047,-0.6223607063293457,1.9130512475967407,-2.634615421295166,-2.425675868988037,-1.273879051208496,1.0100982189178467,0.23785731196403503,-0.0959976390004158,0.9051834344863892,-0.019713614135980606,-0.009244203567504883,0.42446303367614746
281.0,0.1451929360628128,-0.6266612410545349,1.8851293325424194,-2.5486900806427,-2.415966272354126,-1.2030967473983765,1.023444414138794,0.23613056540489197,-0.09413311630487442,0.9038556814193726,-0.043271224945783615,-0.02035396918654442,0.42515671253204346
282.0,0.13996893167495728,-0.6323692798614502,1.860344648361206,-2.4696083068847656,-2.4084999561309814,-1.1399235725402832,1.0352458953857422,0.23304709792137146,-0.08970917761325836,0.9013534188270569,-0.06468935310840607,-0.0306545440107584,0.4271271228790283
283.0,0.1375565230846405,-0.6259033679962158,1.8355300426483154,-2.4161376953125,-2.3911068439483643,-1.090204119682312,1.045277714729309,0.23369070887565613,-0.09548407793045044,0.9009830951690674,-0.08276370167732239,-0.038957659155130386,0.4241012930870056
284.0,0.12676745653152466,-0.6198909878730774,1.7759631872177124,-2.2739481925964355,-2.356639862060547,-0.9682120680809021,1.0703893899917603,0.22900986671447754,-0.09762101620435715,0.8951117992401123,-0.12860389053821564,-0.06070956960320473,0.4225521385669708
285.0,0.11597418785095215,-0.6173688173294067,1.7350327968597412,-2.1767547130584717,-2.331587076187134,-0.8872701525688171,1.087685227394104,0.22196288406848907,-0.09530188143253326,0.8886732459068298,-0.1613023579120636,-0.07665731012821198,0.4223329424858093
286.0,0.0028774174861609936,-0.6834912896156311,1.8961563110351562,-2.708238363265991,-1.7753608226776123,-1.215537428855896,1.0708013772964478,0.1727372258901596,-0.06443741172552109,0.9793534874916077,-0.1704612821340561,-0.018634812906384468,0.10706283897161484
287.0,0.05570082738995552,-0.6585614085197449,1.8083364963531494,-2.467432975769043,-2.031285285949707,-1.043624758720398,1.0900750160217285,0.19341787695884705,-0.0749555304646492,0.945838987827301,-0.19756436347961426,-0.05266976356506348,0.2521563470363617
288.0,0.10055554658174515,-0.6054073572158813,1.6743178367614746,-2.053283452987671,-2.288048267364502,-0.7800478339195251,1.1120030879974365,0.21227815747261047,-0.09698190540075302,0.8778833746910095,-0.20778171718120575,-0.09937179833650589,0.4198485016822815
289.0,0.09147317707538605,-0.6010913252830505,1.6453675031661987,-1.992952823638916,-2.2674522399902344,-0.7299216389656067,1.12351393699646,0.20547959208488464,-0.09521520882844925,0.8709853291511536,-0.23028410971164703,-0.1109348013997078,0.4195798635482788
290.0,0.07630174607038498,-0.585923433303833,1.594347596168518,-1.904734492301941,-2.223883867263794,-0.6498380303382874,1.143112301826477,0.19494497776031494,-0.0987103134393692,0.8587763905525208,-0.26954367756843567,-0.1304820477962494,0.41572073101997375
291.0,0.06573324650526047,-0.5869104862213135,1.5726587772369385,-1.8516300916671753,-2.2081143856048584,-0.6103591322898865,1.1514654159545898,0.18522006273269653,-0.0915144607424736,0.8503565788269043,-0.2880408763885498,-0.141281396150589,0.4170920252799988
292.0,0.052114784717559814,-0.5779199600219727,1.5380443334579468,-1.7904876470565796,-2.1745765209198,-0.5559045076370239,1.1642674207687378,0.1742795705795288,-0.09102848172187805,0.8387426137924194,-0.31676891446113586,-0.15648561716079712,0.41434353590011597
293.0,0.020794503390789032,-0.5491465330123901,1.4598804712295532,-1.6738793849945068,-2.0910534858703613,-0.44382163882255554,1.1925855875015259,0.14912664890289307,-0.09707193076610565,0.8092297315597534,-0.38081565499305725,-0.1904832273721695,0.40477505326271057
294.0,0.007984578609466553,-0.537368893623352,1.4306576251983643,-1.633057951927185,-2.0575149059295654,-0.4034616947174072,1.2028814554214478,0.1384383738040924,-0.0998191311955452,0.7961739897727966,-0.40499866008758545,-0.20381668210029602,0.4006766974925995
295.0,-0.009065181948244572,-0.5311135053634644,1.404241681098938,-1.586194396018982,-2.020357131958008,-0.35951414704322815,1.211655855178833,0.1229671835899353,-0.09693118929862976,0.7796894311904907,-0.43204569816589355,-0.21967655420303345,0.3964383602142334
296.0,0.031148623675107956,-0.5626925230026245,1.4873168468475342,-1.7063632011413574,-2.1226701736450195,-0.47988197207450867,1.1825385093688965,0.15700764954090118,-0.09126483649015427,0.8193746209144592,-0.3585914373397827,-0.17931677401065826,0.40973544120788574
297.0,0.061333075165748596,-0.5926546454429626,1.5686923265457153,-1.8289849758148193,-2.206289529800415,-0.5969818234443665,1.1527104377746582,0.1804056167602539,-0.08410277962684631,0.8467852473258972,-0.29333168268203735,-0.14524878561496735,0.4193018972873688
298.0,0.04803934320807457,-0.5847200155258179,1.537276029586792,-1.7737102508544922,-2.1751506328582764,-0.5480254888534546,1.1644394397735596,0.16943484544754028,-0.0831986591219902,0.8359943628311157,-0.3197747766971588,-0.15931634604930878,0.4165043234825134
299.0,0.045640453696250916,-0.5929707288742065,1.5407980680465698,-1.7637237310409546,-2.180135726928711,-0.5465332865715027,1.162967324256897,0.16592282056808472,-0.07511640340089798,0.8346999287605286,-0.3192257583141327,-0.16029644012451172,0.41913729906082153
300.0,0.06405095756053925,-0.6065276265144348,1.5884640216827393,-1.845280408859253,-2.2266077995300293,-0.6194830536842346,1.1453607082366943,0.18058907985687256,-0.07478548586368561,0.8500208854675293,-0.2804332673549652,-0.13970015943050385,0.4234448969364166
301.0,0.07659052312374115,-0.6212053894996643,1.6312944889068604,-1.915580153465271,-2.2660024166107178,-0.6846327185630798,1.1294915676116943,0.1891424059867859,-0.07067883014678955,0.8606432676315308,-0.2477218508720398,-0.12305805087089539,0.42753222584724426
302.0,0.09522800147533417,-0.6283207535743713,1.6863970756530762,-2.034254789352417,-2.307990074157715,-0.7823934555053711,1.1084613800048828,0.20359709858894348,-0.07589505612850189,0.8747283220291138,-0.20369768142700195,-0.09973009675741196,0.42826569080352783
303.0,0.0856032744050026,-0.6182878613471985,1.6487557888031006,-1.9634368419647217,-2.277867078781128,-0.7196575403213501,1.1226311922073364,0.19747191667556763,-0.07803959399461746,0.8669254779815674,-0.2320270836353302,-0.11405368894338608,0.42614009976387024
304.0,0.07415526360273361,-0.6081090569496155,1.6125155687332153,-1.8993979692459106,-2.2464656829833984,-0.6624709963798523,1.1365602016448975,0.18922246992588043,-0.07971561700105667,0.8583269119262695,-0.2601287066936493,-0.12827667593955994,0.4232648015022278
305.0,0.11790987104177475,-0.3180488646030426,1.1974655389785767,1.1701207160949707,2.3669424057006836,2.1989104747772217,1.0740221738815308,0.2185894101858139,-0.07791756093502045,0.8897371888160706,-0.13704857230186462,-0.06628623604774475,0.43033888936042786
306.0,0.10505907237529755,-0.2841803729534149,1.1344573497772217,1.2768059968948364,2.3252573013305664,2.307936191558838,1.097421407699585,0.2115691602230072,-0.0809728279709816,0.8811169862747192,-0.18171855807304382,-0.08818502724170685,0.4275916516780853
307.0,0.096222884953022,-0.2615247368812561,1.093367099761963,1.3358253240585327,2.2951467037200928,2.368788480758667,1.1120717525482178,0.20655041933059692,-0.08550601452589035,0.875141978263855,-0.20939409732818604,-0.10150665044784546,0.42423704266548157
308.0,0.08225084841251373,-0.23631082475185394,1.0433639287948608,1.4160243272781372,2.2568249702453613,2.449207067489624,1.130619764328003,0.19681066274642944,-0.08638180792331696,0.8641173243522644,-0.24649262428283691,-0.120367132127285,0.42196521162986755
309.0,0.10724145919084549,-0.27625250816345215,1.1263854503631592,1.2733532190322876,2.318298816680908,2.307647228240967,1.0984899997711182,0.2149181067943573,-0.08879439532756805,0.8824725151062012,-0.18259696662425995,-0.08783207088708878,0.42448338866233826
310.0,0.11361705511808395,-0.2956404387950897,1.1612915992736816,1.2185614109039307,2.3418567180633545,2.25105619430542,1.0860791206359863,0.21800631284713745,-0.08562325686216354,0.8871952295303345,-0.1588672399520874,-0.07635389268398285,0.4263988435268402
311.0,0.12145160138607025,-0.3081197142601013,1.189192771911621,1.1623064279556274,2.3573596477508545,2.1962227821350098,1.0744737386703491,0.22358934581279755,-0.08894207328557968,0.8919987082481384,-0.1370166540145874,-0.06540225446224213,0.42577841877937317
312.0,0.12753650546073914,-0.3338301181793213,1.2330330610275269,1.0926960706710815,2.3849058151245117,2.1228907108306885,1.0590908527374268,0.22534328699111938,-0.0832613855600357,0.8952869772911072,-0.108313649892807,-0.05190055072307587,0.4289938509464264
313.0,0.14584888517856598,-0.40757250785827637,1.3696023225784302,0.8274446129798889,2.4412732124328613,1.853641390800476,1.0080111026763916,0.23197615146636963,-0.08232467621564865,0.9023900032043457,-0.01579226367175579,-0.007535094860941172,0.4305649399757385
314.0,0.14110471308231354,-0.3909384608268738,1.3355895280838013,0.8999618291854858,2.4329559803009033,1.925117015838623,1.0213183164596558,0.22976642847061157,-0.07929103821516037,0.9009725451469421,-0.03906196728348732,-0.018716882914304733,0.4317089021205902
315.0,0.13529856503009796,-0.37190181016921997,1.297870397567749,0.9816815853118896,2.420335531234741,2.0071451663970947,1.0358991622924805,0.22692669928073883,-0.07634995132684708,0.8984435200691223,-0.06639610230922699,-0.031988877803087234,0.43285974860191345
316.0,0.12767437100410461,-0.3507694900035858,1.2562472820281982,1.0657457113265991,2.4017693996429443,2.0912139415740967,1.0522892475128174,0.22283530235290527,-0.07447883486747742,0.8950735926628113,-0.09621433913707733,-0.04653605818748474,0.432920902967453
317.0,0.13098466396331787,-0.372901052236557,1.2916297912597656,1.0080140829086304,2.4227521419525146,2.0296459197998047,1.0400651693344116,0.22262893617153168,-0.06857745349407196,0.8961737751960754,-0.07409527897834778,-0.0360470749437809,0.43598517775535583
318.0,0.13804474472999573,-0.4037632644176483,1.3472920656204224,0.8959859013557434,2.445664644241333,1.9153058528900146,1.0192763805389404,0.22498059272766113,-0.06809421628713608,0.8987462520599365,-0.036061301827430725,-0.017519451677799225,0.4366326332092285
319.0,0.14581246674060822,-0.43765416741371155,1.4134306907653809,0.7531695365905762,2.4607667922973633,1.7732242345809937,0.9940302968025208,0.22794857621192932,-0.0726558119058609,0.9003984928131104,0.008520488627254963,0.004116067662835121,0.43496349453926086
320.0,0.14929042756557465,-0.4852757155895233,1.4982478618621826,0.572595477104187,2.471595525741577,1.589640736579895,0.9646206498146057,0.2260446697473526,-0.07330808788537979,0.8981249928474426,0.06188361346721649,0.02992699295282364,0.43433433771133423
321.0,0.14821425080299377,-0.530482292175293,1.58023202419281,0.39596202969551086,2.466285467147827,1.4110685586929321,0.937821090221405,0.2214849293231964,-0.0751512348651886,0.893170177936554,0.11123653501272202,0.05385215952992439,0.43240422010421753
322.0,0.14874261617660522,-0.4556035101413727,1.4495820999145508,0.6735714673995972,2.463531732559204,1.6947821378707886,0.9805102348327637,0.22866395115852356,-0.07616274803876877,0.9006383419036865,0.03202641382813454,0.015401394106447697,0.4331139326095581
323.0,0.15167416632175446,-0.45821887254714966,1.4622187614440918,0.6381714344024658,2.459064483642578,1.662673830986023,0.9747629165649414,0.23120063543319702,-0.08286052197217941,0.9015465378761292,0.042300429195165634,0.020181929692626,0.4301362931728363
324.0,0.15213362872600555,-0.48478302359580994,1.507991075515747,0.5423468351364136,2.4635403156280518,1.5640660524368286,0.9596627354621887,0.2289101481437683,-0.08176777511835098,0.8992617726325989,0.07044576108455658,0.03371500223875046,0.43038231134414673
325.0,0.1520266979932785,-0.5130017995834351,1.5621719360351562,0.4261198043823242,2.4591128826141357,1.44796884059906,0.9414153099060059,0.2264428436756134,-0.08449260890483856,0.8962495923042297,0.10324341803789139,0.0493648499250412,0.42853307723999023
326.0,0.15141256153583527,-0.4280698895454407,1.4137650728225708,0.7296864986419678,2.446833848953247,1.7581082582473755,0.9907500743865967,0.2345888912677765,-0.08815553039312363,0.9036327600479126,0.01441924087703228,0.00682975584641099,0.42801088094711304
327.0,0.15504424273967743,-0.4717533588409424,1.4947903156280518,0.5605540871620178,2.455770969390869,1.587328553199768,0.9623622298240662,0.23299388587474823,-0.0897250771522522,0.9013150930404663,0.06526730954647064,0.030927803367376328,0.42710044980049133
328.0,0.15521050989627838,-0.49306437373161316,1.5359807014465332,0.4724830687046051,2.4533376693725586,1.4991211891174316,0.9484010338783264,0.23121647536754608,-0.09187853336334229,0.8993921279907227,0.0905647948384285,0.0428466722369194,0.4255070388317108
329.0,0.15520556271076202,-0.44649189710617065,1.4537842273712158,0.6404543519020081,2.4480907917022705,1.6707241535186768,0.9755685925483704,0.23598450422286987,-0.09361550211906433,0.9038600325584412,0.041331205517053604,0.01945166289806366,0.42538273334503174
330.0,0.13744981586933136,-0.450722873210907,1.4340685606002808,0.6856183409690857,2.336005687713623,1.712026834487915,0.987924337387085,0.23166602849960327,-0.08987491577863693,0.926611065864563,0.016565950587391853,0.006714906543493271,0.37559613585472107
331.0,0.03648073598742485,-0.5308891534805298,1.483327865600586,0.629081130027771,1.8684977293014526,1.607339859008789,0.9985561370849609,0.1922881007194519,-0.06683306396007538,0.9889280200004578,0.0007640900439582765,0.00011465603893157095,0.14839424192905426
332.0,-0.0028624366968870163,-0.553924024105072,1.5198101997375488,0.6041443943977356,1.6981861591339111,-1.573682188987732,0.9888380169868469,0.17856712639331818,-0.06282953917980194,1.2703855645668227e-05,0.9979721307754517,-0.0636526569724083,0.00019917618192266673
333.0,-0.02466847188770771,-0.5539572238922119,1.5148361921310425,0.6087944507598877,1.593380331993103,-1.5954711437225342,0.9959301948547363,0.17300263047218323,-0.061990510672330856,3.1952881727193017e-06,0.9999361038208008,-0.011302193626761436,0.0002826958952937275
334.0,-0.010790273547172546,-0.5471435189247131,1.4978262186050415,0.620409369468689,1.611029863357544,-1.5815953016281128,1.0023258924484253,0.18398918211460114,-0.062397729605436325,-7.342448952840641e-06,0.9997976422309875,-0.020112672820687294,-0.0003649919235613197
335.0,-0.01219113077968359,-0.5564183592796326,1.5222116708755493,0.6025367379188538,1.6100834608078003,-1.5829968452453613,0.9898117780685425,0.1828865110874176,-0.06236560270190239,1.9527160475263372e-05,0.9998063445091248,-0.01965589076280594,0.0009932583197951317
336.0,-0.013035094365477562,-0.5657350420951843,1.5470246076583862,0.5841909050941467,1.6093862056732178,-1.5838409662246704,0.976798951625824,0.18233023583889008,-0.06237269565463066,4.650107803172432e-05,0.9998103380203247,-0.01932670921087265,0.002405596198514104
337.0,-0.008859081193804741,-0.5673286318778992,1.5513083934783936,0.5751170516014099,1.6771382093429565,-1.5797052383422852,0.9745526313781738,0.17599573731422424,-0.06255310028791428,0.00028601809754036367,0.9985697269439697,-0.053194768726825714,0.005369117949157953
338.0,-0.019743815064430237,-0.5760437250137329,1.5744503736495972,0.5640363693237305,1.6083022356033325,-1.5905535221099854,0.9632493853569031,0.17623156309127808,-0.0622282437980175,7.16584108886309e-05,0.9998154640197754,-0.018830491229891777,0.0038047428242862225
339.0,-0.023274727165699005,-0.5820111632347107,1.590665578842163,0.5512719750404358,1.6351851224899292,-1.594118356704712,0.9550485610961914,0.16889093816280365,-0.0621212013065815,0.0001512991584604606,0.9994670748710632,-0.03230614587664604,0.004680797923356295
340.0,0.14600582420825958,-0.48448851704597473,1.509105920791626,0.5396153330802917,2.378852605819702,1.5617175102233887,0.9592342972755432,0.2314690202474594,-0.09255388379096985,0.9168169498443604,0.06994088739156723,0.029904048889875412,0.3919958472251892
341.0,0.12327306717634201,-0.5290180444717407,1.5630390644073486,0.4653347134590149,2.262463092803955,1.4590654373168945,0.9464425444602966,0.22063399851322174,-0.08478505909442902,0.9351294636726379,0.09819807857275009,0.03555276244878769,0.33856499195098877
342.0,0.0959329903125763,-0.5674504637718201,1.611101508140564,0.40994927287101746,2.1389663219451904,1.3553886413574219,0.9348175525665283,0.2084735780954361,-0.07795751094818115,0.9492282867431641,0.1323567032814026,0.03941235691308975,0.2826552987098694
343.0,-0.02934879995882511,-0.5917673110961914,1.6170138120651245,0.5321795344352722,1.6093549728393555,-1.600164771080017,0.9416322112083435,0.16749219596385956,-0.06207646057009697,0.00011905882274731994,0.9997918605804443,-0.01946559175848961,0.006115099880844355
344.0,0.003200503997504711,-0.5964043140411377,1.6263738870620728,0.4871635138988495,1.7624808549880981,1.2959816455841064,0.9368522763252258,0.1746031492948532,-0.06404215842485428,0.9858099222183228,0.13533222675323486,0.013507828116416931,0.09839601069688797
345.0,0.14364610612392426,-0.5526254773139954,1.6431926488876343,0.2662573456764221,2.386964797973633,1.2809265851974487,0.9147810339927673,0.22182631492614746,-0.09460585564374924,0.9003926515579224,0.15489041805267334,0.06892851740121841,0.4006880223751068
346.0,0.04013165459036827,-0.6082265973091125,1.6649264097213745,0.3878149688243866,1.9279813766479492,1.2224903106689453,0.9192783832550049,0.1840812861919403,-0.06912172585725784,0.9658316969871521,0.178553506731987,0.03414929285645485,0.18472036719322205
347.0,-0.027153072878718376,-0.6001145839691162,1.6399519443511963,0.5123531818389893,1.6137138605117798,-1.5979702472686768,0.9289008378982544,0.16922283172607422,-0.0623655803501606,0.0001891621941467747,0.9997265934944153,-0.021700862795114517,0.008714422583580017
348.0,-0.029499903321266174,-0.6067574620246887,1.658197045326233,0.49722281098365784,1.615512728691101,-1.6003193855285645,0.9192818403244019,0.16706044971942902,-0.0624280609190464,0.00023584795417264104,0.9996888637542725,-0.022671706974506378,0.01039950642734766
349.0,-0.03485123813152313,-0.6076967120170593,1.657219409942627,0.49127626419067383,1.6376354694366455,-1.6057121753692627,0.9220314025878906,0.1586633175611496,-0.0620991475880146,0.00046882315655238926,0.9993292093276978,-0.0339120514690876,0.013815403915941715
350.0,0.017116231843829155,-0.6256409883499146,1.6974809169769287,0.35978418588638306,1.8598217964172363,1.1139963865280151,0.9073532223701477,0.1725766658782959,-0.0673253983259201,0.9619465470314026,0.22200442850589752,0.035820122808218,0.15520881116390228
351.0,-0.051396191120147705,-0.6189213395118713,1.6921449899673462,0.4732077717781067,1.6093560457229614,-1.6222178936004639,0.9032502174377441,0.14884507656097412,-0.06196575239300728,0.0002221544273197651,0.9997400641441345,-0.019877642393112183,0.011173189617693424
352.0,-0.04739748686552048,-0.6279739737510681,1.7162671089172363,0.44661664962768555,1.6175696849822998,-1.6182188987731934,0.8901861906051636,0.1517791748046875,-0.06252581626176834,0.00040703589911572635,0.9995657205581665,-0.02420458383858204,0.01680918037891388
353.0,-0.06022050976753235,-0.6237980723381042,1.7065914869308472,0.463747501373291,1.6052614450454712,-1.6310378313064575,0.8959744572639465,0.14201709628105164,-0.061852823942899704,0.00019845481438096613,0.9997780323028564,-0.017929060384631157,0.011066433973610401
354.0,-0.06049584597349167,-0.6356269717216492,1.7348448038101196,0.4265787899494171,1.6220660209655762,-1.6313188076019287,0.8825658559799194,0.13998962938785553,-0.062217313796281815,0.0005633413675241172,0.9994184374809265,-0.02693871408700943,0.020899800583720207
355.0,-0.06546690315008163,-0.6436095833778381,1.759450078010559,0.4065694510936737,1.6170331239700317,-1.6362661123275757,0.8689373731613159,0.13731634616851807,-0.06266181915998459,0.0005577361444011331,0.9994403123855591,-0.024642257019877434,0.022620659321546555
356.0,-0.06470074504613876,-0.6455721855163574,1.754443883895874,0.39024966955184937,1.649580955505371,-1.6355552673339844,0.8758130073547363,0.13250713050365448,-0.062237005680799484,0.0013819753658026457,0.998582661151886,-0.04159025475382805,0.03318124637007713
357.0,-0.004794328939169645,-0.6563686728477478,1.7673197984695435,0.2666919529438019,1.8354030847549438,0.9286561608314514,0.8793020844459534,0.15643210709095,-0.06741160154342651,0.9409514665603638,0.2970413565635681,0.04889136552810669,0.15487541258335114
358.0,0.06483438611030579,-0.6466842293739319,1.7735247611999512,0.14719736576080322,2.0781500339508057,1.0090627670288086,0.8780067563056946,0.1833011656999588,-0.07791834324598312,0.9221961498260498,0.25974780321121216,0.07767552882432938,0.2757754623889923
359.0,0.13794244825839996,-0.6012879014015198,1.7454395294189453,0.03791588544845581,2.3972058296203613,1.0627044439315796,0.8839432597160339,0.2110636830329895,-0.09655968099832535,0.8767390251159668,0.2116951048374176,0.10136576741933823,0.41980817914009094
360.0,0.14515583217144012,-0.5776301622390747,1.6980665922164917,0.13415959477424622,2.418654441833496,1.1593804359436035,0.8976752161979675,0.21742811799049377,-0.09561316668987274,0.8832736015319824,0.18499630689620972,0.08831595629453659,0.42166867852211
361.0,0.1528172343969345,-0.5320460200309753,1.6090136766433716,0.319051593542099,2.4445297718048096,1.3444422483444214,0.924959659576416,0.2261289358139038,-0.09329481422901154,0.8934104442596436,0.13383568823337555,0.06353303045034409,0.42411008477211
362.0,0.14773236215114594,-0.5610461235046387,1.6598577499389648,0.21586012840270996,2.43424129486084,1.2389984130859375,0.9099792242050171,0.22006073594093323,-0.09143613278865814,0.8877307176589966,0.1620083749294281,0.07736297696828842,0.42391324043273926
363.0,0.14550906419754028,-0.5624479055404663,1.6471302509307861,0.25019362568855286,2.4468307495117188,1.26751708984375,0.915988564491272,0.2175799310207367,-0.08159628510475159,0.8878621459007263,0.15144389867782593,0.07305333763360977,0.4282858967781067
364.0,0.1390496790409088,-0.5945992469787598,1.7061307430267334,0.12739738821983337,2.4279587268829346,1.1430931091308594,0.8988171815872192,0.210965096950531,-0.0814114511013031,0.880478024482727,0.18491284549236298,0.08972200006246567,0.42721882462501526
365.0,0.13196498155593872,-0.6177254915237427,1.752429485321045,0.03299368917942047,2.405935049057007,1.0488084554672241,0.8853296637535095,0.20487865805625916,-0.08268130570650101,0.8741995096206665,0.21075882017612457,0.10252459347248077,0.4252583384513855
366.0,0.12104444950819016,-0.6456917524337769,1.8131837844848633,-0.0905839055776596,2.369157552719116,0.926194429397583,0.8678315877914429,0.1967175006866455,-0.08555760979652405,0.8642452359199524,0.24560348689556122,0.12001632899045944,0.4223211407661438
367.0,0.11022031307220459,-0.6648641228675842,1.8573250770568848,-0.17757026851177216,2.336062431335449,0.8397351503372192,0.8553314805030823,0.18934503197669983,-0.08764327317476273,0.8561482429504395,0.27076053619384766,0.13270899653434753,0.41962751746177673
368.0,0.12988272309303284,-0.6238917708396912,1.7794270515441895,-0.02596159093081951,2.385416030883789,0.9949789643287659,0.875724196434021,0.20389147102832794,-0.09065086394548416,0.8706956505775452,0.22826671600341797,0.11047681421041489,0.42140039801597595
369.0,0.11967497318983078,-0.6456494927406311,1.829505205154419,-0.12687988579273224,2.351684093475342,0.8949673771858215,0.8612910509109497,0.1966221034526825,-0.09358813613653183,0.8620280027389526,0.25728097558021545,0.12489593029022217,0.41846776008605957
370.0,0.10632983595132828,-0.6676751971244812,1.8797215223312378,-0.22469374537467957,2.313239574432373,0.7973635196685791,0.84730064868927,0.18766281008720398,-0.09493249654769897,0.8519740700721741,0.28566375374794006,0.1394922435283661,0.4160268306732178
371.0,0.084897480905056,-0.6806079149246216,1.9016233682632446,-0.21812686324119568,2.2282357215881348,0.763843297958374,0.8389438390731812,0.1784900426864624,-0.09449675679206848,0.8587170839309692,0.3102554678916931,0.1385905146598816,0.3835872709751129
372.0,0.017871033400297165,-0.7054567933082581,1.9047355651855469,-0.07591231912374496,1.9987825155258179,0.7130609750747681,0.8353302478790283,0.15191109478473663,-0.07926606386899948,0.8829461932182312,0.36128687858581543,0.11353474855422974,0.27746665477752686
373.0,-0.06301448494195938,-0.6871825456619263,1.8414483070373535,0.20470532774925232,1.741321325302124,0.6680668592453003,0.8467594981193542,0.1217341348528862,-0.06543020159006119,0.9084014296531677,0.39565297961235046,0.05396776646375656,0.12390754371881485
374.0,-0.07222612202167511,-0.6537379622459412,1.7747561931610107,0.3649543225765228,1.656612753868103,-1.6430665254592896,0.8667007684707642,0.12555810809135437,-0.0623696930706501,0.0017967086751013994,0.9981812238693237,-0.04580242559313774,0.039156023412942886
375.0,-0.0769134983420372,-0.6497069597244263,1.7744933366775513,0.389603853225708,1.6186261177062988,-1.6476914882659912,0.8627215623855591,0.12771070003509521,-0.062504842877388,0.0006834821542724967,0.9993165135383606,-0.02599835768342018,0.026271464303135872
