Sungjin-Park-dev/vision_inspection/data/trajectory/1158/joint_trajectory_dp.csv
time,ur20-shoulder_pan_joint,ur20-shoulder_lift_joint,ur20-elbow_joint,ur20-wrist_1_joint,ur20-wrist_2_joint,ur20-wrist_3_joint,target-POS_X,target-POS_Y,target-POS_Z,target-ROT_X,target-ROT_Y,target-ROT_Z,target-ROT_W
0.0,-0.43319880962371826,-0.5116091966629028,1.3782380819320679,0.28975722193717957,0.614184558391571,-1.0770158767700195,1.147840142250061,-0.1704833060503006,-0.04259759932756424,0.30370983481407166,0.819460928440094,0.4557552635669708,0.16891267895698547
1.0,-0.44033703207969666,-0.45619213581085205,1.2828432321548462,0.4880616366863251,0.5760827660560608,-1.2681626081466675,1.167210578918457,-0.18474358320236206,-0.04170387238264084,0.2596428394317627,0.8343110680580139,0.4643568694591522,0.14451076090335846
2.0,-0.4448164403438568,-0.4159388840198517,1.221828818321228,0.6143897771835327,0.5623906850814819,-1.393405556678772,1.178894281387329,-0.19467806816101074,-0.04635937511920929,0.23267851769924164,0.8422895669937134,0.46866580843925476,0.129466712474823
3.0,-0.4302692413330078,-0.5289120078086853,1.4175605773925781,0.21104565262794495,0.6366937160491943,-1.006127953529358,1.1383471488952637,-0.16477341949939728,-0.04841724783182144,0.32198426127433777,0.8131508231163025,0.4508265256881714,0.17851431667804718
4.0,-0.43824511766433716,-0.490058958530426,1.3523670434951782,0.3413180410861969,0.6026777029037476,-1.1340081691741943,1.1510555744171143,-0.17706963419914246,-0.050131432712078094,0.291758269071579,0.8242641091346741,0.45743778347969055,0.1619156450033188
5.0,-0.4487415850162506,-0.5679291486740112,1.742540955543518,-2.745433807373047,-0.5561246275901794,1.570826530456543,1.1956828832626343,-0.20719057321548462,-0.05374671518802643,0.19447501003742218,0.8521320223808289,0.4736713469028473,0.10810207575559616
6.0,-0.4489690959453583,-0.5573339462280273,1.771536111831665,-2.8823208808898926,-0.5607932806015015,1.6855789422988892,1.1821924448013306,-0.20140957832336426,-0.05682292580604553,0.22054366767406464,0.8461862802505493,0.4694255590438843,0.12234759330749512
7.0,-0.4505297839641571,-0.5665902495384216,1.7147021293640137,-2.637531042098999,-0.5593384504318237,1.4748709201812744,1.2052329778671265,-0.21441952884197235,-0.060135915875434875,0.17356573045253754,0.8569187521934509,0.4756910800933838,0.09634946286678314
8.0,-0.4454488456249237,-0.5651065707206726,1.609625220298767,-2.295332670211792,-0.5911825299263,1.1910618543624878,1.241117238998413,-0.22787562012672424,-0.06392902135848999,0.1035260483622551,0.8682217597961426,0.48184266686439514,0.057454533874988556
9.0,-0.4524391293525696,-0.5613256096839905,1.6923915147781372,-2.559837818145752,-0.5657669901847839,1.4030086994171143,1.211408019065857,-0.22051012516021729,-0.06865619122982025,0.15782396495342255,0.8604793548583984,0.47647610306739807,0.0873923972249031
10.0,-0.45004019141197205,-0.5634929537773132,1.6532505750656128,-2.430182695388794,-0.5751218199729919,1.298251986503601,1.2259186506271362,-0.22522538900375366,-0.06735926866531372,0.13202379643917084,0.8644959926605225,0.4794325530529022,0.07321781665086746
11.0,-0.45393165946006775,-0.5550159811973572,1.6719372272491455,-2.500380754470825,-0.5720871686935425,1.3490455150604248,1.21726655960083,-0.22592222690582275,-0.07612889260053635,0.14572718739509583,0.8629724979400635,0.4770253598690033,0.08055363595485687
12.0,-0.44844117760658264,-0.5562587976455688,1.6076769828796387,-2.3006627559661865,-0.5939121246337891,1.1886171102523804,1.2397711277008057,-0.23153257369995117,-0.07342466711997986,0.1039525717496872,0.8687097430229187,0.4808599352836609,0.05754123255610466
13.0,-0.442702054977417,-0.5552365183830261,1.562131643295288,-2.1781156063079834,-0.6124619245529175,1.09434974193573,1.2554373741149902,-0.23301726579666138,-0.06887069344520569,0.07681211084127426,0.8711479902267456,0.4831010699272156,0.04259667918086052
14.0,-0.4321545660495758,-0.5420079231262207,1.4771974086761475,-1.9847800731658936,-0.6562583446502686,0.9436864256858826,1.281661868095398,-0.23516729474067688,-0.06639032065868378,0.028842054307460785,0.8739210963249207,0.4849473536014557,0.016004741191864014
15.0,-0.4191894233226776,-0.5149510502815247,1.379002332687378,-1.8107231855392456,-0.7106306552886963,0.8109636306762695,1.311241626739502,-0.2362004518508911,-0.06810233741998672,-0.020463066175580025,0.8742132186889648,0.484978049993515,-0.01135207898914814
16.0,-0.40055033564567566,-0.4826587438583374,1.2675529718399048,-1.6347784996032715,-0.7811959385871887,0.6796661615371704,1.3430683612823486,-0.2314523160457611,-0.0653892457485199,-0.07815516740083694,0.8708410263061523,0.48336920142173767,-0.043380822986364365
17.0,-0.41035494208335876,-0.5040585398674011,1.3300201892852783,-1.7253841161727905,-0.7408385276794434,0.7484859228134155,1.325648307800293,-0.23336277902126312,-0.06373992562294006,-0.04671437665820122,0.8729450106620789,0.48488298058509827,-0.025947807356715202
18.0,-0.42294028401374817,-0.5336821675300598,1.421021580696106,-1.8710501194000244,-0.6850825548171997,0.8609801530838013,1.2995141744613647,-0.23346365988254547,-0.059750527143478394,-0.0009143751813098788,0.8737245798110962,0.48642006516456604,-0.0005090511403977871
19.0,-0.4130692780017853,-0.5212693214416504,1.365054965019226,-1.7721376419067383,-0.7184981107711792,0.7883592247962952,1.3166227340698242,-0.23077526688575745,-0.05566355586051941,-0.03036779910326004,0.8732630014419556,0.4860081076622009,-0.01690097711980343
20.0,-0.40228724479675293,-0.4982614517211914,1.2932265996932983,-1.6594661474227905,-0.764600396156311,0.7021195888519287,1.3363404273986816,-0.22915101051330566,-0.0565754696726799,-0.06745214760303497,0.8710750937461853,0.48504406213760376,-0.0375596359372139
21.0,-0.3911096751689911,-0.47407475113868713,1.2264645099639893,-1.5698999166488647,-0.8093597888946533,0.6343254446983337,1.3548452854156494,-0.22609907388687134,-0.058605343103408813,-0.10088400542736053,0.8682310581207275,0.48254889249801636,-0.05606970936059952
22.0,-0.38260123133659363,-0.45215439796447754,1.1722667217254639,-1.5029219388961792,-0.8465392589569092,0.5827860832214355,1.3689217567443848,-0.22402827441692352,-0.062084972858428955,-0.12759914994239807,0.8647778630256653,0.48047035932540894,-0.07089405506849289
23.0,-0.3601815104484558,-0.4136047959327698,1.0636354684829712,-1.3730415105819702,-0.9248570203781128,0.4882676601409912,1.3972899913787842,-0.21220235526561737,-0.059238068759441376,-0.1833222210407257,0.8547318577766418,0.4748214781284332,-0.1018393412232399
24.0,-0.38247302174568176,-0.46461519598960876,1.1869983673095703,-1.5094294548034668,-0.83757084608078,0.5913271307945251,1.365280032157898,-0.22126345336437225,-0.05291198939085007,-0.12288232892751694,0.8648870587348938,0.48185408115386963,-0.06846136599779129
25.0,-0.37211862206459045,-0.44896411895751953,1.139331579208374,-1.4497700929641724,-0.871540904045105,0.5484865307807922,1.3783869743347168,-0.2156091034412384,-0.05044998228549957,-0.1476094275712967,0.8612020611763,0.4793659448623657,-0.08216299116611481
26.0,-0.3488147556781769,-0.41070303320884705,1.0320533514022827,-1.3249480724334717,-0.9518662095069885,0.45742395520210266,1.4056316614151,-0.20207247138023376,-0.04652198404073715,-0.20371709764003754,0.8496916890144348,0.47293418645858765,-0.11338791996240616
27.0,-0.3335983455181122,-0.3863314092159271,0.9659157395362854,-1.2534873485565186,-1.004072904586792,0.4050504267215729,1.4212920665740967,-0.19214914739131927,-0.043708041310310364,-0.23880761861801147,0.8403638601303101,0.46804800629615784,-0.1330059915781021
28.0,-0.31626608967781067,-0.36011233925819397,0.897125244140625,-1.1862224340438843,-1.0599395036697388,0.3553237020969391,1.4373823404312134,-0.17951700091362,-0.040996842086315155,-0.2754662036895752,0.829339325428009,0.46133920550346375,-0.15323443710803986
29.0,-0.3455466330051422,-0.41765859723091125,1.0316787958145142,-1.312251091003418,-0.9562238454818726,0.45070919394493103,1.4054347276687622,-0.1977546513080597,-0.036964766681194305,-0.20790135860443115,0.8481705188751221,0.47321194410324097,-0.1159924790263176
30.0,-0.3665160834789276,-0.4494718909263611,1.1240724325180054,-1.4209604263305664,-0.8851360082626343,0.5297502279281616,1.3822659254074097,-0.21064633131027222,-0.042345963418483734,-0.158455029129982,0.858867883682251,0.4789872169494629,-0.08836973458528519
31.0,-0.38230404257774353,-0.47946903109550476,1.2051969766616821,-1.519636631011963,-0.826280951499939,0.6034736633300781,1.3608934879302979,-0.2178659737110138,-0.04227425158023834,-0.11668799817562103,0.8652145862579346,0.4832596480846405,-0.06517527997493744
32.0,-0.39220669865608215,-0.4927947223186493,1.253818392753601,-1.5921928882598877,-0.791688859462738,0.6562420129776001,1.348004698753357,-0.22274093329906464,-0.04692882299423218,-0.0901084840297699,0.8687320351600647,0.4844179153442383,-0.05024583265185356
33.0,-0.4009241759777069,-0.5102760195732117,1.3043254613876343,-1.6623622179031372,-0.757420003414154,0.7093086838722229,1.333905816078186,-0.2253355234861374,-0.046229250729084015,-0.06432711333036423,0.8706627488136292,0.486330509185791,-0.03593152016401291
34.0,-0.41000667214393616,-0.5287449359893799,1.3640336990356445,-1.7578926086425781,-0.7192283868789673,0.7820584177970886,1.3175784349441528,-0.22693370282649994,-0.04640067368745804,-0.03332393243908882,0.8726288676261902,0.4868908226490021,-0.018593374639749527
35.0,-0.3929092288017273,-0.5106900930404663,1.278770923614502,-1.6118890047073364,-0.7754376530647278,0.676457941532135,1.341671347618103,-0.2192121148109436,-0.03522150218486786,-0.0804005116224289,0.8689414858818054,0.4862634241580963,-0.04499247670173645
36.0,-0.4038075804710388,-0.529359757900238,1.3413352966308594,-1.7086906433105469,-0.7336872220039368,0.748954176902771,1.3243962526321411,-0.2226959764957428,-0.037340834736824036,-0.04743759706616402,0.8713940382003784,0.48756304383277893,-0.02654232084751129
37.0,-0.4133240282535553,-0.5516960620880127,1.4103221893310547,-1.822181224822998,-0.6895520687103271,0.8376645445823669,1.3054393529891968,-0.2230747938156128,-0.03499634563922882,-0.011540441773831844,0.8724076747894287,0.4885999262332916,-0.006463329773396254
38.0,-0.4181024730205536,-0.5470622777938843,1.4222232103347778,-1.854526400566101,-0.6829513907432556,0.8571881651878357,1.3010035753250122,-0.22711345553398132,-0.04434257000684738,-0.003377466695383191,0.8728885650634766,0.4879043996334076,-0.0018878479022532701
39.0,-0.4243534207344055,-0.5647920966148376,1.4806166887283325,-1.961978793144226,-0.6503843665122986,0.942048192024231,1.2843753099441528,-0.2249719500541687,-0.04088515043258667,0.026294197887182236,0.8725459575653076,0.4876026213169098,0.014693919569253922
40.0,-0.43621522188186646,-0.57809978723526,1.5741064548492432,-2.178945302963257,-0.6031122803688049,1.1102954149246216,1.2556637525558472,-0.22337287664413452,-0.045544713735580444,0.07909424602985382,0.8696451783180237,0.485297292470932,0.04413779079914093
41.0,-0.4322819411754608,-0.566749095916748,1.5244797468185425,-2.0661399364471436,-0.627324640750885,1.0189536809921265,1.27035391330719,-0.22718381881713867,-0.04901563376188278,0.05213908106088638,0.8717526197433472,0.4862951338291168,0.02908506616950035
42.0,-0.4268306493759155,-0.5525490045547485,1.4704430103302002,-1.9540331363677979,-0.6581417918205261,0.9282322525978088,1.285605788230896,-0.2297680675983429,-0.05247274041175842,0.022515777498483658,0.873291015625,0.48651671409606934,0.012543701566755772
43.0,-0.4346855580806732,-0.556760847568512,1.5175938606262207,-2.062377452850342,-0.6326621770858765,1.009535312652588,1.2708584070205688,-0.23126104474067688,-0.05889144539833069,0.050014156848192215,0.8724609613418579,0.485321044921875,0.027821214869618416
44.0,-0.4393271803855896,-0.5715914964675903,1.57943594455719,-2.201246500015259,-0.602499783039093,1.1223770380020142,1.2525265216827393,-0.22607533633708954,-0.05362313985824585,0.08335661888122559,0.869749128818512,0.4841846525669098,0.04640417918562889
45.0,-0.4440455436706543,-0.575634777545929,1.6321202516555786,-2.3499372005462646,-0.5795659422874451,1.2428401708602905,1.2359421253204346,-0.22242355346679688,-0.053776346147060394,0.11616885662078857,0.8659509420394897,0.48213115334510803,0.06467874348163605
46.0,-0.4458158016204834,-0.5785467624664307,1.6732698678970337,-2.4750077724456787,-0.5664300918579102,1.3461110591888428,1.2222867012023926,-0.21705633401870728,-0.05148947238922119,0.14178001880645752,0.862180769443512,0.4799111783504486,0.07891827821731567
47.0,-0.44251325726509094,-0.5833352208137512,1.6451612710952759,-2.3811020851135254,-0.5726835131645203,1.274078607559204,1.2332533597946167,-0.21845436096191406,-0.04586486518383026,0.12331557273864746,0.864414632320404,0.48253700137138367,0.06883770227432251
48.0,-0.4454277753829956,-0.5803856253623962,1.7249858379364014,-2.6635169982910156,-0.5541436076164246,1.5098075866699219,1.2052644491195679,-0.20729851722717285,-0.04388589411973953,0.17921850085258484,0.8547714948654175,0.47671380639076233,0.09995177388191223
49.0,-0.4428708851337433,-0.5879321694374084,1.6893372535705566,-2.52195405960083,-0.5598071217536926,1.3940023183822632,1.2192797660827637,-0.21112525463104248,-0.040343694388866425,0.15175215899944305,0.8599368929862976,0.4799038767814636,0.08468814194202423
50.0,-0.4435061812400818,-0.579437255859375,1.7545644044876099,-2.7864181995391846,-0.5536773800849915,1.6183937788009644,1.1945075988769531,-0.19964176416397095,-0.03872726857662201,0.20272165536880493,0.8494691848754883,0.473834753036499,0.11307835578918457
51.0,-0.4400690495967865,-0.5915323495864868,1.651677131652832,-2.3917338848114014,-0.568725049495697,1.289057970046997,1.2327935695648193,-0.21460846066474915,-0.03723350167274475,0.12600009143352509,0.8635599613189697,0.4831346869468689,0.07049308717250824
52.0,-0.4363420903682709,-0.588384747505188,1.604265809059143,-2.2521700859069824,-0.5879288911819458,1.1751205921173096,1.2479360103607178,-0.2184918224811554,-0.03776542842388153,0.09621725231409073,0.8675774335861206,0.48493242263793945,0.053780633956193924
53.0,-0.4286670684814453,-0.5822865962982178,1.535879373550415,-2.0744292736053467,-0.6185593008995056,1.0356489419937134,1.2692615985870361,-0.220851868391037,-0.03376208245754242,0.05599858984351158,0.8705956339836121,0.4877939522266388,0.031375959515571594
54.0,-0.4356309175491333,-0.597410261631012,1.6269992589950562,-2.309067964553833,-0.5765489935874939,1.2273094654083252,1.2423176765441895,-0.2138519585132599,-0.02970518171787262,0.10919806361198425,0.8655394911766052,0.4849473834037781,0.06118185818195343
55.0,-0.4368640184402466,-0.6013093590736389,1.6845288276672363,-2.4990108013153076,-0.5718449354171753,1.3870699405670166,1.2242375612258911,-0.20662957429885864,-0.02692926675081253,0.1472645401954651,0.8635167479515076,0.4754753112792969,0.08108778297901154
56.0,-0.40938296914100647,-0.6151725649833679,1.5871670246124268,-2.2684876918792725,-0.7356098890304565,1.2080546617507935,1.2630821466445923,-0.20423689484596252,-0.010975837707519531,0.07654865831136703,0.9039449095726013,0.4192415475845337,0.035502586513757706
57.0,-0.39334338903427124,-0.6111706495285034,1.52833092212677,-2.163361072540283,-0.814059853553772,1.1150786876678467,1.2853584289550781,-0.2010706067085266,-0.004695311188697815,0.03106590546667576,0.9184721112251282,0.39403843879699707,0.013327743858098984
58.0,-0.42016637325286865,-0.5720000863075256,1.4733901023864746,-1.9357470273971558,-0.6524904370307922,0.9283680319786072,1.287889003753662,-0.22096213698387146,-0.030467048287391663,0.020865950733423233,0.8720693588256836,0.4887973368167877,0.011695425026118755
59.0,-0.4029121398925781,-0.539662778377533,1.352481722831726,-1.7160226106643677,-0.7264260053634644,0.7588465213775635,1.3218653202056885,-0.219534233212471,-0.0290725976228714,-0.043586891144514084,0.8711509108543396,0.48846596479415894,-0.024439750239253044
60.0,-0.3740142583847046,-0.6122821569442749,1.4924914836883545,-2.1280527114868164,-0.9086624979972839,1.0722975730895996,1.3014917373657227,-0.1929841935634613,0.004029124975204468,-0.005899716634303331,0.934836745262146,0.35502174496650696,-0.002240527421236038
61.0,-0.36668768525123596,-0.5963013172149658,1.4359935522079468,-2.024390459060669,-0.9305353164672852,0.9733154773712158,1.3193955421447754,-0.19266554713249207,0.0032964348793029785,-0.047288112342357635,0.932317852973938,0.3580746352672577,-0.018161911517381668
62.0,-0.3429197371006012,-0.6011304259300232,1.4197708368301392,-2.045435905456543,-1.0364751815795898,0.957748293876648,1.3314329385757446,-0.17849276959896088,0.012978345155715942,-0.08318854868412018,0.9477218389511108,0.30688366293907166,-0.026937449350953102
63.0,-0.32301583886146545,-0.5956372618675232,1.386535882949829,-2.022965669631958,-1.1135010719299316,0.8973143100738525,1.3468592166900635,-0.16704271733760834,0.018305808305740356,-0.12975089251995087,0.9519967436790466,0.2747090458869934,-0.03744104132056236
64.0,-0.30319127440452576,-0.5651988983154297,1.2960286140441895,-1.892566204071045,-1.168256163597107,0.7348430156707764,1.3762563467025757,-0.1566000133752823,0.017960160970687866,-0.21338003873825073,0.9362416863441467,0.27216365933418274,-0.0620291568338871
65.0,-0.27597400546073914,-0.582743763923645,1.3261724710464478,-2.0020711421966553,-1.2779791355133057,0.7297540307044983,1.3777506351470947,-0.13498426973819733,0.02796199917793274,-0.2506770193576813,0.944851279258728,0.20370624959468842,-0.05404498800635338
66.0,-0.27252933382987976,-0.6202387809753418,1.4274834394454956,-2.191849708557129,-1.327652096748352,0.9068640470504761,1.3490192890167236,-0.12975339591503143,0.03425595164299011,-0.18112514913082123,0.9716475605964661,0.14939595758914948,-0.027848947793245316
67.0,-0.2845863997936249,-0.6265983581542969,1.4495986700057983,-2.211709499359131,-1.2890877723693848,0.98580002784729,1.3388416767120361,-0.13753066956996918,0.03288149833679199,-0.13492503762245178,0.9768039584159851,0.16471680998802185,-0.0227521825581789
68.0,-0.2998456060886383,-0.6310431361198425,1.4687062501907349,-2.2187187671661377,-1.2347992658615112,1.0433565378189087,1.3284344673156738,-0.14707091450691223,0.030283570289611816,-0.0957125723361969,0.9769383668899536,0.18995855748653412,-0.01861061528325081
69.0,-0.32698795199394226,-0.6325516700744629,1.4927101135253906,-2.2190792560577393,-1.126777172088623,1.10655677318573,1.3141274452209473,-0.16346563398838043,0.023881301283836365,-0.043285951018333435,0.9693017601966858,0.24179306626319885,-0.01079771388322115
70.0,-0.3278040885925293,-0.6479689478874207,1.5417510271072388,-2.3113906383514404,-1.1366021633148193,1.2190412282943726,1.297327995300293,-0.16031990945339203,0.025942444801330566,0.004820804577320814,0.9737913608551025,0.22738932073116302,0.0011257027508690953
71.0,-0.28417715430259705,-0.6698391437530518,1.5832151174545288,-2.434739589691162,-1.333844780921936,1.3630796670913696,1.2881895303726196,-0.12912514805793762,0.03698648512363434,0.04086045175790787,0.9918496608734131,0.12058188021183014,0.004967516753822565
72.0,-0.27343639731407166,-0.6809775829315186,1.6162495613098145,-2.491643190383911,-1.3821933269500732,1.4940026998519897,1.2746930122375488,-0.1187010332942009,0.03869962692260742,0.09840021282434464,0.990656316280365,0.09397029131650925,0.00933391135185957
73.0,-0.3344970941543579,-0.6710331439971924,1.6362900733947754,-2.4867048263549805,-1.122463345527649,1.4573464393615723,1.261228322982788,-0.15474720299243927,0.0264146625995636,0.1129571944475174,0.9681310057640076,0.22201810777187347,0.025904078036546707
74.0,-0.3329833447933197,-0.6568530797958374,1.5781583786010742,-2.3740975856781006,-1.1208652257919312,1.3046624660491943,1.283311367034912,-0.16015997529029846,0.02559870481491089,0.04566651210188866,0.9721224308013916,0.22973059117794037,0.010791845619678497
75.0,-0.36624038219451904,-0.6478685140609741,1.6008819341659546,-2.3795342445373535,-0.9685397744178772,1.3197476863861084,1.269245982170105,-0.17791451513767242,0.01376160979270935,0.07617276161909103,0.9497087597846985,0.30275654792785645,0.024283023551106453
76.0,-0.3900544345378876,-0.640842080116272,1.6355427503585815,-2.4280173778533936,-0.8523263931274414,1.3636248111724854,1.2524864673614502,-0.18778318166732788,0.0036848783493041992,0.10932938009500504,0.9278483390808105,0.35412371158599854,0.04172677546739578
77.0,-0.3667362332344055,-0.6659901142120361,1.7026804685592651,-2.616471767425537,-0.9742626547813416,1.5867892503738403,1.2319424152374268,-0.16503003239631653,0.015452593564987183,0.18050304055213928,0.9386404752731323,0.2886045277118683,0.05549940839409828
78.0,-0.3119966983795166,-0.687011182308197,1.6760364770889282,-2.5784525871276855,-1.222569465637207,1.6253477334976196,1.2473845481872559,-0.13580068945884705,0.03213757276535034,0.17789971828460693,0.9686380624771118,0.17061665654182434,0.031335391104221344
79.0,-0.3193759024143219,-0.6920398473739624,1.7181742191314697,-2.6584739685058594,-1.187531590461731,1.7341128587722778,1.2291393280029297,-0.13399316370487213,0.030054345726966858,0.22883376479148865,0.9541915655136108,0.18743784725666046,0.04495125263929367
80.0,-0.34803709387779236,-0.6818241477012634,1.7612508535385132,-2.7609782218933105,-1.056597352027893,1.7931687831878662,1.2095863819122314,-0.1442941129207611,0.021139085292816162,0.25818368792533875,0.9306005239486694,0.2500244677066803,0.0693662166595459
81.0,-0.3494386672973633,-0.6792051792144775,1.7967174053192139,-2.8615005016326904,-1.0422214269638062,1.9047099351882935,1.1944564580917358,-0.1385030299425125,0.018878251314163208,0.30093449354171753,0.913642406463623,0.25958681106567383,0.08550240099430084
82.0,-0.3385826647281647,-0.68429034948349,1.8182141780853271,-2.9145076274871826,-1.0821785926818848,1.996636152267456,1.1853728294372559,-0.1275334656238556,0.02084772288799286,0.3364101052284241,0.9047871828079224,0.24475832283496857,0.0910039097070694
83.0,-0.36033496260643005,-0.6521490216255188,1.8651913404464722,-3.115267276763916,-0.9692950248718262,2.1171629428863525,1.161237120628357,-0.1294349730014801,0.008421719074249268,0.36866044998168945,0.8682730197906494,0.3055497407913208,0.12973351776599884
84.0,-0.38656699657440186,-0.6545885801315308,1.7447154521942139,-2.7221124172210693,-0.8747538924217224,1.6660577058792114,1.2124857902526855,-0.1697084903717041,0.006541520357131958,0.21405087411403656,0.914962887763977,0.33309563994407654,0.07792602479457855
85.0,-0.41529300808906555,-0.6268287301063538,1.7229604721069336,-2.6531035900115967,-0.7152643203735352,1.5524846315383911,1.2160770893096924,-0.18923752009868622,-0.009593084454536438,0.18222886323928833,0.8914425373077393,0.4064711034297943,0.0830909013748169
86.0,-0.41067469120025635,-0.4541347026824951,1.2059396505355835,0.6820761561393738,0.7391611337661743,-1.3864834308624268,1.1923353672027588,-0.17557990550994873,-0.007942110300064087,0.24110138416290283,0.8806543350219727,0.39334622025489807,0.10768847167491913
87.0,-0.4116859436035156,-0.48861441016197205,1.273577094078064,0.5496141314506531,0.7267338633537292,-1.2591986656188965,1.1765879392623901,-0.1685875803232193,-0.011074602603912354,0.2753729522228241,0.8643843531608582,0.4008740782737732,0.1277092546224594
88.0,-0.41192302107810974,-0.5274206399917603,1.3525066375732422,0.38785186409950256,0.7148330211639404,-1.111013650894165,1.1584827899932861,-0.15965095162391663,-0.01569031924009323,0.31101202964782715,0.8427658081054688,0.4121667146682739,0.15210489928722382
89.0,-0.44071537256240845,-0.380831241607666,1.1423646211624146,0.7911604642868042,0.5507864356040955,-1.5495530366897583,1.1998974084854126,-0.19833019375801086,-0.02975204586982727,0.19548825919628143,0.8505411744117737,0.47581928968429565,0.10936224460601807
90.0,-0.44058841466903687,-0.4286668002605438,1.226696252822876,0.6076767444610596,0.5609656572341919,-1.376516342163086,1.1807864904403687,-0.1900714933872223,-0.03428993374109268,0.2343590408563614,0.8411072492599487,0.4695703685283661,0.13083712756633759
91.0,-0.4337450861930847,-0.4915325939655304,1.3274109363555908,0.3954932391643524,0.5911898612976074,-1.1686997413635254,1.1609382629394531,-0.17500361800193787,-0.03159801661968231,0.28037670254707336,0.8271422982215881,0.4612770974636078,0.15635927021503448
92.0,-0.4281022846698761,-0.5286656022071838,1.3941960334777832,0.2586499750614166,0.6231741309165955,-1.0379537343978882,1.1470264196395874,-0.16475437581539154,-0.03380708396434784,0.3114629089832306,0.8161963820457458,0.4546568989753723,0.17349837720394135
93.0,-0.41685059666633606,-0.5707871317863464,1.4584962129592896,0.13084904849529266,0.667909562587738,-0.9053704142570496,1.136065125465393,-0.15073728561401367,-0.02809351682662964,0.3440070152282715,0.8033057451248169,0.44691237807273865,0.1913853883743286
94.0,-0.3928042948246002,-0.6087732315063477,1.5056531429290771,0.07706905901432037,0.7854877710342407,-0.8052467703819275,1.127029299736023,-0.13130879402160645,-0.019933655858039856,0.38917624950408936,0.8006225228309631,0.4097297191619873,0.19916638731956482
95.0,-0.36095404624938965,-0.6344858407974243,1.520792007446289,0.10002037137746811,0.9269862174987793,-0.7368332743644714,1.1236552000045776,-0.11032934486865997,-0.008112624287605286,0.43566638231277466,0.8023212552070618,0.3585619330406189,0.19470179080963135
96.0,-0.33225110173225403,-0.6046333312988281,1.4131488800048828,0.3593435287475586,1.069554328918457,-0.8451600074768066,1.1474674940109253,-0.1048629954457283,0.012324526906013489,0.43612295389175415,0.844495415687561,0.2761889100074768,0.14263230562210083
97.0,-0.318858802318573,-0.6395851373672485,1.4844403266906738,0.22464051842689514,1.1003080606460571,-0.6911318302154541,1.1311572790145874,-0.08809150755405426,0.008652478456497192,0.48361992835998535,0.8105238080024719,0.28372928500175476,0.16929440200328827
98.0,-0.30155202746391296,-0.6517946720123291,1.500886082649231,0.20181024074554443,1.1561332941055298,-0.6132845878601074,1.1272072792053223,-0.07500319182872772,0.010478347539901733,0.5140335559844971,0.7955690622329712,0.269353449344635,0.17403480410575867
99.0,-0.27081984281539917,-0.5972464084625244,1.3574285507202148,0.49711495637893677,1.2962346076965332,-0.6964952945709229,1.1587295532226562,-0.06969055533409119,0.028539612889289856,0.5121525526046753,0.8339754343032837,0.17502155900001526,0.10748247057199478
100.0,-0.2501484751701355,-0.6072172522544861,1.371898889541626,0.4774574041366577,1.3513742685317993,-0.5680835843086243,1.1544275283813477,-0.052834652364254,0.02970196306705475,0.5603711009025574,0.8049073815345764,0.16021117568016052,0.11153795570135117
101.0,-0.21865077316761017,-0.6214827299118042,1.3950012922286987,0.4383947551250458,1.4279526472091675,-0.3627035617828369,1.1482042074203491,-0.026730641722679138,0.03013184666633606,0.6326075792312622,0.7504563927650452,0.1463204026222229,0.12334281951189041
102.0,-0.2619720995426178,-0.6560099720954895,1.4871249198913574,0.24804769456386566,1.2856322526931763,-0.48371559381484985,1.1293641328811646,-0.04978092014789581,0.01807476580142975,0.5725996494293213,0.77143394947052,0.222844660282135,0.16540728509426117
103.0,-0.25050073862075806,-0.6824085712432861,1.550097942352295,0.11251591891050339,1.3082658052444458,-0.36934781074523926,1.1164997816085815,-0.036874301731586456,0.01157456636428833,0.6011792421340942,0.7346152663230896,0.24340541660785675,0.1991930902004242
104.0,-0.22468023002147675,-0.6762645840644836,1.5237239599227905,0.17271903157234192,1.3903602361679077,-0.2843766212463379,1.121618628501892,-0.02174677699804306,0.016869783401489258,0.6393557190895081,0.7144280672073364,0.2118401974439621,0.18957996368408203
105.0,-0.18244707584381104,-0.6249293684959412,1.3967210054397583,0.4255886673927307,1.5423511266708374,-0.07246483117341995,1.1477833986282349,-0.0029096687212586403,0.030673399567604065,0.7301216125488281,0.6574780941009521,0.12455416470766068,0.13831591606140137
106.0,-0.19025307893753052,-0.6841748356819153,1.537166714668274,0.13409413397312164,1.506001353263855,-0.09772135317325592,1.1192909479141235,-0.0006877356208860874,0.015943288803100586,0.7011502385139465,0.6517090797424316,0.19692234694957733,0.21186164021492004
107.0,-0.15158680081367493,-0.6759834885597229,1.5189940929412842,0.15446406602859497,1.6369963884353638,0.10209903866052628,1.1229861974716187,0.021460162475705147,0.01578730344772339,0.7639151215553284,0.5792801976203918,0.17182587087154388,0.22659221291542053
108.0,-0.1035996824502945,-0.639488160610199,1.4470715522766113,0.27273210883140564,1.7983508110046387,0.39971670508384705,1.13682222366333,0.04888883978128433,0.016517609357833862,0.8437747955322266,0.46661272644996643,0.12832704186439514,0.23205353319644928
109.0,-0.09625492990016937,-0.5772536993026733,1.31580650806427,0.530097484588623,1.820822834968567,0.6709700226783752,1.163870096206665,0.05120331048965454,0.026007801294326782,0.9101190567016602,0.36632028222084045,0.0722990408539772,0.17962628602981567
110.0,-0.12621542811393738,-0.6089752912521362,1.36990487575531,0.44712159037590027,1.7302014827728271,0.39611324667930603,1.1530390977859497,0.0316140353679657,0.027923107147216797,0.8559930324554443,0.47834351658821106,0.0956711545586586,0.17120298743247986
111.0,-0.10697560757398605,-0.5314100980758667,1.2230925559997559,0.7091604471206665,1.7994047403335571,0.9226738214492798,1.1837875843048096,0.039865054190158844,0.03326478600502014,0.9564626216888428,0.25525349378585815,0.036487944424152374,0.1367242932319641
112.0,-0.10063392668962479,-0.48311570286750793,1.1342617273330688,0.8467764258384705,1.8160321712493896,1.2787061929702759,1.2053513526916504,0.042659468948841095,0.03418546915054321,0.9877179265022278,0.09036609530448914,0.011613239534199238,0.12693482637405396
113.0,-0.08807621896266937,-0.4791311025619507,1.1326242685317993,0.8483437299728394,1.8251264095306396,1.3028744459152222,1.2045000791549683,0.05644666403532028,0.030708014965057373,0.9877232313156128,0.08466937392950058,0.011212329380214214,0.1307990998029709
114.0,-0.09242896735668182,-0.4721314311027527,1.1143531799316406,0.8618307113647461,1.8214821815490723,1.3075929880142212,1.2121280431747437,0.05106472969055176,0.03208276629447937,0.9883455038070679,0.08041125535964966,0.010481595993041992,0.1288307011127472
115.0,-0.09163675457239151,-0.46077361702919006,1.089343547821045,0.8804154992103577,1.8209431171417236,1.3258055448532104,1.2215765714645386,0.051233865320682526,0.03206107020378113,0.9890961050987244,0.07212378829717636,0.009338140487670898,0.12806202471256256
116.0,-0.1002485528588295,-0.4653753340244293,1.094696283340454,0.8763648867607117,1.8152759075164795,1.3076667785644531,1.2205108404159546,0.041711270809173584,0.034460604190826416,0.9890469908714294,0.0767449140548706,0.009753860533237457,0.12570250034332275
117.0,-0.124592125415802,-0.48752927780151367,1.1343193054199219,0.8551365733146667,1.7400431632995605,1.1821138858795166,1.2071220874786377,0.02519591525197029,0.038267120718955994,0.9875450134277344,0.12822823226451874,0.011739768087863922,0.09041338413953781
118.0,-0.13661257922649384,-0.5267478227615356,1.2068192958831787,0.7562305927276611,1.7016481161117554,0.7672187089920044,1.1880792379379272,0.01924423687160015,0.03844693303108215,0.9421934485435486,0.3217458724975586,0.030231215059757233,0.08852841705083847
119.0,-0.14442087709903717,-0.4842815697193146,1.1223777532577515,0.872594952583313,1.6729694604873657,-1.7158334255218506,1.212587594985962,0.010860334150493145,0.04077373445034027,0.0012268375139683485,0.9982449412345886,-0.054835643619298935,0.02233373001217842
120.0,-0.1341918706893921,-0.4713743031024933,1.0956382751464844,0.8886663913726807,1.7033694982528687,1.1577539443969727,1.2223622798919678,0.0172194205224514,0.039915531873703,0.9879739284515381,0.1367131471633911,0.009900502860546112,0.07154717296361923
121.0,-0.1618955433368683,-0.7166317701339722,1.720114827156067,-2.620631694793701,-1.6119792461395264,1.4088871479034424,1.2234009504318237,-0.0025856252759695053,0.04133369028568268,0.0004703568120021373,0.9995195269584656,-0.02405007742345333,0.019547995179891586
122.0,-0.17662708461284637,-0.7249822020530701,1.7414419651031494,-2.632701873779297,-1.5682880878448486,1.3943507671356201,1.2117295265197754,-0.011708321049809456,0.04143106937408447,6.22682273387909e-05,0.9997411370277405,-0.0027559776790440083,0.022588031366467476
123.0,-0.1737140715122223,-0.7305362224578857,1.7599788904190063,-2.653456449508667,-1.5817897319793701,1.397295594215393,1.2014262676239014,-0.008480454795062542,0.04138264060020447,0.000252852332778275,0.9996309876441956,-0.010007847100496292,0.025256086140871048
124.0,-0.19459016621112823,-0.7309893369674683,1.8189880847930908,-2.816470146179199,-1.513993501663208,2.798633575439453,1.180227518081665,-0.018809068948030472,0.039241090416908264,0.6487694978713989,0.7563723921775818,0.06350035965442657,0.05446669086813927
125.0,-0.21047984063625336,-0.7282032370567322,1.8359711170196533,-2.8721814155578613,-1.4762765169143677,2.692979574203491,1.174286127090454,-0.030451979488134384,0.03792572021484375,0.6109358072280884,0.7843626141548157,0.08472335338592529,0.06599055975675583
126.0,-0.1908128559589386,-0.7305967807769775,1.7571183443069458,-2.6436448097229004,-1.5487072467803955,1.3801746368408203,1.2028388977050781,-0.024157265201210976,0.041400179266929626,-0.00016024788783397526,0.9996708035469055,0.006450878456234932,0.024833068251609802
127.0,-0.21169741451740265,-0.7298393845558167,1.8047627210617065,-2.782684803009033,-1.492046594619751,2.622941493988037,1.186669111251831,-0.037030745297670364,0.03947678208351135,0.5866813063621521,0.8059698939323425,0.06375062465667725,0.046405330300331116
128.0,-0.20156680047512054,-0.7279017567634583,1.7481293678283691,-2.6332507133483887,-1.5418397188186646,1.3693711757659912,1.2074832916259766,-0.03702601045370102,0.04140155017375946,-0.00023485500423703343,0.9996723532676697,0.009956921450793743,0.02357937954366207
129.0,-0.23124416172504425,-0.7268035411834717,1.8096439838409424,-2.807180881500244,-1.4473384618759155,2.4694788455963135,1.186017632484436,-0.05323779582977295,0.0384693443775177,0.5287950038909912,0.8430495858192444,0.08318950980901718,0.05217985063791275
130.0,-0.21066397428512573,-0.7261670231819153,1.7463576793670654,-2.6386349201202393,-1.5303682088851929,1.3602815866470337,1.209236741065979,-0.04665769636631012,0.041259974241256714,-0.00040691893082112074,0.9995120167732239,0.014781970530748367,0.02751462161540985
131.0,-0.20996885001659393,-0.7163792252540588,1.7128642797470093,-2.598917007446289,-1.5397865772247314,1.360874056816101,1.2263948917388916,-0.050951793789863586,0.041437238454818726,-0.0002219325688201934,0.9997547268867493,0.011865918524563313,0.01869877427816391
132.0,-0.21854566037654877,-0.7223979830741882,1.7338169813156128,-2.6240174770355225,-1.52456533908844,1.3523002862930298,1.215590238571167,-0.056771740317344666,0.041262924671173096,-0.00045828684233129025,0.9995145201683044,0.018029319122433662,0.02540663443505764
133.0,-0.2408595234155655,-0.7247607111930847,1.7967056035995483,-2.780947685241699,-1.4309711456298828,2.3552005290985107,1.1920177936553955,-0.06367413699626923,0.0384821891784668,0.483903169631958,0.8696187734603882,0.08562110364437103,0.04764424264431
134.0,-0.2803449034690857,-0.7064675688743591,1.8567276000976562,-2.9860687255859375,-1.2785546779632568,2.326348304748535,1.1688090562820435,-0.08110705018043518,0.0297841876745224,0.46881529688835144,0.8615667223930359,0.17103616893291473,0.09306808561086655
135.0,-0.2609921395778656,-0.7193077206611633,1.7889591455459595,-2.7793915271759033,-1.3795721530914307,2.2051408290863037,1.1968483924865723,-0.08125932514667511,0.037181854248046875,0.42387449741363525,0.898045539855957,0.10640599578619003,0.050223276019096375
136.0,-0.2952800691127777,-0.7065879106521606,1.807376503944397,-2.856152057647705,-1.2552542686462402,2.112382650375366,1.190985083580017,-0.1021215170621872,0.03130796551704407,0.38634559512138367,0.9044216275215149,0.16644351184368134,0.07110036909580231
137.0,-0.2243981510400772,-0.717613697052002,1.7171380519866943,-2.603097915649414,-1.5233850479125977,1.3463478088378906,1.2237612009048462,-0.06564388424158096,0.04132567346096039,-0.00041363350464962423,0.9995847940444946,0.019459884613752365,0.021246876567602158
138.0,-0.24096108973026276,-0.7147719860076904,1.722238302230835,-2.632833957672119,-1.4756492376327515,1.3294258117675781,1.2241649627685547,-0.07874589413404465,0.040506839752197266,-0.0015018145786598325,0.9984965324401855,0.039653562009334564,0.03781643882393837
139.0,-0.2909325957298279,-0.7087002992630005,1.7725756168365479,-2.7635915279388428,-1.2856875658035278,2.0026931762695312,1.2055248022079468,-0.10584906488656998,0.0339072048664093,0.34072381258010864,0.9272221922874451,0.14591532945632935,0.05361910164356232
140.0,-0.2736815810203552,-0.7088871598243713,1.727654218673706,-2.6624505519866943,-1.3665887117385864,1.91640305519104,1.2242403030395508,-0.10240563005208969,0.03790035843849182,0.2993943393230438,0.9479842185974121,0.103096142411232,0.03256003558635712
141.0,-0.2647954225540161,-0.7030832767486572,1.6932018995285034,-2.6048178672790527,-1.4087183475494385,1.8365949392318726,1.2396548986434937,-0.10209134966135025,0.039246708154678345,0.2595577538013458,0.962081789970398,0.08094175159931183,0.021837085485458374
142.0,-0.23113906383514404,-0.7075991630554199,1.685498833656311,-2.5688769817352295,-1.5234190225601196,1.3395024538040161,1.2397587299346924,-0.0777726024389267,0.041399210691452026,-0.00031637278152629733,0.999668538570404,0.020743289962410927,0.015246756374835968
143.0,-0.21528995037078857,-0.6957213282585144,1.6526904106140137,-2.5442514419555664,-1.5479910373687744,1.3554975986480713,1.25820791721344,-0.06579210609197617,0.041501447558403015,-9.836567187448964e-05,0.9999011158943176,0.009377911686897278,0.01048804260790348
144.0,-0.220503032207489,-0.704022228717804,1.6760872602462769,-2.563750982284546,-1.5381876230239868,1.3502589464187622,1.245509386062622,-0.06803510338068008,0.04146254062652588,-0.00018744604312814772,0.9998125433921814,0.013623618520796299,0.013756325468420982
145.0,-0.2131025195121765,-0.7065266966819763,1.6837797164916992,-2.572053909301758,-1.5426517724990845,1.3577016592025757,1.2418667078018188,-0.058630552142858505,0.0414697527885437,-0.0001649389450903982,0.9998289942741394,0.01121446117758751,0.01470518670976162
146.0,-0.20735253393650055,-0.7103630900382996,1.6952402591705322,-2.5832319259643555,-1.5442408323287964,1.3634803295135498,1.2360310554504395,-0.050445083528757095,0.04146462678909302,-0.00016470742411911488,0.9998169541358948,0.010155605152249336,0.016215408220887184
147.0,-0.20444561541080475,-0.702208936214447,1.6716350317001343,-2.562253713607788,-1.5497033596038818,1.366373896598816,1.2487938404083252,-0.050329312682151794,0.041493967175483704,-0.00010458486940478906,0.9998838305473328,0.008089914917945862,0.012926309369504452
148.0,-0.19658732414245605,-0.7042262554168701,1.677738904953003,-2.568570613861084,-1.5525914430618286,1.3742505311965942,1.24587881565094,-0.040317144244909286,0.04149499535560608,-8.967554458649829e-05,0.999885082244873,0.0065573398023843765,0.013674029149115086
149.0,-0.18760113418102264,-0.6952728629112244,1.652279257774353,-2.5465354919433594,-1.560899019241333,1.3832248449325562,1.2597320079803467,-0.03299515321850777,0.041520312428474426,-3.15391989715863e-05,0.9999439120292664,0.00311492127366364,0.010124631226062775
150.0,-0.1957474648952484,-0.6953318119049072,1.6521912813186646,-2.5457088947296143,-1.5572724342346191,1.3750717639923096,1.2594832181930542,-0.04269795119762421,0.04151745140552521,-4.959733269060962e-05,0.9999364018440247,0.00487700616940856,0.010168980807065964
151.0,-0.20389501750469208,-0.6938837766647339,1.6478211879730225,-2.541060447692871,-1.554205060005188,1.36691153049469,1.261418104171753,-0.05295553430914879,0.041515201330184937,-6.259774090722203e-05,0.9999322891235352,0.006470565218478441,0.00967357400804758
152.0,-0.19695132970809937,-0.686716616153717,1.6278135776519775,-2.5240957736968994,-1.5615695714950562,1.373855471611023,1.2722269296646118,-0.04744355008006096,0.041532427072525024,-2.2932365027372725e-05,0.9999707341194153,0.0033302372321486473,0.006885904353111982
153.0,-0.20230185985565186,-0.6825835108757019,1.6161199808120728,-2.5134401321411133,-1.5615699291229248,1.368497610092163,1.2780492305755615,-0.05549997091293335,0.041535764932632446,-1.9418224837863818e-05,0.9999790787696838,0.0036041114944964647,0.005387686658650637
154.0,-0.19713126122951508,-0.6749311089515686,1.5949265956878662,-2.4950478076934814,-1.5665290355682373,1.3736658096313477,1.2892392873764038,-0.05185229331254959,0.041543006896972656,-4.196637746645138e-06,0.9999954700469971,0.001675539999268949,0.0025046365335583687
155.0,-0.2008366584777832,-0.6694985628128052,1.5800718069076538,-2.482382297515869,-1.5697733163833618,1.3699597120285034,1.296640396118164,-0.05868757143616676,0.04154488444328308,-2.39396655388191e-07,0.9999997615814209,0.00040018968866206706,0.0005982076982036233
156.0,-0.20809990167617798,-0.679689347743988,1.6079745292663574,-2.5060367584228516,-1.5613176822662354,1.3626950979232788,1.2819321155548096,-0.06376178562641144,0.04153740406036377,-1.717017039482016e-05,0.9999827146530151,0.003918545786291361,0.004381696227937937
157.0,-0.20854926109313965,-0.6891482472419739,1.634304404258728,-2.5287392139434814,-1.554837703704834,1.3622465133666992,1.2682487964630127,-0.0604262501001358,0.04152199625968933,-5.125764073454775e-05,0.999947726726532,0.006482541561126709,0.007906614802777767
158.0,-0.21550630033016205,-0.6867894530296326,1.627471923828125,-2.522092342376709,-1.552898645401001,1.3552770614624023,1.2713764905929565,-0.0697251483798027,0.04152119159698486,-5.399180736276321e-05,0.999945878982544,0.0076067796908319,0.007097469177097082
159.0,-0.22576451301574707,-0.6916148066520691,1.6403454542160034,-2.5310425758361816,-1.5403428077697754,1.3449627161026,1.2639517784118652,-0.07925042510032654,0.0414867103099823,-0.00012223988596815616,0.9998674988746643,0.013550479896366596,0.009019879624247551
160.0,-0.24217605590820312,-0.6973260641098022,1.6579899787902832,-2.5463554859161377,-1.4990814924240112,1.3281079530715942,1.2545515298843384,-0.09147447347640991,0.0411149263381958,-0.0005229943199083209,0.9993293881416321,0.033013638108968735,0.01583114080131054
161.0,-0.2558062970638275,-0.690133810043335,1.6407430171966553,-2.5302765369415283,-1.4510363340377808,1.3133032321929932,1.2637873888015747,-0.10371043533086777,0.040314361453056335,-0.0011072917841374874,0.9981973171234131,0.05675964057445526,0.01947326771914959
162.0,-0.2288670539855957,-0.6828212738037109,1.6155781745910645,-2.5090270042419434,-1.5433069467544556,1.341856837272644,1.27653968334198,-0.08663193881511688,0.041501790285110474,-7.383747288258746e-05,0.9999018907546997,0.01276475191116333,0.005783914588391781
163.0,-0.2317076176404953,-0.6767727732658386,1.5983312129974365,-2.4924211502075195,-1.5402637720108032,1.3389846086502075,1.2851299047470093,-0.09186150878667831,0.041493937373161316,-5.2555242291418836e-05,0.9998834729194641,0.014849918894469738,0.0035386804956942797
164.0,-0.217983216047287,-0.680889368057251,1.6111204624176025,-2.5081796646118164,-1.5571715831756592,1.3528034687042236,1.2796626091003418,-0.07542375475168228,0.04153198003768921,-2.9181699574110098e-05,0.9999703764915466,0.005877702031284571,0.004964668303728104
165.0,-0.2186174988746643,-0.674609363079071,1.5938318967819214,-2.4934370517730713,-1.5612866878509521,1.3521720170974731,1.288483738899231,-0.07885626703500748,0.04153938591480255,-1.1529742550919764e-05,0.9999872446060181,0.0042709484696388245,0.0026995399966835976
166.0,-0.21016846597194672,-0.6729797124862671,1.589571475982666,-2.490445137023926,-1.5660871267318726,1.3606271743774414,1.2912417650222778,-0.06918050348758698,0.041543275117874146,-3.9402339098160155e-06,0.9999960660934448,0.0019839094020426273,0.0019860882312059402
167.0,-0.20736707746982574,-0.6641467213630676,1.5652867555618286,-2.4690732955932617,-1.569148302078247,1.3634296655654907,1.3037493228912354,-0.068637415766716,0.04154440760612488,1.3556459634855855e-06,0.9999987483024597,0.0011010857997462153,-0.001231188653036952
168.0,-0.20754733681678772,-0.6571372747421265,1.5456477403640747,-2.450146436691284,-1.563843011856079,1.3632498979568481,1.3136022090911865,-0.07011332362890244,0.041537731885910034,1.6363946997444145e-05,0.9999834895133972,0.004345766734331846,-0.0037654296029359102
169.0,-0.21479758620262146,-0.6578819751739502,1.5475947856903076,-2.451601266860962,-1.561764121055603,1.3559948205947876,1.3121180534362793,-0.07910168170928955,0.041536152362823486,1.8170871044276282e-05,0.9999799132347107,0.005361639894545078,-0.0033889831975102425
170.0,-0.2425018846988678,-0.6653768420219421,1.5635077953338623,-2.4456372261047363,-1.4929403066635132,1.3275445699691772,1.3012962341308594,-0.1024804338812828,0.04099719226360321,7.858739991206676e-05,0.9991747736930847,0.04057177156209946,-0.0019353984389454126
171.0,-0.2252022922039032,-0.658725380897522,1.54931640625,-2.451167106628418,-1.5525166988372803,1.3455597162246704,1.3104251623153687,-0.09110265225172043,0.04152087867259979,2.9546568839577958e-05,0.9999451637268066,0.010049911215901375,-0.0029398221522569656
172.0,-0.23976899683475494,-0.6439101696014404,1.501595377922058,-2.373414993286133,-1.475521206855774,1.3300299644470215,1.3302531242370605,-0.10317912697792053,0.04050910472869873,0.0008130158530548215,0.9984875917434692,0.05277770757675171,-0.015381233766674995
173.0,-0.21632327139377594,-0.6470125317573547,1.5173771381378174,-2.422118663787842,-1.551378607749939,1.354454517364502,1.3269606828689575,-0.08275160938501358,0.04150432348251343,8.316188905155286e-05,0.9999075531959534,0.011525570414960384,-0.007214759010821581
174.0,-0.20648981630802155,-0.64096599817276,1.501206636428833,-2.408043622970581,-1.5530091524124146,1.364310622215271,1.335608959197998,-0.07161079347133636,0.04149852693080902,0.00010429849498905241,0.999894380569458,0.011060910299420357,-0.009428470395505428
175.0,-0.19912023842334747,-0.6436634659767151,1.5087847709655762,-2.416017770767212,-1.559123158454895,1.371692180633545,1.3323780298233032,-0.06197722628712654,0.041515737771987915,6.611851858906448e-05,0.9999334812164307,0.007688950747251511,-0.008598588407039642
176.0,-0.202359139919281,-0.6516629457473755,1.5306473970413208,-2.4363954067230225,-1.563002347946167,1.3684446811676025,1.321399211883545,-0.06469344347715378,0.04153180122375488,2.9802553399349563e-05,0.999970018863678,0.0051624528132379055,-0.005772771779447794
177.0,-0.1937422752380371,-0.6522505879402161,1.5323563814163208,-2.4383034706115723,-1.565515398979187,1.3770639896392822,1.32103431224823,-0.053528670221567154,0.04153473675251007,2.157935159630142e-05,0.9999766945838928,0.003803770523518324,-0.005673015955835581
178.0,-0.19862641394138336,-0.6578220725059509,1.5477045774459839,-2.4525856971740723,-1.5674502849578857,1.3721741437911987,1.3131135702133179,-0.058746181428432465,0.04154078662395477,8.868715667631477e-06,0.9999904036521912,0.002438565483316779,-0.0036368228029459715
179.0,-0.1952807456254959,-0.6637341380119324,1.5640369653701782,-2.4676132202148438,-1.5693414211273193,1.3755162954330444,1.3050673007965088,-0.05302107706665993,0.04154421389102936,1.6500541732966667e-06,0.9999982118606567,0.0010518607450649142,-0.0015686973929405212
180.0,-0.18628764152526855,-0.657880961894989,1.547849416732788,-2.452672243118286,-1.56863534450531,1.3845136165618896,1.3136264085769653,-0.04270485043525696,0.04154115915298462,6.839225989097031e-06,0.999991238117218,0.0018111871322616935,-0.003776068100705743
181.0,-0.18455606698989868,-0.6483450531959534,1.5217983722686768,-2.4289536476135254,-1.5666834115982056,1.3862577676773071,1.3266887664794922,-0.04254881665110588,0.04153120517730713,2.4457094696117565e-05,0.9999686479568481,0.003424897324293852,-0.007140747737139463
182.0,-0.17895177006721497,-0.6528416275978088,1.5341178178787231,-2.4403810501098633,-1.5693700313568115,1.3918558359146118,1.320763349533081,-0.03442312404513359,0.04153737425804138,9.8010359579348e-06,0.9999826550483704,0.0017422358505427837,-0.005625452846288681
183.0,-0.180541530251503,-0.6630574464797974,1.5621267557144165,-2.4657530784606934,-1.5703012943267822,1.3902561664581299,1.3066308498382568,-0.034099508076906204,0.041544049978256226,1.2121763575123623e-06,0.9999978542327881,0.0006127224187366664,-0.0019783407915383577
184.0,-0.1741744577884674,-0.6580590009689331,1.5483447313308716,-2.453145980834961,-1.5697896480560303,1.3966269493103027,1.3137710094451904,-0.02692212536931038,0.04154147207736969,4.5214578676677775e-06,0.9999920725822449,0.0011833583703264594,-0.0038208395708352327
185.0,-0.1684263050556183,-0.6614514589309692,1.557688593864441,-2.4616880416870117,-1.5708987712860107,1.4023723602294922,1.3091740608215332,-0.018739307299256325,0.04154343903064728,1.0508904324524337e-06,0.9999964237213135,0.00039754548924975097,-0.002643437823280692
186.0,-0.17104235291481018,-0.6491568088531494,1.524135947227478,-2.4314959049224854,-1.5701144933700562,1.399770736694336,1.325952410697937,-0.02494865097105503,0.04153376817703247,1.0823395314218942e-05,0.9999745488166809,0.0015511397505179048,-0.006977528799325228
187.0,-0.17326776683330536,-0.6418166160583496,1.504274845123291,-2.413555860519409,-1.5682796239852905,1.3975595235824585,1.335715651512146,-0.029331039637327194,0.04152330756187439,2.786155164358206e-05,0.9999507069587708,0.002937330398708582,-0.00948486477136612
188.0,-0.18091541528701782,-0.6412503719329834,1.502623438835144,-2.4116477966308594,-1.5654644966125488,1.3899121284484863,1.3362808227539062,-0.03925514593720436,0.04152028262615204,4.29584106313996e-05,0.9999437928199768,0.004468295723199844,-0.00961350928992033
189.0,-0.1674736738204956,-0.6308063864707947,1.4749550819396973,-2.387807846069336,-1.5690546035766602,1.403381586074829,1.3501572608947754,-0.024129129946231842,0.04150432348251343,4.129036460653879e-05,0.9999076724052429,0.003119910601526499,-0.013233250007033348
190.0,-0.16924813389778137,-0.6219192743301392,1.4513938426971436,-2.36679744720459,-1.5663834810256958,1.4016354084014893,1.3614410161972046,-0.02804264985024929,0.04148229956626892,8.052437624428421e-05,0.9998575448989868,0.004992902744561434,-0.016125468537211418
191.0,-0.1784033179283142,-0.620093822479248,1.4463623762130737,-2.3615243434906006,-1.5611945390701294,1.3924845457077026,1.3635389804840088,-0.04012688249349594,0.041470468044281006,0.0001310522056883201,0.9998306035995483,0.007876449264585972,-0.016635669395327568
192.0,-0.18454279005527496,-0.6116084456443787,1.4239325523376465,-2.3409435749053955,-1.5548540353775024,1.3863683938980103,1.3738526105880737,-0.04947832226753235,0.04143321514129639,0.00022551606525667012,0.9997459650039673,0.011702137999236584,-0.019266460090875626
193.0,-0.18714402616024017,-0.621037483215332,1.4486056566238403,-2.362584352493286,-1.5563610792160034,1.3837324380874634,1.3620882034301758,-0.05108604207634926,0.04146313667297363,0.00016915833111852407,0.9998139142990112,0.010418002493679523,-0.01623409613966942
194.0,-0.18106520175933838,-0.6317142844200134,1.477094054222107,-2.3887553215026855,-1.5633212327957153,1.3897861242294312,1.3487056493759155,-0.04139479622244835,0.04150058329105377,7.873833965277299e-05,0.99989914894104,0.006144590675830841,-0.0128129618242383
195.0,-0.19071820378303528,-0.6400535702705383,1.4992300271987915,-2.407989501953125,-1.5615041255950928,1.3801077604293823,1.337518334388733,-0.05205557495355606,0.041513681411743164,6.586537347175181e-05,0.9999288320541382,0.006644961424171925,-0.0099113704636693
196.0,-0.19646072387695312,-0.6320508718490601,1.4775727987289429,-2.387645721435547,-1.5552489757537842,1.3743741512298584,1.3477131128311157,-0.06084432452917099,0.041486501693725586,0.0001307255879510194,0.9998671412467957,0.010421263985335827,-0.012542453594505787
197.0,-0.1960500031709671,-0.623590886592865,1.4550275802612305,-2.3670639991760254,-1.5511095523834229,1.3748011589050293,1.3585354089736938,-0.061784062534570694,0.04145568609237671,0.00020051334286108613,0.999796986579895,0.013077827170491219,-0.015329199843108654
198.0,-0.2081356644630432,-0.6319319009780884,1.4767683744430542,-2.385002374649048,-1.5462241172790527,1.3626623153686523,1.3473198413848877,-0.07523766905069351,0.04146021604537964,0.00018899037968367338,0.9998072385787964,0.015183549374341965,-0.012444648891687393
199.0,-0.22807438671588898,-0.6375234723091125,1.4867380857467651,-2.3731677532196045,-1.5062872171401978,1.3423501253128052,1.339311957359314,-0.0943169817328453,0.04101888835430145,0.000569485651794821,0.9992058873176575,0.036700569093227386,-0.01550475787371397
200.0,-0.23744167387485504,-0.6190120577812195,1.4253859519958496,-2.2546873092651367,-1.4461207389831543,0.7904642820358276,1.3598392009735107,-0.10254661738872528,0.03907811641693115,-0.26342836022377014,0.9607329368591309,0.08406217396259308,-0.02304944023489952
201.0,-0.2398376762866974,-0.6048299670219421,1.382898211479187,-2.1772422790527344,-1.4190115928649902,0.7173286080360413,1.3734116554260254,-0.10491962730884552,0.037483662366867065,-0.2938517928123474,0.9490213394165039,0.10895627737045288,-0.033736854791641235
202.0,-0.22326451539993286,-0.6053690910339355,1.3883057832717896,-2.2179083824157715,-1.4682033061981201,0.6430962681770325,1.3765888214111328,-0.0902336835861206,0.039190322160720825,-0.3404664695262909,0.9364148378372192,0.07979974895715714,-0.029013996943831444
203.0,-0.20636709034442902,-0.6099932789802551,1.4106125831604004,-2.2918577194213867,-1.5202349424362183,1.364639163017273,1.3743727207183838,-0.07439671456813812,0.04077976942062378,0.0011100906413048506,0.9988895058631897,0.03286469727754593,-0.0337400957942009
204.0,-0.19388532638549805,-0.6138320565223694,1.4293746948242188,-2.3442156314849854,-1.5481033325195312,1.3769946098327637,1.3707855939865112,-0.06075025722384453,0.0414191335439682,0.00028073927387595177,0.9997139573097229,0.015187850221991539,-0.018479177728295326
205.0,-0.2050645500421524,-0.5987163186073303,1.3745348453521729,-2.2273478507995605,-1.504851222038269,1.3663921356201172,1.386345386505127,-0.07265635579824448,0.03997403383255005,0.0022941839415580034,0.9976791739463806,0.044330865144729614,-0.05163128674030304
206.0,-0.20100916922092438,-0.5833272933959961,1.3270788192749023,-2.1416678428649902,-1.4978017807006836,0.3956204056739807,1.4006513357162476,-0.06878352165222168,0.03872618079185486,-0.46320855617523193,0.8812904953956604,0.08287130296230316,-0.04355737566947937
207.0,-0.18681390583515167,-0.595946192741394,1.3737373352050781,-2.2576873302459717,-1.5402382612228394,1.384555697441101,1.3914670944213867,-0.05365521088242531,0.04074792563915253,0.000980442389845848,0.9988505840301514,0.02342262491583824,-0.04181065782904625
208.0,-0.19456027448177338,-0.5569971799850464,1.2517509460449219,-2.003455400466919,-1.4925408363342285,0.2835584878921509,1.4201780557632446,-0.06269059330224991,0.035626575350761414,-0.5103456974029541,0.8491136431694031,0.11674617975950241,-0.07016836851835251
209.0,-0.21558110415935516,-0.521955132484436,1.1625069379806519,-1.8074990510940552,-1.421819806098938,0.33429184556007385,1.4330639839172363,-0.08461043238639832,0.02765926718711853,-0.4643036127090454,0.8597134947776794,0.18730314075946808,-0.10115642100572586
210.0,-0.22200722992420197,-0.5468013286590576,1.2242820262908936,-1.909716010093689,-1.41829252243042,0.40730130672454834,1.4186564683914185,-0.09014330804347992,0.030970782041549683,-0.43432942032814026,0.8817602396011353,0.16506436467170715,-0.08130588382482529
211.0,-0.22984278202056885,-0.5707182884216309,1.2871729135513306,-2.0149085521698,-1.4130693674087524,0.5123291015625,1.4021941423416138,-0.09676224738359451,0.0338175892829895,-0.38780447840690613,0.9084060788154602,0.1436794251203537,-0.06133768707513809
212.0,-0.270351767539978,-0.5621796250343323,1.2723397016525269,-1.914853572845459,-1.280499815940857,0.64132159948349,1.3931291103363037,-0.13168036937713623,0.0256212055683136,-0.28996309638023376,0.9291136264801025,0.219077005982399,-0.06837079674005508
213.0,-0.2661973536014557,-0.4975472688674927,1.121873378753662,-1.6515164375305176,-1.2609128952026367,0.4673163592815399,1.4246784448623657,-0.1313556730747223,0.013584524393081665,-0.34905150532722473,0.8864001631736755,0.28292304277420044,-0.11141098290681839
214.0,-0.2778913080692291,-0.5099854469299316,1.1547613143920898,-1.6866546869277954,-1.2276129722595215,0.5223739147186279,1.4146416187286377,-0.14054860174655914,0.013304948806762695,-0.31605246663093567,0.8981179594993591,0.28843122720718384,-0.10150047391653061
215.0,-0.243035688996315,-0.5124092698097229,1.146045446395874,-1.735854983329773,-1.3390129804611206,0.42602604627609253,1.428222417831421,-0.11050472408533096,0.021542638540267944,-0.3968368470668793,0.8813039660453796,0.23393917083740234,-0.10533901304006577
216.0,-0.23731420934200287,-0.4427694082260132,0.9937582612037659,-1.4857746362686157,-1.3357511758804321,0.3055342733860016,1.454131007194519,-0.10794697701931,0.008782342076301575,-0.43184521794319153,0.8394557237625122,0.29334479570388794,-0.1509067714214325
217.0,-0.26081880927085876,-0.42381301522254944,0.9658663868904114,-1.4011443853378296,-1.2558523416519165,0.3447997272014618,1.450419545173645,-0.12960927188396454,-0.0002848580479621887,-0.3812217116355896,0.8453824520111084,0.3410871624946594,-0.15381184220314026
218.0,-0.2799398601055145,-0.4036586880683899,0.9378258585929871,-1.3155641555786133,-1.1886260509490967,0.3543470501899719,1.4462093114852905,-0.1467534303665161,-0.010039150714874268,-0.34387415647506714,0.8417141437530518,0.3853376805782318,-0.15742598474025726
219.0,-0.2973124384880066,-0.4219878315925598,0.9859969019889832,-1.3546055555343628,-1.1310865879058838,0.4062039852142334,1.4331802129745483,-0.16019892692565918,-0.011488832533359528,-0.30399659276008606,0.8539124727249146,0.39793264865875244,-0.1416657716035843
220.0,-0.30552005767822266,-0.4666917026042938,1.0811690092086792,-1.4966057538986206,-1.114933967590332,0.4911394417285919,1.4162204265594482,-0.164681538939476,-0.004180103540420532,-0.2754926383495331,0.8779111504554749,0.37366604804992676,-0.11725818365812302
221.0,-0.32392972707748413,-0.46274054050445557,1.0888162851333618,-1.4619295597076416,-1.0445142984390259,0.5072494149208069,1.4068787097930908,-0.17858090996742249,-0.011695370078086853,-0.23856553435325623,0.873971700668335,0.4084474742412567,-0.11149274557828903
222.0,-0.3358875811100006,-0.48838678002357483,1.1523005962371826,-1.5440236330032349,-1.0064482688903809,0.5743704438209534,1.391494870185852,-0.1854822337627411,-0.01025383174419403,-0.20391827821731567,0.885471761226654,0.40691035985946655,-0.09370876103639603
223.0,-0.3560575544834137,-0.5290953516960144,1.2604589462280273,-1.6921390295028687,-0.9399849772453308,0.7009055614471436,1.363048791885376,-0.19538253545761108,-0.00868227332830429,-0.1403181254863739,0.9006991982460022,0.40625864267349243,-0.06329021602869034
224.0,-0.37065696716308594,-0.5356004238128662,1.2930546998977661,-1.7101515531539917,-0.8792791962623596,0.7310779094696045,1.3497177362442017,-0.203314408659935,-0.013618893921375275,-0.10801670700311661,0.8956640958786011,0.4283107817173004,-0.05165410041809082
225.0,-0.37958452105522156,-0.48953574895858765,1.209168791770935,-1.510689377784729,-0.8247036933898926,0.6016076803207397,1.3601189851760864,-0.2134283483028412,-0.031243279576301575,-0.11772142350673676,0.8644288778305054,0.4843080937862396,-0.0659550279378891
226.0,-0.368987500667572,-0.4663052558898926,1.1507997512817383,-1.4412388801574707,-0.8673827052116394,0.5483081340789795,1.3753976821899414,-0.20935222506523132,-0.033511579036712646,-0.1475372016429901,0.8602503538131714,0.48103630542755127,-0.08250011503696442
227.0,-0.3571487069129944,-0.44107046723365784,1.0878803730010986,-1.3696993589401245,-0.9136552214622498,0.49427559971809387,1.391256332397461,-0.20400747656822205,-0.03512999415397644,-0.1794075220823288,0.8542266488075256,0.4775465726852417,-0.10029592365026474
228.0,-0.33484816551208496,-0.40442588925361633,0.9898000955581665,-1.2630449533462524,-0.9907140731811523,0.41543975472450256,1.415308952331543,-0.19009406864643097,-0.03214363753795624,-0.23144389688968658,0.841809093952179,0.47019141912460327,-0.1292726993560791
229.0,-0.31802594661712646,-0.37767544388771057,0.920796275138855,-1.1945010423660278,-1.0472369194030762,0.3641657531261444,1.4313993453979492,-0.1783878654241562,-0.03012910485267639,-0.26840296387672424,0.8309601545333862,0.46371403336524963,-0.14978119730949402
230.0,-0.3050100803375244,-0.35218966007232666,0.8628584742546082,-1.1438497304916382,-1.0926826000213623,0.32569000124931335,1.444380521774292,-0.16958460211753845,-0.03199245035648346,-0.2971882224082947,0.8211937546730042,0.4580802917480469,-0.165778249502182
231.0,-0.25301194190979004,-0.31392166018486023,0.7493637204170227,-1.0878642797470093,-1.2646191120147705,0.2263454794883728,1.4758427143096924,-0.1259356141090393,-0.020799152553081512,-0.40205642580986023,0.7923316955566406,0.4092012345790863,-0.20764277875423431
232.0,-0.22975026071071625,-0.3689914643764496,0.8431164026260376,-1.263282299041748,-1.3467572927474976,0.22021599113941193,1.4746184349060059,-0.10325367748737335,-0.004490368068218231,-0.4523078203201294,0.8008922934532166,0.34168925881385803,-0.1929706335067749
233.0,-0.22333911061286926,-0.2502095699310303,0.6129500269889832,-0.957970380783081,-1.3557668924331665,0.14349600672721863,1.4959676265716553,-0.09989454597234726,-0.025259941816329956,-0.4558938145637512,0.7523655891418457,0.4066729247570038,-0.24642232060432434
234.0,-0.1928716003894806,-0.3179181218147278,0.7312541007995605,-1.1518363952636719,-1.4563637971878052,0.103573739528656,1.4944807291030884,-0.06912237405776978,-0.007933415472507477,-0.5246812105178833,0.747728705406189,0.33312344551086426,-0.23375271260738373
235.0,-0.15869812667369843,-0.30651429295539856,0.7026039958000183,-1.14260733127594,-1.5597081184387207,0.010257301852107048,1.502348780632019,-0.03515125811100006,-0.006457075476646423,-0.5892131924629211,0.7016767263412476,0.30678072571754456,-0.2576104402542114
236.0,-0.14460350573062897,-0.43867626786231995,0.9698022603988647,-1.5424270629882812,-1.6083338260650635,-0.059854842722415924,1.4747380018234253,-0.017483025789260864,0.018106728792190552,-0.6539199352264404,0.7041674256324768,0.2027224451303482,-0.18825671076774597
237.0,-0.1651090681552887,-0.429858922958374,0.9513930082321167,-1.500118613243103,-1.545322060585022,0.037842899560928345,1.4752802848815918,-0.03806436061859131,0.015582561492919922,-0.6014106273651123,0.7436562776565552,0.22706665098667145,-0.18363361060619354
238.0,-0.18295881152153015,-0.4336628019809723,0.9611982107162476,-1.5015133619308472,-1.4936752319335938,0.1129060611128807,1.4715536832809448,-0.055777132511138916,0.01490338146686554,-0.5593270063400269,0.7742661237716675,0.24000874161720276,-0.17338141798973083
239.0,-0.20879466831684113,-0.45332756638526917,1.0074591636657715,-1.54811692237854,-1.4230104684829712,0.22257067263126373,1.4598767757415771,-0.08063541352748871,0.015575215220451355,-0.4980224668979645,0.8163995742797852,0.24957311153411865,-0.15224531292915344
240.0,-0.1906081736087799,-0.49729037284851074,1.1016372442245483,-1.7296806573867798,-1.480910062789917,0.18583236634731293,1.4494796991348267,-0.06086426600813866,0.02612975239753723,-0.5396602749824524,0.8112650513648987,0.18732033669948578,-0.12460702657699585
241.0,-0.17427963018417358,-0.5200929045677185,1.1561263799667358,-1.844566822052002,-1.5260696411132812,0.11743368208408356,1.4429713487625122,-0.04296114295721054,0.03122994303703308,-0.5836848616600037,0.7914499640464783,0.14602090418338776,-0.10768867284059525
242.0,-0.15953832864761353,-0.5469053983688354,1.2273615598678589,-1.9928486347198486,-1.562932014465332,0.029744770377874374,1.4313838481903076,-0.025503531098365784,0.03624051809310913,-0.6314147710800171,0.7646567821502686,0.09939403831958771,-0.08207455277442932
243.0,-0.16842268407344818,-0.5763587951660156,1.314513921737671,-2.161365509033203,-1.5516064167022705,0.12836188077926636,1.4110835790634155,-0.033043235540390015,0.03968840837478638,-0.5925765633583069,0.8020764589309692,0.059792641550302505,-0.04417499154806137
244.0,-0.17890116572380066,-0.5825250148773193,1.331579327583313,-2.18369460105896,-1.5392634868621826,1.393295407295227,1.4048216342926025,-0.0448366180062294,0.03989134728908539,0.0017708566738292575,0.99755859375,0.027536818757653236,-0.06415168941020966
245.0,-0.17121081054210663,-0.6097150444984436,1.4194252490997314,-2.338681697845459,-1.5637003183364868,1.399719476699829,1.3764957189559937,-0.03290749713778496,0.041446030139923096,0.00014117368846200407,0.9997750520706177,0.007056698203086853,-0.020001128315925598
246.0,-0.17800159752368927,-0.6068844199180603,1.4118571281433105,-2.331251621246338,-1.5585168600082397,1.392937183380127,1.3797826766967773,-0.04207879677414894,0.04142773151397705,0.00020783732179552317,0.9997334480285645,0.00998053140938282,-0.02081872522830963
247.0,-0.17069557309150696,-0.5998603701591492,1.393872857093811,-2.3163866996765137,-1.561411738395691,1.4002765417099,1.3883845806121826,-0.03388635441660881,0.04141123592853546,0.00020144833251833916,0.999695897102356,0.008732966147363186,-0.02306056022644043
248.0,-0.16264308989048004,-0.6014212965965271,1.3981339931488037,-2.3209779262542725,-1.567091941833496,1.4083205461502075,1.3866349458694458,-0.023269105702638626,0.0414251834154129,0.0001267401094082743,0.999727725982666,0.005592322442680597,-0.022657064720988274
249.0,-0.1633004993200302,-0.6155796647071838,1.4349240064620972,-2.352940797805786,-1.5691505670547485,1.4076049327850342,1.369401454925537,-0.021665647625923157,0.04146875441074371,6.986908556427807e-05,0.9998266696929932,0.0038345353677868843,-0.018217844888567924
250.0,-0.16092722117900848,-0.625923216342926,1.462140440940857,-2.376901388168335,-1.5711472034454346,1.4099410772323608,1.3564594984054565,-0.016619160771369934,0.041495129466056824,3.33359457727056e-05,0.9998867511749268,0.0022386847995221615,-0.014889175072312355
251.0,-0.15083763003349304,-0.6187571883201599,1.444855809211731,-2.3664793968200684,-1.5976238250732422,1.4199923276901245,1.3648431301116943,-0.008323423564434052,0.04145455360412598,-0.0001871414133347571,0.9997944235801697,-0.010974845848977566,-0.017048344016075134
252.0,-0.15902599692344666,-0.6088880300521851,1.417594313621521,-2.3382608890533447,-1.5709325075149536,1.4119033813476562,1.3776358366012573,-0.01739823818206787,0.04145146906375885,6.512988329632208e-05,0.9997873902320862,0.0031966357491910458,-0.020370176061987877
253.0,-0.156109020113945,-0.592532217502594,1.3754489421844482,-2.302130699157715,-1.5701204538345337,1.4148907661437988,1.3971847295761108,-0.016322515904903412,0.04139867424964905,0.00011038616503356025,0.9996674060821533,0.004340600222349167,-0.02542262151837349
254.0,-0.14145614206790924,-0.5657282471656799,1.2860398292541504,-2.1225054264068604,-1.6200032234191895,-0.2813016176223755,1.41978919506073,-0.006826530210673809,0.03903499245643616,0.7532322406768799,-0.6518855094909668,-0.057373493909835815,0.06629317998886108
255.0,-0.12219702452421188,-0.5805774927139282,1.3440847396850586,-2.2564661502838135,-1.6914255619049072,-0.9957315325737,1.405930519104004,0.01114181149750948,0.040144652128219604,0.938223123550415,-0.33852776885032654,-0.024324245750904083,0.06741417199373245
256.0,-0.13232852518558502,-0.5949281454086304,1.3871456384658813,-2.3257994651794434,-1.6557308435440063,1.438140869140625,1.3918476104736328,0.004303900990635157,0.04107259213924408,-0.0009532290860079229,0.9989253282546997,-0.03961940109729767,-0.024033797904849052
257.0,-0.1380341798067093,-0.6079105734825134,1.4195247888565063,-2.3513383865356445,-1.6398967504501343,1.4325428009033203,1.3768136501312256,0.000910548958927393,0.04122951626777649,-0.0006462184828706086,0.9992825388908386,-0.03207211568951607,-0.020134467631578445
258.0,-0.1293283998966217,-0.6150312423706055,1.4412609338760376,-2.3754448890686035,-1.67500638961792,1.440838098526001,1.3663469552993774,0.008807763457298279,0.040922775864601135,-0.0008764671511016786,0.9985844492912292,-0.050248272716999054,-0.017418041825294495
259.0,-0.11318138986825943,-0.6036999225616455,1.4196959733963013,-2.3653252124786377,-1.7313289642333984,-1.4372752904891968,1.3760738372802734,0.021057147532701492,0.03915919363498688,0.9892556667327881,-0.12178140133619308,-0.009882822632789612,0.08028022199869156
260.0,-0.10580557584762573,-0.5926601886749268,1.3952335119247437,-2.347775936126709,-1.755927324295044,-1.4326133728027344,1.387231469154358,0.026240801438689232,0.03805454075336456,0.9883816242218018,-0.11998697370290756,-0.011243823915719986,0.09261996299028397
261.0,-0.087033711373806,-0.5929744243621826,1.4105732440948486,-2.370537519454956,-1.8241147994995117,-1.49965500831604,1.378786325454712,0.04264160245656967,0.034224480390548706,0.9889383912086487,-0.07724476605653763,-0.009860566817224026,0.12624146044254303
262.0,-0.08546154946088791,-0.5819380879402161,1.3822375535964966,-2.3463447093963623,-1.8258624076843262,-1.472990870475769,1.3919891119003296,0.043410301208496094,0.03399914503097534,0.9877857565879822,-0.0891878604888916,-0.01148959994316101,0.12725119292736053
263.0,-0.08029273897409439,-0.5643970966339111,1.323891043663025,-2.2316102981567383,-1.8401151895523071,-1.2145873308181763,1.4089430570602417,0.04708997532725334,0.0319313108921051,0.9676958918571472,-0.2078368067741394,-0.029968952760100365,0.1395365297794342
264.0,-0.0997827872633934,-0.5725072026252747,1.333554983139038,-2.245540142059326,-1.7762759923934937,-1.1697431802749634,1.4078320264816284,0.029419053345918655,0.036487728357315063,0.9638996124267578,-0.2419864535331726,-0.027048802003264427,0.10774292051792145
265.0,-0.1059577688574791,-0.5469402074813843,1.2443057298660278,-2.0574748516082764,-1.7532052993774414,-0.703454852104187,1.4292105436325073,0.021980635821819305,0.034934788942337036,0.8798302412033081,-0.4546767473220825,-0.06356154382228851,0.12299588322639465
266.0,-0.12393558025360107,-0.4498908519744873,0.9962283968925476,-1.5946022272109985,-1.68572199344635,-0.19653932750225067,1.4718536138534546,0.0013680490665137768,0.020220518112182617,0.7163873314857483,-0.645918071269989,-0.17663495242595673,0.19590571522712708
267.0,-0.09984119236469269,-0.4513642489910126,1.0072919130325317,-1.6199257373809814,-1.7765839099884033,-0.3526804447174072,1.4702199697494507,0.023040588945150375,0.01836131513118744,0.7770892381668091,-0.5692629814147949,-0.15864989161491394,0.216569721698761
268.0,-0.07538772374391556,-0.48111578822135925,1.0899956226348877,-1.7691138982772827,-1.8704447746276855,-0.5958881378173828,1.4567028284072876,0.045869823545217514,0.01967376470565796,0.8528472185134888,-0.45898982882499695,-0.11798393726348877,0.2192254513502121
269.0,-0.12107732146978378,-0.3275751769542694,0.7440670728683472,-1.215348720550537,-1.6941626071929932,-0.12574435770511627,1.500983476638794,0.00072678760625422,-0.001992926001548767,0.6717368364334106,-0.6358665823936462,-0.2612704932689667,0.27600914239883423
270.0,-0.09847772121429443,-0.34482842683792114,0.7844109535217285,-1.2758418321609497,-1.7782106399536133,-0.2241877019405365,1.497130274772644,0.02213640883564949,-0.0012483075261116028,0.7209212779998779,-0.5859947204589844,-0.23336359858512878,0.2870960533618927
271.0,-0.056887153536081314,-0.4531911015510559,1.0370819568634033,-1.672600507736206,-1.916884422302246,-0.5751617550849915,1.4629007577896118,0.06558900326490402,0.009537369012832642,0.8477978706359863,-0.44495585560798645,-0.13408870995044708,0.25548630952835083
272.0,-0.04898766800761223,-0.32706889510154724,0.7741390466690063,-1.2521806955337524,-1.9423065185546875,-0.361069917678833,1.4939000606536865,0.07191842049360275,-0.015849366784095764,0.7775930166244507,-0.48084577918052673,-0.21307897567749023,0.34457769989967346
273.0,-0.035156358033418655,-0.3364080786705017,0.802445650100708,-1.2838234901428223,-1.9817049503326416,-0.40288013219833374,1.4881494045257568,0.08711270987987518,-0.018742635846138,0.7930409908294678,-0.453359454870224,-0.201933816075325,0.35323360562324524
274.0,-0.044686123728752136,-0.4392596185207367,1.014032006263733,-1.6278752088546753,-1.9482054710388184,-0.5743185877799988,1.4641995429992676,0.078809455037117,0.0032504498958587646,0.847623884677887,-0.4306246042251587,-0.1404077112674713,0.2763727903366089
275.0,-0.05644585192203522,-0.5433651804924011,1.2735663652420044,-2.1212007999420166,-1.8894402980804443,-1.045074701309204,1.4176527261734009,0.07279885560274124,0.02325543761253357,0.9460697174072266,-0.2685677409172058,-0.0494760125875473,0.17428657412528992
276.0,-0.07124621421098709,-0.5329433083534241,1.230202317237854,-2.037240505218506,-1.869352102279663,-0.8966963887214661,1.4298856258392334,0.053963303565979004,0.02633853256702423,0.921108603477478,-0.3417116403579712,-0.06487684696912766,0.1748802810907364
277.0,-0.06955814361572266,-0.5617662668228149,1.324015498161316,-2.2297327518463135,-1.855915904045105,-1.21763277053833,1.4073303937911987,0.05993225798010826,0.028558433055877686,0.968075692653656,-0.200212761759758,-0.03054390475153923,0.1476869434118271
278.0,-0.06739871948957443,-0.5726232528686523,1.364375114440918,-2.309758424758911,-1.842684268951416,-1.3765218257904053,1.3953113555908203,0.06574089825153351,0.02800247073173523,0.9824302792549133,-0.1256687343120575,-0.017507070675492287,0.1368636041879654
279.0,-0.07652529329061508,-0.5820869207382202,1.389453411102295,-2.355086088180542,-1.8314497470855713,-1.4814746379852295,1.3879752159118652,0.05528527498245239,0.031013205647468567,0.988170862197876,-0.08062630146741867,-0.010608519427478313,0.13001997768878937
280.0,-0.07269751280546188,-0.5881488919258118,1.4084562063217163,-2.372145652770996,-1.8307712078094482,-1.4971706867218018,1.3786711692810059,0.061360567808151245,0.0295097678899765,0.9889563918113708,-0.07125100493431091,-0.00933870393782854,0.1296202391386032
281.0,-0.08010976761579514,-0.5956326127052307,1.423158049583435,-2.3836379051208496,-1.828705906867981,-1.513285756111145,1.3723232746124268,0.05199206992983818,0.031878530979156494,0.9893882870674133,-0.06724125146865845,-0.00873342715203762,0.1285037100315094
282.0,-0.07693619281053543,-0.6008090376853943,1.4393337965011597,-2.397634983062744,-1.8268781900405884,-1.5246901512145996,1.3642046451568604,0.05723312497138977,0.03057435154914856,0.9899665713310242,-0.060233380645513535,-0.007762742694467306,0.12758468091487885
283.0,-0.07018478214740753,-0.5961626768112183,1.431887149810791,-2.392813205718994,-1.8293222188949585,-1.5172269344329834,1.3672206401824951,0.06583508849143982,0.028409436345100403,0.9897907376289368,-0.060438476502895355,-0.007867171429097652,0.12883934378623962
284.0,-0.07165274769067764,-0.6066522598266602,1.4592399597167969,-2.4160172939300537,-1.8261653184890747,-1.5416407585144043,1.3540390729904175,0.06525325030088425,0.028577491641044617,0.9906167387962341,-0.04950389266014099,-0.006358071230351925,0.12723062932491302
285.0,-0.06446897238492966,-0.6054507493972778,1.4612810611724854,-2.4191832542419434,-1.8281298875808716,-1.5415575504302979,1.3523162603378296,0.0747634619474411,0.026239007711410522,0.9906609654426575,-0.04597226157784462,-0.005950422026216984,0.12822625041007996
286.0,-0.06219811365008354,-0.5956582427024841,1.4365170001983643,-2.398815631866455,-1.8321030139923096,-1.5211355686187744,1.3642252683639526,0.07648803293704987,0.025794431567192078,0.9899530410766602,-0.05458764731884003,-0.007181471213698387,0.13023675978183746
287.0,-0.06487783044576645,-0.5849454402923584,1.4057542085647583,-2.37186336517334,-1.833922266960144,-1.4950313568115234,1.3792606592178345,0.07159648090600967,0.0269639790058136,0.9889507293701172,-0.06836118549108505,-0.009071181528270245,0.1312287300825119
288.0,-0.05991610512137413,-0.5735377073287964,1.372159481048584,-2.317617416381836,-1.8492223024368286,-1.3843448162078857,1.3908965587615967,0.07543990761041641,0.02558314800262451,0.9829332232475281,-0.11807655543088913,-0.016825096681714058,0.14006121456623077
289.0,-0.04554051160812378,-0.5432445406913757,1.2813719511032104,-2.12882399559021,-1.9085687398910522,-1.0683931112289429,1.4129533767700195,0.08563151955604553,0.019774988293647766,0.9492515921592712,-0.2510755658149719,-0.04843740910291672,0.18312928080558777
290.0,-0.03199407458305359,-0.458972305059433,1.069117784500122,-1.7186505794525146,-1.9802793264389038,-0.6741172075271606,1.453179955482483,0.0931301936507225,0.00291992723941803,0.8730200529098511,-0.3851686120033264,-0.12074586004018784,0.27368155121803284
291.0,-0.029157379642128944,-0.5011029839515686,1.1752134561538696,-1.911766767501831,-1.9738008975982666,-0.8478279709815979,1.4329400062561035,0.09875312447547913,0.009314686059951782,0.910872757434845,-0.32398557662963867,-0.08566498756408691,0.2408437579870224
292.0,-0.044860053807497025,-0.561779797077179,1.341041922569275,-2.243604898452759,-1.8889427185058594,-1.2416162490844727,1.3962148427963257,0.09021144360303879,0.020731091499328613,0.9703503251075745,-0.17504389584064484,-0.029589004814624786,0.1640256941318512
293.0,-0.05675993487238884,-0.5831522345542908,1.4072093963623047,-2.3757195472717285,-1.838853359222412,-1.4986705780029297,1.3778076171875,0.08210229873657227,0.024358481168746948,0.9890115857124329,-0.06254207342863083,-0.00845417007803917,0.13369035720825195
294.0,-0.05211326479911804,-0.5882548689842224,1.424472451210022,-2.3916168212890625,-1.8407901525497437,-1.5131291151046753,1.3690037727355957,0.08865363895893097,0.022709429264068604,0.98943692445755,-0.05332734435796738,-0.007254703901708126,0.13460393249988556
295.0,-0.04245137423276901,-0.5726679563522339,1.3791325092315674,-2.3110194206237793,-1.8775526285171509,-1.354543924331665,1.3833004236221313,0.09578727185726166,0.020069926977157593,0.980119526386261,-0.12239036709070206,-0.01935003511607647,0.1549578458070755
296.0,-0.027603182941675186,-0.5273376703262329,1.2481404542922974,-2.048178195953369,-1.9594734907150269,-0.9906860589981079,1.4159353971481323,0.1034858226776123,0.012178406119346619,0.9363170266151428,-0.26902616024017334,-0.06232414394617081,0.21691259741783142
297.0,-0.006437479052692652,-0.4471084177494049,1.0629429817199707,-1.68795907497406,-2.0539584159851074,-0.7062923312187195,1.4474526643753052,0.11999965459108353,-0.008116111159324646,0.8780223727226257,-0.34339672327041626,-0.12143632024526596,0.3104974329471588
298.0,-0.010233559645712376,-0.5000287294387817,1.1888569593429565,-1.9202702045440674,-2.0211715698242188,-0.8894124031066895,1.4242831468582153,0.11926369369029999,0.0023817718029022217,0.9166596531867981,-0.29018154740333557,-0.08294351398944855,0.26201173663139343
299.0,-0.021493377164006233,-0.5479488968849182,1.3141224384307861,-2.1682300567626953,-1.9540565013885498,-1.1433173418045044,1.3966395854949951,0.11331009864807129,0.012253910303115845,0.9572315216064453,-0.20210611820220947,-0.04276840016245842,0.20256319642066956
300.0,-0.03705699369311333,-0.5795035362243652,1.4038766622543335,-2.3441872596740723,-1.8757727146148682,-1.4024698734283447,1.3724491596221924,0.10389235615730286,0.01827731728553772,0.9832666516304016,-0.09743766486644745,-0.015178905799984932,0.15317393839359283
301.0,-0.01662532612681389,-0.5640137791633606,1.3676692247390747,-2.260225296020508,-1.945745825767517,-1.267214298248291,1.3783749341964722,0.12159331887960434,0.011719226837158203,0.970027506351471,-0.14586901664733887,-0.028899529948830605,0.1921815723180771
302.0,-0.030934445559978485,-0.5945096015930176,1.4542644023895264,-2.4089667797088623,-1.8666051626205444,-1.496877670288086,1.349926471710205,0.11432156711816788,0.015983134508132935,0.9877490401268005,-0.050239212810993195,-0.007504865527153015,0.14755254983901978
303.0,-0.03807412460446358,-0.6047943234443665,1.4799617528915405,-2.441593885421753,-1.8419448137283325,-1.554482340812683,1.339857816696167,0.10874980688095093,0.017682716250419617,0.9904632568359375,-0.026645908132195473,-0.0036352609749883413,0.13512738049030304
304.0,-0.04515351727604866,-0.5952646732330322,1.4485607147216797,-2.4136807918548584,-1.8406689167022705,-1.5317624807357788,1.3564410209655762,0.09873563796281815,0.020241647958755493,0.9900481700897217,-0.040998488664627075,-0.0055700973607599735,0.13450896739959717
305.0,-0.048070378601551056,-0.606599748134613,1.477081298828125,-2.436885356903076,-1.8346723318099976,-1.5539568662643433,1.3426532745361328,0.09634911268949509,0.020856410264968872,0.990793764591217,-0.03187834471464157,-0.004231119994074106,0.13150516152381897
306.0,-0.053727224469184875,-0.6030216813087463,1.4630144834518433,-2.4235026836395264,-1.8341732025146484,-1.5428154468536377,1.3503087759017944,0.0884433388710022,0.022796958684921265,0.9905273914337158,-0.04001081362366676,-0.00530163524672389,0.13124988973140717
307.0,-0.06242120638489723,-0.6116631031036377,1.4799001216888428,-2.435894250869751,-1.827246904373169,-1.5584211349487305,1.3429075479507446,0.07824288308620453,0.025395721197128296,0.9911032319068909,-0.03688190504908562,-0.004755635745823383,0.12779507040977478
308.0,-0.0553661547601223,-0.614520251750946,1.4931721687316895,-2.44861102104187,-1.828645944595337,-1.567513108253479,1.3354308605194092,0.08788799494504929,0.02295711636543274,0.9912758469581604,-0.029023373499512672,-0.003762722248211503,0.12851351499557495
309.0,-0.05769028142094612,-0.6285884380340576,1.5304123163223267,-2.4798970222473145,-1.8216534852981567,-1.6001026630401611,1.3167469501495361,0.08692066371440887,0.023216336965560913,0.9920313358306885,-0.014535028487443924,-0.0018334918422624469,0.1251377910375595
310.0,-0.058450307697057724,-0.6439992189407349,1.573391079902649,-2.516684055328369,-1.8167955875396729,-1.6384366750717163,1.2944347858428955,0.08795717358589172,0.022961333394050598,0.9924055933952332,0.0035482067614793777,0.0004396173171699047,0.12295752018690109
311.0,-0.062386445701122284,-0.6386627554893494,1.5552433729171753,-2.5007333755493164,-1.8168748617172241,-1.6255733966827393,1.3044850826263428,0.08224271982908249,0.02440464496612549,0.9924077987670898,-0.004595438949763775,-0.0005691180704161525,0.12290384620428085
312.0,-0.06432100385427475,-0.6274471879005432,1.52218496799469,-2.471959114074707,-1.8214458227157593,-1.596695065498352,1.3217779397964478,0.07793015241622925,0.025492459535598755,0.9919612407684326,-0.0194606501609087,-0.002452547661960125,0.1250128597021103
313.0,-0.06870868057012558,-0.6197248101234436,1.4972530603408813,-2.449136972427368,-1.822418212890625,-1.5740596055984497,1.3348326683044434,0.07110847532749176,0.027159512042999268,0.9915633797645569,-0.0325092151761055,-0.00411175237968564,0.12541255354881287
314.0,-0.07205038517713547,-0.6289989948272705,1.5207149982452393,-2.469367027282715,-1.8194384574890137,-1.5986436605453491,1.3233535289764404,0.06793922185897827,0.027947455644607544,0.9920245409011841,-0.02235390432178974,-0.0027945179026573896,0.12401548027992249
315.0,-0.069692462682724,-0.6361344456672668,1.5425150394439697,-2.488640308380127,-1.8171536922454834,-1.617769479751587,1.3119237422943115,0.07218843698501587,0.02691178023815155,0.99233478307724,-0.011977323330938816,-0.0014844464603811502,0.12298806756734848
316.0,-0.07654594630002975,-0.6416583061218262,1.5531575679779053,-2.4974191188812256,-1.8151965141296387,-1.6332200765609741,1.3071846961975098,0.06388843059539795,0.028958678245544434,0.9924832582473755,-0.007929881103336811,-0.0009757286170497537,0.12211965769529343
317.0,-0.07933070510625839,-0.636402428150177,1.536150574684143,-2.4822020530700684,-1.8180938959121704,-1.618386149406433,1.3162219524383545,0.05910831317305565,0.030156895518302917,0.9922119975090027,-0.01646713726222515,-0.002048830734565854,0.1234503909945488
318.0,-0.08850069344043732,-0.6449801325798035,1.5537910461425781,-2.497490167617798,-1.8172194957733154,-1.6439831256866455,1.3080610036849976,0.04793491214513779,0.0329740047454834,0.9923418760299683,-0.00869741104543209,-0.0010798809817060828,0.1232103630900383
319.0,-0.09786217659711838,-0.6482711434364319,1.5556551218032837,-2.4969091415405273,-1.803527593612671,-1.6518330574035645,1.3079005479812622,0.03780396282672882,0.03551363945007324,0.9931493401527405,-0.009442565962672234,-0.001107312273234129,0.1164647713303566
320.0,-0.08597744256258011,-0.6373792290687561,1.5340371131896973,-2.480053663253784,-1.819287896156311,-1.621983289718628,1.3179643154144287,0.05006038397550583,0.03243371844291687,0.9921080470085144,-0.018040481954813004,-0.002255923580378294,0.1240609884262085
321.0,-0.07775069773197174,-0.6239644289016724,1.502332329750061,-2.45236873626709,-1.8209501504898071,-1.5837403535842896,1.3332021236419678,0.0594291128218174,0.030064672231674194,0.9916594624519348,-0.032344333827495575,-0.0040670884773135185,0.12469471246004105
322.0,-0.07648354023694992,-0.6163001656532288,1.481978178024292,-2.4345767498016357,-1.822475552558899,-1.5631767511367798,1.343235731124878,0.0601150244474411,0.02988186478614807,0.991220235824585,-0.04158778488636017,-0.005261338781565428,0.12540090084075928
323.0,-0.0886620506644249,-0.6246914267539978,1.4963438510894775,-2.4462504386901855,-1.8210111856460571,-1.5861481428146362,1.3372353315353394,0.044561732560396194,0.03380756080150604,0.9915074110031128,-0.03659743070602417,-0.004603173118084669,0.12471041828393936
324.0,-0.09009009599685669,-0.6329027414321899,1.5183029174804688,-2.465686559677124,-1.8194513320922852,-1.6093406677246094,1.3263334035873413,0.043876685202121735,0.03399008512496948,0.9919254183769226,-0.026159074157476425,-0.0032715091947466135,0.12405230104923248
325.0,-0.10925175994634628,-0.6247012615203857,1.4799243211746216,-2.4221198558807373,-1.7537955045700073,-1.5493706464767456,1.3468608856201172,0.026222525164484978,0.03813892602920532,0.993701696395874,-0.06484121084213257,-0.0059509011916816235,0.09119848906993866
326.0,-0.11010539531707764,-0.6349405646324158,1.5077983140945435,-2.446946620941162,-1.7541406154632568,-1.5888534784317017,1.3330817222595215,0.026545850560069084,0.03808215260505676,0.9947382807731628,-0.04596516117453575,-0.004226245917379856,0.09146076440811157
327.0,-0.08669774979352951,-0.6130456328392029,1.46555495262146,-2.4192428588867188,-1.8231548070907593,-1.554526448249817,1.3522987365722656,0.04554971307516098,0.03353947401046753,0.9907466173171997,-0.05079652741551399,-0.006444527301937342,0.12569548189640045
328.0,-0.0855545848608017,-0.6043366193771362,1.4425567388534546,-2.3991591930389404,-1.8245067596435547,-1.5315427780151367,1.3633990287780762,0.045936331152915955,0.033424049615859985,0.9900607466697693,-0.06123941019177437,-0.007816309109330177,0.12636668980121613
329.0,-0.10616444796323776,-0.6148752570152283,1.4551336765289307,-2.401296615600586,-1.7620041370391846,-1.5194928646087646,1.3587760925292969,0.02785000205039978,0.03776809573173523,0.9923744797706604,-0.07782825082540512,-0.00747308973222971,0.09528806060552597
330.0,-0.13062790036201477,-0.6235186457633972,1.4635756015777588,-2.3948185443878174,-1.6736520528793335,1.4395272731781006,1.3556406497955322,0.00864972360432148,0.04094958305358887,-0.0007322957389988005,0.9986456036567688,-0.04991795867681503,-0.014650116674602032
331.0,-0.15369898080825806,-0.6327834129333496,1.4816919565200806,-2.3981382846832275,-1.5941596031188965,1.4171030521392822,1.3470780849456787,-0.00894034095108509,0.041489407420158386,-0.00012311030877754092,0.9998736381530762,-0.009892343543469906,-0.012443436309695244
332.0,-0.16480562090873718,-0.641781210899353,1.504305124282837,-2.413986921310425,-1.571096658706665,1.4060211181640625,1.335883617401123,-0.01846235990524292,0.04152444005012512,1.3744440366281196e-05,0.9999532699584961,0.0014376180479303002,-0.009560118429362774
333.0,-0.14364835619926453,-0.6405426859855652,1.5055091381072998,-2.425957202911377,-1.6341930627822876,1.4268823862075806,1.3353548049926758,6.256578490138054e-05,0.04131874442100525,-0.0002881042310036719,0.9994856119155884,-0.030663490295410156,-0.00939084216952324
334.0,-0.14740300178527832,-0.6484746932983398,1.5261681079864502,-2.442840337753296,-1.6245951652526855,1.423191785812378,1.325117588043213,-0.0019379123114049435,0.041384100914001465,-0.00017673319962341338,0.999634325504303,-0.026188991963863373,-0.006745911203324795
335.0,-0.11317889392375946,-0.6426777243614197,1.5272834300994873,-2.4631316661834717,-1.7455921173095703,-1.6152149438858032,1.3234703540802002,0.024855850264430046,0.03844919800758362,0.9955755472183228,-0.034579042345285416,-0.0030327988788485527,0.08731821924448013
336.0,-0.13173972070217133,-0.6528167724609375,1.5436536073684692,-2.467538595199585,-1.6820470094680786,1.4382375478744507,1.3159945011138916,0.011097870767116547,0.04086308181285858,-0.00024475849932059646,0.9984489679336548,-0.055500131100416183,-0.004403212107717991
337.0,-0.1532665640115738,-0.6596196293830872,1.5554178953170776,-2.466602325439453,-1.609519124031067,1.4174165725708008,1.3104209899902344,-0.005091438535600901,0.04146254062652588,-5.651041283272207e-05,0.9998126029968262,-0.019133692607283592,-0.002952896524220705
338.0,-0.1342875361442566,-0.6609063744544983,1.565453290939331,-2.486567735671997,-1.6767005920410156,1.4357482194900513,1.3049694299697876,0.010065201669931412,0.04092183709144592,-8.270657417597249e-05,0.9985827207565308,-0.05319982022047043,-0.0015524366172030568
339.0,-0.11880511045455933,-0.6619863510131836,1.5784140825271606,-2.5073912143707275,-1.7325886487960815,-1.6953593492507935,1.2976042032241821,0.02250322513282299,0.03894266486167908,0.9966773390769958,0.002054552547633648,0.0001678524276940152,0.08142635971307755
340.0,-0.14425314962863922,-0.6717178821563721,1.592523455619812,-2.5067152976989746,-1.6470454931259155,1.4261209964752197,1.2912724018096924,0.0036593740805983543,0.04121285676956177,7.710309728281572e-05,0.9992448687553406,-0.038804322481155396,0.0019854712300002575
341.0,-0.1667046695947647,-0.6687248349189758,1.577763319015503,-2.479823589324951,-1.5707964897155762,1.404091715812683,1.2989845275878906,-0.01474968995898962,0.04154500365257263,4.657665746143902e-12,1.0,8.369403872166004e-07,-5.565110313909827e-06
342.0,-0.1721893697977066,-0.6751152276992798,1.595496654510498,-2.4957363605499268,-1.5692782402038574,1.398608684539795,1.2897863388061523,-0.02005399577319622,0.041543737053871155,-8.487511422572425e-07,0.9999971389770508,0.0003572717832867056,0.0023756385780870914
343.0,-0.17977498471736908,-0.6717718839645386,1.586213231086731,-2.4874343872070312,-1.5696574449539185,1.391021728515625,1.294379472732544,-0.030765729025006294,0.04154466092586517,-4.3027762330893893e-07,0.9999993443489075,0.0003638582129497081,0.0011825410183519125
344.0,-0.1872081458568573,-0.6680045127868652,1.5758709907531738,-2.4784135818481445,-1.5707299709320068,1.383588194847107,1.2994146347045898,-0.04155847057700157,0.04154500365257263,6.486691184193205e-09,1.0,5.5779826652724296e-05,-0.00011629099026322365
345.0,-0.18859049677848816,-0.6765258312225342,1.599351167678833,-2.498966932296753,-1.5668511390686035,1.3822077512741089,1.2873321771621704,-0.04045050963759422,0.041542693972587585,-4.302648903831141e-06,0.9999945759773254,0.0014365804381668568,0.002995047252625227
346.0,-0.18711693584918976,-0.6834319233894348,1.618708848953247,-2.5163774490356445,-1.5652954578399658,1.3836883306503296,1.2773616313934326,-0.036410436034202576,0.04153749346733093,-9.720731213747058e-06,0.9999829530715942,0.0017439831281080842,0.0055737728253006935
347.0,-0.17885902523994446,-0.6796180009841919,1.6079994440078735,-2.5067508220672607,-1.5668790340423584,1.3919419050216675,1.2831716537475586,-0.02711319364607334,0.04154099524021149,-5.108478490001289e-06,0.9999909996986389,0.0012537132715806365,0.004074642434716225
348.0,-0.17879478633403778,-0.6859456896781921,1.6258426904678345,-2.522933006286621,-1.5656118392944336,1.3920142650604248,1.2738828659057617,-0.025153063237667084,0.04153528809547424,-9.482226232648827e-06,0.9999780058860779,0.0014625350013375282,0.006483276840299368
349.0,-0.16762028634548187,-0.682708740234375,1.6170897483825684,-2.516094923019409,-1.5723211765289307,1.403185248374939,1.2786458730697632,-0.012738579884171486,0.04153832793235779,8.73636054166127e-06,0.9999849200248718,-0.0016624259296804667,0.0052551086992025375
350.0,-0.14118535816669464,-0.6777878403663635,1.6111892461776733,-2.526151180267334,-1.6607224941253662,1.4290401935577393,1.2814723253250122,0.0068869562819600105,0.041074126958847046,0.0002082733262795955,0.9989292621612549,-0.04604233801364899,0.004518674220889807
351.0,-0.14611083269119263,-0.6852116584777832,1.6309936046600342,-2.542417526245117,-1.6475704908370972,1.42426598072052,1.2711713314056396,0.004137696698307991,0.04118436574935913,0.0002862091059796512,0.9991800785064697,-0.03984666243195534,0.007176873739808798
352.0,-0.12951549887657166,-0.6874770522117615,1.6461185216903687,-2.5660085678100586,-1.7064610719680786,1.4400957822799683,1.2625118494033813,0.017217189073562622,0.0399838387966156,0.0006482330500148237,0.9975340366363525,-0.06956300139427185,0.00929566752165556
353.0,-0.17257319390773773,-0.6926273107528687,1.6449254751205444,-2.5404789447784424,-1.565000057220459,1.3982487916946411,1.263971209526062,-0.015380552969872952,0.04152652621269226,-1.2345864888629876e-05,0.9999580383300781,0.0013625228311866522,0.009060652926564217
354.0,-0.16023418307304382,-0.6987753510475159,1.6662371158599854,-2.5683441162109375,-1.6069124937057495,1.4105030298233032,1.2526288032531738,-0.004485141020268202,0.04142351448535919,0.00024206642410717905,0.9997238516807556,-0.02022377774119377,0.011966092512011528
355.0,-0.1778057962656021,-0.7027742266654968,1.6742303371429443,-2.567382574081421,-1.5622717142105103,1.3930459022521973,1.2482967376708984,-0.01876728981733322,0.041506290435791016,-2.5886387447826564e-05,0.9999120831489563,0.001972825964912772,0.013120322488248348
356.0,-0.17083996534347534,-0.7074790000915527,1.689184546470642,-2.5842223167419434,-1.5760926008224487,1.4000334739685059,1.2403182983398438,-0.01084175519645214,0.041488125920295715,8.053280907915905e-05,0.9998708367347717,-0.005304965190589428,0.015178687870502472
357.0,-0.1876850426197052,-0.7085327506065369,1.6906883716583252,-2.581477642059326,-1.555723786354065,1.383180022239685,1.2392284870147705,-0.02839459665119648,0.04148775339126587,-7.312707020901144e-05,0.9998700022697449,0.00474255857989192,0.015417326241731644
358.0,-0.1916390061378479,-0.7150816917419434,1.710013747215271,-2.5992300510406494,-1.5529261827468872,1.3792541027069092,1.2286640405654907,-0.030828509479761124,0.04146572947502136,-0.0001012770808301866,0.999819815158844,0.005580801051110029,0.018144140020012856
359.0,-0.1983339935541153,-0.7111685276031494,1.6980018615722656,-2.586944818496704,-1.5491982698440552,1.3725248575210571,1.2349339723587036,-0.03977416083216667,0.04147273302078247,-0.00012702052481472492,0.999834418296814,0.007698725443333387,0.016496170312166214
360.0,-0.20281782746315002,-0.7188364863395691,1.7206226587295532,-2.607370376586914,-1.5443586111068726,1.3680663108825684,1.2224997282028198,-0.04203100502490997,0.041440874338150024,-0.0001860468473751098,0.9997614026069641,0.009443243965506554,0.019696878269314766
361.0,-0.18824619054794312,-0.7221598625183105,1.7313976287841797,-2.6195647716522217,-1.5521883964538574,1.3826876878738403,1.2170870304107666,-0.024319825693964958,0.04144003987312317,-0.00011512343189679086,0.9997614622116089,0.005440743640065193,0.02115445025265217
362.0,-0.17853638529777527,-0.7133246064186096,1.7052891254425049,-2.596198797225952,-1.5594273805618286,1.3923583030700684,1.2315348386764526,-0.01621105894446373,0.04147639870643616,-4.584716589306481e-05,0.9998441934585571,0.002625216031447053,0.01746142841875553
363.0,-0.13737589120864868,-0.7078532576560974,1.7035194635391235,-2.618048906326294,-1.6896413564682007,1.4325224161148071,1.2318155765533447,0.01414863858371973,0.040514469146728516,0.0010835391003638506,0.99790358543396,-0.06234188750386238,0.01734415628015995
364.0,-0.12597016990184784,-0.43176260590553284,1.010337233543396,0.9493595957756042,1.7215739488601685,1.2926679849624634,1.252888560295105,0.020576614886522293,0.039312198758125305,0.9941696524620056,0.07416306436061859,0.005822860635817051,0.07805652916431427
365.0,-0.11667373031377792,-0.4448759853839874,1.042341947555542,0.9218607544898987,1.7568005323410034,1.2991235256195068,1.2409905195236206,0.028193725273013115,0.03769537806510925,0.9925461411476135,0.07467938214540482,0.007225796114653349,0.09603636711835861
366.0,-0.10680876672267914,-0.4530509412288666,1.0642858743667603,0.9015433192253113,1.7924593687057495,1.3125056028366089,1.2323461771011353,0.03590615838766098,0.03591224551200867,0.9908409714698792,0.07197381556034088,0.008277546614408493,0.11395440250635147
367.0,-0.0920599028468132,-0.44497913122177124,1.053763747215271,0.9066057205200195,1.8190020322799683,1.3487530946731567,1.2348755598068237,0.04978267475962639,0.03245258331298828,0.9900569915771484,0.061000194400548935,0.0077948374673724174,0.12651327252388
368.0,-0.09023953974246979,-0.4290952682495117,1.0193768739700317,0.9317595958709717,1.8189051151275635,1.3746556043624878,1.2470885515213013,0.05093158781528473,0.03218185901641846,0.990789532661438,0.04949166625738144,0.006288192700594664,0.12588535249233246
369.0,-0.08944802731275558,-0.40963292121887207,0.9765235781669617,0.9627512693405151,1.8176876306533813,1.4038732051849365,1.261967658996582,0.050763413310050964,0.03224208950996399,0.9915339350700378,0.03589339926838875,0.0045143598690629005,0.12470652163028717
370.0,-0.09852014482021332,-0.4140149652957916,0.981270432472229,0.9598901867866516,1.8128759860992432,1.3905690908432007,1.261196255683899,0.04015325754880905,0.034918367862701416,0.9917267560958862,0.03790080174803734,0.00468367338180542,0.12255477160215378
371.0,-0.09664666652679443,-0.398216187953949,0.9472192525863647,0.9841808080673218,1.814782977104187,1.4162667989730835,1.272515892982483,0.041124120354652405,0.034684762358665466,0.9920432567596436,0.02642979472875595,0.0032782501075416803,0.12304922193288803
372.0,-0.11464834958314896,-0.39510828256607056,0.9331064224243164,1.0012396574020386,1.7527045011520386,1.3980315923690796,1.2783992290496826,0.027017997577786446,0.03798685967922211,0.9953638315200806,0.027497868984937668,0.0025452233385294676,0.09213162213563919
373.0,-0.11383309960365295,-0.3810342252254486,0.9024033546447754,1.0229886770248413,1.7526376247406006,1.425593614578247,1.28822660446167,0.026944315060973167,0.0380050390958786,0.9956789016723633,0.014417925849556923,0.0013282571453601122,0.09172730147838593
374.0,-0.09386242181062698,-0.38106846809387207,0.9108015298843384,1.0100481510162354,1.8150795698165894,1.4432166814804077,1.2841432094573975,0.043516531586647034,0.034087374806404114,0.9923215508460999,0.01484115980565548,0.0018362709088250995,0.12277822941541672
