Sungjin-Park-dev/vision_inspection/data/output/593/joint_trajectory_dp_20251102_105017.csv
time,ur20-shoulder_pan_joint,ur20-shoulder_lift_joint,ur20-elbow_joint,ur20-wrist_1_joint,ur20-wrist_2_joint,ur20-wrist_3_joint,target-POS_X,target-POS_Y,target-POS_Z,target-ROT_X,target-ROT_Y,target-ROT_Z,target-ROT_W
0.0,-0.5954256170974856,-1.76326626373479,2.1178325187034237,-1.8664164554542402,-1.4718910579747873,-2.169536514035686,0.6747062560170889,-0.19589129090309143,0.6667263433337212,0.9983447790145874,0.00019782836898230016,0.003440186847001314,-0.05740993469953537
1.0,-0.6044849455594864,-1.7611430441193414,2.1114867881577375,-1.8341202313369234,-1.4154414389007612,-2.1836177160307257,0.6764394827187061,-0.19393843412399292,0.6669165641069412,0.9960466027259827,0.0007764623151160777,0.008748958818614483,-0.08839824795722961
2.0,-0.5848643209805545,-1.7453997099426977,2.103710049381651,-1.8686485211818304,-1.4605500486507983,-2.159671854665018,0.6893337750807405,-0.19500800967216492,0.6669360250234604,0.9980263710021973,0.00033642639755271375,0.00536642549559474,-0.06256724148988724
3.0,-0.5826715057290468,-1.7356625010204807,2.096496431994415,-1.8714145515190044,-1.4604178211263659,-2.1574696441693266,0.696171406423673,-0.19769692420959473,0.6666710674762726,0.9980263710021973,0.00033642639755271375,0.00536642549559474,-0.06256724148988724
4.0,-0.5925871834815218,-1.7403730676509472,2.095712443219638,-1.8409785875294302,-1.414418430953866,-2.1716185530807395,0.6926111653447151,-0.1950559914112091,0.6670007109642029,0.9960466027259827,0.0007764623151160777,0.008748958818614483,-0.08839824795722961
5.0,-0.5453385055796068,-1.7546276240656156,2.1152462652416952,-1.9091711739885828,-1.513220940212558,-2.1171060994272155,0.6903115240857005,-0.1733323633670807,0.6691023260354996,0.9995239973068237,0.00016528519336134195,0.00543960789218545,-0.030371036380529404
6.0,-0.7528134896084765,-1.6607122219053467,2.0349906711539716,-1.3776241478449,-0.9667880551307481,-2.544543190781237,0.6840373538434505,-0.24533626437187195,0.6356881149113178,0.9201632738113403,0.0182903241366148,0.043298013508319855,-0.3887033760547638
7.0,-0.7553359296972495,-1.670237611127166,2.0392807677464537,-1.3709238849819725,-0.9681453848656109,-2.5471251469645,0.6781035009771585,-0.24229517579078674,0.6382696703076363,0.9201632738113403,0.0182903241366148,0.043298013508319855,-0.3887033760547638
8.0,-0.7598901914344505,-1.6643202419953997,2.0370916817405043,-1.3535196492321973,-0.9486005267455065,-2.573062081033663,0.6793929114937782,-0.2442573606967926,0.636323656886816,0.9149463772773743,0.021765058860182762,0.04979715868830681,-0.39989954233169556
9.0,-0.7517375810334568,-1.6629421484159626,2.034790158651053,-1.3758202820848393,-0.9662100557042517,-2.543440426085008,0.6835322938859463,-0.24378114938735962,0.6372468024492264,0.9201632738113403,0.0182903241366148,0.043298013508319855,-0.3887033760547638
10.0,-0.5860835956240338,-1.7167441759430973,2.069730633217991,-1.800516450060035,-1.4141281559463532,-2.1650566071216653,0.7058047847822309,-0.19842109084129333,0.6663824170827866,0.9950519800186157,-0.0007518944912590086,-0.007552296854555607,-0.09906575828790665
11.0,-0.5387577919352151,-1.729074850484499,2.092639849409817,-1.8992894383629166,-1.5211018434636834,-2.1102868232597007,0.7070436533540487,-0.17952919006347656,0.6687926352024078,0.9995377063751221,-6.946646317373961e-05,-0.002290289383381605,-0.030316846445202827
12.0,-0.6921007970245042,-1.4522116879143943,1.830552159302984,-0.865651804058463,-0.9763503428297893,-2.3188080855368964,0.7537536695599556,-0.2514546811580658,0.6224660072475672,-0.8231441974639893,0.12805211544036865,0.20516717433929443,0.5137535333633423
13.0,-0.6476303813128925,-1.4033046154018471,1.7761567576443082,-0.8306621585852976,-1.06801174572724,-2.117605804263189,0.7813733071088791,-0.24582470953464508,0.6181373819708824,0.8147569894790649,-0.17266832292079926,-0.30427196621894836,-0.46235841512680054
14.0,-0.48669977829106104,-1.2810790298926698,1.6157163208263174,-0.7436614284183729,-1.3074293346650108,-1.8165280736282812,0.8739976286888123,-0.18962877988815308,0.6176408752799034,0.8140707015991211,-0.1711406707763672,-0.46863412857055664,-0.2972908020019531
15.0,-0.4320323407723757,-1.263289101999094,1.5696491249644167,-0.7066002436120692,-1.3842819867485547,-1.7669934195155725,0.8935711681842804,-0.15916576981544495,0.6323069557547569,0.8181211352348328,-0.1487237960100174,-0.49913445115089417,-0.24377016723155975
16.0,-0.4851165062476222,-1.2947333301262107,1.609383610157794,-0.723844724947876,-1.3059767211779951,-1.8158756401855372,0.8685876131057739,-0.18499070405960083,0.6347405463457108,0.8140707015991211,-0.1711406707763672,-0.46863412857055664,-0.2972908020019531
17.0,-0.47218055653917307,-1.2907098450608652,1.5990288182282522,-0.7189351972306034,-1.2941350631069368,-1.8105161971736352,0.8765971660614014,-0.17466819286346436,0.6382712386548519,0.814069390296936,-0.1711387038230896,-0.4686432480812073,-0.2972811162471771
18.0,-0.5205867541818232,-1.3226833574562857,1.6406356461919998,-0.7420437669432435,-1.2112629237337373,-1.8747233627165782,0.8537690043449402,-0.19522954523563385,0.6394739486277103,0.8112180829048157,-0.18578675389289856,-0.42881032824516296,-0.3514690399169922
19.0,-0.6238451761811512,-1.4123043489446954,1.7443030487015545,-0.7957766255772498,-1.0467007920609606,-2.1054724493918107,0.7929533049464226,-0.2279285341501236,0.6477569788694382,0.8147579431533813,-0.17266613245010376,-0.3042668402194977,-0.4623608887195587
20.0,-0.5786321080652395,-1.3793101237837773,1.6915023787047667,-0.752259291719847,-1.135765554898953,-1.9710001583230052,0.8142466843128204,-0.21412351727485657,0.65499597042799,0.8109170794487,-0.18861089646816254,-0.3760262429714203,-0.4067476689815521
21.0,-0.4226906691819281,-1.2839245567397597,1.5534038616022814,-0.6704232155986125,-1.3756798825101135,-1.7632831776385458,0.8873455822467804,-0.14593097567558289,0.663326695561409,0.8181211352348328,-0.1487237960100174,-0.49913445115089417,-0.24377016723155975
22.0,-0.3660275981859961,-1.2619230980976615,1.5178516131066742,-0.6507726861489996,-1.4510206016779845,-1.7246807445179337,0.9066596329212189,-0.11251800507307053,0.667070060968399,0.8223904371261597,-0.12094716727733612,-0.5222799181938171,-0.19044533371925354
23.0,-0.5541372513905098,-1.5065647775991153,1.7406497622419015,-1.0194753918135568,-1.2029449906259708,-2.0843650663292346,0.7939817160367966,-0.18970079720020294,0.7130484879016876,0.9066888689994812,-0.08839821815490723,-0.23790043592453003,-0.33690428733825684
24.0,-0.6167999936166397,-1.4373345730231328,1.7255809878331467,-0.7538586899667071,-1.040408914990166,-2.1018107765858933,0.7862069606781006,-0.21539945900440216,0.6813854873180389,0.8147569894790649,-0.17266832292079926,-0.30427196621894836,-0.46235841512680054
25.0,-0.7787038802898452,-1.621527762512451,1.9443908993954775,-0.9294025132366945,-0.7434017131885414,-3.0003325554375597,0.685307189822197,-0.23424237966537476,0.6755740940570831,-0.8282800912857056,-0.08275429904460907,-0.12707319855690002,0.5394035577774048
26.0,-0.7539881181810868,-1.757765661516939,2.0291520354267303,-1.3495977588034984,-0.8695461706160097,-2.6181730554613387,0.662372600287199,-0.20971915125846863,0.708727553486824,0.9132756590843201,0.0502873994410038,0.11887135356664658,-0.3863525986671448
27.0,-0.7462834587191405,-1.7557361164070016,2.0226492080405536,-1.3508870399797226,-0.8659221441776109,-2.6092604089031286,0.6670384854078293,-0.20686714351177216,0.7130034118890762,0.9132756590843201,0.0502873994410038,0.11887135356664658,-0.3863525986671448
28.0,-0.7484037877725298,-1.7530615456243843,2.019643102215511,-1.3306696819945125,-0.8380560659158823,-2.643177154082551,0.6689028926193714,-0.20600518584251404,0.7144618183374405,0.9064787030220032,0.05715513601899147,0.13032318651676178,-0.39754945039749146
29.0,-0.7091282782677177,-1.856269437445071,2.1132137321848927,-1.7087871329802473,-0.9769642484523077,-2.405497711535554,0.6462785750627518,-0.175907701253891,0.7323465496301651,0.9537628293037415,0.042536962777376175,0.1629803478717804,-0.2489267736673355
30.0,-0.7217376618719118,-1.9186717555325326,2.172383330108574,-1.7865206330803238,-0.9718922876659964,-2.3990951967237324,0.6150368452072144,-0.1576801836490631,0.7303601950407028,0.9542686343193054,0.04528149589896202,0.19341593980789185,-0.22340822219848633
31.0,-0.5384187886364699,-1.92933264059952,2.175661754259347,-2.0221626925181746,-1.3621880371831825,-2.098419547523215,0.6267736777663231,-0.10301576554775238,0.7504376769065857,0.9893864989280701,0.005314665846526623,0.1402902454137802,-0.03748128563165665
32.0,-0.6295571193544057,-1.9749493776320737,2.2283743255061177,-2.029182240782525,-1.1741266461133588,-2.2000798172233096,0.5991227775812149,-0.11399643868207932,0.7392352819442749,0.9752551317214966,0.020023705437779427,0.19645841419696808,-0.09940130263566971
33.0,-0.5326818474127142,-1.9714391460590583,2.213710260024023,-2.041666214263868,-1.3739539271029746,-2.0890921510794547,0.6003962159156799,-0.08559012413024902,0.7439333945512772,0.9887220859527588,0.004095172509551048,0.14715564250946045,-0.027514996007084846
34.0,-0.4713600015642725,-1.940346804739229,2.1836818354272305,-2.0362734094013692,-1.4589863468025261,-2.0296717785688148,0.6203427538275719,-0.07124999910593033,0.7500609010457993,0.9923046231269836,-7.551809630967909e-07,0.12382052093744278,6.052063326933421e-06
35.0,-0.5287429238100176,-1.912517135191843,2.1596289334965943,-2.0172250601591806,-1.3601534469713399,-2.0899754690249366,0.6389482244849205,-0.10313837230205536,0.7538545429706573,0.9895633459091187,0.005727553274482489,0.13800403475761414,-0.041069645434617996
36.0,-0.6247918934454055,-1.8957437532865729,2.139208851014319,-1.8860544150890155,-1.148542087568234,-2.227390158995975,0.642015602439642,-0.1372215747833252,0.7485658228397369,0.976922333240509,0.023057207465171814,0.15331780910491943,-0.1469177007675171
37.0,-0.5295753374731523,-1.8911353179103083,2.1387458471619807,-2.002993352009253,-1.3629417941952229,-2.092654174558101,0.6521328687667847,-0.11192583292722702,0.7566771805286407,0.9904009103775024,0.005739292129874229,0.13112570345401764,-0.0433492437005043
38.0,-0.5235267841535699,-1.8918868231066774,2.1392856103999907,-2.005834545066504,-1.35956709627811,-2.0865394564373094,0.652849730104208,-0.1074211597442627,0.7572921961545944,0.9900855422019958,0.0060226391069591045,0.13297973573207855,-0.04484087973833084
39.0,-0.5287759850233618,-1.8900543462709538,2.138216237776686,-2.0054890786732544,-1.358590765155558,-2.0918148535457246,0.6534093655645847,-0.11133771389722824,0.7570767402648926,0.9900855422019958,0.0060226391069591045,0.13297973573207855,-0.04484087973833084
40.0,-0.6093509258873016,-1.855249442374467,2.094901774029959,-1.8351962359113994,-1.1601188404135978,-2.2177045015282753,0.6658593975007534,-0.14450089633464813,0.753208115696907,0.9786970615386963,0.02090412937104702,0.12960974872112274,-0.15784931182861328
41.0,-0.6086313955512668,-1.8524105533197799,2.0927260097346148,-1.8360549527033485,-1.171485293597104,-2.2147124851868254,0.6669113524258137,-0.14664727449417114,0.7527631670236588,0.9798625707626343,0.019762739539146423,0.12614278495311737,-0.15351468324661255
42.0,-0.6138831467824643,-1.8562692832625571,2.0968049301781075,-1.8340592391217094,-1.1713601284499124,-2.2204112081987373,0.6632499881088734,-0.14809492230415344,0.7513238936662674,0.9798625707626343,0.019762739539146423,0.12614278495311737,-0.15351468324661255
43.0,-0.6943813068277767,-1.824006249656209,2.068096810068196,-1.607281702577867,-0.9728646426982107,-2.411144189281265,0.661220908164978,-0.17601828277111053,0.7370805740356445,0.9501927495002747,0.03887179121375084,0.13210661709308624,-0.279589980840683
44.0,-0.6937801534978267,-1.8189854134233643,2.0653930384017922,-1.6099994937890674,-0.972740852576981,-2.410432400569134,0.6642952300608158,-0.17806926369667053,0.7365788072347641,0.9501927495002747,0.03887179121375084,0.13210661709308624,-0.279589980840683
45.0,-0.586803619121584,-1.667815421472208,1.8817526791825747,-1.3325953544399112,-1.1783212113222348,-2.2051647832722776,0.7348613068461418,-0.17638474702835083,0.7416982501745224,0.9566195011138916,-0.020961914211511612,-0.0711757093667984,-0.2817334234714508
46.0,-0.6141705397965626,-1.6973333004708235,1.9204284108243648,-1.393370134815693,-1.1259514205925858,-2.2622891117235246,0.7214678507298231,-0.18154755234718323,0.7398132085800171,0.9568548202514648,-0.006902710068970919,-0.02280792035162449,-0.28958767652511597
47.0,-0.6185817857076569,-1.7000043755696066,1.9237187738728392,-1.3920580358717898,-1.127675283672294,-2.2667855148267186,0.718242583796382,-0.18330255150794983,0.7387963235378265,0.9568548202514648,-0.006902710068970919,-0.02280792035162449,-0.28958767652511597
48.0,-0.674869875541466,-1.6408820626384633,1.8931521151826938,-1.1663785859472715,-0.9893219592774264,-2.411466240050065,0.7194041553884745,-0.20969878137111664,0.7149221003055573,0.9113926887512207,-0.017030982300639153,-0.037910670042037964,-0.40943387150764465
49.0,-0.5525548567081657,-1.625986816593481,1.8379284562113152,-1.2910213113662043,-1.2294047881134682,-2.142529636299112,0.759616531431675,-0.1715671718120575,0.7403180003166199,0.9561851620674133,-0.032176535576581955,-0.1151246577501297,-0.2672470211982727
50.0,-0.509052699083533,-1.5854320392290537,1.7931596878620293,-1.2564823352784666,-1.2778106328876528,-2.074883413948495,0.7875367626547813,-0.1583160012960434,0.7404395937919617,0.9556825757026672,-0.04004278406500816,-0.15481770038604736,-0.24718229472637177
51.0,-0.5135457383746349,-1.583654370677023,1.794526873977335,-1.258457477732849,-1.2800533715113394,-2.078948602346185,0.7873197495937347,-0.16251660883426666,0.738057553768158,0.9556825757026672,-0.04004278406500816,-0.15481770038604736,-0.24718229472637177
52.0,-0.5192360997104337,-1.5914332930707826,1.7998445385033268,-1.2544723489741507,-1.2829047127100313,-2.0840778088124683,0.7803468480706215,-0.1640302687883377,0.7394933998584747,0.9556753039360046,-0.04005163162946701,-0.15484455227851868,-0.2471921741962433
53.0,-0.490358869241991,-1.6853325112751425,1.8919365488071516,-1.5226685813131655,-1.3585840320348659,-2.06921575592647,0.7546842321753502,-0.13819850981235504,0.757055938243866,0.9863677024841309,-0.009477267973124981,-0.06133795902132988,-0.15240268409252167
54.0,-0.5196599037836821,-1.7226626006368393,1.9278840638126151,-1.5482623560364348,-1.3306680439610963,-2.105713587893733,0.7294031493365765,-0.14345115423202515,0.757910430431366,0.9864456653594971,-0.006085315719246864,-0.03761083632707596,-0.1596038043498993
55.0,-0.4387394063776134,-1.7419684363060701,1.9573684306305168,-1.7140270125911543,-1.5025377304397411,-2.010321063642965,0.7351577132940292,-0.11131248623132706,0.7649249732494354,0.9987675547599792,-0.0008388570277020335,-0.018136927857995033,-0.046194322407245636
56.0,-0.4300561594240224,-1.7438692626007921,1.9581076098237575,-1.7135824682831198,-1.5019255275343049,-2.0016412345366104,0.7349404916167259,-0.10429086536169052,0.7655838429927826,0.9987698197364807,-0.0008358416380360723,-0.018083734437823296,-0.04616376757621765
57.0,-0.4220965421473766,-1.7399524730328915,1.954724161930283,-1.7146657340663267,-1.5013594591465251,-1.993682749305968,0.7388256080448627,-0.09972468763589859,0.7658663988113403,0.9987698197364807,-0.0008358416380360723,-0.018083734437823296,-0.04616376757621765
58.0,-0.4633104172759538,-1.6690802804771765,1.8698289912543666,-1.493374517243902,-1.389058857584829,-2.0352830412238716,0.7651619538664818,-0.12639710307121277,0.7591665387153625,0.9862645864486694,-0.012000393122434616,-0.08326373994350433,-0.14214546978473663
59.0,-0.3793483695883857,-1.693005887585156,1.9121904406804322,-1.6973938978977223,-1.5324712213622216,-1.9494079517384775,0.7738092243671417,-0.08573658019304276,0.7651726305484772,0.9987449645996094,-0.00125464319717139,-0.035903774201869965,-0.03490075096487999
60.0,-0.426700063033595,-1.6379174698717782,1.838503960356403,-1.4751694867807161,-1.4182237010252436,-1.9929085174240442,0.7884992361068726,-0.11191979795694351,0.7588043808937073,0.9861472845077515,-0.013508515432476997,-0.1030440405011177,-0.12927857041358948
61.0,-0.4359289332384925,-1.6420922384195786,1.8429306089954747,-1.4741249167516073,-1.4209174135419103,-2.0018405914505983,0.7837290316820145,-0.1179199069738388,0.7581761479377747,0.9861506819725037,-0.01350469421595335,-0.10302063822746277,-0.12927180528640747
62.0,-0.4404496340288246,-1.6412508091529663,1.8434289750025157,-1.4748150208079316,-1.4222440192218617,-2.0062108263706904,0.7834580540657043,-0.12181278318166733,0.757172018289566,0.9861506819725037,-0.01350469421595335,-0.10302063822746277,-0.12927180528640747
63.0,-0.4579129843788211,-1.6521098688839804,1.8587967202898956,-1.5002101819947433,-1.3875800878967475,-2.0299999778000877,0.7783782035112381,-0.12819813191890717,0.7563807219266891,0.9862605333328247,-0.012005424126982689,-0.08329111337661743,-0.14215773344039917
64.0,-0.4322905218968873,-1.633375221430621,1.8370986423316042,-1.4774887949883202,-1.4198577489605004,-1.9983169947057429,0.7907348573207855,-0.1179264634847641,0.7566942274570465,0.9861472845077515,-0.013508515432476997,-0.1030440405011177,-0.12927857041358948
65.0,-0.4325775962194835,-1.632469881071984,1.8366343850840168,-1.4778881394943664,-1.419941776316472,-1.9985946512852344,0.7913358360528946,-0.11846072226762772,0.7564215660095215,0.9861472845077515,-0.013508515432476997,-0.1030440405011177,-0.12927857041358948
66.0,-0.4145193876463149,-1.618563994510988,1.8205579348959011,-1.4592273017862152,-1.4559144846626333,-1.9752398560007773,0.7992510497570038,-0.11276082694530487,0.756177693605423,0.9860482215881348,-0.013931686989963055,-0.12041899561882019,-0.1140793040394783
67.0,-0.4395124037648132,-1.532704219497581,1.7307588630417368,-1.199662549054754,-1.386466597658012,-1.9708518127735344,0.8212689980864525,-0.13278746604919434,0.7406684011220932,0.95500648021698,-0.044688597321510315,-0.21930168569087982,-0.1946081668138504
68.0,-0.4329770230290013,-1.5277568062582532,1.726552044658733,-1.2013361563285596,-1.382973057130601,-1.965223408650301,0.8263425379991531,-0.1287858784198761,0.7400994449853897,0.9549925923347473,-0.04470127448439598,-0.21935531497001648,-0.19461295008659363
69.0,-0.4262241658292438,-1.5255598356994027,1.7232391123993434,-1.2013130529438965,-1.3793420232345068,-1.9594259052811887,0.8295534253120422,-0.12367013096809387,0.7409599423408508,0.9549925923347473,-0.04470127448439598,-0.21935531497001648,-0.19461295008659363
70.0,-0.451078900983743,-1.4346691670172451,1.6497119292072357,-0.9581158171061789,-1.3303651411622626,-1.9249612846869006,0.847304031252861,-0.14625796675682068,0.7161320298910141,0.9055638313293457,-0.09220001846551895,-0.3242969214916229,-0.25745853781700134
71.0,-0.4565645524809068,-1.4376073963467315,1.653147746994387,-0.9577118689127296,-1.334406413980584,-1.9287787803167493,0.8436251729726791,-0.15017220377922058,0.7160207182168961,0.9055638313293457,-0.09220001846551895,-0.3242969214916229,-0.25745853781700134
72.0,-0.4509059740162443,-1.430574289406395,1.649296446991341,-0.9618985766110392,-1.3302146451104133,-1.9248700865883268,0.849990576505661,-0.14737489819526672,0.7130309715867043,0.9055788516998291,-0.09218795597553253,-0.32425656914711,-0.2574611306190491
73.0,-0.4091988710255163,-1.407978200973011,1.6191223293857344,-0.9389253149586325,-1.4015886595266374,-1.8712267036596175,0.8652290552854538,-0.127821147441864,0.7140610590577126,0.905985951423645,-0.08394443243741989,-0.35549142956733704,-0.21393615007400513
74.0,-0.3658257692327209,-1.3870144074009245,1.5934566002026516,-0.9242323654350492,-1.4728319108706112,-1.825684554737382,0.8802632838487625,-0.10579726099967957,0.7134210616350174,0.9068045020103455,-0.07063751667737961,-0.3798394203186035,-0.1686355173587799
75.0,-0.3625514572646012,-1.3857822474025732,1.5920688172777182,-0.9244863543835817,-1.4702759388976752,-1.8235815986596176,0.8818542808294296,-0.10296859592199326,0.7133585810661316,0.9068441987037659,-0.07062578201293945,-0.3797358572483063,-0.16866089403629303
76.0,-0.3539451855888895,-1.4837558770469048,1.6770561587800226,-1.170419263106757,-1.4912073031444084,-1.8735922414553008,0.8581540286540985,-0.08973176777362823,0.7384472191333771,0.9548989534378052,-0.036067090928554535,-0.2643817067146301,-0.13026781380176544
77.0,-0.34519419765092996,-1.4819518113973793,1.6740603309386495,-1.1698240169837795,-1.4863140293808719,-1.866312708794628,0.8609293699264526,-0.08214651048183441,0.7392417788505554,0.9548989534378052,-0.036067090928554535,-0.2643817067146301,-0.13026781380176544
78.0,-0.3205884823335539,-1.4752574774776661,1.6641403941823083,-1.1604035366766448,-1.5508186498293202,-1.839410869633403,0.8638818562030792,-0.07180707901716232,0.7403077185153961,0.9549967050552368,-0.027772454544901848,-0.27967238426208496,-0.09483455121517181
79.0,-0.3468256056507881,-1.4876692593841216,1.6766426522484121,-1.1665749554945752,-1.4872259304988107,-1.8676702468780573,0.8565061986446381,-0.0821501761674881,0.7418932020664215,0.9548989534378052,-0.036067090928554535,-0.2643817067146301,-0.13026781380176544
80.0,-0.35725995553961715,-1.492113354953006,1.6810682151100078,-1.1660461465366827,-1.4929793481286995,-1.8763902829880064,0.8515771180391312,-0.0905245766043663,0.742133229970932,0.9549254775047302,-0.03605618700385094,-0.26427996158599854,-0.1302821785211563
81.0,-0.39185016921252436,-1.5045263785793324,1.6991042301425232,-1.182344915557119,-1.4354556914326215,-1.9157041593760713,0.8433376103639603,-0.10847217589616776,0.7401770055294037,0.9548981785774231,-0.04185587540268898,-0.24418596923351288,-0.16367892920970917
82.0,-0.3948891258394812,-1.5094990674317506,1.701869609823842,-1.1797132789405476,-1.437156859858893,-1.9182447071944757,0.8391387015581131,-0.10970532894134521,0.7419786155223846,0.9548870325088501,-0.041863422840833664,-0.24422895908355713,-0.16367770731449127
83.0,-0.37835052341450703,-1.5986865256121225,1.7989532924976603,-1.4468849155835442,-1.4876513644575755,-1.9358076294123066,0.8150787279009819,-0.09390752762556076,0.7565044164657593,0.985973060131073,-0.01328334305435419,-0.13533486425876617,-0.09677492082118988
84.0,-0.37979559158706544,-1.6031923729609519,1.8018469927683927,-1.4452018353269247,-1.4880968311734382,-1.9371875503395797,0.8115127086639404,-0.09379006922245026,0.7575262039899826,0.9859761595726013,-0.013281013816595078,-0.13531211018562317,-0.09677451848983765
85.0,-0.3799936086224316,-1.6074779273055597,1.804371165052886,-1.443424901221325,-1.488159920292637,-1.937375891448421,0.80829306691885,-0.09268268942832947,0.7586547881364822,0.9859761595726013,-0.013281013816595078,-0.13531211018562317,-0.09677451848983765
86.0,-0.37682179125690957,-1.604530305501363,1.8021285565712557,-1.444380469371825,-1.4871497175084503,-1.9343588243931342,0.810957245528698,-0.09089098870754242,0.7582782804965973,0.9859761595726013,-0.013281013816595078,-0.13531211018562317,-0.09677451848983765
87.0,-0.3738625253674794,-1.602564343025349,1.8004823130504768,-1.4449367292818491,-1.4862078942715506,-1.9315434780076217,0.8128565698862076,-0.08897620439529419,0.7581410557031631,0.9859761595726013,-0.013281013816595078,-0.13531211018562317,-0.09677451848983765
88.0,-0.3698667731212527,-1.601694103369101,1.799294785932155,-1.4449430827060266,-1.484937256675188,-1.927741339078586,0.8140818700194359,-0.08585774898529053,0.7584401369094849,0.9859761595726013,-0.013281013816595078,-0.13531211018562317,-0.09677451848983765
89.0,-0.328041626178463,-1.6675485702079644,1.8883848512049144,-1.692173350239605,-1.5539831894506768,-1.8975455094622433,0.7954128682613373,-0.05564706400036812,0.7653164714574814,0.9987279772758484,-0.001063274103216827,-0.04436708614230156,-0.023934895172715187
90.0,-0.3395125032904822,-1.7336306942523598,1.9635249909125205,-1.8006906235918558,-1.5707963263963975,-1.9103088302904823,0.7544047832489014,-0.05327881872653961,0.7665450274944305,1.0,0.0,0.0,0.0
91.0,-0.33782954635125295,-1.7503347080281098,1.9767735078197173,-1.7972389947108116,-1.5708073369953544,-1.9086258733512538,0.7416444830596447,-0.047497138381004333,0.7665455639362335,1.0,0.0,0.0,5.835122465214226e-06
92.0,-0.3144105545344045,-1.702516676648646,1.9379613871493997,-1.8062410374373246,-1.5707963263947442,-1.8852068815344047,0.7798459008336067,-0.04224279522895813,0.7665450274944305,1.0,0.0,0.0,0.0
93.0,-0.3060680655825191,-1.6663998920605572,1.886268625840389,-1.689663138860243,-1.5657576475023964,-1.8754490501717704,0.7967316955327988,-0.040153272449970245,0.7658591121435165,0.9987215995788574,-0.0008339363266713917,-0.047387655824422836,-0.01757567934691906
94.0,-0.302511577365781,-1.6574186952459624,1.8792156456892604,-1.6916143941779918,-1.5653959466928529,-1.8719108053199376,0.803955614566803,-0.039472512900829315,0.7651961296796799,0.998721718788147,-0.0008339284104295075,-0.04738500714302063,-0.017576497048139572
95.0,-0.2701862256767902,-1.4666263344782542,1.6522364239935434,-1.156577644734888,-1.6022905206645954,-1.7945869202530544,0.8717542588710785,-0.03791498392820358,0.7419224083423615,0.9550942182540894,-0.017506718635559082,-0.2901151776313782,-0.05763423442840576
96.0,-0.2478338257404579,-1.561169226495529,1.7598059627967477,-1.4370971058386703,-1.628888207436187,-1.8048749441391545,0.8449602574110031,-0.015711167827248573,0.7568804025650024,0.9858195781707764,-0.0019764190074056387,-0.16739290952682495,-0.01163963507860899
97.0,-0.27564953050241936,-1.5711390618707208,1.7663722756548321,-1.4298489871484084,-1.591060346006545,-1.831305853323454,0.837177038192749,-0.031158970668911934,0.7587524354457855,0.9858400821685791,-0.005767845083028078,-0.163961723446846,-0.034679874777793884
98.0,-0.2965087495383888,-1.6942271720788387,1.9309550755697966,-1.8075242304310304,-1.57079632639364,-1.867305076538389,0.7870461419224739,-0.03028305619955063,0.7665450274944305,1.0,0.0,0.0,0.0
99.0,-0.29372015291982767,-1.702400258797945,1.9378635616697786,-1.8062596298124534,-1.5707963263934737,-1.8645164799198277,0.7806451395153999,-0.026127466931939125,0.7665450274944305,1.0,0.0,0.0,0.0
100.0,-0.2864437659353386,-1.7191248790962619,1.9517507917678263,-1.8034222396136141,-1.5707963263930467,-1.8572400929353388,0.7675807401537895,-0.016548600047826767,0.7665450274944305,1.0,0.0,0.0,0.0
101.0,-0.2783842032526303,-1.7154245054748587,1.9487070401027418,-1.8040788615715204,-1.5707963263925862,-1.8491805302526305,0.7706170529127121,-0.011198566295206547,0.7665450274944305,1.0,0.0,0.0,0.0
102.0,-0.2689552833449583,-1.7079196547518967,1.942483606893674,-1.8053602790872765,-1.5707963263920635,-1.8397516103449585,0.7766545340418816,-0.005576561205089092,0.7665450274944305,1.0,0.0,0.0,0.0
103.0,-0.2533153240541835,-1.7061779948012743,1.9410296836793586,-1.8056480158266826,-1.5707963263912352,-1.8241116510541837,0.7780394852161407,0.00620992761105299,0.7665450274944305,1.0,0.0,0.0,0.0
104.0,-0.2651838297040625,-1.6926313921365925,1.9296715881756934,-1.8081708882254446,-1.5707055062457986,-1.8359801414165293,0.7889279127120972,-0.0059618824161589146,0.7665453553199768,1.0,1.1083094077907196e-12,0.00017324001237284392,-6.397536722602126e-09
105.0,-0.25334954327237824,-1.6908140124977498,1.9281891029436857,-1.808806372024396,-1.5705582221571772,-1.824145820798303,0.7904437780380249,0.003009677864611149,0.7665450423955917,0.9999999403953552,1.2029590656936762e-08,0.00033718306804075837,-3.567673047655262e-05
106.0,-0.22451310134974886,-1.659736296320971,1.8823337377951248,-1.7015338918135228,-1.6138279995458644,-1.7943994616622907,0.8023725152015686,0.016133608296513557,0.7659024596214294,0.9987145662307739,0.0005333977751433849,-0.049530912190675735,0.010755144990980625
107.0,-0.2308037026206963,-1.6529105644365756,1.8757602017516346,-1.6966298121201169,-1.6008975362715574,-1.800501129027944,0.8077289015054703,0.011895464733242989,0.765410453081131,0.9987108707427979,0.00018102179456036538,-0.050634756684303284,0.0035704413894563913
108.0,-0.2288649423433861,-1.6500915455590761,1.8735349223849393,-1.6971656310314762,-1.6007096841827675,-1.798570621915513,0.8099669590592384,0.01296410895884037,0.7651752382516861,0.9987108707427979,0.00018102179456036538,-0.050634756684303284,0.0035704413894563913
109.0,-0.22264995903379625,-1.4629411738175846,1.6482888752473588,-1.1604509990712866,-1.6561184048656166,-1.7547628264072515,0.8749968111515045,-0.005497295875102282,0.7423610985279083,0.9551643133163452,-0.005958886351436377,-0.29538848996162415,-0.019268574193120003
110.0,-0.19651960232926452,-1.4589823126835542,1.64957944546669,-1.1771812448336454,-1.7210489414719126,-1.734532671342075,0.8785980939865112,0.006475264206528664,0.7397488951683044,0.9551643133163452,0.00595856225118041,-0.2953885793685913,0.019267527386546135
111.0,-0.263839956041129,-1.4600905365390484,1.648889589376255,-1.1598254038570524,-1.598574402913812,-1.7893812921799956,0.8771198689937592,-0.03317737579345703,0.7390236705541611,0.9551266431808472,-0.017511926591396332,-0.2899998724460602,-0.057676251977682114
112.0,-0.2348015099666809,-1.4551377972346748,1.6458936434116296,-1.1667542609304626,-1.6629319837734267,-1.7648641605633404,0.8806457221508026,-0.01858866959810257,0.7378575652837753,0.9551643133163452,-0.005958886351436377,-0.29538848996162415,-0.019268574193120003
113.0,-0.26019488339177105,-1.3631263563038196,1.5571273703861277,-0.9058840875642342,-1.6053068898068248,-1.7419247093530195,0.9007842838764191,-0.03732401877641678,0.7179462015628815,0.9084753394126892,-0.03329265117645264,-0.41002795100212097,-0.0737646073102951
114.0,-0.2794829926255033,-1.4617647671448244,1.6515413647957256,-1.1610060941914044,-1.607537576843048,-1.8022659192934145,0.874671220779419,-0.04780866205692291,0.7385281622409821,0.9550942182540894,-0.017506718635559082,-0.2901151776313782,-0.05763423442840576
115.0,-0.26550130995813126,-1.3579863911036774,1.5577470174867751,-0.9117703591433963,-1.6093243456043704,-1.7453937540406441,0.9038436263799667,-0.04363459348678589,0.7129187881946564,0.9084753394126892,-0.03329265117645264,-0.41002795100212097,-0.0737646073102951
116.0,-0.22067321006140153,-1.3555714569423392,1.5532463642928451,-0.9140187566834759,-1.6836268845340294,-1.7152372637919409,0.9062408059835434,-0.015103012323379517,0.7144829481840134,0.9089009165763855,-0.011280440725386143,-0.41613078117370605,-0.02463841624557972
117.0,-0.21216089507958844,-1.2345144418872642,1.4694854345992368,-0.6281826247585973,-1.7007804075654742,-1.6517442430972111,0.9304796457290649,-0.01527637243270874,0.6746004968881607,0.830435574054718,-0.01841411367058754,-0.5561309456825256,-0.027496643364429474
118.0,-0.21270694922782263,-1.0355829925379094,1.4376700120722103,2.0237384050888743,1.67761711714867,1.4316162437604438,0.9088262617588043,-0.007478905376046896,0.7121206820011139,0.9089009165763855,-0.011280440725386143,-0.41613078117370605,-0.02463841624557972
119.0,-0.18310411681207708,-1.0374740190358027,1.4361578756845508,2.0158386969999915,1.7629103390957772,1.4492920371385412,0.9070875644683838,0.006482250988483429,0.7140454798936844,0.9089005589485168,0.011286855675280094,-0.41613057255744934,0.024652428925037384
120.0,-0.18251165624922516,-1.0404671303232162,1.4380055181642384,2.017060671014322,1.7624676818625815,1.4496931819344974,0.9052189886569977,0.007431980688124895,0.7161313742399216,0.9089005589485168,0.011286855675280094,-0.41613057255744934,0.024652428925037384
121.0,-0.1325546930374169,-1.0439723519809825,1.4418863621801001,2.001725193993284,1.8314782143807486,1.4801777288178606,0.9011525958776474,0.042501140385866165,0.7157371193170547,0.9084829092025757,0.03329426422715187,-0.4100097715854645,0.07377205789089203
122.0,-0.15485843107905722,-1.1107768269752247,1.428181736396283,1.8216751720102526,1.7762950851849204,1.439469701030607,0.8753029555082321,0.03492525592446327,0.7396823018789291,0.9551122188568115,0.01751718670129776,-0.2900456190109253,0.057683609426021576
123.0,-0.1496334798580685,-1.1099182643439638,1.4282824511911814,1.8216270855583734,1.7734810769191724,1.4439654493757588,0.8755271881818771,0.039865050464868546,0.7388117462396622,0.9551122188568115,0.01751718670129776,-0.2900456190109253,0.057683609426021576
124.0,-0.12390619705658046,-1.0466264175195588,1.4453668695374247,2.0024364279140388,1.8250984644499177,1.486215926360141,0.8985153138637543,0.05153084546327591,0.716495081782341,0.9084829092025757,0.03329426422715187,-0.4100097715854645,0.07377205789089203
125.0,-0.12225894810058527,-1.0440304010176644,1.4441289267532698,2.0013664280825845,1.8238823245822615,1.4873637153946324,0.8999611139297485,0.0530056357383728,0.7144917994737625,0.9084829092025757,0.03329426422715187,-0.4100097715854645,0.07377205789089203
126.0,-0.08963875779817687,-1.0539069513091355,1.452735647754649,1.9793049736965165,1.9030546696468806,1.5065849448861688,0.8919165432453156,0.07111287117004395,0.7169401943683624,0.9077174663543701,0.053419120609760284,-0.3979281485080719,0.12185484915971756
127.0,-0.08458425766294009,-1.0520294821163674,1.4532978336346891,1.9780633135081824,1.899400955110264,1.510277308055808,0.8921873569488525,0.0761009156703949,0.7146335691213608,0.9077174663543701,0.053419120609760284,-0.3979281485080719,0.12185484915971756
128.0,-0.08417641295909539,-1.0519947686195716,1.4534154061224487,1.9780070063540331,1.8991059570692796,1.5105748402324404,0.892133355140686,0.07650995254516602,0.7145271375775337,0.9077174663543701,0.053419120609760284,-0.3979281485080719,0.12185484915971756
129.0,-0.08276943564811641,-1.0543947258172583,1.455406572256047,1.9787461185222375,1.8980880695469908,1.5116008042999396,0.8903297185897827,0.07805491983890533,0.7158613130450249,0.9077174663543701,0.053419120609760284,-0.3979281485080719,0.12185484915971756
130.0,-0.007355668003439058,-1.0823060769092814,1.48961087353544,1.9084854391234736,2.039598002128889,1.5647505480495376,0.8641353398561478,0.1249316930770874,0.7156310304999352,0.9060057401657104,0.08393596112728119,-0.3554314374923706,0.2139553725719452
131.0,-0.016318228410896685,-1.0807253972672328,1.483177702468104,1.9100900302069825,2.0456568831125685,1.5573441281826483,0.8680679500102997,0.11630259454250336,0.7178705930709839,0.9059855937957764,0.08394725620746613,-0.3554854393005371,0.21394690871238708
132.0,-0.05076919356816486,-1.1408202275631776,1.4594858778558173,1.7365178347758734,1.934351182859159,1.5231496416515968,0.849536195397377,0.10315224528312683,0.7380918562412262,0.9548855423927307,0.041865721344947815,-0.24422834813594818,0.1636868715286255
133.0,-0.15112951503614902,-1.2009282289810568,1.4564194521840987,1.611721239844851,1.7316216449862463,1.4253348391847427,0.837007999420166,0.05085552856326103,0.756713792681694,0.9858710169792175,0.00906749814748764,-0.15731169283390045,0.05682593211531639
134.0,-0.2084235323086207,-1.2804972637625671,1.4996194587639775,1.444211981264401,1.6123466286218742,1.3632287609798424,0.8084216117858887,0.027917997911572456,0.7650458812713623,0.9987145662307739,0.0005333977751433849,-0.049530912190675735,0.010755144990980625
135.0,-0.19781027928832046,-1.2876232753047703,1.5072888087012963,1.4372176607202285,1.6239170896462496,1.3736045093106817,0.8027564063668251,0.03574443981051445,0.7653686255216599,0.998721718788147,0.0008339275373145938,-0.04738498479127884,0.017576487734913826
136.0,-0.21669537893340288,-1.3306026115780785,1.5417306833449027,1.359668255277274,1.5707963263894866,1.354100948066597,0.783763162791729,0.03326619043946266,0.7665450274944305,1.0,0.0,0.0,0.0
137.0,-0.2265404162694677,-1.3468668231023542,1.5625223003032358,1.355140849845186,1.5707963263899305,1.3442559107305323,0.7700766772031784,0.028769953176379204,0.7665450274944305,1.0,0.0,0.0,0.0
138.0,-0.22261967357549534,-1.3511667204053124,1.567967722325553,1.3539953251250432,1.5707963263897515,1.3481766534245045,0.7662567868828773,0.032626837491989136,0.7665450274944305,1.0,0.0,0.0,0.0
139.0,-0.22484804389713428,-1.3503759404087397,1.5669678905426294,1.3542043769118401,1.5707963263898528,1.3459482831028657,0.7670079916715622,0.03076363541185856,0.7665450274944305,1.0,0.0,0.0,0.0
140.0,-0.24254023859961504,-1.3615960273061265,1.581085781897987,1.351306572457399,1.5707963263906932,1.328256088400385,0.7578159831464291,0.019568629562854767,0.7665450274944305,1.0,0.0,0.0,0.0
141.0,-0.2334046533745334,-1.3744167494135082,1.5970371387255775,1.3481759377353693,1.5707963263902516,1.3373916736254665,0.7465875558555126,0.02911021001636982,0.7665450274944305,1.0,0.0,0.0,0.0
142.0,-0.2140899818288868,-1.3582102050347375,1.5768410138426854,1.3521655182356282,1.5707963263893725,1.3567063451711132,0.7598743252456188,0.04048262536525726,0.7665450274944305,1.0,0.0,0.0,0.0
143.0,-0.20428504330777197,-1.3471889973160496,1.5629310510007772,1.3550542733568816,1.5707963263889548,1.366511283692228,0.7689673602581024,0.04595743119716644,0.7665450274944305,1.0,0.0,0.0,0.0
144.0,-0.1970187902672112,-1.3509596861370663,1.5677060266671794,1.3540499865100353,1.5707963263886577,1.3737775367327887,0.7653497159481049,0.05219508334994316,0.7665450274944305,1.0,0.0,0.0,0.0
145.0,-0.1496528361112591,-1.323933954904027,1.548642681375234,1.4067310058883247,1.650582185755901,1.4210526583670557,0.772413045167923,0.07437053322792053,0.7659250050783157,0.9987451434135437,0.0012544762575998902,-0.03589945659041405,0.03490030765533447
146.0,-0.14596741648301897,-1.3173363092946182,1.5408732123897484,1.4082037283145903,1.6503601172244369,1.4247430316433891,0.7777349948883057,0.07642775028944016,0.7653975784778595,0.9987449049949646,0.0012546186335384846,-0.03590313717722893,0.03490068390965462
147.0,-0.1573824543361657,-1.3048373307497836,1.5269531284787405,1.4194424503053489,1.642274457375719,1.413530244081162,0.7878686860203743,0.06732695549726486,0.7652067840099335,0.9987360835075378,0.0012058387510478497,-0.040509168058633804,0.029729433357715607
148.0,-0.16793654362248167,-1.2952580846741975,1.5164791926545553,1.4290960848364764,1.6328698302672047,1.4032012368054279,0.7955335974693298,0.05929024517536163,0.7650303989648819,0.9987286329269409,0.001063000992871821,-0.04435059800744057,0.023937664926052094
149.0,-0.12131900455530514,-1.2195511830340748,1.4764042760909122,1.5907083394939925,1.7623027329278422,1.4526537155769423,0.8215929344296455,0.07273495197296143,0.7583664357662201,0.9859230518341064,0.011622326448559761,-0.1476370096206665,0.07761414349079132
150.0,-0.11819098253295707,-1.2159208861589377,1.4730446367782224,1.5910196876751113,1.7614471393185855,1.4557182239491582,0.8241768702864647,0.07510075718164444,0.7571828365325928,0.9859230518341064,0.011622326448559761,-0.1476370096206665,0.07761414349079132
151.0,-0.10149288649964877,-1.2235613700048842,1.4788050685580154,1.5674657660027018,1.7928103513193474,1.4705990430120457,0.8194124698638916,0.08443664014339447,0.7568148076534271,0.9859805703163147,0.013277781195938587,-0.1352805197238922,0.09677398204803467
152.0,-0.09133306711144876,-1.2263739017401634,1.4843438568088565,1.5669467960619825,1.7902670641489609,1.4806800028541287,0.8155196309089661,0.09341582655906677,0.756055474281311,0.9859805703163147,0.013277781195938587,-0.1352805197238922,0.09677398204803467
153.0,-0.07796864143962391,-1.2420569241383943,1.4981588510552906,1.539117688230802,1.8192072057272037,1.4927205322115937,0.8049272522330284,0.10067352652549744,0.7571901232004166,0.9860550165176392,0.013925164006650448,-0.1203710064291954,0.11407212913036346
154.0,-0.07300252956384844,-1.2428678316128254,1.5004586509222377,1.538853836897829,1.8180990588053774,1.4977140280501777,0.8033506274223328,0.10491384565830231,0.7565563917160034,0.9860550165176392,0.013925164006650448,-0.1203710064291954,0.11407212913036346
155.0,-0.05945209062572842,-1.25781164932051,1.51314157270872,1.5077729330956102,1.8433317803654377,1.5103981302713958,0.7938065752387047,0.11249952018260956,0.7569594830274582,0.9861472845077515,0.013508458621799946,-0.1030426174402237,0.12927979230880737
156.0,0.0054982918991942535,-1.190148855940888,1.5086158313083846,1.6465518928931457,2.0266430137173472,1.5764560563531946,0.8112716972827911,0.13753630220890045,0.7417061179876328,0.9552785754203796,0.044173337519168854,-0.18953344225883484,0.22264064848423004
157.0,0.007785976516374752,-1.1942654143321254,1.5139976351977393,1.6464561479076398,2.0257976900801657,1.5788071483257675,0.8072677031159401,0.13948030769824982,0.7423235774040222,0.9552618265151978,0.044191740453243256,-0.1895972043275833,0.2226545661687851
158.0,-0.051287978528127054,-1.2654105226009649,1.5243721274992386,1.5063737229835021,1.8417624738357763,1.518715215798399,0.785700649023056,0.11957758665084839,0.7567422091960907,0.9861472845077515,0.013508458621799946,-0.1030426174402237,0.12927979230880737
159.0,-0.05960683635196047,-1.2620300787385075,1.5179021399950834,1.507188340060559,1.8433613526740247,1.5102404148406283,0.7902733013033867,0.1125841736793518,0.7576829344034195,0.9861472845077515,0.013508458621799946,-0.1030426174402237,0.12927979230880737
160.0,-0.07475212527881869,-1.2541802390172934,1.5126003157747068,1.5376902329048772,1.818513046959428,1.495956482971869,0.7941914051771164,0.10414564609527588,0.7590127140283585,0.9860482215881348,0.01393168792128563,-0.12041904032230377,0.11407926678657532
161.0,-0.13986707647962504,-1.321227849520126,1.5461656997043531,1.40727992418271,1.6499853030187763,1.430851136134757,0.7737520933151245,0.08172202855348587,0.7653128802776337,0.9987451434135437,0.0012544762575998902,-0.03589945659041405,0.03490030765533447
162.0,-0.130370208327318,-1.3301213369863067,1.5553698247863688,1.3960295737646877,1.656941501545712,1.440184970813073,0.7669516801834106,0.08877292275428772,0.7652070671319962,0.9987542629241943,0.0012071620440110564,-0.030601531267166138,0.03939862176775932
163.0,-0.1345422099594039,-1.3317879586168906,1.5570123955761497,1.395693350020655,1.6571512717115902,1.4360026997086786,0.7659841179847717,0.08572009205818176,0.7655081003904343,0.9987542629241943,0.0012071620440110564,-0.030601531267166138,0.03939862176775932
164.0,-0.13456712688830288,-1.3356968755759027,1.5617970193964845,1.3948400030167611,1.6571621684675335,1.4359778243382753,0.7625956758856773,0.08615835011005402,0.7656813114881516,0.9987537264823914,0.0012077620485797524,-0.030614303424954414,0.03940174728631973
165.0,-0.1780529270324919,-1.3657945703712986,1.5863307958447277,1.3502601015628977,1.5707963263879325,1.392743399967508,0.7513301409780979,0.06902038305997849,0.7665450274944305,1.0,0.0,0.0,0.0
166.0,-0.18825419917232838,-1.3784249569383975,1.601984441776713,1.3472368422000682,1.5707963263883138,1.3825421278276715,0.7410339675843716,0.06344061344861984,0.7665450274944305,1.0,0.0,0.0,0.0
167.0,-0.1332549401718035,-1.3405354397107125,1.5678160639345828,1.3937729467594175,1.6570963236486802,1.4372932571052512,0.7582528181374073,0.08773607015609741,0.7658228874206543,0.9987537264823914,0.0012077620485797524,-0.030614303424954414,0.03940174728631973
168.0,-0.12301347398303218,-1.3447437017435724,1.5711586395330077,1.3827437314894622,1.662606520971714,1.4474111355557124,0.755577128380537,0.09485846012830734,0.7653596103191376,0.9987626075744629,0.0010657813400030136,-0.024652734398841858,0.04317827895283699
169.0,-0.044281202403284016,-1.2923845862006478,1.5484663559948646,1.470125640120163,1.8642154347611306,1.5251918963291955,0.7677721679210663,0.12250561267137527,0.7592654675245285,0.9862645864486694,0.012000394985079765,-0.08326378464698792,0.14214539527893066
170.0,-0.04059037896951338,-1.2975797972325753,1.5556848181487892,1.4692028610433432,1.8636421390939244,1.5290003799518463,0.762500986456871,0.12561874091625214,0.7592323273420334,0.9862645864486694,0.012000394985079765,-0.08326378464698792,0.14214539527893066
171.0,-0.03562852946239209,-1.295044968885994,1.5545152116504881,1.4693131770544499,1.8628651014514959,1.5341183260214273,0.7635360509157181,0.129456028342247,0.7579105198383331,0.9862645864486694,0.012000394985079765,-0.08326378464698792,0.14214539527893066
172.0,0.03713493028222504,-1.2306657335451574,1.5529057774929225,1.5890273050401449,2.064943474400265,1.6108204663282253,0.7779616862535477,0.156809464097023,0.7432946860790253,0.9556750059127808,0.040052734315395355,-0.15485090017318726,0.2471887469291687
173.0,0.03722752173893621,-1.2271573719123594,1.5494502288088225,1.5890215081530996,2.0649125531805304,1.6109196004099455,0.7807777598500252,0.1569911241531372,0.7422513365745544,0.9556750059127808,0.040052734315395355,-0.15485090017318726,0.2471887469291687
174.0,0.03302617460967473,-1.2222535595967505,1.5418323428739609,1.5895979331390444,2.066311469048607,1.6064180572831668,0.7862288877367973,0.15367789566516876,0.7423730790615082,0.9556750059127808,0.040052734315395355,-0.15485090017318726,0.2471887469291687
175.0,0.03417002469590547,-1.2162550681553594,1.5364572355858825,1.5894727303567022,2.06590032875995,1.607644718959642,0.7907121330499649,0.15479224920272827,0.7402302324771881,0.9556856751441956,0.040039755403995514,-0.1548115313053131,0.2471742480993271
176.0,0.035491703436373,-1.2102439532510145,1.5311668454571683,1.5894246414479773,2.065460544265258,1.6090610039558937,0.7951290160417557,0.156061053276062,0.7380194067955017,0.9556856751441956,0.040039755403995514,-0.1548115313053131,0.2471742480993271
177.0,0.05926836848540126,-1.1236542592231238,1.5367237698009075,1.802642836358569,2.173266727068927,1.6297281394773078,0.8282077610492706,0.16290515661239624,0.7151984870433807,0.905735194683075,0.09417631477117538,-0.28547921776771545,0.2987915873527527
178.0,0.0958727481506583,-1.15192546841444,1.5718655596931446,1.7312747530749744,2.2324952294874345,1.6766956659139596,0.8021056354045868,0.18381556868553162,0.712241068482399,0.9066731929779053,0.08841143548488617,-0.23790885508060455,0.33693695068359375
179.0,0.05685369593301077,-1.2529410754033785,1.5722156521099804,1.5240902529857745,2.101519854378698,1.6348419833529373,0.7638002783060074,0.1665705144405365,0.7411204278469086,0.9561718702316284,0.03219299018383026,-0.1151709109544754,0.26727259159088135
180.0,-0.014320023612302366,-1.3349890040523296,1.588501103817976,1.3887543288628899,1.8926896327453473,1.555744757013121,0.7395540922880173,0.14160960912704468,0.7570575028657913,0.986443817615509,0.006086235865950584,-0.03761375695466995,0.15961523354053497
181.0,-0.022801722119092885,-1.3197212698288268,1.5780240113683166,1.429568936544229,1.880114501273797,1.5470429887275217,0.7466262839734554,0.13704238831996918,0.7577701807022095,0.986367404460907,0.00948150921612978,-0.061369579285383224,0.15239231288433075
182.0,-0.02849878479922078,-1.3206853568455212,1.5770059959515434,1.429740602074128,1.8807748442151473,1.541101764527909,0.74718913808465,0.13269539177417755,0.7590866088867188,0.986367404460907,0.00948150921612978,-0.061369579285383224,0.15239231288433075
183.0,-0.11645508130413772,-1.36727766746492,1.5962668454848299,1.367075216519247,1.6667398129637983,1.453878035364167,0.7375282756984234,0.10120922327041626,0.7655830681324005,0.9987697005271912,0.0008371489821001887,-0.018115730956196785,0.04615430161356926
184.0,-0.11462777087428187,-1.3696064942227297,1.5992954849665397,1.3665511630733798,1.6666934847280985,1.4557131943049826,0.7352480441331863,0.1028050035238266,0.7655179053544998,0.9987697005271912,0.0008371489821001887,-0.018115730956196785,0.04615430161356926
185.0,-0.11420310106350308,-1.3816206534785718,1.6106719475808613,1.3527603398535608,1.6691940776346237,1.4560640631781592,0.7273322567343712,0.10363363474607468,0.7656779140233994,0.9987748265266418,0.0005351199652068317,-0.011082001961767673,0.048228148370981216
186.0,-0.11650059055445083,-1.4063139241184077,1.6368574733246086,1.3361068443141353,1.6704454918491056,1.4537155604116834,0.7087929006665945,0.10396617650985718,0.7659592777490616,0.9987568855285645,0.00018648577679414302,-0.0037471239920705557,0.04970583692193031
187.0,-0.11520941986107927,-1.4083151427600513,1.6394209310543768,1.3356736992607339,1.6704507616018591,1.455013157899908,0.706854329444468,0.10508918017148972,0.765861764550209,0.9987568855285645,0.00018648577679414302,-0.0037471239920705557,0.04970583692193031
188.0,-0.1023265666878597,-1.3984317848505112,1.6289193046463888,1.3370093509148266,1.6697140903464833,1.4679677434636302,0.7138023488223553,0.11344171315431595,0.7649832665920258,0.9987758994102478,0.00016914130537770689,-0.0034233597107231617,0.04934750869870186
189.0,-0.020554726478268726,-1.3510837379520104,1.6051452637943222,1.386158554652671,1.8931554759566254,1.5491881580513858,0.7270857039839029,0.1372019648551941,0.7594789862632751,0.9864410161972046,0.006089113652706146,-0.03762838989496231,0.15962819755077362
190.0,-0.016071842097390744,-1.3512370501138058,1.6071034781600615,1.3858465159249984,1.8928411685904853,1.5539026145267096,0.725801108404994,0.14051666855812073,0.7584722936153412,0.9864410161972046,0.006089113652706146,-0.03762838989496231,0.15962819755077362
191.0,-0.009973370152007695,-1.3701485973957885,1.6204812756939508,1.3409490297237252,1.8995620437989111,1.5602615576002905,0.7170008048415184,0.14403674006462097,0.7577459365129471,0.9864673018455505,0.001953022088855505,-0.011781801469624043,0.16352275013923645
192.0,-0.009190567899631321,-1.371489019745596,1.6224378098350702,1.3405999042554257,1.8995459044397234,1.5610884799197418,0.7156060170382261,0.14461210370063782,0.7575830519199371,0.9864673018455505,0.001953022088855505,-0.011781801469624043,0.16352275013923645
193.0,-0.007706530458297275,-1.369624125883488,1.6207861038329683,1.340892826201444,1.8995147338909015,1.5626561349852643,0.716855201870203,0.1456671953201294,0.7571934312582016,0.9864673018455505,0.001953022088855505,-0.011781801469624043,0.16352275013923645
194.0,0.08310315262368129,-1.3296433671076484,1.6357153031766734,1.368993257734386,2.153940069196493,1.6702817628188966,0.7167108040302992,0.17613482475280762,0.7422677129507065,0.9565824866294861,0.007144501898437738,-0.02353229746222496,0.29042235016822815
195.0,0.08782423386723655,-1.32609405357263,1.634955900795065,1.36750456777593,2.151730278656272,1.675794356634978,0.7180275246500969,0.17999228835105896,0.7396313846111298,0.9568703174591064,0.0068944040685892105,-0.022784695029258728,0.2895386517047882
196.0,0.08588293423556777,-1.336465471711814,1.6458489884904361,1.3675047067567863,2.153648229193355,1.673593174985564,0.7095879055559635,0.17759332060813904,0.7416416704654694,0.9565824866294861,0.007144501898437738,-0.02353229746222496,0.29042235016822815
197.0,-0.01721737572476894,-1.4896105364588175,1.707201635428956,1.0843753775927816,1.8861122827497163,1.5533105335731314,0.6693444363772869,0.14164617657661438,0.754415825009346,0.9786922931671143,-0.020909065380692482,0.1296290010213852,0.15786239504814148
198.0,-0.01840027385119175,-1.4950138795869472,1.714503991602669,1.0821045809061642,1.8857978888423732,1.5521111055749452,0.6646421551704407,0.14099004864692688,0.7533730119466782,0.9786922931671143,-0.020909065380692482,0.1296290010213852,0.15786239504814148
199.0,-0.12363425266201865,-1.5207408088369578,1.7269121678818469,1.1082787719067937,1.634104122094514,1.450687563887288,0.6600348688662052,0.11068782210350037,0.7586962580680847,0.9912915825843811,-0.005792802199721336,0.12299484759569168,0.0466877780854702
200.0,-0.13444231602740292,-1.537959765732466,1.7447115991595041,1.0874861846039525,1.6252467493867695,1.4409564233764884,0.650430966168642,0.10638014227151871,0.756533294916153,0.9900763630867004,-0.0060306116938591,0.13303416967391968,0.04488144814968109
201.0,-0.1384534059948836,-1.5312066994194837,1.7345934166326142,1.0906431125096219,1.6241511328036382,1.4370922533446133,0.6571739427745342,0.10305992513895035,0.7586914151906967,0.9900763630867004,-0.0060306116938591,0.13303416967391968,0.04488144814968109
202.0,-0.20579609801630408,-1.4253673489380627,1.658509171630598,1.3376545043493773,1.570796326389018,1.3650002289836958,0.7014422006905079,0.058905716985464096,0.7665450274944305,1.0,0.0,0.0,0.0
203.0,-0.29713353937546294,-1.5233587257252748,1.7289968739998192,1.1333681446327004,1.5005721044689786,1.2818413824202086,0.6687543671578169,0.016762973740696907,0.7621378600597382,0.9926877617835999,0.0,0.12071049213409424,0.0
204.0,-0.29058000659426786,-1.395327565041635,1.622638642003196,1.343485250097203,1.5707963263932885,1.2802163204057322,0.7293290048837662,-0.008306807838380337,0.7665450274944305,1.0,0.0,0.0,0.0
205.0,-0.40071395707326574,-1.5159123233443694,1.721502273103737,1.1416454898843345,1.4771470028097273,1.1806016423126262,0.6727485992014408,-0.0510370098054409,0.763123631477356,0.9926835894584656,1.5349108650752896e-07,0.12074492871761322,-1.2619003655345296e-06
206.0,-0.39320375026939913,-1.5339075854113542,1.7442879085799892,1.1312906125695446,1.4768466166055028,1.188409276267468,0.6591042391955853,-0.04012230783700943,0.7597519010305405,0.9923635125160217,8.041059231800318e-07,0.12334779649972916,-6.469230356742628e-06
207.0,-0.3635959873104384,-1.5579823657774785,1.7756445061854698,1.122469880682591,1.4840200747548693,1.2172592841686234,0.6394571736454964,-0.013954405672848225,0.7548003047704697,0.9924343228340149,0.0,0.12277684360742569,0.0
208.0,-0.3784686374664703,-1.5719056364163926,1.795460978853043,1.1231737620597757,1.4826842635426198,1.2022485283199762,0.6260874345898628,-0.018036294728517532,0.7514930814504623,0.9927787780761719,-7.330538664973574e-07,0.11995955556631088,6.066714377084281e-06
209.0,-0.32771561980658137,-1.5734176954580052,1.7963727752812426,1.1197012199678107,1.494043736293229,1.2518768459977963,0.6252378597855568,0.012229949235916138,0.7512846738100052,0.9927791953086853,7.330164066843281e-07,0.11995626240968704,-6.066572950658156e-06
210.0,-0.30131905215168375,-1.5635311814140396,1.7819233059522372,1.1169873065460831,1.4984216631476601,1.2780382444860563,0.6346364840865135,0.024933552369475365,0.7535893023014069,0.9924393892288208,6.934379825906944e-07,0.12273654341697693,-5.607092589343665e-06
211.0,-0.254319347294533,-1.5627570363336032,1.7821452686876613,1.1183668847148573,1.5108248508739772,1.3234974007810716,0.6323761641979218,0.05285056680440903,0.7530357837677002,0.9927787780761719,6.786904691580276e-07,0.11995955556631088,-5.6168059927586e-06
212.0,-0.22154168385988957,-1.608935549521825,1.8273426951873115,1.0519821120470643,1.5611391763133513,1.3589978810506962,0.6025254279375076,0.07185086607933044,0.7452608644962311,0.9887210130691528,-0.004094157833606005,0.14716526865959167,0.027506351470947266
213.0,-0.18569574833331776,-1.5966545468810593,1.8151974176417098,1.0566767922760036,1.5781646378539087,1.3929060847725168,0.6085347235202789,0.0890398621559143,0.7460168749094009,0.9890828132629395,-0.004402663558721542,0.14416460692882538,0.03020574152469635
214.0,-0.19396627176042877,-1.5923772233874223,1.8072729218198424,1.055354368308476,1.5760448600104324,1.3852642707232545,0.614438958466053,0.0833180621266365,0.7481663078069687,0.9887164831161499,-0.004562426824122667,0.14653126895427704,0.03078487142920494
215.0,-0.19166784533486678,-1.5907972499368377,1.8053296404553456,1.055729945899731,1.5767252776218599,1.3874597084283518,0.6156154051423073,0.0843573734164238,0.7484551519155502,0.9887164831161499,-0.004562426824122667,0.14653126895427704,0.03078487142920494
216.0,-0.18668702662757208,-1.591453166899702,1.8067359466851185,1.0550112720141667,1.5781996782266452,1.3922174083121484,0.6144688278436661,0.08732683211565018,0.7479142546653748,0.9887164831161499,-0.004562426824122667,0.14653126895427704,0.03078487142920494
217.0,-0.16509927599811192,-1.581511791707919,1.7992631339056002,1.067865507247571,1.5987511983145537,1.411986150693969,0.6170468181371689,0.09658873081207275,0.7480001151561737,0.9897434711456299,-0.0050985440611839294,0.13800284266471863,0.03656627610325813
218.0,-0.084940018374026,-1.599219512946478,1.8151198090951404,0.9662162535425997,1.7792279205334849,1.4898829246204996,0.6092671975493431,0.11780712753534317,0.7417749166488647,0.9758095145225525,-0.0220542773604393,0.1829565316438675,0.11762779951095581
219.0,-0.1587650844349923,-1.562526614022765,1.7735103725114139,1.0734069182194232,1.6095109650967157,1.4180206710814516,0.633573442697525,0.09606876224279404,0.7527577728033066,0.9895658493041992,-0.005725874099880457,0.13798734545707703,0.041062675416469574
220.0,-0.15231854111406545,-1.55707547778559,1.766770088089831,1.0749412424262423,1.611331400768209,1.4242096981934165,0.6376865915954113,0.09913864731788635,0.7536622732877731,0.9895658493041992,-0.005725874099880457,0.13798734545707703,0.041062675416469574
221.0,0.044126128485769314,-1.5521850978218763,1.8034231132147558,0.9402373190153597,2.047543349341027,1.6165415340249707,0.6183018982410431,0.15762090682983398,0.7306571304798126,0.9542623162269592,-0.04528762400150299,0.1934262365102768,0.22342509031295776
222.0,0.059014973027685554,-1.5456774473437203,1.798165061449611,0.9221186729438207,2.0692328947015874,1.6320163419620504,0.6239804923534393,0.16432532668113708,0.7294857949018478,0.950098991394043,-0.04958805441856384,0.2049063891172409,0.22992722690105438
223.0,0.16401561929168232,-1.2813826026412916,1.684298647298872,1.4297079777219572,2.387731251639331,1.810805435780572,0.7108276467770338,0.20735499262809753,0.7159470915794373,0.9111905694007874,0.017249519005417824,-0.03835119679570198,0.4098333418369293
224.0,0.16451102965120842,-1.2753480192863096,1.6784045312754337,1.4288398514877605,2.38688958007547,1.8113384473510101,0.7156039588153362,0.2086072564125061,0.7141300737857819,0.9113925695419312,0.01703101396560669,-0.037910714745521545,0.40943410992622375
225.0,0.144834824468967,-1.228759009676237,1.6403364297837117,1.5484940689253546,2.344814216235073,1.7677099807460994,0.7462283074855804,0.20296964049339294,0.7152180150151253,0.9101489782333374,0.04931687191128731,-0.11353208124637604,0.3953569829463959
226.0,0.15174268961141443,-1.2334454443752654,1.652822382503295,1.5469264358269827,2.3421762949216105,1.7766245153665627,0.7383706048130989,0.20742997527122498,0.7122821062803268,0.9101475477218628,0.04931877925992012,-0.11353572458028793,0.39535900950431824
227.0,0.179691715204746,-1.3730693964319969,1.73185052236429,1.125739828592035,2.430808128267271,1.8367753967525953,0.6752786785364151,0.2081044614315033,0.7116117775440216,0.9064972996711731,-0.05712815374135971,0.13027139008045197,0.39752787351608276
228.0,0.14175220490255375,-1.5206614785826336,1.8255888093603263,0.8579958599612609,2.313282413104483,1.7382354229465262,0.617096409201622,0.1857193112373352,0.7108956128358841,0.9115468859672546,-0.08518524467945099,0.24118098616600037,0.3219587802886963
229.0,0.14320893768744475,-1.5219600911395987,1.8297845306802267,0.8563269104973983,2.3138594164980537,1.7400513283912091,0.6148706078529358,0.18626995384693146,0.7091178148984909,0.9115468859672546,-0.08518524467945099,0.24118098616600037,0.3219587802886963
230.0,0.2485676786386139,-1.3626556333010489,1.8339596524716855,1.011613445362854,2.7372714249062806,2.119193892471017,0.6387564763426781,0.22314366698265076,0.6743824705481529,0.8209124803543091,-0.14846271276474,0.24727904796600342,0.49286386370658875
231.0,0.24309035606537419,-1.446402849911441,1.8646749724292666,0.74695626267497,2.693129357642701,1.9825812600569104,0.6187411695718765,0.2172793447971344,0.6713297069072723,0.8173094391822815,-0.17666248977184296,0.3291001617908478,0.4387354552745819
232.0,0.1378347518736751,-1.5246288714747194,1.8371169809852934,0.8827245670859907,2.288739750793922,1.7333954583876636,0.6080021560192108,0.18478700518608093,0.7068137228488922,0.9189155101776123,-0.0769701674580574,0.22447213530540466,0.31509071588516235
233.0,0.10942371658765239,-1.5784613143220063,1.8698978008373186,0.7993731399008381,2.206844551352715,1.6870324999556026,0.5918099880218506,0.17501819133758545,0.7052385210990906,0.922373354434967,-0.07746756076812744,0.25853830575942993,0.276376873254776
234.0,0.10829616902560661,-1.585670639776839,1.8699536853755592,0.7689754430346118,2.2228767397552116,1.6844881120201038,0.5936972722411156,0.17254474759101868,0.7084341496229172,0.9155534505844116,-0.08443063497543335,0.2752147912979126,0.2808743119239807
235.0,0.09682635727368386,-1.588719301916492,1.8734108344464846,0.79793500191307,2.200981722427266,1.6732019772831674,0.5882353335618973,0.16772520542144775,0.7086841240525246,0.922373354434967,-0.07746756076812744,0.25853830575942993,0.276376873254776
236.0,-0.012909140270149142,-1.7110909308822975,1.9524937384318648,0.6606909217152477,1.9860526603057809,1.5596873349889528,0.5513181537389755,0.13164572417736053,0.7060843780636787,0.9242741465568542,-0.06847798824310303,0.31874698400497437,0.19856639206409454
237.0,-0.07380309944373968,-1.6765184865430618,1.902122437874375,0.8178695967854062,1.8289901768310222,1.5041553288751586,0.5670848339796066,0.12011419981718063,0.7213976830244064,0.9572820663452148,-0.0369798019528389,0.2490907907485962,0.14211727678775787
238.0,-0.11839161388186188,-1.6304787002345675,1.8488878972293794,0.9505161850582275,1.7241882510779276,1.4596813016237289,0.5899539887905121,0.10850130021572113,0.7362243682146072,0.9769377708435059,-0.018846945837140083,0.18909388780593872,0.0973711758852005
239.0,-0.11750758996808286,-1.6328064538261313,1.8526171087218501,0.9492406614522064,1.7245339778092337,1.4605046063658675,0.5876137018203735,0.10923463106155396,0.7351239919662476,0.9769377708435059,-0.018846945837140083,0.18909388780593872,0.0973711758852005
240.0,-0.14496241295117204,-1.6477125589374175,1.864508935958746,0.9394217276512897,1.6842613129039377,1.4362232238699602,0.5819777250289917,0.10051442682743073,0.7345193028450012,0.9769442081451416,-0.016744816675782204,0.19574272632598877,0.08357271552085876
241.0,-0.16544724979096959,-1.6560391870110542,1.8678151414434654,0.928525900632976,1.6759898913639153,1.4182769465124265,0.581112414598465,0.09032654762268066,0.7360743135213852,0.975479781627655,-0.01753467507660389,0.20247280597686768,0.08447910100221634
242.0,-0.21107162784961742,-1.6140112799515198,1.8362297635230203,1.0527195025230167,1.5646844505214579,1.3687135059492819,0.5958945453166962,0.07884834706783295,0.742855116724968,0.9890658259391785,-0.003994869999587536,0.14487579464912415,0.027272939682006836
243.0,-0.22462635997768748,-1.6165445841132156,1.8384828012180325,1.0531046365688501,1.560733043618377,1.3557470739864679,0.5949402153491974,0.07183928042650223,0.7429732084274292,0.9890658259391785,-0.003994869999587536,0.14487579464912415,0.027272939682006836
244.0,-0.2779919786257933,-1.6097668892816528,1.8398621855704294,1.0974192303886277,1.5021395902101278,1.3011981349589206,0.5950104966759682,0.0502278208732605,0.7436735928058624,0.992034912109375,1.1795888212873251e-06,0.12596413493156433,-9.2898926595808e-06
245.0,-0.26808346783738146,-1.6365568230582668,1.8605302547166673,1.0445814756894316,1.5229469715865005,1.3150041841108207,0.5832862257957458,0.05587300285696983,0.7400339096784592,0.9883236289024353,-0.0024724816903471947,0.1514936089515686,0.016130132600665092
246.0,-0.2110288235216263,-1.6763111130921808,1.8892298180150227,0.9288968686116204,1.6183926041195578,1.377384595669129,0.5692712515592575,0.07610398530960083,0.7331018596887589,0.9767258167266846,-0.01366889663040638,0.20378348231315613,0.0655144527554512
247.0,-0.1507466283817399,-1.7224980807956154,1.933661383731939,0.7816932933985354,1.7253880977213305,1.4410772598157195,0.5526916235685349,0.09532120078802109,0.7209421470761299,0.9553917646408081,-0.03205105662345886,0.2709794044494629,0.11300235986709595
248.0,-0.23822758219028925,-1.6912970246582335,1.9062300703634527,0.9252384476611688,1.5780996462128225,1.3534465005531935,0.5602203160524368,0.06963871419429779,0.7299232184886932,0.9768418073654175,-0.010977724567055702,0.20732662081718445,0.05172273889183998
249.0,-0.251063329840359,-1.6924774122077106,1.9060312533606933,0.9265637171059596,1.5727411331337553,1.341782625601229,0.560514360666275,0.06343789398670197,0.7307745516300201,0.9768418073654175,-0.010977724567055702,0.20732662081718445,0.05172273889183998
250.0,-0.2546607163353489,-1.6923322005301025,1.9052982345201557,0.9271476216442991,1.5712392607745709,1.3385137442327417,0.5610061883926392,0.06159099563956261,0.7312078028917313,0.9768418073654175,-0.010977724567055702,0.20732662081718445,0.05172273889183998
251.0,-0.2846587365574916,-1.6436808107032697,1.869971952258244,1.0462589385556387,1.519521245943328,1.29887727800166,0.577286422252655,0.04875082150101662,0.7384131401777267,0.9885809421539307,-0.002488532103598118,0.14977209270000458,0.0164257250726223
252.0,-0.35880687744789896,-1.62131146764014,1.8566165617298296,1.1054121821182292,1.485474119359658,1.2218543249134408,0.585541695356369,0.009112285450100899,0.7412950098514557,0.992498517036438,0.0,0.12225691229104996,0.0
253.0,-0.36884296406664585,-1.6238248593832378,1.8600609528757628,1.1059901692662593,1.4834367305223688,1.211987262962256,0.5832832157611847,0.004468085244297981,0.7407310009002686,0.992541491985321,0.0,0.12190744280815125,0.0
254.0,-0.3708053628010889,-1.625781910763006,1.8625363179069945,1.105765489786788,1.4830395186382221,1.2100574702515419,0.58160849660635,0.0040430366061627865,0.740313321352005,0.9925497174263,0.0,0.12184099853038788,0.0
255.0,-0.38347466337972874,-1.6505757735645195,1.8791663874326427,1.0559464143251074,1.462284330054771,1.2036818800621172,0.5743918865919113,0.003024355974048376,0.7382998615503311,0.9883481860160828,-0.00034935533767566085,0.152192622423172,0.002268735086545348
256.0,-0.37925740911634676,-1.6266496040980698,1.8637742193965796,1.106127613891833,1.4811298327557751,1.2017914848401765,0.5808461830019951,-0.0002477123052813113,0.7401233017444611,0.9925497174263,0.0,0.12184099853038788,0.0
257.0,-0.4174376994475728,-1.6490237868154565,1.8791726775785202,1.061700948920903,1.444297040017405,1.1704334487778527,0.5749003142118454,-0.013793407939374447,0.738418385386467,0.9883481860160828,0.0003493797848932445,0.1521925926208496,-0.00226889387704432
258.0,-0.42628188378336695,-1.655433369715921,1.887655218560749,1.060719981551267,1.4418664832426695,1.1618599744455298,0.5693787783384323,-0.01602690853178501,0.7366658449172974,0.9883481860160828,0.0003493797848932445,0.1521925926208496,-0.00226889387704432
259.0,-0.4453852967933705,-1.6518000290803636,1.8855141952758128,1.0672658364218723,1.4280536811256765,1.1425633612223793,0.5710180401802063,-0.025538749992847443,0.7370451837778091,0.9884368777275085,0.0011143935844302177,0.15145429968833923,-0.0072728716768324375
260.0,-0.4079146662909273,-1.6234519409824888,1.8605492880441787,1.1086323351313496,1.4746492689708137,1.1737555987574961,0.5830854699015617,-0.016880009323358536,0.7406816780567169,0.992541491985321,0.0,0.12190744280815125,0.0
261.0,-0.4548796063415229,-1.641936226956912,1.8750461481014145,1.0745706932180865,1.4175738723608822,1.1325441652086208,0.5779648125171661,-0.032707300037145615,0.7391102015972137,0.98850017786026,0.001821979065425694,0.15073585510253906,-0.011948230676352978
262.0,-0.4624819055330594,-1.6421431214223454,1.8752079109692472,1.073066352749409,1.4152241613155938,1.1254697224044838,0.5779556035995483,-0.03682757169008255,0.7390066683292389,0.9883110523223877,0.0017760525224730372,0.15200263261795044,-0.011547775939106941
263.0,-0.46813456676231674,-1.6446282220020974,1.879431705681866,1.0748767609730259,1.414139135245954,1.1195867279676166,0.5750407427549362,-0.03854474052786827,0.738049328327179,0.98850017786026,0.001821979065425694,0.15073585510253906,-0.011948230676352978
264.0,-0.4798134330799331,-1.635173023803863,1.8699598042781531,1.082518404371914,1.4038880181362257,1.1072661699908788,0.5811594426631927,-0.04693664610385895,0.7397495210170746,0.9885792136192322,0.0024884245358407497,0.14978402853012085,-0.016423678025603294
265.0,-0.49292428221006246,-1.642150363109585,1.8798833905543852,1.081732436878946,1.4006136781025036,1.094388283902133,0.5746261924505234,-0.050834544003009796,0.7375876009464264,0.9885792136192322,0.0024884245358407497,0.14978402853012085,-0.016423678025603294
266.0,-0.5331260843196913,-1.6985746662213093,1.9341588207229703,1.001671280953732,1.2935062942462179,1.0683146056897825,0.5514700412750244,-0.04300038516521454,0.7288054376840591,0.9769001603126526,0.007974484004080296,0.21031023561954498,-0.03704182803630829
267.0,-0.4913453079534191,-1.705898123752256,1.931763079292333,0.9774646715226207,1.3322057026348935,1.1143789284746022,0.5522585213184357,-0.02619512379169464,0.7301044762134552,0.9764117002487183,0.004693325608968735,0.2148093730211258,-0.02133341319859028
268.0,-0.43918577602533276,-1.658275825588036,1.8932463458966653,1.0651558672517993,1.429708745934269,1.148598548265774,0.5659863501787186,-0.01984451711177826,0.735553964972496,0.9884368777275085,0.0011143935844302177,0.15145429968833923,-0.0072728716768324375
269.0,-0.48662877217400097,-1.7085817530845326,1.936152848978624,0.9800002068445834,1.3342565426143844,1.1178765649313334,0.5492443144321442,-0.022281214594841003,0.7289126515388489,0.9769034385681152,0.004847895819693804,0.21246059238910675,-0.022290846332907677
270.0,-0.42445285067858335,-1.6596834370678482,1.8930664514852604,1.0599069100935776,1.442274553188486,1.163562021758566,0.56581911444664,-0.013432479463517666,0.7355560213327408,0.9883849620819092,0.0003725514397956431,0.15195181965827942,-0.0024232955183833838
271.0,-0.40636052124963606,-1.6599462655815498,1.892688981800696,1.058343147984139,1.4472503981379348,1.1810957529674453,0.5659711956977844,-0.004023781977593899,0.735652282834053,0.9883849620819092,0.0003725514397956431,0.15195181965827942,-0.0024232955183833838
272.0,-0.42061074813082805,-1.7152427218289437,1.9330848458787355,0.9497288567317863,1.4135156132855788,1.1857363107404488,0.5489732325077057,0.0011095108930021524,0.7291532754898071,0.9768423438072205,-0.0016316007822751999,0.21382461488246918,0.007453851401805878
273.0,-0.3761975663224148,-1.658462442503296,1.8891647793954456,1.053429355216907,1.4648056726986727,1.2106633954716572,0.5676694363355637,0.00942898914217949,0.7361486256122589,0.9883849620819092,-0.0003725277492776513,0.15195181965827942,0.002423141850158572
274.0,-0.35945295370953956,-1.6594026560723438,1.8895573150855403,1.0499326246897271,1.4791092505754433,1.2270262555228624,0.5667760074138641,0.016832929104566574,0.735816240310669,0.9884368181228638,-0.0011129237245768309,0.15145577490329742,0.007263208273798227
275.0,-0.36953184696257346,-1.7173612671130374,1.9335608768476853,0.9368586300289785,1.463276142410628,1.2340004381554186,0.5471421331167221,0.021385829895734787,0.7278937101364136,0.9769043326377869,-0.004847895819693804,0.21245642006397247,0.022291304543614388
276.0,-0.4234862143982933,-1.7802731836922796,1.9890707925291404,0.8287324388162234,1.3721273992355403,1.2089603153810324,0.5266359597444534,0.01649400033056736,0.717166893184185,0.9602574706077576,-0.0034668692387640476,0.27883902192115784,0.011939099989831448
277.0,-0.42177133256808114,-1.7801918885615589,1.988932010785851,0.8284933104967336,1.372999376532713,1.2104664547673618,0.5266928225755692,0.017213959246873856,0.7171817570924759,0.9602574706077576,-0.0034668692387640476,0.27883902192115784,0.011939099989831448
278.0,-0.36221635619210274,-1.7798433326577379,1.987668269573056,0.8102817252021222,1.4566706611712785,1.2634606815876164,0.5253935158252716,0.034647583961486816,0.7150774225592613,0.9605587124824524,-0.0107981963083148,0.27530184388160706,0.03767610713839531
279.0,-0.3475610684338671,-1.7771838135048617,1.9827445694847876,0.8044540896268496,1.4593689138789165,1.2773388634557408,0.5287698805332184,0.04047584906220436,0.71668641269207,0.9595221877098083,-0.010547746904194355,0.2790895402431488,0.03626361861824989
280.0,-0.29919760310378346,-1.7669369470164755,1.9726782369286053,0.8002815587405601,1.5420400248946882,1.31695973654013,0.5319652259349823,0.05089912563562393,0.7173577025532722,0.9601377248764038,-0.017772797495126724,0.27180540561676025,0.0627814382314682
281.0,-0.18188580904668183,-1.7998340015351,2.010913934067755,0.6361676086249535,1.7104458216611174,1.4301131957503377,0.5228365063667297,0.08637377619743347,0.7031344845890999,0.9322845935821533,-0.043907567858695984,0.33801111578941345,0.12110356241464615
282.0,-0.08384938743700027,-1.7521800226527315,1.9839634404468482,0.6613938909488846,1.8549869793601297,1.5016265375215843,0.5338426977396011,0.11342581361532211,0.7015067040920258,0.9332748055458069,-0.053920112550258636,0.3178430497646332,0.15832430124282837
283.0,-0.17384931295578857,-1.791027240225885,2.006212632655837,0.6559981082688834,1.7212952808788249,1.433393069921003,0.5231708884239197,0.08870729058980942,0.7025859951972961,0.9361555576324463,-0.04283061996102333,0.3266690969467163,0.12274231761693954
284.0,-0.2570932838590801,-1.8233916144527949,2.0290575722747914,0.6457787376636075,1.5844960346708548,1.3750745478809723,0.5145445615053177,0.07036541402339935,0.7011107578873634,0.9354744553565979,-0.03112681396305561,0.3415408730506897,0.08525577932596207
285.0,-0.18526290429664058,-1.800129559389618,2.0181039623457084,0.651918383322454,1.7139401416196907,1.4245704699538013,0.5167923718690872,0.08525138348340988,0.698695033788681,0.9361555576324463,-0.04283061996102333,0.3266690969467163,0.12274231761693954
286.0,-0.19561736629753504,-1.9508279470980672,2.182700535727476,0.20643813692751548,1.6982245054920773,1.4842333764811513,0.4868885427713394,0.08844016492366791,0.6601463258266449,0.8390969634056091,-0.08000712096691132,0.5225005745887756,0.12848547101020813
287.0,-0.3737121785784641,-2.0014980969540805,2.2131927368422373,0.22989846183837057,1.4159388417506942,1.4114318568931163,0.47520898282527924,0.05511698126792908,0.6572895310819149,0.8418655395507812,-0.04894503951072693,0.5318502187728882,0.07747508585453033
288.0,-0.42055210697985396,-2.0109907447754165,2.221650092047156,0.23577998811580783,1.3780569258793947,1.3903980731725145,0.47123225033283234,0.04181182384490967,0.6546764448285103,0.8422497510910034,-0.049963124096393585,0.5308821201324463,0.0792670026421547
289.0,-0.5843586952649582,-1.8399182901777638,2.0630161895850643,0.7533780323347505,1.1762754668134539,1.0957753181736285,0.5016047209501266,-0.019674595445394516,0.6988251730799675,0.9393638968467712,0.006065901834517717,0.3424646258354187,-0.01663847453892231
290.0,-0.5725644925141724,-1.8379811165868563,2.0579599776869526,0.752471931588945,1.182899300495838,1.106331359541768,0.5039490312337875,-0.016265496611595154,0.7009543627500534,0.9393638968467712,0.006065901834517717,0.3424646258354187,-0.01663847453892231
291.0,-0.5673103325984264,-1.8348908729347875,2.052233539256165,0.7533428184224302,1.1858626804136934,1.1110154706425874,0.5067105144262314,-0.01582920178771019,0.7032967135310173,0.9393638968467712,0.006065901834517717,0.3424646258354187,-0.01663847453892231
292.0,-0.5204371103278735,-1.779038691001048,1.9993650865763706,0.8587337100833197,1.2788461257044104,1.1168930690127283,0.5230556577444077,-0.01692442037165165,0.7149445116519928,0.9602574110031128,0.0034670664463192225,0.2788389325141907,-0.01193978451192379
293.0,-0.43658264939040575,-1.7864391633115608,1.9990741653574704,0.8291401441515455,1.3676127710407073,1.1969833595501826,0.5209815800189972,0.013067096471786499,0.7136889919638634,0.9606031179428101,-0.0036310283467173576,0.27761638164520264,0.012564017437398434
294.0,-0.45434785650048204,-1.7811377575966536,1.9914973153963484,0.8346500407821673,1.3586715010630794,1.181295169322296,0.5253093242645264,0.0032720244489610195,0.716721385717392,0.9606031179428101,-0.0036310283467173576,0.27761638164520264,0.012564017437398434
295.0,-0.4509544515749684,-1.7797276113898057,1.9887385497872303,0.8334601728490016,1.358221742367542,1.1847619935931477,0.5270532369613647,0.0042786626145243645,0.7177912965416908,0.9602574706077576,-0.0034668692387640476,0.27883902192115784,0.011939099989831448
296.0,-0.47643722725751153,-1.7192579151629415,1.9446056708729835,0.9621911315528022,1.364330861313999,1.131406020698387,0.5434548556804657,-0.01868639513850212,0.7263575792312622,0.9766650199890137,0.0015366836450994015,0.21464894711971283,-0.006991999223828316
297.0,-0.49605740019465483,-1.710371894400276,1.9396327173861874,0.9804514543987075,1.330916051900696,1.1088033096250094,0.5472507625818253,-0.025937244296073914,0.727818951010704,0.9769034385681152,0.004847895819693804,0.21246059238910675,-0.022290846332907677
298.0,-0.6281302364453184,-1.743447492277127,1.9922872052165101,0.9350813942233924,1.1474964974800954,0.989776994882753,0.5305683612823486,-0.05857842415571213,0.7156333476305008,0.9601360559463501,0.017773717641830444,0.2718108892440796,-0.06278330832719803
299.0,-0.6692818271448984,-1.8148325918679808,2.0599664928905383,0.8045016789408823,1.0677993724685586,0.9989470254861444,0.5063582360744476,-0.04944155365228653,0.6993593350052834,0.9378553032875061,0.01846667192876339,0.34283319115638733,-0.050517477095127106
300.0,-0.713338193965946,-1.7849698030492123,2.0566502186829414,0.8711213746817745,0.9941860000988343,0.9200925535230695,0.5098550021648407,-0.06414789706468582,0.6992567777633667,0.9382898211479187,0.031017424538731575,0.3331983685493469,-0.08734537661075592
301.0,-0.7221668142396335,-1.7772397348642501,2.050449687919572,0.8748426528309792,0.9905427755268943,0.9104882608511387,0.5134268403053284,-0.07168222218751907,0.7003362700343132,0.9382898211479187,0.031017424538731575,0.3331983685493469,-0.08734537661075592
302.0,-0.7237749432524033,-1.782546271569037,2.0527671691488907,0.8594620060183393,0.9823128181093909,0.9161745381669908,0.5134043395519257,-0.07117685675621033,0.7004533112049103,0.9354744553565979,0.031126804649829865,0.3415408730506897,-0.08525575697422028
303.0,-0.6649308836685053,-1.7165317534742004,1.9810790470410233,0.9774788740938782,1.096659915326658,0.9349192003379362,0.5387144684791565,-0.07743802666664124,0.7172665670514107,0.959384024143219,0.02449905127286911,0.26688191294670105,-0.08806890994310379
304.0,-0.6730070378781793,-1.7150811031957551,1.9823719437800535,0.9786730581216483,1.0940673288571678,0.926316384230075,0.5382464379072189,-0.0814707949757576,0.7161123901605606,0.959384024143219,0.02449905127286911,0.26688191294670105,-0.08806890994310379
305.0,-0.7884638121331765,-1.6914381298180008,2.023340953375782,1.0124422648807219,0.8747446863842719,0.7493612825036494,0.5345681607723236,-0.11237584799528122,0.70344328135252,0.9332665205001831,0.05392441898584366,0.3178673982620239,-0.15832342207431793
306.0,-0.8232569758122779,-1.6308883002681351,2.0055620860314773,1.0838338032570913,0.8073133543489692,0.6447260976534105,0.5523598194122314,-0.14325697720050812,0.7014432400465012,0.9242569208145142,0.06848736107349396,0.31880149245262146,-0.19855591654777527
307.0,-0.5086155164856239,-1.6214833275994673,1.8557107233666452,1.0881206059596746,1.3895332680585644,1.0787981375073217,0.5900955945253372,-0.06702617555856705,0.7417839765548706,0.9882805943489075,0.0030032324139028788,0.15135376155376434,-0.019609926268458366
308.0,-0.5143663084139168,-1.6191348296548578,1.8533965751698016,1.089112070993278,1.388122002424959,1.0731296072384229,0.5913862735033035,-0.07112527638673782,0.7420182377099991,0.9882805943489075,0.0030032324139028788,0.15135376155376434,-0.019609926268458366
309.0,-0.6162953778233502,-1.6307178235912199,1.8850520611927981,1.0771069530288016,1.1950500048695794,0.9642531004552997,0.5837760865688324,-0.0978020653128624,0.7362018674612045,0.9754738807678223,0.017542600631713867,0.2024867683649063,-0.08451095968484879
310.0,-0.6143234114258619,-1.6337462515244205,1.890821580501988,1.0843861194538478,1.2050305674017407,0.9647823554931004,0.5792560502886772,-0.09508364647626877,0.7347843647003174,0.9769440293312073,0.01674957200884819,0.19573171436786652,-0.08360113203525543
311.0,-0.8173712964649938,-1.5733840701802717,1.9700765414676353,1.172219137602223,0.7806610016005822,0.5843943303437125,0.5760020837187767,-0.16003267467021942,0.7078608945012093,0.9196451902389526,0.0782737210392952,0.3024695813655853,-0.23798775672912598
312.0,-0.7376822387075412,-1.6014993075031214,1.9206399094174547,1.1233960656294464,0.9693541771777227,0.7792112777287812,0.581479862332344,-0.1388872265815735,0.7227093428373337,0.952302098274231,0.04466180130839348,0.2488071471452713,-0.17094175517559052
313.0,-0.7321776127538566,-1.560623758845953,1.8953213852177957,1.200794152172964,0.9775958787164771,0.755956940345332,0.5953835174441338,-0.1489161252975464,0.7254075407981873,0.9551570415496826,0.04466336593031883,0.21624046564102173,-0.1972828507423401
314.0,-0.7348805665550624,-1.5521606056642199,1.8859418988717256,1.193917877547525,0.9529414893412383,0.747941103464306,0.6033562943339348,-0.15388020873069763,0.7268951684236526,0.9512296915054321,0.04842645674943924,0.22813773155212402,-0.20191612839698792
315.0,-0.7319613989581002,-1.5501703085030223,1.8840465925766685,1.2014698153624452,0.9776035262004826,0.7562175402765825,0.6022776514291763,-0.15495386719703674,0.7258109748363495,0.9551570415496826,0.04466336593031883,0.21624046564102173,-0.1972828507423401
316.0,-0.8031378300137672,-1.4709917837227708,1.9274266789541834,1.377616838200083,0.8119143217500574,0.4950115993560787,0.6078655272722244,-0.1874963790178299,0.7061854898929596,0.9189002513885498,0.07697980850934982,0.22446076571941376,-0.31514090299606323
317.0,2.892509455852667,-1.6990399312617623,-1.86986780516889,2.3920722876598193,-2.6954609384305797,1.1462185048305242,0.6165254190564156,-0.22059330344200134,0.66660276055336,0.8173176050186157,0.17664945125579834,0.32906925678253174,-0.43874862790107727
318.0,2.8856814359030762,-1.709467858723337,-1.8738635631190916,2.393233644327752,-2.698040065182776,1.1315263723174138,0.6176942884922028,-0.22532445192337036,0.6578291542828083,0.8173176050186157,0.17664945125579834,0.32906925678253174,-0.43874862790107727
319.0,2.905894322562065,-1.6113998805157517,-1.9462995106240104,2.571100118979617,-2.624535334578528,1.2532199120246952,0.5781963467597961,-0.20763280987739563,0.651563934981823,0.8211517930030823,0.1785535216331482,0.3709636926651001,-0.39523962140083313
320.0,2.881212658246223,-1.7223697458507474,-1.8910179234466378,2.3362787560335647,-2.701670043797045,1.0956040685781396,0.6082187741994858,-0.225580096244812,0.6482201963663101,0.8220504522323608,0.1674828827381134,0.3058496117591858,-0.4501539170742035
321.0,2.8757759853756113,-1.8187558626917653,-1.8488696054963618,2.055252933258317,-2.7278081990602314,0.9638099887402289,0.6404289603233337,-0.2362588346004486,0.6506852135062218,-0.8268790245056152,-0.13090434670448303,-0.21528778970241547,0.5027785301208496
322.0,2.87267446398526,-1.9095256162683358,-1.8168636660940156,1.8396242228858777,-2.7236452250867407,0.8963249395421791,0.6812381278723478,-0.249962717294693,0.6370277218520641,-0.8282800912857056,-0.08275429904460907,-0.12707319855690002,0.5394035577774048
323.0,2.868737285761822,-1.7437144565124374,-1.8957133069210494,2.3367372372961213,-2.70512875661391,1.0673536980135985,0.6116212978959084,-0.2346678376197815,0.6323752403259277,0.8220504522323608,0.1674828827381134,0.3058496117591858,-0.4501539170742035
324.0,2.861273758374924,-1.8372128178350304,-1.8684141360381963,2.0603213050019042,-2.7269667934148725,0.9278353077775033,0.6362352594733238,-0.24537409842014313,0.6281975638121367,-0.8268790245056152,-0.13090434670448303,-0.21528778970241547,0.5027785301208496
325.0,2.8658860970484525,-1.741951086804671,-1.9081685032073934,2.341524611923605,-2.7058759357379363,1.0608395955426257,0.6052859872579575,-0.23475778102874756,0.6267177443951368,0.8220504522323608,0.1674828827381134,0.3058496117591858,-0.4501539170742035
326.0,2.878673122831133,-1.6350466341796541,-1.9653013822248235,2.6285365286558027,-2.6301876632855814,1.227423268618985,0.5811453387141228,-0.22522132098674774,0.6216469537466764,0.8178852200508118,0.18211200833320618,0.38711586594581604,-0.3847599923610687
327.0,2.858445021266903,-1.7455447799361437,-1.9029868665958753,2.4039825050175256,-2.7074721788170986,1.07137945205493,0.6136253625154495,-0.2420867532491684,0.6188543401658535,0.8173176050186157,0.17664945125579834,0.32906925678253174,-0.43874862790107727
328.0,2.9535394141902156,-1.9660363161728223,-1.6833746657931794,1.66498992340377,-2.3121097199445186,1.3220200098227741,0.7452326118946075,-0.24036428332328796,0.6373131461441517,0.9140647649765015,-0.0466536208987236,-0.11003351211547852,-0.38755860924720764
329.0,2.9517536487954965,-1.9660919506956316,-1.6853016930861358,1.6654771551458407,-2.311390742642152,1.319804532351016,0.7440505921840668,-0.24163363873958588,0.6362509913742542,0.9140647649765015,-0.0466536208987236,-0.11003351211547852,-0.38755860924720764
330.0,2.9376372333367997,-1.9351419797956242,-1.703669649491226,1.7758232759094028,-2.3582652108453193,1.2806717943302728,0.7293193470686674,-0.2444540113210678,0.6357594467699528,0.9152025580406189,-0.016445431858301163,-0.03754235804080963,-0.4009045362472534
331.0,-0.5133372490713398,-1.7025519767153374,2.0691458617929714,-1.8963645659768744,-1.5258078895314953,-2.084652215693382,0.7292107976973057,-0.1723852902650833,0.6690875515341759,0.9995367527008057,-0.0002021493564825505,-0.006812105420976877,-0.0296612698584795
332.0,-0.5705693374858417,-1.6915041498016579,2.0497549234938077,-1.808342305500516,-1.412353641409593,-2.149452843473353,0.7263398300856352,-0.1983841061592102,0.6660786271095276,0.9950599670410156,-0.0007496914477087557,-0.007536179851740599,-0.09898755699396133
333.0,-0.5166209822482409,-1.6960602602695933,2.064183588534967,-1.897746249210834,-1.5259426595995813,-2.087936483744438,0.7330872714519501,-0.17732875049114227,0.6687410324811935,0.9995367527008057,-0.00020215273252688348,-0.006812188308686018,-0.029661403968930244
334.0,-0.5310651997900573,-1.6733316909823401,2.037885532473961,-1.8488763750352764,-1.4795760858664817,-2.1040799807781667,0.7452823780477047,-0.18833361566066742,0.6671249866485596,0.9980279803276062,-0.0008637001737952232,-0.014093835838139057,-0.06116127967834473
335.0,-0.6522011187946035,-1.5329610621898555,1.890190238598213,-1.2296020402801737,-1.0803166147011931,-2.3028949211857124,0.7619991675019264,-0.23756253719329834,0.6361997425556183,0.9141182899475098,-0.04660101607441902,-0.10994254052639008,-0.3874645531177521
336.0,-0.5391357589795999,-1.659980663410051,2.0173339558297902,-1.7894112384634064,-1.4276372892140488,-2.1155107179763504,0.7517059706151485,-0.1898352950811386,0.6666935756802559,0.995050311088562,-0.002181701362133026,-0.02243058755993843,-0.09678313881158829
337.0,-0.49113071637013017,-1.6671433530862168,2.038058391788875,-1.895279406935619,-1.531207819749231,-2.062213739829179,0.7574347853660583,-0.17023919522762299,0.6687646210193634,0.9995347261428833,-0.0003161884960718453,-0.011129628866910934,-0.028396397829055786
338.0,-0.5205529242572087,-1.640217792026572,1.9956890293495022,-1.7699633410407525,-1.446324773029085,-2.0942580399747563,0.7661191448569298,-0.18544359505176544,0.6665748655796051,0.9950236678123474,-0.003408615244552493,-0.03662647306919098,-0.09260111302137375
339.0,-0.5100930393550361,-1.626871320591404,1.9842190417561312,-1.77315140756648,-1.4447093629125587,-2.08384278431121,0.7779471650719643,-0.1826924830675125,0.6662208735942841,0.9950242638587952,-0.003408155171200633,-0.036623578518629074,-0.09259600192308426
340.0,-0.4735246859372107,-1.6552073070550046,2.0272999469744466,-1.8971607900558531,-1.5303967987914349,-2.044612323325627,0.7693148553371429,-0.16134944558143616,0.6690056622028351,0.9995347261428833,-0.0003161884960718453,-0.011129628866910934,-0.028396397829055786
341.0,-0.47295913187423055,-1.6536193303898847,2.0259401216816038,-1.8974117854117287,-1.5303709524994904,-2.044046898519013,0.7705715745687485,-0.1615062803030014,0.6689687520265579,0.9995347261428833,-0.0003161884960718453,-0.011129628866910934,-0.028396397829055786
342.0,-0.5742421664433626,-1.4549068254369686,1.7952741051061776,-1.1391157469631423,-1.2232167189188101,-2.1033850057096557,0.8089974820613861,-0.22139979898929596,0.6341830156743526,0.9109047055244446,-0.0840923935174942,-0.23128700256347656,-0.33119091391563416
343.0,-0.570042091612653,-1.4557722084565625,1.7927441250712073,-1.1368161844623585,-1.2202883766099704,-2.1001809107514466,0.8105066418647766,-0.2178715616464615,0.6367277465760708,0.9109047055244446,-0.0840923935174942,-0.23128700256347656,-0.33119091391563416
344.0,-0.4595903523818066,-1.6358821871044127,2.009059758153355,-1.8932350033069518,-1.5365848781100342,-2.0304491121998947,0.7849672958254814,-0.15835009515285492,0.668717734515667,0.9995319843292236,-0.0004026941314805299,-0.015145410783588886,-0.026576079428195953
345.0,-0.4816797288010933,-1.6022644721322192,1.9578346657181795,-1.7574642104723468,-1.463108450800437,-2.052895928148593,0.7984687015414238,-0.17187780141830444,0.6661930084228516,0.9949929714202881,-0.004330703057348728,-0.049783408641815186,-0.08655531704425812
346.0,-0.4513944123874243,-1.6322310786890908,2.005550658773444,-1.8936588578845452,-1.5361703547770404,-2.02225881058244,0.7891002371907234,-0.15322744846343994,0.6688651815056801,0.9995319843292236,-0.0004026941314805299,-0.015145410783588886,-0.026576079428195953
347.0,-0.44121544743332686,-1.6227897315615354,1.9958643130914555,-1.8891216756941052,-1.5429689656196943,-2.0118601682895423,0.7969455197453499,-0.14933477342128754,0.6688120365142822,0.9995286464691162,-0.00045658854651264846,-0.018810130655765533,-0.02426210418343544
348.0,-0.45153343886663067,-1.6004097183057613,1.9646734138247621,-1.8213672734676363,-1.5146127210349716,-2.021623918820559,0.8078529536724091,-0.15874861180782318,0.6671801805496216,0.9979901909828186,-0.0019480575574561954,-0.0388827808201313,-0.050000082701444626
349.0,-0.45546101962786895,-1.5829474844124192,1.9362099087973488,-1.7431071908541393,-1.4826843997616843,-2.024380746112514,0.8148696273565292,-0.1601942926645279,0.6662744134664536,0.9949394464492798,-0.004912823438644409,-0.06184351444244385,-0.07903759181499481
350.0,-0.45399759105090126,-1.5814109201603652,1.9348306555455952,-1.7433918638125896,-1.4824211244629502,-2.0229355712672725,0.8162967190146446,-0.15953902900218964,0.6662018969655037,0.9949394464492798,-0.004912823438644409,-0.06184351444244385,-0.07903759181499481
351.0,-0.5572179129554543,-1.445677861519611,1.7821515377338966,-1.1395020716986717,-1.2113506539266932,-2.0902861278769818,0.8222148269414902,-0.2115320861339569,0.6364163793623447,0.9108573794364929,-0.08414526283740997,-0.23138836026191711,-0.3312368094921112
352.0,-0.5232774762469777,-1.418906184668054,1.7463367400733865,-1.103206962436982,-1.2865300272570759,-2.017071391064407,0.8377416431903839,-0.20130059123039246,0.6365815438330173,0.9099429249763489,-0.08992992341518402,-0.2781994640827179,-0.2941454350948334
353.0,-0.5128832970971514,-1.413228171284872,1.738961653306153,-1.1036682856396018,-1.2791176784871316,-2.0094717236916884,0.8454967737197876,-0.1945381760597229,0.637239582836628,0.9099429249763489,-0.08992992341518402,-0.2781994640827179,-0.2941454350948334
354.0,-0.51113704418111,-1.4109312191051124,1.7374153148261642,-1.104787757024754,-1.277873935893139,-2.0081916612815127,0.847581684589386,-0.19383025169372559,0.6364497467875481,0.9099429249763489,-0.08992992341518402,-0.2781994640827179,-0.2941454350948334
355.0,-0.5074870598658552,-1.4044138653821914,1.7337608140227576,-1.108429578529421,-1.2752757733828302,-2.0055137056112016,0.8529476225376129,-0.19288985431194305,0.6336493082344532,0.9099434018135071,-0.08992946147918701,-0.2781984508037567,-0.2941451072692871
356.0,-0.4748091124970515,-1.3822395326448234,1.7035245066261961,-1.0790042121474546,-1.3514970573409915,-1.9468131768657302,0.8659392297267914,-0.18137690424919128,0.6336866021156311,0.9097288846969604,-0.08829870074987411,-0.3165431618690491,-0.25376594066619873
357.0,-0.46971203046670074,-1.379692300986106,1.70030498974828,-1.0791833676562756,-1.3477920363836589,-1.9432428843697778,0.8694130778312683,-0.1776350736618042,0.633823573589325,0.9097422957420349,-0.08828695118427277,-0.3165126144886017,-0.2537603974342346
358.0,-0.41124124950137647,-1.604208907253677,1.9774599980856014,-1.8865245393995278,-1.5490304713487801,-1.9817179558697997,0.8148985356092453,-0.13243727385997772,0.6689357087016106,0.9995271563529968,-0.00047268698108382523,-0.022013161331415176,-0.02146277204155922
359.0,-0.42186068635767227,-1.5599000242464656,1.9114303610973815,-1.732655394514565,-1.5019555912443645,-1.9889806579163858,0.8356242775917053,-0.1430843025445938,0.6661242321133614,0.9949091672897339,-0.005087561905384064,-0.07244139909744263,-0.06987249851226807
360.0,-0.412834065794071,-1.5545348288465985,1.9061052325066723,-1.733314290602621,-1.5002564793500917,-1.980093821648689,0.84131920337677,-0.13719379901885986,0.6661308407783508,0.9949091672897339,-0.005087561905384064,-0.07244139909744263,-0.06987249851226807
361.0,-0.3774690648072448,-1.5852283890072554,1.9584752325772576,-1.8841900354000023,-1.5551400701323437,-1.9478207608457891,0.8334093540906906,-0.11161042749881744,0.6689628511667252,0.9995215535163879,-0.0004564322007354349,-0.024934928864240646,-0.018296172842383385
362.0,-0.3912503127711903,-1.5959569436454624,1.9693426355039423,-1.8871050600887296,-1.5478855809435135,-1.9617548489687147,0.8240576460957527,-0.11868363618850708,0.6691235899925232,0.9995271563529968,-0.00047268698108382523,-0.022013161331415176,-0.02146277204155922
363.0,-0.4601246911960324,-1.3744343102591843,1.6940083063229856,-1.0796656184127067,-1.340838344088747,-1.9364696521585998,0.8761939406394958,-0.17066116631031036,0.6338362321257591,0.9097422957420349,-0.08828695118427277,-0.3165126144886017,-0.2537603974342346
364.0,-0.45671769673344687,-1.3748916806851597,1.6922653837985318,-1.078018062608471,-1.3383696944313088,-1.9340574122793674,0.8772027045488358,-0.16747434437274933,0.635496474802494,0.9097422957420349,-0.08828695118427277,-0.3165126144886017,-0.2537603974342346
365.0,-0.4261066574507173,-1.359550831250414,1.6684684090337873,-1.053369903652599,-1.4167553547980127,-1.8879750151674868,0.8857510536909103,-0.1553201675415039,0.6371236518025398,0.9101009368896484,-0.08055707812309265,-0.3474058508872986,-0.2110358029603958
366.0,-0.411491341849971,-1.3518782114389876,1.6601147727876506,-1.0542824361544372,-1.4060141901515713,-1.8779363322049396,0.8951401710510254,-0.14372125267982483,0.636357057839632,0.9101009368896484,-0.08055707812309265,-0.3474058508872986,-0.2110358029603958
367.0,-0.4139392991194966,-1.3501265978710992,1.6608300845177908,-1.0563904521084286,-1.407821985288266,-1.8795935869102074,0.8954198509454727,-0.14649128913879395,0.6342860609292984,0.9100833535194397,-0.08056949079036713,-0.3474467992782593,-0.21103933453559875
368.0,-0.3595769577797162,-1.5763035153098635,1.949735835297021,-1.884675145932245,-1.5540718051706812,-1.9299583942669263,0.8425315022468567,-0.09923452883958817,0.6689612567424774,0.9995217323303223,-0.00045630172826349735,-0.024929942563176155,-0.018294604495167732
369.0,-0.3764430503308151,-1.3336637828367994,1.6376059695586156,-1.039424256094968,-1.4821913261929511,-1.8376593692542096,0.9072535634040833,-0.12781599164009094,0.6348463967442513,0.9107908606529236,-0.06794333457946777,-0.37164241075515747,-0.1665099710226059
370.0,-0.37424256734402006,-1.3343345038480938,1.636953832658793,-1.0382337819990228,-1.4805597492177327,-1.836176936153948,0.9074119031429291,-0.12550248205661774,0.6359161511063576,0.9107908606529236,-0.06794333457946777,-0.37164241075515747,-0.1665099710226059
371.0,-0.37030839274836186,-1.332346493245801,1.6350502311016368,-1.0385609790423942,-1.4776431979198754,-1.8335254442771898,0.9096749424934387,-0.12214048206806183,0.6354802884161472,0.9107908606529236,-0.06794333457946777,-0.37164241075515747,-0.1665099710226059
372.0,-0.36733287362862177,-1.3321849433040902,1.6339041262558052,-1.0377652546400378,-1.4754377654799915,-1.831519094273916,0.9105427265167236,-0.11926580965518951,0.6361525095999241,0.9107908606529236,-0.06794333457946777,-0.37164241075515747,-0.1665099710226059
373.0,-0.36351117071363137,-1.3287032495435076,1.6316490543512703,-1.0391980380101882,-1.4726133352456103,-1.828928771708948,0.9136936068534851,-0.11634881049394608,0.6346116475760937,0.910781979560852,-0.06794784963130951,-0.3716633915901184,-0.16651001572608948
374.0,-0.3458952924315469,-1.568630106980896,1.9418151544245388,-1.882622228458719,-1.5615432477469515,-1.916170013819529,0.8494251817464828,-0.09094719588756561,0.6688548550009727,0.999518632888794,-0.0004025889793410897,-0.027293670922517776,-0.014743169769644737
375.0,-0.3409056141369052,-1.5333358818527445,1.8953561321543224,-1.80627720217735,-1.551103890202406,-1.9095174290858639,0.8714784234762192,-0.09266504645347595,0.6664751619100571,0.997949481010437,-0.001712558907456696,-0.056333813816308975,-0.030337857082486153
376.0,-0.31508787727564735,-1.530485354545001,1.8911029115586477,-1.803120797668261,-1.5655615339742555,-1.883528756492802,0.8752745538949966,-0.07303547859191895,0.6670654863119125,0.9979391098022461,-0.001343080890364945,-0.060163356363773346,-0.022277899086475372
377.0,-0.32784446916800924,-1.3169110688729693,1.6149305308845243,-1.0287817725527042,-1.5498887665062777,-1.7952173970724075,0.9221151769161224,-0.09791308641433716,0.6351128667593002,0.9115912914276123,-0.051450423896312714,-0.38970446586608887,-0.1203521266579628
378.0,-0.32112496259617757,-1.315615087052287,1.6127818699341414,-1.0280341065407124,-1.5448852065698808,-1.7907310592996755,0.9242295026779175,-0.09139272570610046,0.6354367807507515,0.9115912914276123,-0.051450423896312714,-0.38970446586608887,-0.1203521266579628
379.0,-0.3091482949757998,-1.3120684399523033,1.6085799731179742,-1.0278383393605262,-1.5359174472919934,-1.7827839006233572,0.9287550747394562,-0.07998233288526535,0.6351406276226044,0.9116358757019043,-0.05143739655613899,-0.38959941267967224,-0.12035997956991196
380.0,-0.275955602325207,-1.3062732934931625,1.599309729217698,-1.023705747740769,-1.6164773399118673,-1.7560251318296944,0.9327705800533295,-0.06256188452243805,0.6363219916820526,0.9123082160949707,-0.03209025040268898,-0.40168648958206177,-0.07288321107625961
381.0,-0.30684640828068016,-1.3098831636843162,1.6073749946471083,-1.0288735996091156,-1.5342042203778348,-1.7812455387146724,0.9305709898471832,-0.07808493077754974,0.633979469537735,0.9116358757019043,-0.05143739655613899,-0.38959941267967224,-0.12035997956991196
382.0,-0.2874705012926768,-1.556154280202297,1.9286064290540466,-1.8810666275340775,-1.5752911341606293,-1.8577215795184212,0.8630543798208237,-0.046292807906866074,0.6691338419914246,0.9995142221450806,-0.0002026217698585242,-0.030448907986283302,-0.00665125111117959
383.0,-0.2997414299218127,-1.5499148530387938,1.9229346968362524,-1.8817004103605335,-1.5673016973718996,-1.8700142042549792,0.8677895069122314,-0.057248279452323914,0.6686623096466064,0.9995161890983582,-0.0003159073239658028,-0.0291554294526577,-0.010830038227140903
384.0,-0.3045123863827436,-1.527914326583244,1.8883557097445651,-1.8030066250097727,-1.5642088031661647,-1.873039953407853,0.8782266080379486,-0.06425675004720688,0.6671032458543777,0.9979391098022461,-0.001343080890364945,-0.060163356363773346,-0.022277899086475372
