Sungjin-Park-dev/vision_inspection/data/output/10000/joint_trajectory_dp_20251102_024332.csv
time,ur20-shoulder_pan_joint,ur20-shoulder_lift_joint,ur20-elbow_joint,ur20-wrist_1_joint,ur20-wrist_2_joint,ur20-wrist_3_joint,target-POS_X,target-POS_Y,target-POS_Z,target-ROT_X,target-ROT_Y,target-ROT_Z,target-ROT_W
0.0,-0.22507901124932703,-1.2855673892123305,1.5363661382422726,-0.8093772566510723,-1.684688139594218,-1.6897139978297882,0.9210477769374847,-0.02266991138458252,0.6662914752960205,0.873453676700592,-0.018776997923851013,-0.48537030816078186,-0.033790361136198044
1.0,-0.21611119871084009,-1.2850610515343681,1.536138805315432,-0.81087901680995,-1.6996817284404755,-1.6850831106606179,0.9215716123580933,-0.016838984563946724,0.6660648137331009,0.8735731840133667,-0.013289227150380611,-0.4859243929386139,-0.0238907802850008
2.0,-0.20744633291141718,-1.2842565794903658,1.5361513455680902,-0.8127523705608254,-1.7133426778734675,-1.680632607811094,0.9222186654806137,-0.0111001618206501,0.66539666056633,0.8736085891723633,-0.008177907206118107,-0.4863387644290924,-0.014689944684505463
3.0,-0.1941287678300253,-1.283460476163983,1.5358269506365778,-0.8142601907115548,-1.7326496301724421,-1.673760007033375,0.9228731393814087,-0.0019344701431691647,0.6650641188025475,0.8734487295150757,-0.0007296160329133272,-0.48691385984420776,-0.0013088190462440252
4.0,-0.18288941276068257,-1.2847567458107574,1.5367340055478667,-0.8161820771112517,-1.7493378984803083,-1.6682317703196436,0.9222439825534821,0.005966732278466225,0.665786862373352,0.8735498785972595,0.005691891070455313,-0.4865940809249878,0.010218271985650063
5.0,-0.18910278446799786,-1.2851650200493505,1.5353231974802024,-0.8126111687019717,-1.7404191089500851,-1.6712106682431462,0.9219405502080917,0.0016781368758529425,0.6671188771724701,0.8733842372894287,0.0022071031853556633,-0.48701074719429016,0.003958124667406082
6.0,-0.1816877808710523,-1.2867958188230533,1.5356236287629546,-0.8127182346658877,-1.7516113184143058,-1.6675563447952924,0.9210594892501831,0.006940176244825125,0.6685515865683556,0.8734073638916016,0.0064866929315030575,-0.48680803179740906,0.011638110503554344
7.0,-0.17395453319667514,-1.2870988397963636,1.5368891302838505,-0.8155778557195119,-1.763613015894359,-1.663809953577979,0.9209351241588593,0.01222275011241436,0.6680479794740677,0.8734709620475769,0.011029383167624474,-0.48634812235832214,0.019808541983366013
8.0,-0.16244591876526832,-1.2894437806716867,1.537670647055583,-0.8162787589554383,-1.7839251733906287,-1.6581669721728838,0.9196059703826904,0.019894452765583992,0.6699599623680115,0.8732537031173706,0.018361855298280716,-0.48579978942871094,0.033006515353918076
9.0,-0.1543734853596978,-1.289723006537038,1.5391673028967505,-0.819293134791585,-1.7975363238744098,-1.6542326737075521,0.9194196462631226,0.025242261588573456,0.6693400517106056,0.8730998635292053,0.023336712270975113,-0.4851683974266052,0.0419963039457798
10.0,-0.14512360931524923,-1.291379244558275,1.540074980982922,-0.8200472229668438,-1.813776387076597,-1.6496504058860249,0.9183753132820129,0.03139542415738106,0.6705180704593658,0.8726917505264282,0.0291775930672884,-0.4845579266548157,0.05254902318120003
11.0,-0.13579161689769434,-1.293393822924338,1.5429064092982385,-0.8240133072023195,-1.8282720743656933,-1.6451870557828319,0.9170809388160706,0.03790842369198799,0.6705950498580933,0.8726718425750732,0.034570179879665375,-0.4830615222454071,0.06245254725217819
12.0,-0.12286422320969323,-1.296705725164985,1.5468480006908887,-0.829148977819657,-1.8503823336885403,-1.6389650521930346,0.914985179901123,0.04663494974374771,0.6712508350610733,0.8724504709243774,0.04245901107788086,-0.48071759939193726,0.07705851644277573
13.0,-0.11409137164822812,-1.2977025542075245,1.5503949514748612,-0.8349956163595926,-1.8653995162717976,-1.634706034160562,0.9142537415027618,0.052456147968769073,0.6699232906103134,0.8722656965255737,0.047754280269145966,-0.47885841131210327,0.08698692172765732
14.0,-0.12176901648742508,-1.2948761220342473,1.548450432455385,-0.8334216125382792,-1.8510148440945242,-1.638466003995182,0.9160115122795105,0.04741060733795166,0.668384313583374,0.8725994825363159,0.042812105268239975,-0.48029935359954834,0.07778029143810272
15.0,-0.13201001034595736,-1.291965480362414,1.5454779039383315,-0.8298734721475824,-1.8332071632417721,-1.643420944246939,0.917847603559494,0.040512118488550186,0.6674690991640091,0.872827410697937,0.036506518721580505,-0.48215389251708984,0.06608656048774719
16.0,-0.146625898001408,-1.288318287882636,1.54171766115744,-0.8253212067145484,-1.809865104177634,-1.650484918896098,0.9201741069555283,0.030349303036928177,0.6663657426834106,0.8730111122131348,0.027915142476558685,-0.48429349064826965,0.05032121017575264
17.0,-0.15701378269148455,-1.2874017767922799,1.54010800377004,-0.8226119745006512,-1.7920299604828709,-1.6555982209747984,0.920782595872879,0.02344762533903122,0.6663762181997299,0.8733503818511963,0.021455269306898117,-0.4850841760635376,0.03862828016281128
18.0,-0.16719236724482298,-1.2860086823209766,1.5389260680394081,-0.8207561493119921,-1.7743475098477113,-1.6605886561796714,0.9215991497039795,0.016673503443598747,0.6656661331653595,0.8735716342926025,0.015053893439471722,-0.48570868372917175,0.02707519195973873
19.0,-0.17144209332446667,-1.283706142274692,1.5395471702509658,-0.8232201957768962,-1.766130973921429,-1.6627274576388222,0.9229153692722321,0.01380092091858387,0.6629286110401154,0.8737581968307495,0.012178040109574795,-0.4857143461704254,0.021907247602939606
20.0,-0.16366018114000444,-1.2841815578381515,1.5407887321397833,-0.8258303259041868,-1.77937607485742,-1.6589425724470332,0.9226595759391785,0.018973084166646004,0.6626482978463173,0.8737039566040039,0.017012037336826324,-0.4851943552494049,0.030634088441729546
21.0,-0.15151621278129215,-1.2853805269470426,1.5425311636134975,-0.8288622719126513,-1.800310520347007,-1.6529789224815434,0.9219194948673248,0.027054108679294586,0.6628345474600792,0.8734054565429688,0.024593472480773926,-0.48434627056121826,0.0443485863506794
22.0,-0.14580339532110417,-1.2845163508547806,1.5442753580033608,-0.8329346456200534,-1.8095286341174255,-1.650199002926461,0.9223614931106567,0.03083220310509205,0.6609072834253311,0.8733141422271729,0.027993423864245415,-0.48371946811676025,0.05053973197937012
23.0,-0.13790722008560638,-1.2861625101064404,1.5462888436640385,-0.835642877208877,-1.8222522284938172,-1.646377797427533,0.9213054776191711,0.036300256848335266,0.6612154096364975,0.8732174634933472,0.032666921615600586,-0.48262912034988403,0.05910402163863182
24.0,-0.12986139686108758,-1.2892319556679979,1.5480733743435984,-0.8367503784394649,-1.8352649875827374,-1.6424580000845552,0.9193867892026901,0.04196229577064514,0.6630473732948303,0.873063862323761,0.03741340711712837,-0.48141035437583923,0.06785125285387039
25.0,-0.12166822211542615,-1.2906918674674825,1.5509303571993032,-0.841021531003031,-1.8485452368304403,-1.6384788491413818,0.9183812737464905,0.04758165031671524,0.6626057550311089,0.8729509711265564,0.04221352934837341,-0.47987255454063416,0.07679193466901779
26.0,-0.11415202937578789,-1.2927878883085793,1.5532306475580897,-0.8437962331129442,-1.862250488008374,-1.6348019158242986,0.9170433580875397,0.05254945531487465,0.6631931513547897,0.8726933002471924,0.046952612698078156,-0.47839945554733276,0.08565066009759903
27.0,-0.10228532059319015,-1.2952954103870495,1.5574217807252553,-0.8494684978538741,-1.8834317978658899,-1.628901889397772,0.9153088629245758,0.06039853021502495,0.6629969775676727,0.8721817135810852,0.0542534776031971,-0.475887268781662,0.09943298995494843
28.0,-0.09329653031335255,-1.29872409591237,1.5606509296779274,-0.8524863462219121,-1.8994133685132273,-1.6243706215594482,0.9130437076091766,0.0664307028055191,0.6642611846327782,0.8717518448829651,0.05969640985131264,-0.4737270772457123,0.10985324531793594
29.0,-0.08831108825883827,-1.3016421312777313,1.562596474024593,-0.8536274013772533,-1.9080283400568858,-1.6218457310851446,0.911167249083519,0.06985639035701752,0.665792390704155,0.8715723156929016,0.06261426210403442,-0.4723255932331085,0.1155407577753067
30.0,-0.08151721353530782,-1.3048321526377364,1.5656724355712155,-0.8564789197722686,-1.9194083363895493,-1.6183597999149673,0.9090333878993988,0.07451973110437393,0.6668375730514526,0.8713365793228149,0.06646516174077988,-0.4703104794025421,0.12313894182443619
31.0,-0.06939772386609763,-1.3098778785612561,1.5718452228349569,-0.8636473461250974,-1.942221174603403,-1.6120744546289927,0.9057395458221436,0.08239031583070755,0.6676972880959511,0.87078857421875,0.0737762600183487,-0.46614396572113037,0.1378190666437149
32.0,-0.05686045566365601,-1.3154748985608127,1.5781817642399696,-0.8702772026294905,-1.9661355104239222,-1.6053201974271993,0.9020269513130188,0.09045995771884918,0.6690329611301422,0.8699526190757751,0.0812566727399826,-0.4616648852825165,0.1531185358762741
33.0,-0.04511227133769751,-1.320316436249076,1.5862228848205744,-0.8802682913085459,-1.986013134221871,-1.5987724526537188,0.8985564857721329,0.09833505004644394,0.6683521866798401,0.8695332407951355,0.08740901947021484,-0.45670050382614136,0.16642208397388458
34.0,-0.03619395272918422,-1.3258625954526817,1.5922362331732913,-0.8863951752542101,-2.002387552231185,-1.593646050594005,0.8948803544044495,0.10413976013660431,0.6696691960096359,0.8691282272338867,0.09220436960458755,-0.4524923861026764,0.1771022528409958
35.0,-0.023049891452046656,-1.3321044611998147,1.6022797145017589,-0.8991200512721715,-2.0270037179017057,-1.5857657628062836,0.8906011581420898,0.11252711713314056,0.6690626293420792,0.8684726357460022,0.0990900993347168,-0.44570961594581604,0.19307869672775269
36.0,-0.015870701087806374,-1.3356533886544328,1.6077715193355173,-0.9058190408935245,-2.040601939832214,-1.5812682379274128,0.8881434798240662,0.11706626415252686,0.6688868403434753,0.8680024147033691,0.10276440531015396,-0.44188597798347473,0.20186148583889008
37.0,-0.00708572030393653,-1.341634548085513,1.6146813959599702,-0.9130580710632612,-2.0575475859075523,-1.5755696919131865,0.8841544985771179,0.12256336212158203,0.6700397431850433,0.8674342632293701,0.10714269429445267,-0.43681755661964417,0.2127644419670105
38.0,0.005202755490500726,-1.3507617183569303,1.6259847917774632,-0.9257546967639494,-2.0805567112047547,-1.5671781553991393,0.8780505955219269,0.13027654588222504,0.6711544990539551,0.8669583201408386,0.11264922469854355,-0.4287199378013611,0.22779949009418488
39.0,-0.0005711174540711185,-1.3479785323695535,1.620047377639366,-0.9174508910542292,-2.070333123594945,-1.5711875804382012,0.8800686448812485,0.12658476829528809,0.6724396571516991,0.8670899868011475,0.110256128013134,-0.4326275885105133,0.22097986936569214
40.0,-0.011157916620415412,-1.3412639227362213,1.6100090404132608,-0.9054039437811143,-2.052281018082194,-1.5782460103009095,0.8847987949848175,0.11967949569225311,0.6728115677833557,0.8673396706581116,0.10574726015329361,-0.43924739956855774,0.20880897343158722
41.0,-0.022094428121702737,-1.33523101654488,1.601861705133008,-0.896123769584926,-2.031080691419948,-1.585189012668214,0.8888867199420929,0.11284919083118439,0.6723400205373764,0.8681655526161194,0.10010065138339996,-0.4451465606689453,0.19522549211978912
42.0,-0.03348796831340508,-1.330906297083901,1.5926394836737632,-0.8835095193158125,-2.010718374236493,-1.592087038802052,0.8920311629772186,0.10548083484172821,0.674255758523941,0.868676483631134,0.09439636766910553,-0.4510420262813568,0.18180105090141296
43.0,-0.04378127042554686,-1.3249291150345828,1.5853498050098356,-0.8751899777975539,-1.9907885569965849,-1.5980271550192198,0.895913615822792,0.09896678477525711,0.673351489007473,0.8691684603691101,0.08870375156402588,-0.4561974108219147,0.16900251805782318
44.0,-0.050248086130276044,-1.3200422851688616,1.5814778656393202,-0.8723566115731962,-1.9789996283728475,-1.6016664895270252,0.8990949988365173,0.09470967948436737,0.6712727546691895,0.869478166103363,0.08516546338796616,-0.45905831456184387,0.1613074094057083
45.0,-0.05891015812718986,-1.3168242293005488,1.5759657315508901,-0.8654509755136109,-1.963891925323394,-1.6064475997900887,0.901398703455925,0.08897894620895386,0.67179324477911,0.869893491268158,0.08045610785484314,-0.4625076949596405,0.15132340788841248
46.0,-0.06723463844924933,-1.3148859226987302,1.5708250875378202,-0.8581070412026652,-1.949368359036078,-1.6109359726967294,0.9028840661048889,0.0835009515285492,0.6732617169618607,0.8702945113182068,0.07582353055477142,-0.465562105178833,0.14174003899097443
47.0,-0.0783613043968114,-1.310731224232161,1.564871086797637,-0.850785612023347,-1.9288366535709298,-1.616752746336292,0.9056605696678162,0.07626508176326752,0.6731333062052727,0.8708188533782959,0.06924267113208771,-0.4694487452507019,0.1284438818693161
48.0,-0.0871497867038358,-1.3080246824676327,1.5599424733534044,-0.8439648919670656,-1.9131038431560865,-1.6212114706330656,0.9074795544147491,0.0704883486032486,0.6737736463546753,0.8710547089576721,0.06407547742128372,-0.47244226932525635,0.11813770234584808
49.0,-0.09348777014683625,-1.3058010138687575,1.556685216822869,-0.8399843775441426,-1.9029732241459372,-1.6244091128942628,0.9090208262205124,0.06611261516809464,0.673810176551342,0.8711779117584229,0.06057441607117653,-0.47434499859809875,0.11125044524669647
50.0,-0.10011862741358173,-1.3040527081297577,1.5533376897696776,-0.8354386019576973,-1.8923057397538168,-1.6277151409286172,0.9102649986743927,0.061567358672618866,0.6743484735488892,0.8713071346282959,0.05685210973024368,-0.4762049913406372,0.10402168333530426
51.0,-0.10990273073324723,-1.3024996775763755,1.5495162752657516,-0.8298764812741789,-1.875268090895107,-1.6325912343169984,0.911413848400116,0.0551096573472023,0.6752640157938004,0.8717529773712158,0.05094781890511513,-0.4783625602722168,0.09284570068120956
52.0,-0.11808589850742392,-1.3012954587797871,1.5463212176412295,-0.8249611472513846,-1.8611150521427138,-1.636596736777774,0.9122719466686249,0.0497002974152565,0.676148533821106,0.872011661529541,0.04598970711231232,-0.4801075756549835,0.08353036642074585
53.0,-0.12596333724724448,-1.3003966117628067,1.5431352752282532,-0.8196772650107147,-1.8476982401092055,-1.640390285607058,0.9129063785076141,0.044481486082077026,0.6773531958460808,0.8721475005149841,0.041231218725442886,-0.48175424337387085,0.07464324682950974
54.0,-0.13410084794942437,-1.2987930959018938,1.5403174111561018,-0.815384964690981,-1.8334443915713992,-1.6442628201317295,0.9139096736907959,0.039099715650081635,0.6776402369141579,0.8722507953643799,0.03617963194847107,-0.48332858085632324,0.06529245525598526
55.0,-0.143559951719774,-1.2956482189595997,1.5379971348568837,-0.813135821650208,-1.8179511044004149,-1.6487888845185248,0.9158554375171661,0.03255700320005417,0.6761185973882675,0.8723570108413696,0.030518418177962303,-0.4848158359527588,0.054913539439439774
56.0,-0.15752434059168102,-1.2938145858541574,1.535805405623884,-0.8099606623590899,-1.7942179053205396,-1.6556266284446999,0.9170346856117249,0.02324129268527031,0.6755949258804321,0.872809886932373,0.021881287917494774,-0.48598334193229675,0.03929806500673294
57.0,-0.16550422696555017,-1.2927764653747158,1.5348393316576572,-0.8084329027876491,-1.7804532648352316,-1.6595258866017972,0.9176497757434845,0.017949163913726807,0.6751200705766678,0.8729985952377319,0.016877127811312675,-0.48648881912231445,0.03028581105172634
58.0,-0.17624663457765177,-1.2908948474809194,1.5339410927084185,-0.807176770214285,-1.7617072055984626,-1.6647634107743081,0.9186987280845642,0.010807904414832592,0.6737644895911217,0.8731449842453003,0.010070492513477802,-0.4870220422744751,0.018054623156785965
59.0,-0.18466550948110638,-1.2914363184027635,1.5319559230266309,-0.80222833503246,-1.7485098769604117,-1.668775109480089,0.9182934165000916,0.0051962947472929955,0.6755865439772606,0.8729813098907471,0.005076252389699221,-0.4876425564289093,0.009087545797228813
60.0,-0.19659373642260702,-1.2905916180261896,1.5310719311553778,-0.799942736051073,-1.7310331903395835,-1.6746529569215993,0.9186502546072006,-0.003118742723017931,0.6752712726593018,0.8729050159454346,-0.0016955138416960835,-0.48787805438041687,-0.003033591201528907
61.0,-0.2055537221265318,-1.2904150039827178,1.5317777789650515,-0.8003662364279661,-1.7178741290041797,-1.679298303198141,0.9186331033706665,-0.009309884160757065,0.6744603365659714,0.8730763792991638,-0.006753879599273205,-0.4873865842819214,-0.012098511680960655
62.0,-0.2162519781872261,-1.2908732009623742,1.5320820565909308,-0.799044494239515,-1.7000255941068763,-1.6847962237563483,0.9181610643863678,-0.0162738636136055,0.6745302975177765,0.8730930089950562,-0.013312826864421368,-0.4867866337299347,-0.02387768030166626
63.0,-0.2267426107632376,-1.2918807950906748,1.5320574002856844,-0.7964367273299943,-1.6826333415078483,-1.690170694231619,0.9173011630773544,-0.023023433983325958,0.6754019185900688,0.8729082942008972,-0.019716650247573853,-0.4861988127231598,-0.03539874032139778
64.0,-0.23520579735416372,-1.2923986489413515,1.5323043857878127,-0.7948216576055279,-1.6686170335615012,-1.694541425684562,0.9167332947254181,-0.02849256619811058,0.6756593659520149,0.872672975063324,-0.024868344888091087,-0.48561957478523254,-0.04468916356563568
65.0,-0.24802984546974183,-1.294164167308087,1.5332792669211155,-0.7926113291270566,-1.6485498992388752,-1.701370031340467,0.9152418673038483,-0.03679830580949783,0.6765596643090248,0.8723492622375488,-0.0323295034468174,-0.4843253195285797,-0.05823073908686638
66.0,-0.25527020656355104,-1.2946207260819798,1.5352917432192066,-0.7944618870629383,-1.6376987908609661,-1.7055120786780515,0.9147082269191742,-0.04163462668657303,0.6754882261157036,0.8723812699317932,-0.03633551299571991,-0.48303645849227905,-0.06562325358390808
67.0,-0.2639985251951784,-1.2967745150901773,1.536530360193671,-0.7931688644434743,-1.6231285933467752,-1.7104547273675201,0.9131349325180054,-0.04697446897625923,0.6765877157449722,0.8721884489059448,-0.04152694717049599,-0.48156628012657166,-0.07521150261163712
68.0,-0.27334738745609843,-1.2979172705180437,1.5387708243356513,-0.7940766533073118,-1.6076296408708515,-1.7158977574568108,0.9120773673057556,-0.052865661680698395,0.6760298162698746,0.8719683885574341,-0.04700091853737831,-0.47975465655326843,-0.08542557805776596
69.0,-0.28203691994193175,-1.2997772887225327,1.5403144853316508,-0.7931345937486944,-1.5932303351092247,-1.720953991250152,0.9105870723724365,-0.05818817764520645,0.6766795739531517,0.8715915679931641,-0.05207700654864311,-0.47812536358833313,-0.09493300318717957
70.0,-0.3022412219207745,-1.304732917789258,1.5458938172982384,-0.7937256344762131,-1.5620439920702445,-1.7333873278892769,0.9065889716148376,-0.07071051746606827,0.6773558855056763,0.8708909153938293,-0.06304724514484406,-0.47341567277908325,-0.1159810945391655
71.0,-0.309679902716859,-1.306431101837253,1.5489147853611132,-0.7957748437648116,-1.549896413428462,-1.7383531931815215,0.9052161276340485,-0.07522162050008774,0.6767837107181549,0.8707396388053894,-0.06708328425884247,-0.47110384702682495,-0.12398982048034668
72.0,-0.3242066499103489,-1.3109482370646848,1.5540049510815679,-0.7970109599668926,-1.5259862021573978,-1.7481754901931021,0.9017763733863831,-0.083716481924057,0.6774196028709412,0.8701427578926086,-0.07493074983358383,-0.4665946364402771,-0.1397368162870407
73.0,-0.33470515800977124,-1.313785067985679,1.5580625168404496,-0.7985594917646327,-1.5088619971965975,-1.7554984097063109,0.8994590938091278,-0.08990253508090973,0.6772399619221687,0.869591474533081,-0.08045367896556854,-0.46316468715667725,-0.15105172991752625
74.0,-0.3485564514896146,-1.3185311791831076,1.5643818463780066,-0.8014325227865945,-1.487944460626148,-1.7656788935790682,0.8956954181194305,-0.09804333001375198,0.6772204414010048,0.8690388202667236,-0.0870964527130127,-0.4581381678581238,-0.16521260142326355
75.0,-0.3579848558674377,-1.3230698757283903,1.5686778187792387,-0.8024560225249082,-1.472817873971268,-1.7730653109427679,0.8924598693847656,-0.10315228998661041,0.6784124374389648,0.8686743974685669,-0.0916188657283783,-0.45421236753463745,-0.17521968483924866
76.0,-0.3653935512005938,-1.3250727122663761,1.5732114969427675,-0.8063551123548403,-1.461131616960629,-1.7791458250690646,0.8907520473003387,-0.10748949646949768,0.6770817935466766,0.8684598803520203,-0.0949927270412445,-0.45085763931274414,-0.18297874927520752
77.0,-0.375929643283515,-1.330053434287624,1.578136691884645,-0.8073766251001545,-1.4438201249641875,-1.787863964442901,0.887142539024353,-0.1130586490035057,0.6782732307910919,0.8678566813468933,-0.09991439431905746,-0.4461756646633148,-0.19434355199337006
78.0,-0.3868416386501478,-1.3351816767106037,1.5832867046508845,-0.8082557194600359,-1.4259968901547289,-1.797168396711713,0.8833660781383514,-0.11877574026584625,0.6794600635766983,0.8671117424964905,-0.1048525869846344,-0.44120025634765625,-0.20607174932956696
79.0,-0.4040808234784077,-1.3433771890804045,1.5944654444750104,-0.8150824572676298,-1.4001207987386266,-1.8132928200351222,0.8771728873252869,-0.12798085808753967,0.6791395395994186,0.8665940761566162,-0.11141893267631531,-0.432033509016037,-0.22348959743976593
80.0,-0.4148052458038166,-1.348525691740133,1.6017625000819027,-0.8198070923161865,-1.3830260845905773,-1.8240973642746972,0.8733513057231903,-0.13348829746246338,0.6787542998790741,0.866223931312561,-0.11536794900894165,-0.42572861909866333,-0.23473751544952393
81.0,-0.4289106312329025,-1.3552649830943704,1.6113913032554674,-0.8257055898864872,-1.3606313324573287,-1.8389122527580262,0.8682645559310913,-0.14064349234104156,0.6782198697328568,0.8655902743339539,-0.12024720013141632,-0.41719233989715576,-0.24948875606060028
82.0,-0.4378061172497384,-1.359602371147147,1.6174048182951115,-0.8290270081651697,-1.3465231891511458,-1.8486261522619951,0.8649684488773346,-0.14507317543029785,0.6780164688825607,0.8650991916656494,-0.12314516305923462,-0.41166722774505615,-0.2587836980819702
83.0,-0.4500324852458946,-1.3675084670633255,1.626764466715257,-0.8342980476318679,-1.3285654758528518,-1.8629588891069802,0.8592782020568848,-0.1507827490568161,0.6785903051495552,0.8648967742919922,-0.12629170715808868,-0.40329882502555847,-0.2708395719528198
84.0,-0.4668040448319798,-1.3783741046460447,1.639720985881598,-0.8416860841101241,-1.3013587786554301,-1.8845036190169155,0.8517167866230011,-0.15814918279647827,0.6793376207351685,0.8644534349441528,-0.13031883537769318,-0.3905618190765381,-0.28844234347343445
85.0,-0.4765026229578753,-1.384253208964408,1.6474593929224333,-0.8464095089788498,-1.2859401651651503,-1.8975990781236198,0.8474872559309006,-0.16245612502098083,0.6792368814349174,0.8641521334648132,-0.1322706639766693,-0.38297080993652344,-0.29846134781837463
86.0,-0.4844740517921295,-1.389023074708219,1.653846728662791,-0.8502379225581915,-1.2733448588437697,-1.9087395258261237,0.8440145254135132,-0.1659708321094513,0.6790814399719238,0.8638688921928406,-0.1336817592382431,-0.3765975832939148,-0.30664965510368347
87.0,-0.4925076324298798,-1.394157704846949,1.6612877494555898,-0.8556846990282847,-1.2619563958626396,-1.9204385274178715,0.8401977121829987,-0.16952449083328247,0.678431361913681,0.8639129400253296,-0.1345398873090744,-0.36986076831817627,-0.3142554461956024
88.0,-0.5074224179997656,-1.404550417284232,1.675267556663572,-0.8657618132289607,-1.2388267693721293,-1.944251134178192,0.8329285532236099,-0.17557717859745026,0.6778547614812851,0.8640525341033936,-0.13558700680732727,-0.35596513748168945,-0.3291173577308655
89.0,-0.5178486206847791,-1.4122679409297911,1.6847409303460688,-0.8718096845800201,-1.2219486463401843,-1.962079691704447,0.8276863992214203,-0.17950868606567383,0.6780549213290215,0.8640493154525757,-0.1359330713748932,-0.34569770097732544,-0.3397560715675354
90.0,-0.5269375982414619,-1.4184264979131636,1.6933126176661049,-0.8778589705867428,-1.20768386534763,-1.9781834853991749,0.8233309090137482,-0.18307223916053772,0.6775116249918938,0.864059567451477,-0.1358661651611328,-0.336587131023407,-0.3487847149372101
91.0,-0.5429441786274696,-1.4306142503864057,1.7091128840051129,-0.8886906130030744,-1.1836738099427528,-2.008289446752619,0.8148311674594879,-0.18890368938446045,0.6770884245634079,0.8644003868103027,-0.13461895287036896,-0.3197020888328552,-0.36397847533226013
92.0,-0.5573076350294861,-1.4427762264552915,1.7240364355826217,-0.8993730415783476,-1.1606106844363033,-2.038792254919606,0.8068634271621704,-0.1935010850429535,0.6771587058901787,0.8650173544883728,-0.13213054835796356,-0.3024391233921051,-0.3779115080833435
93.0,-0.5717425702117089,-1.4549075349147471,1.739003296550456,-0.9098786829419336,-1.137159820821998,-2.0717416997758744,0.7989359498023987,-0.19795262813568115,0.6771442666649818,0.8655727505683899,-0.1286211907863617,-0.28417089581489563,-0.39177486300468445
94.0,-0.5820253092672241,-1.4636816909660397,1.7495179132836256,-0.9168043754438274,-1.1204262388809019,-2.0966034822029473,0.7932242453098297,-0.20097202062606812,0.6773184537887573,0.8659116625785828,-0.12549273669719696,-0.2706562280654907,-0.4014894664287567
95.0,-0.593010020831445,-1.4750640031610587,1.7615969259537736,-0.9244695168226575,-1.1033954929910461,-2.1247709625368776,0.7860647439956665,-0.2035270631313324,0.6783963739871979,0.8667014241218567,-0.12107912451028824,-0.25525879859924316,-0.4111100435256958
96.0,-0.6077325131042858,-1.4901383264174766,1.7783461931184363,-0.9366311760597171,-1.0782675580257841,-2.167026653965418,0.7770171537995338,-0.20673856139183044,0.6792975813150406,0.8678687214851379,-0.11347903311252594,-0.2320929914712906,-0.4243339002132416
97.0,-0.6198498810251856,-1.5006485154194127,1.7929267679339378,-0.9489428417853347,-1.0593951755107676,-2.202501575980802,0.7701997756958008,-0.20996546745300293,0.6779002696275711,0.8688214421272278,-0.10647115856409073,-0.21312379837036133,-0.4340408444404602
98.0,-0.6312636328862494,-1.512250354440699,1.805757265532923,-0.9577592773791088,-1.040192094017458,-2.238780827088297,0.7632181197404861,-0.21224376559257507,0.6785305738449097,0.8695271611213684,-0.09887289255857468,-0.19392582774162292,-0.4433276057243347
99.0,-0.6391913054354057,-1.5210528056390245,1.8158839656489207,-0.9655885102707497,-1.0283959772839129,-2.264205123824654,0.7578076124191284,-0.2135852575302124,0.6785575151443481,0.8703674077987671,-0.09296920895576477,-0.18035656213760376,-0.4486522078514099
100.0,-0.6482582560563726,-1.5314899309669787,1.8274598740512868,-0.9750111396694624,-1.0130363375217863,-2.2962560128065745,0.7518377564847469,-0.21488139033317566,0.6789119467139244,0.8713094592094421,-0.08515264838933945,-0.1630852371454239,-0.45494186878204346
101.0,-0.6565511301850377,-1.5405189069324758,1.8382174030097793,-0.9842179499482351,-0.999347114120728,-2.3261007585547038,0.7465799376368523,-0.21619752049446106,0.6786866560578346,0.8720903992652893,-0.07764846086502075,-0.14714840054512024,-0.4601917266845703
102.0,-0.6648005358888607,-1.550829083627732,1.8483389111805582,-0.9916225482649804,-0.9844945173710158,-2.3579509545070763,0.7409801334142685,-0.21694007515907288,0.6798537820577621,0.872705340385437,-0.06942370533943176,-0.1301744282245636,-0.46542495489120483
103.0,-0.6766773986694492,-1.5622938951667529,1.8641250461327763,-1.0060393762135926,-0.9664405474955621,-2.4013514783193752,0.7339056432247162,-0.21919608116149902,0.6780391037464142,0.8735062479972839,-0.0579824298620224,-0.10747657716274261,-0.47124695777893066
104.0,-0.6835016679564256,-1.568868914871736,1.8740772484497918,-1.016069746611089,-0.9570927034223187,-2.4258925020963393,0.7297101132571697,-0.22048863768577576,0.676305465400219,0.8741223812103271,-0.051193609833717346,-0.09447381645441055,-0.4736707806587219
105.0,-0.6740732264557286,-1.5568467321133117,1.8618126640319965,-1.0064237520361137,-0.9731699263636603,-2.388503294024569,0.7362865135073662,-0.2198283076286316,0.6754107549786568,0.8734776377677917,-0.06145096942782402,-0.1143922358751297,-0.4692280888557434
106.0,-0.6644496190290805,-1.5453167974112751,1.8498769631130798,-0.9973785961675593,-0.9899884839994525,-2.3511666106439257,0.742669016122818,-0.21884188055992126,0.6745370998978615,0.872873842716217,-0.07125712186098099,-0.13413392007350922,-0.463704377412796
107.0,-0.6513947793046724,-1.5321871584390765,1.8325898953915718,-0.9817528369539706,-1.0105027094544685,-2.3046914024123084,0.750635426491499,-0.2164217233657837,0.675974652171135,0.8717041611671448,-0.08307402580976486,-0.15877440571784973,-0.4560934901237488
108.0,-0.6423715027814894,-1.5218476621921142,1.8210641096216054,-0.9723288588547502,-1.0258195494531155,-2.272536095438932,0.7565505355596542,-0.2151397466659546,0.6756538450717926,0.8707926869392395,-0.09097619354724884,-0.1760728657245636,-0.44993534684181213
109.0,-0.6334544186907749,-1.5103830829880924,1.8103385310523814,-0.9656480954556798,-1.0403355027820413,-2.242650984055074,0.7631613612174988,-0.21424013376235962,0.6739250272512436,0.8699269890785217,-0.09793654829263687,-0.19207912683486938,-0.44355496764183044
110.0,-0.6405072839880879,-1.5173655872361929,1.8196916618172847,-0.9737299770979201,-1.030479607442859,-2.2646811832246505,0.7586213573813438,-0.21574246883392334,0.6730677932500839,0.8707007765769958,-0.09281019866466522,-0.1803654134273529,-0.4480343759059906
111.0,-0.6480648946120976,-1.5249962303946671,1.8296248965910025,-0.982266624599391,-1.019487617857234,-2.2893070490531295,0.7537828683853149,-0.21723878383636475,0.6723207533359528,0.8714807033538818,-0.08691255003213882,-0.16729572415351868,-0.4527468979358673
112.0,-0.6578339090604851,-1.5357895578422354,1.8422308416810593,-0.9929287529893943,-1.0031398897300803,-2.3244416838662505,0.7475267648696899,-0.21872416138648987,0.6722711771726608,0.8724125623703003,-0.07813464105129242,-0.14848721027374268,-0.45906734466552734
113.0,-0.6660261225213476,-1.543739298182756,1.8531546881031822,-1.0030053068460423,-0.9905230659656787,-2.3535502902724796,0.7426056191325188,-0.2203221619129181,0.6711018458008766,0.8731163144111633,-0.07068321853876114,-0.13311178982257843,-0.463630348443985
114.0,-0.680188702985859,-1.558280938504865,1.8715949605260773,-1.0190929128705197,-0.968033056016333,-2.4061926871494386,0.7338900342583656,-0.2226455807685852,0.6699476987123489,0.8740312457084656,-0.05683130770921707,-0.10549235343933105,-0.4708619713783264
115.0,-0.6876303887168632,-1.5679464810881931,1.8818878465161273,-1.0278468546175084,-0.9559145895948811,-2.4353910789489785,0.7285428699105978,-0.22310137748718262,0.6703373044729233,0.8746804594993591,-0.04862339049577713,-0.08975807577371597,-0.47382843494415283
116.0,-0.6997763805150843,-1.5845928189419005,1.8993893605626866,-1.0444455787295743,-0.9350937408373304,-2.485522967202673,0.7198483031243086,-0.2235351800918579,0.671087235212326,0.875813364982605,-0.03384774923324585,-0.062089964747428894,-0.4774412512779236
117.0,-0.7150384842109272,-1.6045818653979713,1.9231077566466415,-1.0724708070088393,-0.9071547105318263,-2.551762606900609,0.7100869566202164,-0.22450800240039825,0.6702708229422569,0.8771786689758301,-0.013209344819188118,-0.02417103201150894,-0.47937363386154175
118.0,-0.7264169906986736,-1.6217536512694881,1.9404994782910863,-1.0925518385874333,-0.8840705376306257,-2.6037117493268145,0.7023869911208749,-0.22432300448417664,0.6714926287531853,0.8776177763938904,0.0033748922869563103,0.006179443560540676,-0.4793093800544739
119.0,-0.7321018997889202,-1.6320185412422505,1.948975738952053,-1.1019927803238319,-0.8708527972482454,-2.6315528946925033,0.6982137812301517,-0.22360914945602417,0.6734602153301239,0.8775944113731384,0.01246392447501421,0.02285010740160942,-0.4786967635154724
120.0,-0.7184688892210227,-1.6140084200033706,1.9277038502663253,-1.0767002807359631,-0.8956783510011466,-2.5735308017455565,0.7068946249783039,-0.222983717918396,0.674256294965744,0.8773318529129028,-0.005938509479165077,-0.010860488750040531,-0.4797245264053345
121.0,-0.7081752021448992,-1.5984769273206993,1.9119771314074148,-1.0585626122281,-0.91660825692037,-2.526184111848665,0.7138765482231975,-0.22308769822120667,0.6731342300772667,0.8766855597496033,-0.02098645642399788,-0.03840472921729088,-0.47906920313835144
122.0,-0.6889167381508475,-1.57352601350271,1.882529986747992,-1.025395281755559,-0.9506000616611113,-2.4445137808864135,0.7264845818281174,-0.221714049577713,0.6740972623229027,0.8746870756149292,-0.04592198505997658,-0.08455555140972137,-0.47504115104675293
123.0,-0.6789426399093669,-1.559733045867742,1.8689479171093284,-1.0144374509106746,-0.9674580648305452,-2.404487620956942,0.7338922917842865,-0.2214154601097107,0.6728349477052689,0.873844563961029,-0.05723600462079048,-0.10618911683559418,-0.47100281715393066
124.0,-0.6970704060767308,-1.587187578190173,1.894153436234387,-1.0366657123482539,-0.9333903798155513,-2.482678270133389,0.7203069720417261,-0.22119060158729553,0.6765909940004349,0.8756135702133179,-0.03425465151667595,-0.06278970837593079,-0.47768718004226685
125.0,-0.707555747159657,-1.6012584998857966,1.9104353989833267,-1.0558390140702323,-0.913877856387508,-2.528683962835255,0.7135302107781172,-0.22179168462753296,0.6762669607996941,0.8766540884971619,-0.01991148479282856,-0.03641660138964653,-0.4793277084827423
126.0,-0.7272915982601252,-1.6311079397416453,1.9406743078681206,-1.0908732028538748,-0.8738754070637798,-2.6187857342473055,0.7001634277403355,-0.22151124477386475,0.6783130690455437,0.8774519562721252,0.008897687308490276,0.016288768500089645,-0.47930532693862915
127.0,-0.7144253265427946,-1.6142209446912643,1.9205340102149993,-1.066877678113821,-0.8971420728891697,-2.564027754658651,0.708333482965827,-0.22082795202732086,0.6792186200618744,0.8770978450775146,-0.00846372451633215,-0.015466037206351757,-0.47998809814453125
128.0,-0.6983461507269083,-1.5922111244177435,1.8955685728886065,-1.0374966931915006,-0.9274025351629617,-2.493121282343976,0.7187882103025913,-0.22010448575019836,0.6794500648975372,0.8758167028427124,-0.030757054686546326,-0.05631231516599655,-0.47835975885391235
129.0,-0.6899064057118307,-1.5819367146297645,1.8822726761916524,-1.0215912924623547,-0.9419655208408573,-2.457628890569871,0.7240335270762444,-0.21919041872024536,0.6806374490261078,0.8747991919517517,-0.041655346751213074,-0.07645876705646515,-0.4765975773334503
130.0,-0.7057289090052062,-1.6044043772372985,1.9066755502016048,-1.0500473959966168,-0.9112187276908941,-2.528813962633343,0.7135441694408655,-0.21972902119159698,0.6811703816056252,0.8765343427658081,-0.019412647932767868,-0.03547648712992668,-0.4796375036239624
131.0,-0.7152133083417712,-1.6194094615998273,1.9211115728611916,-1.0666241232660978,-0.8912636480533553,-2.573360604348387,0.7069716867990792,-0.21941769123077393,0.6827117800712585,0.8770988583564758,-0.005149813834577799,-0.009406469762325287,-0.4801904261112213
132.0,-0.7254205256570965,-1.632555249468881,1.937162672662895,-1.0858334612273277,-0.8731266285430048,-2.6163377113769206,0.7005485367262736,-0.22005748748779297,0.6817314624786377,0.8773471117019653,0.008477257564663887,0.0155099518597126,-0.4795306324958801
133.0,-0.7345519850616689,-1.6436643671537814,1.9519144860692024,-1.1037679954031707,-0.8577180758973674,-2.653074842169569,0.6949196471832693,-0.22076356410980225,0.6800806969404221,0.8773241639137268,0.020134830847382545,0.03695175424218178,-0.478049635887146
134.0,-0.7435725074102096,-1.6589641057976323,1.9676228223561003,-1.1226233428397316,-0.8384080694479323,-2.693557586922488,0.6883077723905444,-0.21976380050182343,0.6807941421866417,0.8770222067832947,0.033599644899368286,0.06200503930449486,-0.47524574398994446
135.0,-0.7519636792191359,-1.6707883832271928,1.9824725974307733,-1.1410460658637427,-0.8229889604200207,-2.7268969789979356,0.6826929673552513,-0.21962231397628784,0.6795134842395782,0.8765730261802673,0.044505324214696884,0.0826483890414238,-0.4720257520675659
136.0,-0.7629100835822672,-1.688306148616374,2.0017428024540065,-1.164885415538435,-0.8008838888867591,-2.770888732796117,0.6749839670956135,-0.21862563490867615,0.6793787553906441,0.87552809715271,0.059097662568092346,0.11090550571680069,-0.46653833985328674
137.0,-0.7723774177207348,-1.7024384853796948,2.0185271583466546,-1.1860564739810915,-0.7829119389236845,-2.8056878448540927,0.6685663536190987,-0.21804408729076385,0.6784160286188126,0.8744009733200073,0.07052695751190186,0.13376054167747498,-0.46103906631469727
138.0,-0.7814914586633775,-1.7171857216831747,2.034401601826953,-1.205851069200509,-0.7671950523340976,-2.8350202604423904,0.6618606522679329,-0.21708354353904724,0.6782137826085091,0.8734669089317322,0.08029472827911377,0.1542166918516159,-0.4547807276248932
139.0,-0.7949812275531942,-1.7441917332852628,2.062981632226948,-1.2486479852379202,-0.7451659592127934,-2.8670647393339452,0.6504917219281197,-0.21411895751953125,0.6778689548373222,0.8735403418540955,0.0931946262717247,0.18478409945964813,-0.44056424498558044
140.0,-0.8007938310133049,-1.7542840007916858,2.0756134066789733,-1.2682688466599,-0.7376898768194562,-2.8770281350880516,0.6458993777632713,-0.21333613991737366,0.6763971969485283,0.8737609386444092,0.09739374369382858,0.19591516256332397,-0.43436580896377563
141.0,-0.8081329439044751,-1.7719798260607555,2.0920055952034877,-1.2945175381213319,-0.7231985748075277,-2.8915180445582473,0.6392605043947697,-0.21062016487121582,0.6777200996875763,0.8734790086746216,0.10402319580316544,0.21388739347457886,-0.4248126745223999
142.0,-0.8149372434563045,-1.7882531576079375,2.1072010790001277,-1.3192618647877654,-0.7101927089440124,-2.9025830412425138,0.6331535577774048,-0.2081003338098526,0.6788049563765526,0.8731548190116882,0.10939418524503708,0.22974775731563568,-0.4157518148422241
143.0,-0.8236965791206944,-1.8064406900189545,2.1274887184612843,-1.3521358342254441,-0.6989015037683151,-2.909797701402697,0.6254332214593887,-0.2056363821029663,0.6775040999054909,0.8735109567642212,0.11376232653856277,0.24559199810028076,-0.404624879360199
144.0,-0.8290066238992658,-1.8224516154525392,2.142305837380102,-1.3793230714768376,-0.6880917600071509,-2.9118413879652527,0.6198577284812927,-0.2024933397769928,0.6786163747310638,0.8736273646354675,0.11702009290456772,0.2587115168571472,-0.3951581120491028
145.0,-0.834156616568316,-1.8341377587563554,2.155651580880368,-1.4030174360687355,-0.6814049344843223,-2.9120688147474643,0.6151459887623787,-0.20067524909973145,0.677652895450592,0.8739935755729675,0.11884492635726929,0.2680445611476898,-0.3875090777873993
146.0,-0.8410647711522639,-1.851318820539754,2.174024639292549,-1.4367090479389981,-0.6713076267893233,-2.9106983280430954,0.6085822731256485,-0.19768500328063965,0.677111029624939,0.8743250966072083,0.12113632261753082,0.28131911158561707,-0.37648534774780273
147.0,-0.8472515133212303,-1.8703363647349265,2.191444423818534,-1.470062168965941,-0.65986839243866,-2.907021111927764,0.6019626259803772,-0.19370394945144653,0.6784061193466187,0.8743318915367126,0.12320993840694427,0.2950449585914612,-0.36511853337287903
148.0,-0.8513938701784923,-1.8832925645427372,2.2055066668831507,-1.4985396091033727,-0.6542228888542626,-2.8993434177283044,0.5972510129213333,-0.1909317523241043,0.6778880581259727,0.8750027418136597,0.12358630448579788,0.3033626675605774,-0.3564656376838684
149.0,-0.8548880460953833,-1.8983818807776125,2.219570227849548,-1.5296061707508455,-0.646668180781623,-2.889153899534941,0.5924580097198486,-0.18720299005508423,0.6790096908807755,0.875394880771637,0.12403176724910736,0.3130151927471161,-0.34687381982803345
150.0,-0.8594985055306208,-1.9180341484678076,2.238331528501894,-1.571899243691349,-0.6375032676859393,-2.873566477976894,0.5861315131187439,-0.18230290710926056,0.6802345663309097,0.8758812546730042,0.1240788996219635,0.32522886991500854,-0.3341596722602844
151.0,-0.8641068116605307,-1.9347398009825714,2.255789981102154,-1.6107574041651562,-0.6309350434821006,-2.858341043302191,0.5803471878170967,-0.17829354107379913,0.6802488565444946,0.876426100730896,0.12349775433540344,0.33522167801856995,-0.3228808641433716
152.0,-0.8680021417044568,-1.94843734467226,2.271477509233091,-1.645353225374466,-0.6273574462054038,-2.843193281644029,0.5752873569726944,-0.1749020516872406,0.6792637556791306,0.8772233128547668,0.12234602868556976,0.34260594844818115,-0.31326010823249817
153.0,-0.8631794177468263,-1.9623017451714848,2.282396370001755,-1.695193338091651,-0.6400239335010711,-2.794449905389249,0.5725205689668655,-0.16969311237335205,0.6824199333786964,0.882826030254364,0.11630043387413025,0.3420012593269348,-0.3002125024795532
154.0,-0.8575829105949593,-1.9768365942442065,2.2955105043727797,-1.7522117749215202,-0.6588844079375581,-2.73931611095109,0.569064736366272,-0.16409429907798767,0.6845292374491692,0.8895992040634155,0.10886599868535995,0.3401238024234772,-0.28474074602127075
155.0,-0.8563134296268514,-1.99389384372876,2.313409362052533,-1.8081597470645474,-0.6676848692110634,-2.698796893137908,0.563659280538559,-0.158175989985466,0.6851128488779068,0.8931549191474915,0.10399546474218369,0.3448140025138855,-0.26937440037727356
156.0,-0.8664093231108633,-2.0039165071190066,2.328001696656622,-1.8204892478444046,-0.6454919242841122,-2.7161429971975677,0.5585264414548874,-0.1565035879611969,0.6822463795542717,0.8878772258758545,0.10787983238697052,0.35890281200408936,-0.2668801546096802
157.0,-0.8682199898373345,-2.0138492296930033,2.3394544137963873,-1.8465223891793707,-0.643466026518927,-2.703303144063465,0.5547791123390198,-0.15313397347927094,0.6815702319145203,0.8878153562545776,0.10675597935914993,0.36425700783729553,-0.26019975543022156
158.0,-0.8408892918133523,-2.028969250989635,2.3468128763284777,-1.936469611524677,-0.7151229372599384,-2.5840668568406184,0.5532644391059875,-0.142193004488945,0.6882185861468315,0.9053746461868286,0.08818699419498444,0.3448323607444763,-0.23153938353061676
159.0,-0.8241898745460783,-2.038398215816976,2.3524096071264853,-1.9869157719170374,-0.7571624900524553,-2.521972687558174,0.5516270101070404,-0.13509446382522583,0.6914944276213646,0.914059042930603,0.07834815233945847,0.33608320355415344,-0.21308664977550507
160.0,-0.8136887655937339,-2.0466788981906108,2.3592219572217186,-2.0245488180526228,-0.7832516885810424,-2.4827884291302826,0.5494226366281509,-0.1295735090970993,0.6930932924151421,0.9187251925468445,0.0722927525639534,0.3331126570701599,-0.19938349723815918
161.0,-0.8130564108222418,-2.058283368555394,2.3735861293464637,-2.0611986960647775,-0.7858087798366036,-2.4639637928310805,0.5447357445955276,-0.12459155917167664,0.692183643579483,0.9183417558670044,0.0702757015824318,0.34017089009284973,-0.18971966207027435
162.0,-0.7919162312393182,-2.0629719357896774,2.372961070190643,-2.0914852883445736,-0.8330608470855206,-2.4138934496742706,0.5444773286581039,-0.11775457859039307,0.6953586339950562,0.9262911081314087,0.061636507511138916,0.32864153385162354,-0.17372530698776245
163.0,-0.7944048372479323,-2.073161623024986,2.3864141196251607,-2.1162407569961816,-0.8258937759498454,-2.407544784686265,0.5398745834827423,-0.1135588139295578,0.6935109123587608,0.9240683913230896,0.06172903999686241,0.33713483810424805,-0.1691959798336029
164.0,-0.7751059383697585,-2.0771239896703295,2.3861486607316515,-2.141113219688777,-0.8675442586571901,-2.3668585314899975,0.5393976867198944,-0.10734280198812485,0.6959821283817291,0.9302921295166016,0.0546204149723053,0.32798025012016296,-0.1549268215894699
165.0,-0.8154286641394948,-2.0826662406584626,2.4062807392185994,-2.133289445393859,-0.777634836590094,-2.4350613165303727,0.5342279374599457,-0.11374420672655106,0.688604511320591,0.9144189357757568,0.06837242096662521,0.3589141368865967,-0.17419494688510895
166.0,-0.8102732682929799,-2.090005175273482,2.415409975964954,-2.164815278341794,-0.7886183344074222,-2.4120707587483796,0.5314083099365234,-0.10915075242519379,0.6884842664003372,0.9152677059173584,0.06523791700601578,0.3616132140159607,-0.16512158513069153
167.0,-0.7856103747220534,-2.0931812119712316,2.412649504687888,-2.192290570392773,-0.842369937885416,-2.361890486144942,0.531575620174408,-0.10218951106071472,0.6919339150190353,0.9236196279525757,0.056121423840522766,0.3488543927669525,-0.14858593046665192
168.0,-0.7834600524389403,-2.1027635500898785,2.4260609359932674,-2.223823041253717,-0.8419160265351271,-2.3465951739041975,0.5273151993751526,-0.0965108573436737,0.6903606653213501,0.9218719005584717,0.05496536195278168,0.35622721910476685,-0.14224354922771454
169.0,-0.7725607610601045,-2.1069813661456784,2.4292590373273133,-2.242353586846007,-0.8620840279466213,-2.324234667103651,0.5259076952934265,-0.0916617289185524,0.6909750923514366,0.9241385459899902,0.051456715911626816,0.3539329171180725,-0.1343563348054886
170.0,-0.76203132722796,-2.112698156023307,2.4366447807503366,-2.272886594230494,-0.8809167225231157,-2.2985367214604207,0.5235718190670013,-0.08607081323862076,0.691053956747055,0.92527836561203,0.04769597947597504,0.35516953468322754,-0.12425631284713745
171.0,-0.7602329064337039,-2.1189352071415297,2.4479163841109575,-2.304176218596722,-0.8817727688746071,-2.284369153764517,0.5204326659440994,-0.08213832229375839,0.6897723898291588,0.9233962297439575,0.046297550201416016,0.36231720447540283,-0.11799325793981552
172.0,-0.769309963257594,-2.1264787242878707,2.465336234211954,-2.3396519062296015,-0.8588507197282096,-2.2823511904435088,0.5160069763660431,-0.07955210655927658,0.6865994110703468,0.9174929857254028,0.04788045585155487,0.3773036301136017,-0.11643138527870178
173.0,-0.758574148832853,-2.1289414662466126,2.4675621287418994,-2.35484871825777,-0.8765360105432529,-2.2638766041812044,0.5151135921478271,-0.07524794340133667,0.6870388239622116,0.9190958738327026,0.04507521539926529,0.37558501958847046,-0.11030378192663193
174.0,-0.7459683453121965,-2.1345936392704243,2.4781757544748397,-2.394888551555902,-0.8945219592784835,-2.2347575537550624,0.5121415555477142,-0.06808921694755554,0.6863393560051918,0.9187436103820801,0.04130888357758522,0.3797580897808075,-0.09993802756071091
175.0,-0.6963178851964534,-2.131043135811228,2.4613969631564245,-2.3929988111304286,-0.9871633366516145,-2.1818358423942112,0.5152437686920166,-0.05793391168117523,0.6918819099664688,0.9310488104820251,0.030380047857761383,0.35478007793426514,-0.07972631603479385
176.0,-0.6915319351886603,-2.1229129107602698,2.442010860406307,-2.346170958579272,-1.0026949137887413,-2.1916439995901063,0.5201302468776703,-0.06189770996570587,0.6950516104698181,0.936711311340332,0.030302217230200768,0.33856332302093506,-0.08383787423372269
177.0,-0.7022057698502213,-2.120216425205704,2.4384382988007935,-2.3301725787967316,-0.98696710196228,-2.2080416690552855,0.5214333534240723,-0.06646644324064255,0.6950457766652107,0.9360429644584656,0.0325852707028389,0.3385961353778839,-0.09008139371871948
178.0,-0.7044457758305909,-2.1145439837128746,2.4281805220318198,-2.3047359344502416,-0.9886152955673143,-2.2183282965726607,0.524361327290535,-0.07052910327911377,0.6964964270591736,0.9381805062294006,0.033189237117767334,0.33150145411491394,-0.09392867237329483
179.0,-0.6638296512067607,-2.105634983908255,2.4067663134148485,-2.284217120889316,-1.0658989280150357,-2.18015919169698,0.5294761657714844,-0.06423330307006836,0.701891303062439,0.9488428235054016,0.02529842220246792,0.30471569299697876,-0.0787758082151413
180.0,-0.6428585000599992,-2.1028491549623074,2.400724058279435,-2.2846129274949583,-1.0997315512517603,-2.158471278205429,0.5311234295368195,-0.05918917804956436,0.7038720771670341,0.9524043202400208,0.021916283294558525,0.2957440912723541,-0.07057845592498779
181.0,-0.6442281687356777,-2.1092701028849277,2.4114087827999957,-2.3069016166251886,-1.0940972784122158,-2.1537942686373523,0.5276912152767181,-0.05643230676651001,0.7020783349871635,0.9500544667243958,0.02175724320113659,0.3037987947463989,-0.06804031133651733
182.0,-0.6279696160747529,-2.1090532610932016,2.410223305552756,-2.314213836923992,-1.1189511721435206,-2.1356874274828055,0.5277977585792542,-0.05154494196176529,0.7029723897576332,0.9519346952438354,0.019121455028653145,0.2996060848236084,-0.06075436249375343
183.0,-0.5981194805974401,-2.1041280500531565,2.401168980456534,-2.311037708197564,-1.1645642428693357,-2.1077245132725984,0.5303294956684113,-0.04435058683156967,0.7055642455816269,0.956401526927948,0.015086648054420948,0.28730881214141846,-0.05022086203098297
184.0,-0.6037424648503539,-2.112296690830046,2.4161003474128306,-2.341124020595979,-1.150119819626772,-2.1057189824165667,0.5258199274539948,-0.04192042350769043,0.7028421312570572,0.9525719285011292,0.01550021767616272,0.29990437626838684,-0.0492326095700264
185.0,-0.5691377710791895,-2.107228583770779,2.408087547835487,-2.3419956545082607,-1.2004972933966989,-2.0735329448764594,0.5281026661396027,-0.03295169398188591,0.705248735845089,0.9567511081695557,0.011142637580633163,0.2883337140083313,-0.03697358816862106
186.0,-0.5594857603258617,-2.1095116885878813,2.4133979505865275,-2.359540910718716,-1.2118404433516992,-2.0607745973171907,0.526456207036972,-0.028567494824528694,0.7045966535806656,0.9560767412185669,0.009640056639909744,0.2912437617778778,-0.031645774841308594
187.0,-0.5469142097727724,-2.1090286677290653,2.4136196186668677,-2.366625871566225,-1.2287390910852205,-2.0479609564831462,0.5263231247663498,-0.02453979104757309,0.7048607170581818,0.9566968083381653,0.008031421341001987,0.28976473212242126,-0.026516806334257126
188.0,-0.5298020080689672,-2.110084269398971,2.418918669553168,-2.3880273440398128,-1.246501591815758,-2.028437401153564,0.5250125229358673,-0.01756322756409645,0.7042571976780891,0.9560124278068542,0.006114775314927101,0.29258111119270325,-0.01998010464012623
189.0,-0.5159646884962943,-2.110450118566487,2.4232025677202778,-2.406503629160633,-1.2630063081126028,-2.0126427015530175,0.5239765793085098,-0.012382864952087402,0.7037586718797684,0.9554051160812378,0.004230753984302282,0.29494982957839966,-0.013704308308660984
190.0,-0.49445447450551355,-2.1046866804435336,2.414568370431923,-2.3965433123874043,-1.2929678598898497,-1.9963786149239844,0.526619553565979,-0.007485062815248966,0.7056319266557693,0.9582533240318298,0.0023300976026803255,0.2858043611049652,-0.007812421303242445
191.0,-0.4984349323828118,-2.1000969017375017,2.402677210623386,-2.364926314289306,-1.2912259995763278,-2.0059925860949672,0.5299494713544846,-0.011117860674858093,0.7076418548822403,0.9610797762870789,0.0035183089785277843,0.2759767472743988,-0.012252395041286945
192.0,-0.47335218041592736,-2.0992072215602975,2.4068976467549326,-2.388410218338634,-1.3220017589655204,-1.9800008133177849,0.5289812684059143,-0.002419866621494293,0.707270622253418,0.960705041885376,0.00048521041753701866,0.27756577730178833,-0.0016794005641713738
193.0,-0.4694443037877484,-2.103488002367089,2.41956399460759,-2.4227654977100794,-1.3233638396834182,-1.97031761935414,0.5255656093358994,0.0011542928405106068,0.7050668448209763,0.9575034379959106,-0.0007988080033101141,0.28840866684913635,0.002652005758136511
194.0,-0.45934721672107603,-2.105543365345585,2.430582270664292,-2.457413101444683,-1.3329120100927674,-1.9555511898013325,0.5228757262229919,0.0061768218874931335,0.703162282705307,0.9546111822128296,-0.002714124508202076,0.29771527647972107,0.008702723309397697
195.0,-0.4514809537069218,-2.108743405100999,2.4458809998838866,-2.502560583707485,-1.3387096387592723,-1.9407625468856613,0.5189701169729233,0.011185159906744957,0.7003596425056458,0.9502900838851929,-0.0048056477680802345,0.31098270416259766,0.014684928581118584
196.0,-0.47613995264531794,-2.11543942447623,2.4597079875003236,-2.529251204314304,-1.304277094761758,-1.954832072827829,0.5154110044240952,0.006074877921491861,0.6977921277284622,0.9456124901771545,-0.003371818922460079,0.3251299560070038,0.009806644171476364
197.0,-0.5015107574709614,-2.1233629908835225,2.4933904664556192,-2.6167398076723716,-1.2606708844385404,-1.9553188358465075,0.5078403204679489,0.004498266149312258,0.6915172040462494,0.9335136413574219,-0.0033726776018738747,0.35841840505599976,0.008784260600805283
198.0,-0.4859729470060088,-2.120161749732024,2.5010264193989373,-2.6520116592602117,-1.2812081110774987,-1.9362359907924624,0.5066133290529251,0.00954311154782772,0.6901859492063522,0.9307772517204285,-0.006572757847607136,0.36514362692832947,0.016754427924752235
199.0,-0.4639388926575253,-2.115546706187462,2.490238303918384,-2.631667860168428,-1.3131820326608847,-1.9247083896415285,0.5092809498310089,0.01388983428478241,0.6923296898603439,0.9348814487457275,-0.008206668309867382,0.35420361161231995,0.021660596132278442
200.0,-0.4483758984630063,-2.1115534666965354,2.5095615177814574,-2.7041701431444816,-1.3297512085195073,-1.8988588086355735,0.5056027770042419,0.020700212568044662,0.6886267811059952,0.9273160696029663,-0.012555818073451519,0.37276220321655273,0.03123495914041996
201.0,-0.43084087551190914,-2.10771277322566,2.5070726097605553,-2.7069050492365028,-1.353325426254105,-1.8862715281096087,0.5064269453287125,0.02508244290947914,0.6891080215573311,0.9281147122383118,-0.014452186413109303,0.3702455163002014,0.03622808679938316
202.0,-0.39757147988124825,-2.0981496448477173,2.5068998096312516,-2.730106722957131,-1.4015418696301374,-1.8595120538994265,0.5074926316738129,0.03308039903640747,0.6889814212918282,0.9273878931999207,-0.019498035311698914,0.3703892230987549,0.04881956800818443
203.0,-0.37835150254052546,-2.0892447257736153,2.523197175925204,-2.799864574044649,-1.4284085239147015,-1.8346808707684688,0.5047810673713684,0.03920871019363403,0.6854180470108986,0.9197431206703186,-0.025111770257353783,0.3871471881866455,0.05965787544846535
204.0,-0.35193822933597907,-2.07858307324037,2.5299596307882455,-2.8429062801086196,-1.4674165869434626,-1.8109231357616271,0.5041967332363129,0.04593285918235779,0.6836017668247223,0.9154708981513977,-0.030588923022150993,0.39490365982055664,0.07091164588928223
205.0,-0.3309746615086522,-2.0701368070460853,2.5333025635180504,-2.8700971150753976,-1.496797332838834,-1.7937130879135554,0.504182830452919,0.05135301128029823,0.6825381591916084,0.9127282500267029,-0.03432165086269379,0.3995004892349243,0.07841377705335617
206.0,-0.3073710999638121,-2.056933718697298,2.544087066745738,-2.927673964549021,-1.5315062975978402,-1.7710533979891347,0.5027681589126587,0.05764821916818619,0.6795956343412399,0.905896008014679,-0.04027601704001427,0.41218289732933044,0.0885186716914177
207.0,-0.2715837077072492,-2.040109768499588,2.5460280296266404,-2.964527097409828,-1.5876265475992402,-1.745407533088397,0.5038420855998993,0.0656500905752182,0.6781651228666306,0.9018125534057617,-0.0473780520260334,0.4171305298805237,0.10242865979671478
208.0,-0.24236075690382772,-2.019819101930255,2.5578412929211476,-3.0348383055209456,-1.634954565116819,-1.7204734569756766,0.5024985074996948,0.07263277471065521,0.6742088496685028,0.8926281929016113,-0.05573650449514389,0.43227526545524597,0.11509328335523605
209.0,-0.2228304404493414,-2.0130384296718296,2.5524354792048842,-3.030863797613748,-1.6659485061359267,-1.710079050986277,0.5044561326503754,0.07675768435001373,0.6749275475740433,0.8932268619537354,-0.058481331914663315,0.4288199841976166,0.12181589752435684
210.0,-0.19651073487868767,-2.0048558770120612,2.543052182754133,-3.016368373317891,-1.7078396127407953,-1.6966211056584333,0.5075560212135315,0.08240685611963272,0.6762217879295349,0.8951072096824646,-0.06167608126997948,0.42171260714530945,0.1309107542037964
211.0,-0.16547671731875804,-1.9873632670564325,2.543547204962144,-3.044765038306454,-1.7591689735148581,-1.6763776236748085,0.508949488401413,0.08949270844459534,0.6743020415306091,0.8909223675727844,-0.06836643069982529,0.42555564641952515,0.14312857389450073
212.0,-0.14113455669915542,-1.9761433380461897,2.538461522374848,-3.044973860495708,-1.7995448776844332,-1.6622576441404047,0.5113818496465683,0.09502162039279938,0.6738789677619934,0.8904628753662109,-0.07238509505987167,0.42257580161094666,0.15253177285194397
213.0,-0.10554021686878882,-1.9593133778896388,2.5283531954809564,-3.0423756296494915,-1.8601037134835097,-1.6409039173695559,0.51585653424263,0.10321168601512909,0.6748172417283058,0.8892420530319214,-0.07863053679466248,0.4185127019882202,0.16707159578800201
214.0,-0.08786161213335614,-1.950735081448582,2.5229048479242184,-3.039979716963966,-1.8907192167457054,-1.629978778818018,0.5182353258132935,0.10741357505321503,0.6753661930561066,0.8885098695755005,-0.08181597292423248,0.41638532280921936,0.17458419501781464
215.0,-0.12646650773125556,-1.9742337851494833,2.5244200900876037,-3.0092497892149703,-1.8227827557492684,-1.6555641413896647,0.5157029628753662,0.09826801717281342,0.6774594336748123,0.8945053219795227,-0.07265739887952805,0.41193249821662903,0.15777447819709778
216.0,-0.15569660622107342,-2.0007798773619965,2.5021590772151976,-2.8987704096311546,-1.7674713499133818,-1.6813144308521204,0.5193671584129333,0.09141671657562256,0.6842755824327469,0.9102538228034973,-0.06000731140375137,0.3842226564884186,0.14216205477714539
217.0,-0.19079063766399354,-2.0232415565840784,2.4860106397563775,-2.812554270874435,-1.70508687752554,-1.711149162052356,0.5212075710296631,0.08300808072090149,0.68935726583004,0.9220805764198303,-0.04874419420957565,0.36345377564430237,0.12366379797458649
218.0,-0.20751684058229677,-2.027906703857541,2.5004171810978564,-2.848838813299445,-1.6802994186979134,-1.718925639601867,0.5168103277683258,0.07936130464076996,0.6867909878492355,0.9175599813461304,-0.048713214695453644,0.3763001561164856,0.11878098547458649
219.0,-0.17901919387359325,-2.007209346010363,2.5184529748490316,-2.938263685590269,-1.7313548411863828,-1.6930281615879545,0.514167457818985,0.08615398406982422,0.6815020218491554,0.905510663986206,-0.059023573994636536,0.3981838524341583,0.13422562181949615
220.0,-0.23927410026333698,-2.0420844523801303,2.5000908345335326,-2.822712347818573,-1.6333878801500081,-1.7423404452494573,0.5152827799320221,0.0712578296661377,0.6877603679895401,0.9208528995513916,-0.04330087825655937,0.37241286039352417,0.10706862062215805
221.0,-0.2677238466829124,-2.056733255867354,2.4848312991329187,-2.7489437749105106,-1.5887526976522968,-1.7695457659466394,0.5173376202583313,0.06364171206951141,0.6917141377925873,0.929794430732727,-0.035369306802749634,0.35443225502967834,0.09278552979230881
222.0,-0.299977016059253,-2.069317095514779,2.4826782432203336,-2.7178964627434414,-1.5397069030487505,-1.7953045564846755,0.5162876546382904,0.055722616612911224,0.6928113400936127,0.9328879714012146,-0.029639119282364845,0.3501513600349426,0.07896579802036285
223.0,-0.3246725684504006,-2.0787859400994018,2.467654308202299,-2.6511132616980593,-1.5024574041086924,-1.8215285225006297,0.5184895992279053,0.048682503402233124,0.6961646303534508,0.9400664567947388,-0.023185325786471367,0.3338801860809326,0.06528014689683914
224.0,-0.3462231523088808,-2.084828074463084,2.481715361966296,-2.682323371935837,-1.4741042559203652,-1.8322978513504407,0.5146127939224243,0.04386679083108902,0.6936180591583252,0.9356194138526917,-0.022739000618457794,0.3468978703022003,0.0613294392824173
225.0,-0.37370693680246525,-2.0931496936505285,2.473830888985669,-2.6382481109818685,-1.4375412705264337,-1.858653454485707,0.5152729153633118,0.03586571663618088,0.6953404918313026,0.9396275877952576,-0.01792220212519169,0.3380796015262604,0.04981134086847305
226.0,-0.3987134885258349,-2.0996339478076305,2.462094944734952,-2.5841316038042725,-1.405048191463936,-1.8858341265686152,0.5168015360832214,0.0280161015689373,0.6976111978292465,0.9445397853851318,-0.013050970621407032,0.3259509205818176,0.03781907260417938
227.0,-0.4265519472473363,-2.1069789720652836,2.4715019207535005,-2.595424687926109,-1.365338554374691,-1.9044135101428148,0.513986811041832,0.021776920184493065,0.6959075778722763,0.9415658712387085,-0.010512526147067547,0.3353686034679413,0.029514500871300697
228.0,-0.4197390626249491,-2.10129566819738,2.4406832811067414,-2.50728497297767,-1.380231761759102,-1.915018882855401,0.5211187303066254,0.01955663412809372,0.7015053182840347,0.9518067836761475,-0.007952208630740643,0.3055931329727173,0.024768119677901268
229.0,-0.4064701288107535,-2.098825074241133,2.440993468387687,-2.5154910884965265,-1.3963581873881659,-1.9032467958021284,0.5213225185871124,0.023586224764585495,0.70147605240345,0.9516373872756958,-0.009370881132781506,0.30569180846214294,0.029172129929065704
230.0,-0.39173844544873504,-2.092044702378153,2.4282701474773223,-2.4904526735515264,-1.416452890085774,-1.8958175957192414,0.5253632962703705,0.02611778862774372,0.7039199396967888,0.9551096558570862,-0.009688359685242176,0.2944212853908539,0.03142927214503288
231.0,-0.38099716931201694,-2.091918651197941,2.438302497081706,-2.524705511808713,-1.429057902209387,-1.8820649197482002,0.523101270198822,0.030468571931123734,0.7020010873675346,0.9519823789596558,-0.01201061811298132,0.3035898804664612,0.037662308663129807
232.0,-0.3608810974466071,-2.0873073320376836,2.440670187396081,-2.5440810808932897,-1.454649521907613,-1.8636760449565266,0.5232587158679962,0.0364682711660862,0.7014862596988678,0.9507923722267151,-0.014626137912273407,0.30613136291503906,0.04542631655931473
233.0,-0.34185180258914266,-2.0828008972660568,2.443329855640979,-2.5634441839805815,-1.4790452538946144,-1.846409580279579,0.52325439453125,0.04216543585062027,0.7008589208126068,0.9494189620018005,-0.017193542793393135,0.3090604245662689,0.05281775817275047
234.0,-0.32901767686505456,-2.0766786235943164,2.4302061175802128,-2.535081479772449,-1.4959894787842436,-1.8404916009231609,0.5273446142673492,0.04452822729945183,0.703354962170124,0.9529803395271301,-0.017027003690600395,0.2976001501083374,0.05452418327331543
235.0,-0.3123089748365818,-2.072859334928444,2.4354513736122225,-2.5605593358736627,-1.5175092270233577,-1.8243974623849157,0.52668197453022,0.049800753593444824,0.7021811306476593,0.9507277011871338,-0.019694261252880096,0.30317479372024536,0.061759356409311295
236.0,-0.2877300804414538,-2.0660612899724238,2.4526152555896563,-2.6299445751526105,-1.5537457600534055,-1.7976211051576267,0.523784339427948,0.05735082924365997,0.698574922978878,0.9435967803001404,-0.025929348543286324,0.3211686909198761,0.07618066668510437
237.0,-0.2533639937960161,-2.053202537262287,2.4632334671537737,-2.688869484471826,-1.6042656933619883,-1.766188721263637,0.5231620073318481,0.0668335035443306,0.6958964541554451,0.9372929334640503,-0.032979417592287064,0.33444249629974365,0.09242657572031021
238.0,-0.26079233895228093,-2.0545038707147665,2.426876890733002,-2.5719183660365434,-1.5865466315430097,-1.783907079591341,0.5318276435136795,0.06359034776687622,0.7032008171081543,0.9506322741508484,-0.02510395646095276,0.29881417751312256,0.07986445724964142
239.0,-0.2506507012839163,-2.048995296057865,2.4154642692737647,-2.5472235923427724,-1.5979714817622483,-1.7785379947033844,0.535676896572113,0.06600363552570343,0.7053203508257866,0.9534581303596497,-0.024539917707443237,0.2894494831562042,0.08083547651767731
240.0,-0.27688169796347273,-2.05698758777422,2.4131030681295558,-2.523233197094096,-1.563437422195228,-1.8014794682148734,0.53492172062397,0.058124445378780365,0.7061572521924973,0.9556419253349304,-0.020997393876314163,0.28523433208465576,0.07034913450479507
241.0,-0.2918756947043142,-2.0641621598402558,2.42430026639324,-2.5437905390843887,-1.5441294585421257,-1.8108139119943396,0.5309280008077621,0.05465160310268402,0.704161249101162,0.953116238117218,-0.020695611834526062,0.29436519742012024,0.06700969487428665
242.0,-0.30322190116544506,-2.0629042296205133,2.4041919864987897,-2.4814125661671342,-1.5275083847701771,-1.82689926807006,0.5360162556171417,0.049901094287633896,0.7081514298915863,0.9594081044197083,-0.016527732834219933,0.27559471130371094,0.057536810636520386
243.0,-0.3203447616949286,-2.06944126948924,2.4096826378925242,-2.4845101697337553,-1.5052294844015282,-1.8401231033525673,0.5334843397140503,0.04542996734380722,0.7072492986917496,0.9585812091827393,-0.015184476040303707,0.27960968017578125,0.0520566888153553
244.0,-0.3316343821722959,-2.0704893038526775,2.4029104914545094,-2.459377896771713,-1.4913117018298128,-1.852309055251208,0.5348780304193497,0.04135463014245033,0.708572082221508,0.9607965350151062,-0.013173174113035202,0.27303412556648254,0.04635589197278023
245.0,-0.3442514093537257,-2.0720298476394943,2.397998774725735,-2.4388465475744368,-1.4766284515592478,-1.86518423773781,0.5357207506895065,0.036870360374450684,0.7095091491937637,0.9624400734901428,-0.011395041830837727,0.2681541442871094,0.040898293256759644
246.0,-0.35394879569767124,-2.068389925634831,2.3803421670093154,-2.3866830390453297,-1.4650302972518767,-1.8799051509317268,0.5402626842260361,0.032016459852457047,0.7126759514212608,0.967122495174408,-0.008505092933773994,0.25206562876701355,0.032632239162921906
247.0,-0.3729046914783078,-2.073164407339798,2.3822603356839327,-2.3804757391975797,-1.4439705107489564,-1.8966491305479822,0.5388281345367432,0.025996508076786995,0.7123001217842102,0.96699458360672,-0.007053305394947529,0.2532716691493988,0.026929613202810287
248.0,-0.375075745427795,-2.0650465757097898,2.3614789470263595,-2.3261803435357327,-1.4436371825185708,-1.905761929037164,0.5447673797607422,0.022564809769392014,0.71563471108675,0.9719126224517822,-0.005038957577198744,0.23435820639133453,0.020897185429930687
249.0,-0.3863891948264558,-2.0658737429220357,2.3588885150798347,-2.3136313109680704,-1.4326098813855703,-1.9172497395418897,0.5450496822595596,0.01819590851664543,0.7159614786505699,0.9726018309593201,-0.004023488145321608,0.23182879388332367,0.016879921779036522
250.0,-0.39959365327164265,-2.0724561791595058,2.368820764394041,-2.3319757817208555,-1.4169254469431447,-1.9261660334968962,0.5417066812515259,0.015089725144207478,0.7143833413720131,0.9703904986381531,-0.0037540521007031202,0.24103935062885284,0.0151132857427001
251.0,-0.4005284971268327,-2.0642738773186307,2.3517655707950644,-2.2902228403724436,-1.4215804535056713,-1.9328565419274792,0.5468370765447617,0.011645826511085033,0.7169502675533295,0.9741794466972351,-0.0027637595776468515,0.22544263303279877,0.011942718178033829
252.0,-0.3875592756049431,-2.0585760641213717,2.3437151307151947,-2.2761834098127967,-1.435200829934508,-1.9232237116604918,0.5496346354484558,0.01526731438934803,0.7182044610381126,0.9758559465408325,-0.003010910702869296,0.21797841787338257,0.013479387387633324
253.0,-0.3764966952164475,-2.0560814199173945,2.3417400799832304,-2.276169447801384,-1.4453031126536753,-1.913386811177633,0.5505723208189011,0.019233928993344307,0.7185504138469696,0.9762170910835266,-0.003486799541860819,0.21619468927383423,0.01574448123574257
254.0,-0.3615328271076022,-2.053028535681848,2.3412546566205505,-2.283559225534029,-1.4613453605776778,-1.8992746595000434,0.5514844059944153,0.024364981800317764,0.7187188416719437,0.976149320602417,-0.004609257914125919,0.21605046093463898,0.02082533948123455
255.0,-0.3663224650290859,-2.0450964859028806,2.32351128957838,-2.2372283183575,-1.4590317823694896,-1.9089141227284274,0.5565841495990753,0.020189205184578896,0.7212094515562057,0.9797620177268982,-0.003048623912036419,0.19958242774009705,0.014965873211622238
256.0,-0.37279834472379686,-2.039883576555561,2.311696656075945,-2.2053132225160192,-1.4547673838500257,-1.9183500762915806,0.5598752200603485,0.016045859083533287,0.7227764576673508,0.9819997549057007,-0.0019373277900740504,0.18860268592834473,0.010087106376886368
257.0,-0.3680609337996323,-2.029969266081362,2.296505880542797,-2.1731578599716417,-1.4623419359892296,-1.9174538655179731,0.5652551651000977,0.015346839092671871,0.7247521206736565,0.9845271110534668,-0.0014777369797229767,0.17502892017364502,0.008312181569635868
258.0,-0.37738666235000373,-2.0316746172223814,2.2977353784165975,-2.1727271399781176,-1.45601891275547,-1.9261664530648488,0.5645618885755539,0.01143958605825901,0.7245456799864769,0.9843547940254211,-0.0012488228967413306,0.17605486512184143,0.006982395891100168
259.0,-0.383416745735417,-2.027826539604969,2.291037450290282,-2.1562816308607937,-1.4540796396836675,-1.9335486376266424,0.5668033510446548,0.007475065998733044,0.7253292948007584,0.9854092597961426,-0.0008235741406679153,0.1701328456401825,0.004770140629261732
260.0,-0.3721332370749816,-2.0189305654209027,2.279366654883761,-2.1351946929262726,-1.4656892456458481,-1.9251180369378684,0.5713526010513306,0.010136163793504238,0.7268068194389343,0.9871400594711304,-0.0008383753011003137,0.1597716361284256,0.005179854575544596
261.0,-0.36598646128729834,-2.0192410061360477,2.2805433525422494,-2.1393833801160476,-1.4680863439519152,-1.9189168393906675,0.5710867643356323,0.013327824883162975,0.7267025262117386,0.9869482517242432,-0.0009604638325981796,0.1609276384115219,0.005890399683266878
262.0,-0.35787702442017694,-2.014069711008683,2.274051005348734,-2.128295277698555,-1.4744310957435605,-1.9123187036752594,0.5737383961677551,0.01587938331067562,0.7275301963090897,0.9878334999084473,-0.0009393535437993705,0.15539833903312683,0.005971267353743315
263.0,-0.34894752361877995,-2.0126654914929594,2.273860864166707,-2.1323168034616318,-1.4812014106895521,-1.9035538736763071,0.5743222087621689,0.01962270401418209,0.7276554703712463,0.9877766966819763,-0.0012965841451659799,0.15565288066864014,0.008228152059018612
264.0,-0.3506095370129669,-2.002620555206317,2.2583062434447925,-2.0973229374770543,-1.4823086149193982,-1.9081187544992402,0.5797909796237946,0.016498560085892677,0.7294028699398041,0.989892840385437,-0.000605092674959451,0.14175312221050262,0.004225493874400854
265.0,-0.34161516922717006,-2.002432801394365,2.259755444281147,-2.1045803737650934,-1.486076797040745,-1.8989640087238284,0.5798470377922058,0.021016867831349373,0.7293638586997986,0.9895897507667542,-0.000818660540971905,0.1438046544790268,0.005633601453155279
266.0,-0.33625581983452196,-2.0077838023820695,2.269038754034322,-2.127595835481694,-1.4882998264683234,-1.8919909984884116,0.5768251568078995,0.024776017293334007,0.7283700108528137,0.9882779121398926,-0.0013707991456612945,0.15240034461021423,0.008889286778867245
267.0,-0.3280119652726496,-2.0079696002285656,2.2711052684613873,-2.136021890036392,-1.4919967332175974,-1.883509287577183,0.5765774548053741,0.02893790230154991,0.7282274812459946,0.9878636598587036,-0.001629638485610485,0.15496765077114105,0.01038836594671011
268.0,-0.31642635975521505,-2.0067079282291047,2.272466181199806,-2.1461189522924227,-1.5006176917146898,-1.871818734330245,0.5769825726747513,0.03396490216255188,0.7282299697399139,0.9874492883682251,-0.002196868183091283,0.1573179066181183,0.013789250515401363
269.0,-0.32163667012201824,-1.9991415213334132,2.25913122223728,-2.113175419017331,-1.4962416471832327,-1.8793109861892041,0.5814092084765434,0.030249426141381264,0.7297069430351257,0.9893739819526672,-0.0012465876061469316,0.14513976871967316,0.008497611619532108
270.0,-0.3300316727529041,-1.9974503869026656,2.254507768601977,-2.0983075587345033,-1.4910490767549331,-1.888421657457071,0.5824771374464035,0.025926027446985245,0.7301062494516373,0.9900974631309509,-0.0007675735978409648,0.1402750015258789,0.005417733918875456
271.0,-0.3339307221572198,-1.9925370609936748,2.2478500545609568,-2.085399503575475,-1.4908009595983973,-1.8931645950102045,0.5854107439517975,0.022710921242833138,0.7309162020683289,0.9908280968666077,-0.0005585692706517875,0.1350652128458023,0.004097621422261
272.0,-0.33850945389018716,-1.9886964184933211,2.2432434524162104,-2.07804762196499,-1.4905352740155249,-1.8981546142273449,0.5878319814801216,0.01925560273230076,0.7315374612808228,0.9912422895431519,-0.0004709946224465966,0.13200776278972626,0.0035366842057555914
273.0,-0.34647086166645885,-1.9887691172040476,2.2423313775336373,-2.0734629177627273,-1.4879726078662683,-1.906150957721414,0.5878382325172424,0.015040439553558826,0.7315448224544525,0.9914159774780273,-0.00036723457742482424,0.1307152807712555,0.0027853071223944426
274.0,-0.3552999306839603,-1.9890038343889698,2.2411124442937562,-2.06665459198796,-1.4856970012368096,-1.9151528966627218,0.5875846818089485,0.010357904247939587,0.7314887642860413,0.9916976094245911,-0.000254883139859885,0.12857727706432343,0.0019658764358609915
275.0,-0.354115006644764,-1.9944655422315343,2.2468165461169836,-2.073290243416965,-1.4845037533314425,-1.9134332461286376,0.5842206552624702,0.012488704174757004,0.7306370437145233,0.9912799000740051,-0.0003083341580349952,0.13175217807292938,0.0023198514245450497
276.0,-0.36124516544765917,-1.994094183151882,2.245411054228716,-2.0679059275982534,-1.4826533067045728,-1.920711873409393,0.5843910425901413,0.008590555749833584,0.7306865900754929,0.9915087819099426,-0.00021581993496511132,0.1300293207168579,0.0016456852899864316
277.0,-0.3672244443032179,-1.9921191293743383,2.242194741967096,-2.059776886218465,-1.4821662919849747,-1.9271185553183443,0.5854027420282364,0.004802952520549297,0.7309478521347046,0.9919133186340332,-0.00012777026859112084,0.1269131600856781,0.0009986122604459524
278.0,-0.3673406217685665,-1.9870210133218498,2.23730587619547,-2.055690894665716,-1.4832018723229583,-1.9276167493268914,0.588611789047718,0.003329743631184101,0.7317534685134888,0.992188572883606,-9.477225103182718e-05,0.12474500387907028,0.0007537933415733278
279.0,-0.3601807257323027,-1.9838858344581678,2.2356036905682926,-2.0597400629248885,-1.4853142288042671,-1.920451538111402,0.5908114165067673,0.006353979464620352,0.7323025763034821,0.9920798540115356,-0.00016483331273775548,0.12560269236564636,0.001301945187151432
280.0,-0.3536111011493645,-1.9819609298258498,2.234519372890965,-2.0620191480759464,-1.4876612958712145,-1.9139667415858295,0.5920725911855698,0.009364910423755646,0.7326192259788513,0.9920430183410645,-0.00023162613797467202,0.125886008143425,0.0018253265880048275
281.0,-0.3475500282727579,-1.9796386451755372,2.2335142920269604,-2.066306978848945,-1.4892345959205375,-1.9078456853181458,0.5937384143471718,0.012068035081028938,0.7330368310213089,0.9918972253799438,-0.00029406510293483734,0.12702195346355438,0.0022963143419474363
282.0,-0.3504209032083104,-1.9761502621497362,2.2307612946853967,-2.0667878677380602,-1.4876691880652697,-1.910643602904742,0.5962890461087227,0.009699237532913685,0.7336793541908264,0.9918810129165649,-0.00024115780252031982,0.1271553784608841,0.0018811615882441401
283.0,-0.34142894696603654,-1.9738823034828548,2.229738620935705,-2.0707916721476023,-1.4909325251742496,-1.9017124525518758,0.5977852493524551,0.013956747017800808,0.7340589463710785,0.9917793869972229,-0.0003521003236528486,0.12793004512786865,0.002729662461206317
284.0,-0.3369847783204603,-1.976650421753361,2.2326299636605476,-2.073773754235355,-1.4921010596511974,-1.8971747652185553,0.5958675742149353,0.017070863395929337,0.733567863702774,0.9916273355484009,-0.00041294487891718745,0.12909306585788727,0.003172032767906785
285.0,-0.33035976298324415,-1.977508689528667,2.233979401035005,-2.07679153195021,-1.4944540077910684,-1.8905645843643202,0.5951647087931633,0.020833194255828857,0.7333876639604568,0.9915157556533813,-0.0005019831005483866,0.12992911040782928,0.0038307360373437405
286.0,-0.322001088729341,-1.977648939169392,2.2350290953414436,-2.081106884834343,-1.4973031447949576,-1.8822154952194217,0.5949273109436035,0.025359224528074265,0.73332279920578,0.9913548827171326,-0.0006114520947448909,0.13112497329711914,0.004622811917215586
287.0,-0.3198379081513736,-1.9815320930644968,2.2384546140021477,-2.0823056444631525,-1.4981569523719014,-1.8799933325982296,0.5921681970357895,0.027402903884649277,0.7326248586177826,0.9912654757499695,-0.0006641935324296355,0.13178527355194092,0.00499594584107399
288.0,-0.312203335511357,-1.978920880218387,2.237028222114083,-2.085401152248184,-1.5009095092485192,-1.872477973263321,0.5937721878290176,0.03088705614209175,0.7330255508422852,0.9911917448043823,-0.0007462262874469161,0.1323145031929016,0.005590115673840046
289.0,-0.3064046329672084,-1.9762641088557211,2.235857742529653,-2.0900200611165243,-1.5024907294625292,-1.8666380355129402,0.5955778509378433,0.03344326093792915,0.7334739863872528,0.9910171627998352,-0.000813758815638721,0.13359618186950684,0.0060364664532244205
290.0,-0.3011594642842396,-1.9774065003169947,2.2372507880836734,-2.091969332530356,-1.5045570529628227,-1.861453222029966,0.5945711582899094,0.03648924455046654,0.7332166135311127,0.9909408688545227,-0.0008892341866157949,0.13413557410240173,0.006569311488419771
291.0,-0.2937831333876595,-1.9775229425697003,2.238180942477172,-2.095595976626785,-1.5072432185502405,-1.85413423709511,0.5942274034023285,0.0404595248401165,0.7331231832504272,0.9907993078231812,-0.0009906849591061473,0.1351413130760193,0.00726328743621707
292.0,-0.28794548402318826,-1.974580146291365,2.2364593178846772,-2.0986104540926895,-1.509440547158969,-1.8483813030746927,0.5960889607667923,0.04295048862695694,0.733591228723526,0.9907142519950867,-0.001065624295733869,0.13573381304740906,0.007777939084917307
293.0,-0.2957153372905662,-1.973564149378191,2.2344853232155573,-2.093588102524844,-1.5069924433830209,-1.8561716170501477,0.5970353558659554,0.03851969167590141,0.7338438034057617,0.9909441471099854,-0.0009587347158230841,0.13408507406711578,0.007085445336997509
294.0,-0.2999070676076537,-1.970594907126745,2.230949834312064,-2.0885690972101028,-1.5064984643988852,-1.8605579789049724,0.5991063192486763,0.035504262894392014,0.7343853563070297,0.9912241697311401,-0.0009024471510201693,0.13201497495174408,0.0067759547382593155
295.0,-0.30618654086037767,-1.9714679799696082,2.231119950837241,-2.0861916535843523,-1.5039885921061418,-1.8667409804769246,0.5987192541360855,0.03233591467142105,0.7342882454395294,0.9912911653518677,-0.000817343418020755,0.13154251873493195,0.006159418262541294
296.0,-0.31417531886495165,-1.9740710980238318,2.232870203458471,-2.084603846413245,-1.5002938721358738,-1.874499383206468,0.5972364172339439,0.02870948240160942,0.7339070588350296,0.9912760257720947,-0.0007088483544066548,0.13169246912002563,0.005335645284503698
297.0,-0.310777691419813,-1.9680440038800058,2.227258350775996,-2.0813961842370756,-1.5031861955857309,-1.8715156463512845,0.6011119410395622,0.028993679210543633,0.7349107414484024,0.991553008556366,-0.0007496230537071824,0.1295730620622635,0.00573646230623126
298.0,-0.3041786824623487,-1.9664846231186492,2.2265268659142867,-2.083869778516183,-1.505752392330983,-1.8650194735919772,0.6020023450255394,0.03220197185873985,0.7351384311914444,0.9914911389350891,-0.0008325566304847598,0.13001656532287598,0.006348979193717241
299.0,-0.29903739420429176,-1.9617399278282455,2.2228691022634566,-2.085096164056208,-1.5077922062169167,-1.8600483457407975,0.6051706373691559,0.03393769636750221,0.7359479814767838,0.9915142059326172,-0.0008747528772801161,0.12982386350631714,0.006680820602923632
300.0,-0.29023712554829156,-1.9610183590705326,2.2231148082658154,-2.0887374131352,-1.511233239400181,-1.8513591187710143,0.6053602695465088,0.0385560542345047,0.7359883785247803,0.9913960695266724,-0.0009967550868168473,0.13067395985126495,0.007562172599136829
301.0,-0.28437475318281213,-1.958329820932402,2.221390912869187,-2.0908885146876424,-1.5135272255992775,-1.8456194095913503,0.6070366203784943,0.04117697477340698,0.7363974153995514,0.991352915763855,-0.0010651677148416638,0.13097059726715088,0.00806255079805851
302.0,-0.28922779639402874,-1.955718773909775,2.218613448453765,-2.0882718578532566,-1.5118013778674364,-1.8504797036981204,0.609074592590332,0.037958789616823196,0.7369042038917542,0.9914845824241638,-0.0009874937823042274,0.13000239431858063,0.007531282491981983
303.0,-0.29125734042825885,-1.9514189423136354,2.2145576130151894,-2.0861801696903757,-1.5115678923558749,-1.8526121036001955,0.6121650785207748,0.03585635870695114,0.7376685291528702,0.9916286468505859,-0.0009566739900037646,0.12890920042991638,0.0073591736145317554
304.0,-0.29705797776212217,-1.9502145079679278,2.2129249805022804,-2.0834492805141696,-1.5093842617785296,-1.8583832079358877,0.6132145151495934,0.03239582106471062,0.7379311919212341,0.9917405247688293,-0.0008696409058757126,0.12808047235012054,0.0067337206564843655
305.0,-0.305186570284831,-1.9524627015854334,2.214192528080649,-2.0807840434104854,-1.5057983095532832,-1.8663601579608473,0.611899122595787,0.028480155393481255,0.737611398100853,0.9917898178100586,-0.0007488436531275511,0.12774452567100525,0.005813912022858858
306.0,-0.31198433601145803,-1.9528879333856541,2.2139498635007246,-2.0781138812709505,-1.5030189275811139,-1.8730822464965133,0.6117891147732735,0.02486295998096466,0.7375878393650055,0.9918680787086487,-0.0006484489422291517,0.12716835737228394,0.005057671573013067
307.0,-0.31548315008286243,-1.9499248979639925,2.210968587609462,-2.0757941824226833,-1.502041138890903,-1.876644556514831,0.6139321103692055,0.02220834232866764,0.7381178587675095,0.9919922351837158,-0.0005968033219687641,0.12621067464351654,0.004690761677920818
308.0,-0.32273910237560793,-1.9508205020488842,2.2111232427293817,-2.0730662556694033,-1.499041169091161,-1.8838184595409917,0.6134587526321411,0.018446817994117737,0.7380042374134064,0.9920608997344971,-0.000490813865326345,0.12569771707057953,0.003873716341331601
309.0,-0.32979713105710523,-1.9518604817626901,2.211431844990151,-2.0704534427834522,-1.4961165788203923,-1.8907981654820227,0.6128557696938515,0.014838011935353279,0.7378582060337067,0.9921214580535889,-0.00038844862137921154,0.12524130940437317,0.003077165689319372
310.0,-0.3276079014319917,-1.9469470982899177,2.207331912860961,-2.07060989059919,-1.4972332650959939,-1.8887321478640111,0.6162817552685738,0.014822298660874367,0.7387127876281738,0.9921809434890747,-0.00040642826934345067,0.12476556748151779,0.003232064424082637
311.0,-0.333337145937558,-1.9476405662967788,2.207412649531273,-2.068199638863385,-1.495038569842041,-1.8944239088512551,0.6158545836806297,0.011822428554296494,0.7386054545640945,0.9922475814819336,-0.0003281839017290622,0.1242489218711853,0.0026208648923784494
312.0,-0.3419663792569762,-1.9483254051064722,2.2072382488705453,-2.0645558279313225,-1.4917468583086986,-1.903010623443572,0.6154344901442528,0.0072228992357850075,0.7384998798370361,0.9923489689826965,-0.00020945163851138204,0.12345314025878906,0.0016836276045069098
313.0,-0.3420538194458671,-1.952379974518884,2.2107887929977434,-2.065300772168042,-1.4914776143597566,-1.9029921930745535,0.612610824406147,0.008218634873628616,0.7378014922142029,0.9922705292701721,-0.00022124919632915407,0.12408052384853363,0.001769327325746417
314.0,-0.3385623777302888,-1.9552040230222336,2.213542059124279,-2.067227887398952,-1.4927734798073937,-1.8994458972056267,0.6106095761060715,0.01083940640091896,0.7373079210519791,0.9921776056289673,-0.00028556937468238175,0.12481330335140228,0.002270074561238289
315.0,-0.3338101519768664,-1.9568024132736586,2.2153508827308364,-2.069517643997913,-1.4945377200648258,-1.8946750562947277,0.6094430461525917,0.013838041573762894,0.7370191514492035,0.9920871257781982,-0.00035969223245047033,0.1255185604095459,0.0028429741505533457
316.0,-0.328511003652604,-1.9582035761327188,2.217042172441418,-2.0720054276072855,-1.4965184960038391,-1.889369255538439,0.6083896532654762,0.01707652397453785,0.736757680773735,0.9919916391372681,-0.00044057524064555764,0.12625569105148315,0.0034616016782820225
317.0,-0.32190365641174257,-1.9555725541656215,2.2153954661339346,-2.07451199298199,-1.4989817299307087,-1.8828567501657651,0.6101288497447968,0.02007428929209709,0.7371832728385925,0.9919434189796448,-0.0005149685894139111,0.12661640346050262,0.00403438787907362
318.0,-0.3228820827701081,-1.9601003614111674,2.2191909814085644,-2.0746859896544123,-1.4986430129992816,-1.883730587270859,0.6069614291191101,0.020598547533154488,0.7364033311605453,0.99188232421875,-0.0005297230673022568,0.12709075212478638,0.004134234506636858
319.0,-0.3181959078591577,-1.9620438711535668,2.2212916941091247,-2.0769488505865397,-1.50042832719374,-1.87903361617377,0.605498380959034,0.023601261898875237,0.7360404431819916,0.9917846322059631,-0.000606757530476898,0.12783166766166687,0.004707540851086378
320.0,-0.31226403697515154,-1.9632236799532727,2.22287119841225,-2.0796740454994938,-1.5026894856531667,-1.8731200348350054,0.6045245379209518,0.02709256298840046,0.7357941567897797,0.9916790723800659,-0.0006970131071284413,0.12862037122249603,0.005374058615416288
321.0,-0.31093876085931227,-1.9574860828257246,2.2180777361174617,-2.0794862085270123,-1.50316211839197,-1.8719281818676354,0.6085358336567879,0.026516485959291458,0.7367851734161377,0.9917570352554321,-0.0006795866065658629,0.12802286446094513,0.005264565348625183
322.0,-0.3053958708676658,-1.9576793364768812,2.218774803987728,-2.081884449414675,-1.5052945450876734,-1.8664282811875461,0.6082471460103989,0.029586603865027428,0.7367107719182968,0.9916741847991943,-0.0007589387823827565,0.12863729894161224,0.005850713700056076
323.0,-0.29817692761788434,-1.9560148432156903,2.218030138989374,-2.0846979338174716,-1.5081289780972575,-1.859315005184075,0.6091994047164917,0.03315691277384758,0.7369410246610641,0.9916000962257385,-0.0008533563232049346,0.129172682762146,0.006550828460603952
324.0,-0.29317806864048945,-1.9458286860084941,2.209505462241875,-2.084731666976187,-1.5109815890783755,-1.8546130730348238,0.6162392869591713,0.03356536105275154,0.738690197467804,0.9917444586753845,-0.0009100321331061423,0.12803292274475098,0.007049119099974632
325.0,-0.2858570856441526,-1.9428903220851916,2.207696862851217,-2.087769837894798,-1.5138358264304428,-1.8474055083092198,0.6181160733103752,0.03698896989226341,0.7391625046730042,0.9916656613349915,-0.0010045128874480724,0.1286011040210724,0.007745974697172642
326.0,-0.28134799324855964,-1.9390996582391065,2.2046131211187285,-2.0883240799151075,-1.516050330840187,-1.8430651482722205,0.620633527636528,0.0386429987847805,0.7397996783256531,0.9917053580284119,-0.001062281895428896,0.12826500833034515,0.008213233202695847
327.0,-0.2869381479048062,-1.938043158870581,2.203127037054009,-2.085830782019639,-1.5137929375416792,-1.8486101152080268,0.6216103509068489,0.03530821204185486,0.7400506287813187,0.9918036460876465,-0.0009725156705826521,0.1275436133146286,0.00756246829405427
328.0,-0.2848314974589478,-1.9332265559193,2.198701381483456,-2.0843848988630933,-1.5153879285907792,-1.846708479913491,0.624925509095192,0.03536877781152725,0.740890383720398,0.9919394254684448,-0.0009960685856640339,0.12646782398223877,0.007812578231096268
329.0,-0.2784218733905289,-1.9315357933072583,2.197681834453692,-2.0861389757119673,-1.5183847261639543,-1.8404411039272879,0.6258667930960655,0.038555800914764404,0.7411181330680847,0.9919117093086243,-0.0010966656263917685,0.12663394212722778,0.00859007891267538
330.0,-0.27153317835961366,-1.9305849956871746,2.197387222151971,-2.088263674749303,-1.521496383914677,-1.833687396991101,0.626236617565155,0.04218747094273567,0.7412047535181046,0.9918587803840637,-0.0012048193020746112,0.1269887089729309,0.009410369209945202
331.0,-0.27597166014743846,-1.9348379563044655,2.2009988061454075,-2.088271207143696,-1.5189784399456727,-1.837926332686316,0.623406819999218,0.04066348075866699,0.7405015975236893,0.991787314414978,-0.0011378003982827067,0.12758751213550568,0.008844565600156784
332.0,-0.2709445269634296,-1.9389889066103145,2.2054139897768548,-2.092001678350848,-1.5205710423010859,-1.832833326775701,0.6202290207147598,0.044365935027599335,0.7396910786628723,0.9915884733200073,-0.0012261770898476243,0.12908171117305756,0.009419329464435577
333.0,-0.2641791339575684,-1.9379739202240331,2.2050438338772373,-2.0939507179637245,-1.5236580443734562,-1.8262198697930403,0.6206017136573792,0.04788227751851082,0.7397816777229309,0.9915419816970825,-0.001331437029875815,0.12937766313552856,0.010204046033322811
334.0,-0.2566937938456857,-1.9355557546649507,2.203397038299414,-2.095490963350495,-1.5272651848278647,-1.8189519463376609,0.6219107359647751,0.051509223878383636,0.7401096373796463,0.9915326833724976,-0.0014455555938184261,0.12937667965888977,0.011078623123466969
335.0,-0.24931262446972688,-1.9361003418462517,2.204595119374003,-2.0983754965170256,-1.5304285674626856,-1.8116914800341217,0.621085524559021,0.05570396035909653,0.7398944795131683,0.9914213418960571,-0.00156545196659863,0.13015013933181763,0.0119248628616333
336.0,-0.2423741530400157,-1.9344993749763073,2.2036964549561975,-2.1000858286304553,-1.5337051600932012,-1.8049421450931602,0.621793232858181,0.059217337518930435,0.7400692254304886,0.991386890411377,-0.0016738782869651914,0.13033463060855865,0.012732311151921749
337.0,-0.23588708289544946,-1.9339179460140965,2.203744566069861,-2.1021109573762713,-1.5366530730585242,-1.7986062686321849,0.6217769831418991,0.06269058585166931,0.7400598376989365,0.9913216233253479,-0.0017779730260372162,0.1307540386915207,0.013479838147759438
338.0,-0.22926043782871736,-1.9315948302503565,2.202125818082928,-2.103345884729065,-1.5399078717768957,-1.7921922789292595,0.6229839771986008,0.06591223925352097,0.7403613328933716,0.9913126826286316,-0.0018806083826348186,0.1307382881641388,0.014259565621614456
339.0,-0.2281783839983046,-1.9354385583079663,2.205948272997714,-2.105563906879679,-1.5398719043265081,-1.7910146499593964,0.620134562253952,0.06723704934120178,0.739635095000267,0.9911655187606812,-0.0019078875193372369,0.1318397969007492,0.014343412593007088
340.0,-0.2203260678290465,-1.9332842425411256,2.2046265103980596,-2.107312899730938,-1.5436639567734374,-1.783403286338277,0.6210950911045074,0.07116741687059402,0.7398724108934402,0.9911315441131592,-0.002031950047239661,0.13199001550674438,0.015258196741342545
341.0,-0.21635089884217704,-1.936623182312387,2.208244287906907,-2.110307014479358,-1.5450006888240917,-1.7794201129567915,0.6183678209781647,0.07396087050437927,0.7391738891601562,0.9909597039222717,-0.002106249099597335,0.13322588801383972,0.01566668227314949
342.0,-0.20972527520775824,-1.9349794702766414,2.207314200242081,-2.111861911169084,-1.548195082976042,-1.773000779665321,0.6190102621912956,0.07730855792760849,0.7393308579921722,0.9909219741821289,-0.002212458522990346,0.1334119588136673,0.0164331141859293
343.0,-0.20423880366357727,-1.9298556080949971,2.202887608158108,-2.111322376520679,-1.5513394365136597,-1.7677936180681066,0.6222632601857185,0.07944463193416595,0.7401537895202637,0.9910205006599426,-0.0022909976541996002,0.13258925080299377,0.0171237550675869
344.0,-0.18811036072491075,-1.9298485031968071,2.208592839857023,-2.134217977157026,-1.5758292015989623,-1.751552566408557,0.6208661943674088,0.08563020825386047,0.7394808232784271,0.9898757934570312,-0.003996831364929676,0.13899537920951843,0.02846401557326317
345.0,-0.16357019382193316,-1.9280844122340266,2.216426982888597,-2.168765344540745,-1.6189709913127557,-1.7272682559957935,0.6193994134664536,0.09395957738161087,0.7383948564529419,0.987734317779541,-0.007219437975436449,0.14838960766792297,0.04805516451597214
346.0,-0.14571595092300368,-1.922946698101501,2.217145301759654,-2.1851300173714066,-1.6485330506963893,-1.710114188915163,0.6207800880074501,0.09993864595890045,0.7382112145423889,0.9864461421966553,-0.009349198080599308,0.1522011160850525,0.06059403344988823
347.0,-0.12526796039597657,-1.9203441250387505,2.223193462026815,-2.211755607994452,-1.68574633420515,-1.6903893825287086,0.6196398362517357,0.10672031342983246,0.7370817363262177,0.9840851426124573,-0.012457238510251045,0.1598004698753357,0.07671431452035904
348.0,-0.12861770131189354,-1.9145521733518327,2.213064420824566,-2.192752679172785,-1.6748347583200336,-1.6939927002401411,0.6244956105947495,0.10574936866760254,0.7386824935674667,0.9855901002883911,-0.011043892242014408,0.1530832052230835,0.07110349833965302
349.0,-0.14802510953504966,-1.9131629716363592,2.2029525373691445,-2.1632149602645288,-1.6344842136096016,-1.7128666830520953,0.6284410059452057,0.09958291053771973,0.7405323684215546,0.9880540370941162,-0.007741114590317011,0.14452992379665375,0.052920807152986526
350.0,-0.16925701218676129,-1.9153460541332628,2.1973664620611446,-2.137046056848156,-1.5954500103132394,-1.7336214607469427,0.6294900327920914,0.09248023480176926,0.7414497137069702,0.9898327589035034,-0.0049291495233774185,0.1376614272594452,0.03544227406382561
351.0,-0.18711196922365872,-1.9143033835563572,2.1898312006834004,-2.111741286076544,-1.5612089527834074,-1.7514243905707287,0.6321992725133896,0.08638408780097961,0.7425911873579025,0.9911926984786987,-0.002579112071543932,0.13095618784427643,0.01952100545167923
352.0,-0.1947239959148016,-1.9154807132473326,2.1902115171414858,-2.1096218012401122,-1.5576007386229342,-1.7588212477638792,0.632022961974144,0.08229759335517883,0.742557168006897,0.9912701845169067,-0.0024516182020306587,0.13050144910812378,0.01862213760614395
353.0,-0.20129990575383072,-1.917503488004272,2.1914974217823056,-2.10810017919938,-1.5543546701038429,-1.7651949867092822,0.6311013028025627,0.07894657552242279,0.7423381209373474,0.9913103580474854,-0.00234146392904222,0.1303115338087082,0.017812062054872513
354.0,-0.1997451707191069,-1.9219838070800925,2.195871693688859,-2.1100337382643417,-1.5544352465899511,-1.7635876133768695,0.6276532560586929,0.08058802783489227,0.7414876967668533,0.991176187992096,-0.0023641097359359264,0.13132303953170776,0.017843399196863174
355.0,-0.20564521406297653,-1.923827582450396,2.1970382936094226,-2.108650448318165,-1.5515251334969131,-1.7693049437485695,0.626803457736969,0.07761625200510025,0.7412853091955185,0.9912105798721313,-0.002265677321702242,0.13116224110126495,0.017122024670243263
356.0,-0.2126910311675765,-1.9260585741210092,2.198458108066211,-2.1069881881318326,-1.5480561818429663,-1.776134991737053,0.6257481351494789,0.07408814132213593,0.7410333305597305,0.991249144077301,-0.0021487248595803976,0.1309821754693985,0.016261154785752296
357.0,-0.2117031432833914,-1.929854505374542,2.2021423163001996,-2.108697886272181,-1.5479820859805602,-1.7750802050968477,0.6228921413421631,0.07531598955392838,0.7403215765953064,0.9911284446716309,-0.0021662639919668436,0.13188917934894562,0.01627916842699051
358.0,-0.22147940041620046,-1.9277590567051766,2.199221144817274,-2.1045581047982296,-1.5438946825488065,-1.7846829184560484,0.625194177031517,0.06950994580984116,0.7409062385559082,0.9913220405578613,-0.00200449675321579,0.13055634498596191,0.015220262110233307
359.0,-0.2272054923690428,-1.926152890078331,2.197195544508874,-2.102139143676653,-1.5415682625438822,-1.7903172804753065,0.626794196665287,0.06601692736148834,0.74130579829216,0.9914365410804749,-0.001912784529849887,0.12975503504276276,0.01461526658385992
360.0,-0.2203322145726268,-1.9231046271204784,2.194980316541489,-2.1035164757442946,-1.5450500192378076,-1.7836639886904062,0.628515750169754,0.06928261369466782,0.741722583770752,0.9914242625236511,-0.0020261267200112343,0.1297464370727539,0.015482130460441113
361.0,-0.2128784332897921,-1.9218142824653337,2.194465211216414,-2.105612189302067,-1.5485590975115469,-1.776408513529714,0.6288821175694466,0.07321707904338837,0.7418049275875092,0.9913584589958191,-0.002148476429283619,0.13013821840286255,0.016366522759199142
362.0,-0.2119401575470308,-1.917282537240187,2.190281844775601,-2.104491465510251,-1.549607608117181,-1.7755881735590464,0.6321472898125648,0.07292424887418747,0.7426073104143143,0.9914596676826477,-0.0021666151005774736,0.1293335109949112,0.016609087586402893
363.0,-0.21410171243390735,-1.9141766704185426,2.187237487286005,-2.10326971361643,-1.5487840125584416,-1.777742757389108,0.6346443966031075,0.07117867469787598,0.7432236224412918,0.9915387034416199,-0.002123834565281868,0.1287601739168167,0.016354933381080627
364.0,-0.2201758555282465,-1.916740846773348,2.189007619778299,-2.1015819646124747,-1.545991356426508,-1.7836492284333623,0.6331840828061104,0.06818487495183945,0.7428708672523499,0.9915806651115417,-0.002032014075666666,0.12852267920970917,0.01567743346095085
365.0,-0.22712716028320742,-1.918401585173871,2.189933619077246,-2.0997520164183907,-1.5426789930295466,-1.790414545473216,0.6324669942259789,0.06457792967557907,0.7427013516426086,0.991629958152771,-0.0019185831770300865,0.12824387848377228,0.014835206791758537
366.0,-0.23116871107681725,-1.9163162772800442,2.187753952988778,-2.0985022715986394,-1.540712375631201,-1.7943792256798639,0.6343315169215202,0.06195422261953354,0.7431634068489075,0.9916900396347046,-0.001839337986893952,0.12784358859062195,0.01426784973591566
367.0,-0.23688001062819075,-1.920324136528457,2.190860055826987,-2.0970572922717072,-1.5380908052304667,-1.7999214566485178,0.6317227259278297,0.05945901572704315,0.7425273060798645,0.9917047619819641,-0.0017601611325517297,0.127796933054924,0.013658858835697174
368.0,-0.24398739010949447,-1.9209315239280902,2.1907958446721127,-2.0948271263502916,-1.5348720917204817,-1.8068740907474807,0.6317296475172043,0.055578671395778656,0.7425351142883301,0.9917771220207214,-0.0016458729514852166,0.12732349336147308,0.012820407748222351
369.0,-0.2473714631230643,-1.9170068195225392,2.1870860774797922,-2.0938354839502678,-1.533071038521283,-1.8102131362968494,0.6348945498466492,0.05297427996993065,0.743315577507019,0.991837203502655,-0.0015656111063435674,0.12691250443458557,0.012235446833074093
370.0,-0.24030208587131524,-1.9143945898152517,2.1853167074733957,-2.0958000053018435,-1.5363341217037836,-1.8033209286385852,0.6364067941904068,0.05647696927189827,0.7436838150024414,0.9917948842048645,-0.0016737779369577765,0.12715990841388702,0.01305477786809206
371.0,-0.23666343236274628,-1.9102861403192903,2.181823275908398,-2.096228354756757,-1.5382877010704856,-1.7998215431996156,0.6392362713813782,0.057749345898628235,0.7443924397230148,0.9918226003646851,-0.0017300646286457777,0.12689414620399475,0.013522430323064327
372.0,-0.23067780709181243,-1.9118949873308142,2.1838008896476016,-2.0982732179686767,-1.540983258807865,-1.7939462999006885,0.6376224309206009,0.06144263595342636,0.7439816892147064,0.9917364716529846,-0.0018332282779738307,0.12748347222805023,0.014261296018958092
373.0,-0.22574126841816966,-1.9071035518051231,2.1797682600808352,-2.0989427169647623,-1.5436036510530355,-1.7891898390567984,0.6408660337328911,0.06335848569869995,0.7447930425405502,0.9917603135108948,-0.0019115740433335304,0.12722405791282654,0.01490145456045866
374.0,-0.2291157214901238,-1.9037009350468868,2.176317332338481,-2.0973628405087035,-1.5422379569123168,-1.7925351608692242,0.6436670422554016,0.06080763787031174,0.7455002069473267,0.9918482899665833,-0.0018502074526622891,0.12658347189426422,0.01449735276401043
375.0,-0.22229998268342693,-1.901882819446867,2.1751894039776904,-2.0991090933429835,-1.5455406309571569,-1.7858974374189431,0.6445540860295296,0.0643734261393547,0.745717242360115,0.9918027520179749,-0.0019642452243715525,0.12683656811714172,0.015359480865299702
376.0,-0.21644375431616142,-1.9011470888400273,2.174977014820776,-2.1006388154715747,-1.5483692697644449,-1.7801909407487058,0.6446672454476357,0.06758999079465866,0.7457402795553207,0.991754949092865,-0.0020640548318624496,0.12711656093597412,0.01610361784696579
377.0,-0.20932674578061267,-1.8999155767073455,2.1744193433952264,-2.102482950341737,-1.5518186299034995,-1.7732618383094714,0.6450389847159386,0.0714477151632309,0.7458268105983734,0.9916971921920776,-0.0021853328216820955,0.1274469643831253,0.017004631459712982
