Sungjin-Park-dev/vision_inspection/data/trajectory/5504/collision_free_trajectory.csv
time,ur20-shoulder_pan_joint,ur20-shoulder_lift_joint,ur20-elbow_joint,ur20-wrist_1_joint,ur20-wrist_2_joint,ur20-wrist_3_joint
0.0,0.10245367139577866,-0.5048180222511292,1.392189383506775,-2.1850578784942627,-2.4607837200164795,-1.2248238325119019
1.0,0.0994998887181282,-0.4934694766998291,1.3487865924835205,-2.092651844024658,-2.4426722526550293,-1.1458743810653687
2.0,0.09516818821430206,-0.48295027017593384,1.3038091659545898,-1.9977635145187378,-2.42449951171875,-1.0668679475784302
3.0,0.09715190529823303,-0.48988041281700134,1.3281664848327637,-2.0459439754486084,-2.4353535175323486,-1.10758376121521
4.0,0.09882353991270065,-0.4971814453601837,1.3523255586624146,-2.0938594341278076,-2.446709394454956,-1.1488152742385864
5.0,0.10050560534000397,-0.5022637248039246,1.372859001159668,-2.137991428375244,-2.4555063247680664,-1.1863151788711548
6.0,0.09542622417211533,-0.49141785502433777,1.3214786052703857,-2.02494740486145,-2.4354774951934814,-1.0922960042953491
7.0,0.0931500792503357,-0.4850929081439972,1.2969335317611694,-1.975202202796936,-2.4252419471740723,-1.0510414838790894
8.0,0.09119810163974762,-0.47724196314811707,1.273401141166687,-1.9329559803009033,-2.413611888885498,-1.0151925086975098
9.0,0.08792494982481003,-0.4699362814426422,1.2466590404510498,-1.8821877241134644,-2.400681734085083,-0.9732807874679565
10.0,0.08514385670423508,-0.4660119116306305,1.2280296087265015,-1.844659686088562,-2.3927714824676514,-0.9435212016105652
11.0,0.08184874057769775,-0.4587423503398895,1.202185034751892,-1.7976248264312744,-2.3806238174438477,-0.9056084752082825
12.0,0.07932792603969574,-0.45077866315841675,1.1792622804641724,-1.7602713108062744,-2.36879301071167,-0.8748636245727539
13.0,0.07577420026063919,-0.44352754950523376,1.1556310653686523,-1.7205142974853516,-2.3561694622039795,-0.8427698016166687
14.0,0.07128950953483582,-0.43592867255210876,1.1282031536102295,-1.6728568077087402,-2.3421850204467773,-0.8053413033485413
15.0,0.06109295412898064,-0.463065505027771,1.1767274141311646,-1.7892906665802002,-2.2861838340759277,-0.8819779753684998
16.0,0.06476208567619324,-0.47559529542922974,1.2143757343292236,-1.8585424423217773,-2.295832633972168,-0.9399994611740112
17.0,0.0724020004272461,-0.47386685013771057,1.2221955060958862,-1.8584792613983154,-2.331401824951172,-0.9468554258346558
18.0,0.06851892173290253,-0.492483913898468,1.265372633934021,-1.9539240598678589,-2.30131196975708,-1.0189698934555054
19.0,0.08639617264270782,-0.4775363504886627,1.2581027746200562,-1.900852084159851,-2.398524284362793,-0.9896364808082581
20.0,0.08629065752029419,-0.4901014566421509,1.2936434745788574,-1.9803391695022583,-2.3898167610168457,-1.0533835887908936
21.0,0.07922638952732086,-0.5134685039520264,1.3482563495635986,-2.1098132133483887,-2.337965726852417,-1.1571292877197266
22.0,0.08677548915147781,-0.5108196139335632,1.3588241338729858,-2.122447967529297,-2.378955841064453,-1.1711978912353516
23.0,0.07584718614816666,-0.5304878950119019,1.3965858221054077,-2.2189900875091553,-2.308891534805298,-1.2528941631317139
24.0,0.09013102948665619,-0.5192133188247681,1.3982127904891968,-2.2105324268341064,-2.390289068222046,-1.2486317157745361
25.0,0.0979088544845581,-0.5133463144302368,1.4019644260406494,-2.2079102993011475,-2.4372518062591553,-1.2455871105194092
26.0,0.0788392499089241,-0.538964033126831,1.4364349842071533,-2.303744077682495,-2.3181850910186768,-1.3312357664108276
27.0,0.07147663831710815,-0.5420002341270447,1.4267640113830566,-2.289759874343872,-2.2785215377807617,-1.3188668489456177
28.0,0.05763307213783264,-0.5525377988815308,1.4299209117889404,-2.3041269779205322,-2.2051613330841064,-1.3307613134384155
29.0,0.06339871883392334,-0.5387539267539978,1.395381212234497,-2.2295596599578857,-2.243053436279297,-1.2593379020690918
30.0,0.05802077054977417,-0.5402023196220398,1.389314889907837,-2.224276542663574,-2.2172021865844727,-1.252945899963379
31.0,0.06872223317623138,-0.5207985639572144,1.3492772579193115,-2.1312408447265625,-2.281855344772339,-1.172471046447754
32.0,0.07187943905591965,-0.5068124532699585,1.3127665519714355,-2.047830820083618,-2.30739426612854,-1.1007002592086792
33.0,0.06043571978807449,-0.5143503546714783,1.3135405778884888,-2.0668230056762695,-2.2490601539611816,-1.10831618309021
34.0,0.055533166974782944,-0.5090683102607727,1.2907761335372925,-2.0315494537353516,-2.2324516773223877,-1.074831247329712
35.0,0.045070573687553406,-0.5382108092308044,1.3599019050598145,-2.1803345680236816,-2.1653010845184326,-1.2036665678024292
36.0,0.05141418054699898,-0.5390278100967407,1.3731038570404053,-2.1999499797821045,-2.1886918544769287,-1.2263346910476685
37.0,0.0431218296289444,-0.5529493093490601,1.402823567390442,-2.262239694595337,-2.1463255882263184,-1.2852728366851807
38.0,0.045856647193431854,-0.5566501617431641,1.4194307327270508,-2.289313554763794,-2.1544110774993896,-1.3130295276641846
39.0,0.03386392444372177,-0.5666587352752686,1.4315149784088135,-2.318692207336426,-2.101700782775879,-1.342769742012024
40.0,0.04239314794540405,-0.5673080086708069,1.4490537643432617,-2.345611810684204,-2.13372540473938,-1.3723078966140747
41.0,0.056931670755147934,-0.5600365400314331,1.4553474187850952,-2.3548789024353027,-2.1960699558258057,-1.3822451829910278
42.0,0.05666743218898773,-0.5645156502723694,1.4715572595596313,-2.3856687545776367,-2.1932685375213623,-1.413573145866394
43.0,0.05958867818117142,-0.5675474405288696,1.4917402267456055,-2.425081491470337,-2.205092430114746,-1.4531834125518799
44.0,0.05835411697626114,-0.5724695324897766,1.508545160293579,-2.4583349227905273,-2.196972608566284,-1.4880995750427246
45.0,0.08037431538105011,-0.545451283454895,1.4675260782241821,-2.3697659969329834,-2.322361469268799,-1.3915265798568726
46.0,0.08940844237804413,-0.5316681265830994,1.443590760231018,-2.312453031539917,-2.378948926925659,-1.3373347520828247
47.0,0.09069641679525375,-0.5371567010879517,1.4754852056503296,-2.3909912109375,-2.382378101348877,-1.4086134433746338
48.0,0.08724565804004669,-0.5454301238059998,1.5026103258132935,-2.45863938331604,-2.35933780670166,-1.4731996059417725
49.0,0.09174737334251404,-0.5427501797676086,1.5185235738754272,-2.503551959991455,-2.3867475986480713,-1.5117685794830322
50.0,0.07235407829284668,-0.5647392272949219,1.531754970550537,-2.5193912982940674,-2.2725605964660645,-1.5422663688659668
51.0,0.06518437713384628,-0.5749953389167786,1.5504975318908691,-2.551156759262085,-2.233072280883789,-1.578696846961975
52.0,0.08669769763946533,-0.5511825680732727,1.541393756866455,-2.5588293075561523,-2.3557825088500977,-1.5677146911621094
53.0,0.07912790030241013,-0.5633698105812073,1.5663926601409912,-2.605560302734375,-2.311145305633545,-1.6178330183029175
54.0,0.06326849013566971,-0.5813103914260864,1.5807380676269531,-2.6167993545532227,-2.224247455596924,-1.6473151445388794
55.0,0.06978115439414978,-0.5757266283035278,1.597001075744629,-2.6699931621551514,-2.2628989219665527,-1.6925442218780518
56.0,0.07522378116846085,-0.5699043869972229,1.6099117994308472,-2.7167036533355713,-2.2958407402038574,-1.7297320365905762
57.0,0.09657509624958038,-0.5406173467636108,1.5916911363601685,-2.7227210998535156,-2.420766830444336,-1.704689860343933
58.0,0.0923757404088974,-0.5472522974014282,1.5751034021377563,-2.6574819087982178,-2.3918228149414062,-1.651107907295227
59.0,0.09618924558162689,-0.5411320924758911,1.5524731874465942,-2.6003050804138184,-2.413782835006714,-1.5951271057128906
60.0,0.10830359160900116,-0.5233717560768127,1.5352836847305298,-2.569437026977539,-2.4921398162841797,-1.5541330575942993
61.0,0.1083974838256836,-0.5235661268234253,1.5588937997817993,-2.645876169204712,-2.492264747619629,-1.6206903457641602
62.0,0.10790669918060303,-0.5231871604919434,1.5751460790634155,-2.7015018463134766,-2.490321636199951,-1.6696912050247192
63.0,0.10802259296178818,-0.5209425687789917,1.5868160724639893,-2.7446963787078857,-2.4864189624786377,-1.7067204713821411
64.0,0.10659792274236679,-0.5207098126411438,1.6080812215805054,-2.820756196975708,-2.483206272125244,-1.7752814292907715
65.0,0.10527466982603073,-0.5201495289802551,1.6231727600097656,-2.876615524291992,-2.4795334339141846,-1.8258215188980103
66.0,0.08868782967329025,-0.5504869818687439,1.628949761390686,-2.815690279006958,-2.3785548210144043,-1.799169659614563
67.0,0.09561819583177567,-0.5348992943763733,1.6411411762237549,-2.8994486331939697,-2.4261155128479004,-1.8619099855422974
68.0,0.09626186639070511,-0.513049840927124,1.681509017944336,-3.112063407897949,-2.445213556289673,-2.0422470569610596
69.0,0.09554990381002426,-0.5243083834648132,1.6673004627227783,-3.0243396759033203,-2.4357666969299316,-1.969857096672058
70.0,0.08052664995193481,-0.5585461854934692,1.6545525789260864,-2.8783462047576904,-2.338397979736328,-1.8707306385040283
71.0,0.0733996331691742,-0.5712867379188538,1.643545150756836,-2.8103597164154053,-2.2938663959503174,-1.8206924200057983
72.0,0.07434747368097305,-0.5658707022666931,1.6691590547561646,-2.902275323867798,-2.3087003231048584,-1.903196930885315
73.0,0.07329068332910538,-0.5644806623458862,1.685055136680603,-2.9528467655181885,-2.3096201419830322,-1.9490411281585693
74.0,0.05460916459560394,-0.5941085815429688,1.673867106437683,-2.83624529838562,-2.20534086227417,-1.877673625946045
75.0,0.053355321288108826,-0.596373438835144,1.6573314666748047,-2.7851791381835938,-2.1931121349334717,-1.8301092386245728
76.0,0.0542280375957489,-0.5953645706176758,1.636489748954773,-2.7316904067993164,-2.190460443496704,-1.7751232385635376
77.0,0.05830126255750656,-0.5906290411949158,1.6249676942825317,-2.711559534072876,-2.2067930698394775,-1.7487456798553467
78.0,0.05367979034781456,-0.5932990908622742,1.6064265966415405,-2.6601452827453613,-2.181952476501465,-1.7031095027923584
79.0,0.044853050261735916,-0.603653073310852,1.6270041465759277,-2.690474510192871,-2.1464059352874756,-1.7464752197265625
80.0,0.04359932243824005,-0.6059281229972839,1.6459572315216064,-2.7341818809509277,-2.1464366912841797,-1.7947359085083008
81.0,0.032197821885347366,-0.6151432394981384,1.6305007934570312,-2.67478084564209,-2.092669725418091,-1.747195839881897
82.0,0.03381782025098801,-0.6110419631004333,1.6117826700210571,-2.6399378776550293,-2.0955100059509277,-1.7067047357559204
83.0,0.04256187006831169,-0.6020472645759583,1.601033329963684,-2.632939577102661,-2.1312496662139893,-1.6892104148864746
84.0,0.03973397612571716,-0.6025723218917847,1.588500738143921,-2.601996660232544,-2.116579294204712,-1.657849907875061
85.0,0.03942824527621269,-0.5975913405418396,1.5616704225540161,-2.550417423248291,-2.1128363609313965,-1.6009163856506348
86.0,0.05479579046368599,-0.5872729420661926,1.5694552659988403,-2.5806937217712402,-2.181593656539917,-1.619095802307129
87.0,0.05300043895840645,-0.5852519869804382,1.551100730895996,-2.5417699813842773,-2.172987461090088,-1.579843282699585
88.0,0.05534578487277031,-0.579818069934845,1.5323445796966553,-2.5047614574432373,-2.1831252574920654,-1.5385105609893799
89.0,0.047532860189676285,-0.5838699340820312,1.5245912075042725,-2.485255241394043,-2.147480010986328,-1.5226564407348633
90.0,0.036512166261672974,-0.5957232117652893,1.544428825378418,-2.5174756050109863,-2.09930419921875,-1.5667775869369507
91.0,0.042463164776563644,-0.5836556553840637,1.5088906288146973,-2.452425479888916,-2.126218557357788,-1.4882358312606812
92.0,0.04215027391910553,-0.5799814462661743,1.4934872388839722,-2.4234652519226074,-2.1263396739959717,-1.4558120965957642
93.0,0.037710435688495636,-0.5802160501480103,1.4852542877197266,-2.410911798477173,-2.108015298843384,-1.4444299936294556
94.0,0.03529953211545944,-0.5782060623168945,1.4734960794448853,-2.3922007083892822,-2.0988216400146484,-1.4249240159988403
95.0,0.029383478686213493,-0.5795425176620483,1.4669444561004639,-2.3816897869110107,-2.07551646232605,-1.4135767221450806
96.0,0.024246660992503166,-0.5878264904022217,1.486649751663208,-2.4152467250823975,-2.0506949424743652,-1.4534521102905273
97.0,0.03038034960627556,-0.59095698595047,1.509328842163086,-2.4523727893829346,-2.0741212368011475,-1.4946246147155762
98.0,0.02749091573059559,-0.5966614484786987,1.5246063470840454,-2.4771342277526855,-2.0605127811431885,-1.5248857736587524
99.0,0.017884019762277603,-0.5976483225822449,1.5094021558761597,-2.4490013122558594,-2.02228045463562,-1.4940248727798462
100.0,0.013027997687458992,-0.6052177548408508,1.5281537771224976,-2.477692127227783,-2.000819444656372,-1.5323362350463867
101.0,0.020321784541010857,-0.6046708226203918,1.5405274629592896,-2.50093150138855,-2.030179977416992,-1.5578932762145996
102.0,0.027927514165639877,-0.6047347187995911,1.5581796169281006,-2.5339412689208984,-2.0629520416259766,-1.5913220643997192
103.0,0.018939122557640076,-0.6129602789878845,1.5714062452316284,-2.5515635013580322,-2.0262699127197266,-1.621504306793213
104.0,0.030543141067028046,-0.6065477132797241,1.5730565786361694,-2.5612919330596924,-2.0747573375701904,-1.620437502861023
105.0,0.026166120544075966,-0.6138302683830261,1.5944963693618774,-2.5957117080688477,-2.0595738887786865,-1.6648181676864624
106.0,0.01932862028479576,-0.6158702969551086,1.5830793380737305,-2.568175792694092,-2.0288777351379395,-1.6389353275299072
107.0,0.002890359377488494,-0.6232548952102661,1.57563316822052,-2.542877197265625,-1.9613341093063354,-1.6225122213363647
108.0,0.011310841888189316,-0.6144245862960815,1.5609322786331177,-2.5309436321258545,-1.9941967725753784,-1.6039838790893555
109.0,0.002649674890562892,-0.6150800585746765,1.54635488986969,-2.503023624420166,-1.9578322172164917,-1.573319911956787
110.0,-0.004346637520939112,-0.6218962669372559,1.5589065551757812,-2.5162649154663086,-1.9318324327468872,-1.594736933708191
111.0,-0.008220326155424118,-0.6268382668495178,1.5705831050872803,-2.530142068862915,-1.9188545942306519,-1.6165087223052979
112.0,-0.014289678074419498,-0.6253585815429688,1.557777762413025,-2.5119059085845947,-1.8958022594451904,-1.5980058908462524
113.0,-0.02550096996128559,-0.6296136975288391,1.5586044788360596,-2.509241819381714,-1.85570228099823,-1.6044237613677979
114.0,-0.03283645212650299,-0.6295487880706787,1.5515766143798828,-2.50026535987854,-1.8249990940093994,-1.6003782749176025
115.0,-0.018062923103570938,-0.623487651348114,1.5470452308654785,-2.4971814155578613,-1.882037878036499,-1.5800286531448364
116.0,-0.019496824592351913,-0.6213405132293701,1.5387535095214844,-2.4872045516967773,-1.8774964809417725,-1.567468285560608
117.0,-0.025988757610321045,-0.6219574213027954,1.5358293056488037,-2.487492084503174,-1.854836344718933,-1.580872654914856
118.0,-0.016623202711343765,-0.6154211759567261,1.5244585275650024,-2.473954200744629,-1.8887330293655396,-1.5519906282424927
119.0,-0.006624887231737375,-0.61807781457901,1.5432251691818237,-2.4956870079040527,-1.9229660034179688,-1.570052146911621
120.0,-0.007794603705406189,-0.6146402359008789,1.5306602716445923,-2.479595899581909,-1.9197077751159668,-1.5496786832809448
121.0,0.0027003418654203415,-0.6102550029754639,1.5294805765151978,-2.478456735610962,-1.9591197967529297,-1.5402604341506958
122.0,0.004015926271677017,-0.6055663824081421,1.5160890817642212,-2.4610371589660645,-1.9656181335449219,-1.518108606338501
123.0,-0.006554140709340572,-0.6104174256324768,1.5186715126037598,-2.4649457931518555,-1.925028920173645,-1.5301532745361328
124.0,-0.004616039805114269,-0.6063895225524902,1.5087025165557861,-2.4541094303131104,-1.932969331741333,-1.5172162055969238
125.0,-0.014377893880009651,-0.6099559664726257,1.51004958152771,-2.4574623107910156,-1.8988561630249023,-1.5291439294815063
126.0,-0.006852844264358282,-0.6037228107452393,1.4979851245880127,-2.440718650817871,-1.9275691509246826,-1.5012032985687256
127.0,0.005869607906788588,-0.595734179019928,1.4858145713806152,-2.416581392288208,-1.9776177406311035,-1.459243893623352
128.0,0.0005307316896505654,-0.5954753160476685,1.4796767234802246,-2.4128949642181396,-1.9588273763656616,-1.4599121809005737
129.0,0.008246601559221745,-0.5990254282951355,1.500667691230774,-2.440068483352661,-1.984084963798523,-1.4903438091278076
130.0,0.01678052358329296,-0.5902151465415955,1.4832422733306885,-2.411515712738037,-2.021359443664551,-1.451143741607666
131.0,0.019328584894537926,-0.5837989449501038,1.4653170108795166,-2.381761312484741,-2.035379648208618,-1.4143567085266113
132.0,0.014218253083527088,-0.5841732025146484,1.4591118097305298,-2.3731861114501953,-2.0163724422454834,-1.4037368297576904
133.0,0.02231014333665371,-0.5739848613739014,1.437479853630066,-2.335942029953003,-2.0532662868499756,-1.3612580299377441
134.0,0.013895099982619286,-0.5771997570991516,1.4370862245559692,-2.341015338897705,-2.0212082862854004,-1.3671327829360962
135.0,0.023269135504961014,-0.5670194625854492,1.4167234897613525,-2.3012795448303223,-2.0631000995635986,-1.3225855827331543
136.0,0.03325175121426582,-0.562126874923706,1.4161163568496704,-2.2935245037078857,-2.102518320083618,-1.3160667419433594
137.0,0.03450896590948105,-0.5528904795646667,1.3881796598434448,-2.240164279937744,-2.1149277687072754,-1.2579340934753418
138.0,0.03515985608100891,-0.5442823767662048,1.36268949508667,-2.1932730674743652,-2.1243667602539062,-1.2098116874694824
139.0,0.039671219885349274,-0.5331063866615295,1.3361190557479858,-2.140979528427124,-2.1492271423339844,-1.1615469455718994
140.0,0.02983265183866024,-0.5452234148979187,1.3585261106491089,-2.1930088996887207,-2.1051578521728516,-1.2077871561050415
141.0,0.017689529806375504,-0.5669851899147034,1.4092450141906738,-2.292081356048584,-2.0440914630889893,-1.3101609945297241
142.0,0.012213691137731075,-0.5673971176147461,1.4038288593292236,-2.286943197250366,-2.025075674057007,-1.3020185232162476
143.0,0.0043532648123800755,-0.5670974850654602,1.3948729038238525,-2.280313730239868,-2.0006766319274902,-1.2930786609649658
144.0,0.003951492719352245,-0.5601216554641724,1.3726907968521118,-2.242191791534424,-2.007256031036377,-1.2464765310287476
145.0,0.01568453200161457,-0.556313693523407,1.3741114139556885,-2.2350685596466064,-2.048124074935913,-1.2459001541137695
146.0,0.01913674734532833,-0.5467393398284912,1.3491721153259277,-2.1863808631896973,-2.0687096118927,-1.1938761472702026
147.0,0.016133558005094528,-0.5437873005867004,1.3371543884277344,-2.1689820289611816,-2.062371015548706,-1.1741557121276855
148.0,0.010368688963353634,-0.5428276062011719,1.3280545473098755,-2.160083055496216,-2.0456926822662354,-1.161250114440918
149.0,0.010611620731651783,-0.5349742770195007,1.3052126169204712,-2.1164700984954834,-2.0537986755371094,-1.1137206554412842
150.0,0.02080228552222252,-0.524485170841217,1.2871086597442627,-2.0717809200286865,-2.093981981277466,-1.0788133144378662
151.0,0.020882023498415947,-0.510481059551239,1.2483067512512207,-1.9975223541259766,-2.104485273361206,-1.0071314573287964
152.0,0.021594999358057976,-0.49343204498291016,1.2040728330612183,-1.914538860321045,-2.117732524871826,-0.9344156384468079
153.0,0.020211968570947647,-0.48518988490104675,1.1815309524536133,-1.875348687171936,-2.1183223724365234,-0.8999491930007935
154.0,0.031671226024627686,-0.452843576669693,1.1145716905593872,-1.7299680709838867,-2.176292896270752,-0.8028651475906372
155.0,0.029924077913165092,-0.4828314483165741,1.186403751373291,-1.8689268827438354,-2.1527507305145264,-0.9078165292739868
156.0,0.029310693964362144,-0.49965816736221313,1.229531168937683,-1.9533926248550415,-2.139143466949463,-0.9787928462028503
157.0,0.028526389971375465,-0.5194992423057556,1.2823469638824463,-2.0532796382904053,-2.1223795413970947,-1.0683505535125732
158.0,0.026863936334848404,-0.5307244062423706,1.3115981817245483,-2.107846260070801,-2.1075832843780518,-1.1180256605148315
159.0,0.02978043258190155,-0.5342630743980408,1.3257535696029663,-2.131563186645508,-2.1144797801971436,-1.1445306539535522
160.0,0.0351981446146965,-0.5151087641716003,1.278682827949524,-2.038367748260498,-2.14801025390625,-1.061180830001831
161.0,0.040681805461645126,-0.4918484091758728,1.2230052947998047,-1.9235152006149292,-2.1862375736236572,-0.9676910042762756
162.0,0.0397987924516201,-0.5200866460800171,1.2988972663879395,-2.0714187622070312,-2.1601545810699463,-1.0961565971374512
163.0,0.04831276461482048,-0.49785086512565613,1.2487354278564453,-1.9580491781234741,-2.2107796669006348,-1.003435730934143
164.0,0.05026416853070259,-0.4794362485408783,1.203161597251892,-1.8652924299240112,-2.231828451156616,-0.9301790595054626
165.0,0.04347320646047592,-0.4709305465221405,1.1727111339569092,-1.8186116218566895,-2.209989070892334,-0.8851969242095947
166.0,0.041034869849681854,-0.44667401909828186,1.1105751991271973,-1.7025251388549805,-2.212336778640747,-0.7934766411781311
167.0,0.04180661216378212,-0.42643535137176514,1.06450355052948,-1.6152880191802979,-2.2243380546569824,-0.7334116101264954
168.0,0.049087632447481155,-0.4383772313594818,1.1010602712631226,-1.6685649156570435,-2.2486250400543213,-0.7800737619400024
169.0,0.052582383155822754,-0.39863717555999756,1.0153191089630127,-1.5003118515014648,-2.2775073051452637,-0.6694195866584778
170.0,0.054369259625673294,-0.45313724875450134,1.1432372331619263,-1.7406829595565796,-2.264061450958252,-0.8399745225906372
171.0,0.06124548614025116,-0.44681960344314575,1.137085199356079,-1.7107290029525757,-2.2947804927825928,-0.8236348032951355
172.0,0.06164068728685379,-0.4152134358882904,1.0655126571655273,-1.5751032829284668,-2.3080501556396484,-0.7282142043113708
173.0,0.06814701110124588,-0.42618316411972046,1.1029726266860962,-1.6363903284072876,-2.3277978897094727,-0.7753405570983887
174.0,0.06047230213880539,-0.40798401832580566,1.0523202419281006,-1.562313437461853,-2.2988433837890625,-0.7161077260971069
175.0,0.05669233947992325,-0.4025971293449402,1.0332106351852417,-1.5312933921813965,-2.2878034114837646,-0.69232177734375
176.0,0.052758749574422836,-0.39377838373184204,1.0092281103134155,-1.4978909492492676,-2.273308038711548,-0.6658400297164917
177.0,0.048884227871894836,-0.38296398520469666,0.9829102754592896,-1.4645426273345947,-2.2572081089019775,-0.6390281319618225
178.0,0.040159471333026886,-0.36221590638160706,0.9318169951438904,-1.401351809501648,-2.2244718074798584,-0.5884184837341309
179.0,0.044660840183496475,-0.37078502774238586,0.9550472497940063,-1.4320957660675049,-2.2395620346069336,-0.6125428080558777
180.0,0.05706501007080078,-0.3976554870605469,1.0279499292373657,-1.5314587354660034,-2.2833025455474854,-0.6902632713317871
181.0,0.05572054535150528,-0.38941100239753723,1.0129060745239258,-1.5173157453536987,-2.273035764694214,-0.6770064830780029
182.0,0.05075237154960632,-0.37798771262168884,0.9822816848754883,-1.4755682945251465,-2.2547457218170166,-0.6440752744674683
183.0,0.04586723446846008,-0.36630886793136597,0.9525119066238403,-1.4373754262924194,-2.236743688583374,-0.61402827501297
184.0,0.039516616612672806,-0.35577237606048584,0.9220010042190552,-1.395707368850708,-2.2175045013427734,-0.5820990204811096
185.0,0.03463296219706535,-0.3421054184436798,0.8911826610565186,-1.3612831830978394,-2.19736647605896,-0.5540434718132019
186.0,0.025519056245684624,-0.32105395197868347,0.8398433923721313,-1.300886631011963,-2.1648457050323486,-0.5074672102928162
187.0,0.02955540083348751,-0.33304983377456665,0.8655645251274109,-1.3270515203475952,-2.1815178394317627,-0.528599202632904
188.0,0.011581295169889927,-0.29666730761528015,0.7764059901237488,-1.2256311178207397,-2.1206552982330322,-0.44981539249420166
189.0,0.01665973849594593,-0.3078109323978424,0.8025750517845154,-1.253891944885254,-2.1388652324676514,-0.47197696566581726
190.0,0.024116361513733864,-0.3245145380496979,0.8409637212753296,-1.2946655750274658,-2.165776491165161,-0.5047597885131836
191.0,0.03515879064798355,-0.34942105412483215,0.901801586151123,-1.3663103580474854,-2.204821825027466,-0.5601791739463806
192.0,0.030945027247071266,-0.3425961136817932,0.8814342021942139,-1.3379857540130615,-2.1921775341033936,-0.5392361283302307
193.0,0.02316470444202423,-0.3290727436542511,0.8444347381591797,-1.2907439470291138,-2.1683285236358643,-0.5039520263671875
194.0,0.028057757765054703,-0.3405839204788208,0.8708176612854004,-1.3193047046661377,-2.1860485076904297,-0.5266454815864563
195.0,0.033332474529743195,-0.3522303104400635,0.9001571536064148,-1.355299949645996,-2.2045600414276123,-0.5541264414787292
196.0,0.0419718436896801,-0.37106916308403015,0.9478985071182251,-1.4151517152786255,-2.2356224060058594,-0.6012270450592041
197.0,0.04812895879149437,-0.38612326979637146,0.9846535325050354,-1.4606355428695679,-2.2593631744384766,-0.6378704905509949
198.0,0.03740428388118744,-0.36364221572875977,0.9257898330688477,-1.3839219808578491,-2.2213919162750244,-0.577364444732666
199.0,0.020596301183104515,-0.3295220732688904,0.838664174079895,-1.2768645286560059,-2.163743734359741,-0.4946640431880951
200.0,0.026645177975296974,-0.3430275022983551,0.869911789894104,-1.310948133468628,-2.186166763305664,-0.5223772525787354
201.0,0.0320717878639698,-0.355424165725708,0.9005751013755798,-1.3479822874069214,-2.2055461406707764,-0.5506646037101746
202.0,0.034216344356536865,-0.3849785327911377,0.9643858075141907,-1.4501242637634277,-2.208523988723755,-0.6152323484420776
203.0,0.03580716252326965,-0.410150945186615,1.021064043045044,-1.5480942726135254,-2.207768678665161,-0.6805493235588074
204.0,0.02631210722029209,-0.43271830677986145,1.0615432262420654,-1.6383693218231201,-2.163804531097412,-0.7266587018966675
205.0,0.024564292281866074,-0.3786081373691559,0.9405839443206787,-1.4283769130706787,-2.1740033626556396,-0.5885997414588928
206.0,0.016286978498101234,-0.3536054193973541,0.8799743056297302,-1.341822624206543,-2.1495370864868164,-0.526240885257721
207.0,0.01244165375828743,-0.3173682987689972,0.8039471507072449,-1.232096552848816,-2.1386020183563232,-0.46085426211357117
208.0,0.006944912485778332,-0.30455493927001953,0.7748385667800903,-1.201709508895874,-2.1184027194976807,-0.43712499737739563
209.0,0.00048310510464943945,-0.29241374135017395,0.7454726099967957,-1.1697075366973877,-2.0969207286834717,-0.4123953580856323
210.0,-0.006283879280090332,-0.28566035628318787,0.7228047251701355,-1.1382721662521362,-2.077606439590454,-0.38890522718429565
211.0,-0.012329263612627983,-0.27342209219932556,0.6950117349624634,-1.1103559732437134,-2.0564281940460205,-0.3668752908706665
212.0,-0.019180938601493835,-0.2599342465400696,0.663783609867096,-1.0785589218139648,-2.0331385135650635,-0.3427318036556244
213.0,-0.01659686677157879,-0.25993087887763977,0.6693002581596375,-1.0905051231384277,-2.0384740829467773,-0.35033130645751953
214.0,-0.02478790283203125,-0.24681177735328674,0.6371942758560181,-1.0565863847732544,-2.012718677520752,-0.324323832988739
215.0,-0.030722536146640778,-0.2358573079109192,0.6130352020263672,-1.034293293952942,-1.992172360420227,-0.30566421151161194
216.0,-0.036784425377845764,-0.22549092769622803,0.5892419219017029,-1.011291742324829,-1.9718995094299316,-0.28713706135749817
217.0,-0.047087594866752625,-0.2049303650856018,0.5446772575378418,-0.9715611934661865,-1.9365355968475342,-0.2560117244720459
218.0,-0.05446605011820793,-0.19716070592403412,0.524492084980011,-0.9499391913414001,-1.9148907661437988,-0.23758989572525024
219.0,-0.06195421889424324,-0.18304309248924255,0.49562862515449524,-0.9269826412200928,-1.8886768817901611,-0.21702899038791656
220.0,-0.052873700857162476,-0.19369222223758698,0.5220415592193604,-0.9540978074073792,-1.9173076152801514,-0.2406598925590515
221.0,-0.04955426603555679,-0.1920551061630249,0.5238950252532959,-0.9622678756713867,-1.9241212606430054,-0.24734392762184143
222.0,-0.041388142853975296,-0.2122109830379486,0.5641804337501526,-0.9935454726219177,-1.953803539276123,-0.2722305953502655
223.0,-0.029045578092336655,-0.23364496231079102,0.6132986545562744,-1.0407593250274658,-1.9950358867645264,-0.3098810017108917
224.0,-0.02182861790060997,-0.2455235719680786,0.6404349207878113,-1.0666321516036987,-2.0182454586029053,-0.3313160240650177
225.0,-0.00633864663541317,-0.27785593271255493,0.7132545709609985,-1.1381829977035522,-2.0721607208251953,-0.3866254687309265
226.0,-0.008527278900146484,-0.26801595091819763,0.6965480446815491,-1.1280494928359985,-2.06083607673645,-0.3770914673805237
227.0,-0.0018675810424610972,-0.28224995732307434,0.7281923294067383,-1.1589994430541992,-2.0848100185394287,-0.40206560492515564
228.0,0.006629095878452063,-0.2960781753063202,0.7635942697525024,-1.1992172002792358,-2.111196756362915,-0.43278419971466064
229.0,0.013746608048677444,-0.3130955696105957,0.8019254803657532,-1.2387332916259766,-2.137613534927368,-0.4637465178966522
230.0,0.018201079219579697,-0.31726258993148804,0.8179177045822144,-1.2630008459091187,-2.1493022441864014,-0.4811932146549225
231.0,0.0115957111120224,-0.30170318484306335,0.7826730012893677,-1.2262071371078491,-2.124626874923706,-0.4518299996852875
232.0,0.00482699740678072,-0.2857727110385895,0.7463587522506714,-1.1885563135147095,-2.099996566772461,-0.42281317710876465
233.0,-0.00046976530575193465,-0.2755425274372101,0.7227370142936707,-1.164678931236267,-2.0826869010925293,-0.40393194556236267
234.0,-0.005227974615991116,-0.26894956827163696,0.7047784924507141,-1.1434423923492432,-2.0685267448425293,-0.3877180516719818
235.0,-0.014650044962763786,-0.24753238260746002,0.6580033898353577,-1.099188208580017,-2.0343618392944336,-0.3526880741119385
236.0,-0.020086847245693207,-0.23887769877910614,0.6354473829269409,-1.0735929012298584,-2.0175137519836426,-0.33420127630233765
237.0,-0.014325186610221863,-0.2548246383666992,0.6678178310394287,-1.100923776626587,-2.039825201034546,-0.3556976020336151
238.0,-0.026331333443522453,-0.23342475295066833,0.6177494525909424,-1.0507473945617676,-2.0012266635894775,-0.31708258390426636
239.0,-0.03252498432993889,-0.22168610990047455,0.5920670032501221,-1.0275503396987915,-1.9800984859466553,-0.2979256212711334
240.0,-0.043929729610681534,-0.1983666867017746,0.5417574644088745,-0.9832044243812561,-1.940531849861145,-0.26273319125175476
241.0,-0.03714589402079582,-0.21021200716495514,0.5691878795623779,-1.0096710920333862,-1.9628546237945557,-0.2830752730369568
242.0,-0.03364245966076851,-0.21205930411815643,0.5778278112411499,-1.023131251335144,-1.972256064414978,-0.2929466664791107
243.0,-0.027727536857128143,-0.22405950725078583,0.6033801436424255,-1.0451489686965942,-1.9924412965774536,-0.31103554368019104
244.0,-0.007248814217746258,-0.25989052653312683,0.6892790198326111,-1.1339502334594727,-2.0581367015838623,-0.37885919213294983
245.0,0.005925152916461229,-0.2817855477333069,0.7440319061279297,-1.1939107179641724,-2.0988941192626953,-0.42489251494407654
246.0,0.0016698039835318923,-0.27058300375938416,0.7205963730812073,-1.172684907913208,-2.082764148712158,-0.40777719020843506
247.0,-0.0033822068944573402,-0.262968510389328,0.7011387944221497,-1.1512939929962158,-2.068037986755371,-0.3913173973560333
248.0,-0.00839593168348074,-0.2515227198600769,0.6764100193977356,-1.1284233331680298,-2.050158739089966,-0.37295880913734436
249.0,-0.015599716454744339,-0.23587541282176971,0.6412350535392761,-1.0942211151123047,-2.024837017059326,-0.3465768098831177
250.0,-0.023039842024445534,-0.22167885303497314,0.6077547073364258,-1.060338020324707,-2.0005381107330322,-0.3214341104030609
251.0,-0.027440926060080528,-0.21824035048484802,0.5962276458740234,-1.0453979969024658,-1.9893790483474731,-0.309988409280777
252.0,-0.0389569066464901,-0.19796814024448395,0.550113320350647,-1.0021865367889404,-1.952117681503296,-0.27572572231292725
253.0,-0.03169805929064751,-0.20747260749340057,0.5752121210098267,-1.0298622846603394,-1.9740833044052124,-0.29687419533729553
254.0,-0.05482853204011917,-0.16637912392616272,0.4824243187904358,-0.9446046352386475,-1.8990987539291382,-0.2302268147468567
255.0,-0.0460992157459259,-0.17903494834899902,0.5123299956321716,-0.9732601642608643,-1.9255893230438232,-0.2530871033668518
256.0,-0.034774549305438995,-0.19665053486824036,0.5558223724365234,-1.0179678201675415,-1.961319923400879,-0.2865948975086212
257.0,-0.021405715495347977,-0.21876248717308044,0.6067988872528076,-1.0659973621368408,-2.0020670890808105,-0.3247179388999939
258.0,-0.028270814567804337,-0.206107497215271,0.5788682103157043,-1.0409955978393555,-1.9801990985870361,-0.3044545352458954
259.0,-0.03824079409241676,-0.18522240221500397,0.5346400141716003,-1.00400972366333,-1.9472988843917847,-0.27502721548080444
260.0,-0.04627528041601181,-0.17126743495464325,0.5015555620193481,-0.9716764092445374,-1.9213238954544067,-0.2510054409503937
261.0,-0.055706191807985306,-0.15656188130378723,0.46763670444488525,-0.9403202533721924,-1.8923410177230835,-0.22612428665161133
262.0,-0.06083285063505173,-0.1451348066329956,0.44520303606987,-0.9245576858520508,-1.8751906156539917,-0.21273885667324066
263.0,-0.06756038963794708,-0.13735634088516235,0.42575156688690186,-0.905012309551239,-1.856012225151062,-0.19685247540473938
264.0,-0.060809437185525894,-0.1535942256450653,0.4572541415691376,-0.9266499280929565,-1.8792184591293335,-0.21472223103046417
265.0,-0.07349929958581924,-0.13542933762073517,0.4147548973560333,-0.8866435885429382,-1.839277744293213,-0.18229690194129944
266.0,-0.08101673424243927,-0.11949753016233444,0.3820362687110901,-0.8615745902061462,-1.8135638236999512,-0.16266942024230957
267.0,-0.09222923964262009,-0.10693728178739548,0.3550274670124054,-0.8394414782524109,-1.7795377969741821,-0.13826924562454224
268.0,-0.08502737432718277,-0.12178841978311539,0.38246428966522217,-0.8558629155158997,-1.8037102222442627,-0.1550285965204239
269.0,-0.09227194637060165,-0.11913663893938065,0.3732825815677643,-0.8434431552886963,-1.7835959196090698,-0.14026623964309692
270.0,-0.08102291822433472,-0.1332576721906662,0.4022429287433624,-0.8655983805656433,-1.8184009790420532,-0.1649419069290161
271.0,-0.07362530380487442,-0.14181815087795258,0.4235628545284271,-0.887390673160553,-1.841261863708496,-0.18294230103492737
272.0,-0.06483764201402664,-0.15468613803386688,0.4535995125770569,-0.9158363938331604,-1.8698140382766724,-0.20597589015960693
273.0,-0.05461301654577255,-0.17448221147060394,0.4938754737377167,-0.94667649269104,-1.903582215309143,-0.23254422843456268
274.0,-0.0660940408706665,-0.15917310118675232,0.4579622745513916,-0.9125682711601257,-1.868096947669983,-0.20353570580482483
275.0,-0.05008430778980255,-0.18546539545059204,0.5143671035766602,-0.9599690437316895,-1.9195367097854614,-0.24470381438732147
276.0,-0.05801853537559509,-0.17724841833114624,0.49353042244911194,-0.9385203123092651,-1.8971391916275024,-0.22602157294750214
277.0,-0.06979827582836151,-0.1594778150320053,0.4532257914543152,-0.9014369249343872,-1.8581799268722534,-0.19463537633419037
278.0,-0.08253514766693115,-0.13941101729869843,0.4100249409675598,-0.8648232817649841,-1.816625714302063,-0.16297310590744019
279.0,-0.07643652707338333,-0.14994603395462036,0.4310055375099182,-0.8802217841148376,-1.8367359638214111,-0.1775882989168167
280.0,-0.06357798725366592,-0.17265020310878754,0.4796181321144104,-0.9214385151863098,-1.880143642425537,-0.21159355342388153
281.0,-0.0720055103302002,-0.16228878498077393,0.4539969265460968,-0.8951287865638733,-1.853305697441101,-0.18980491161346436
282.0,-0.07987481355667114,-0.15020640194416046,0.4274351894855499,-0.8716998100280762,-1.8276803493499756,-0.1701030135154724
283.0,-0.09015122056007385,-0.13624142110347748,0.3999563157558441,-0.8521761298179626,-1.7947920560836792,-0.14716048538684845
284.0,-0.10533776134252548,-0.12537485361099243,0.3755340576171875,-0.8325997591018677,-1.7396571636199951,-0.11024563014507294
285.0,-0.11295303702354431,-0.1179644837975502,0.36074280738830566,-0.8219848275184631,-1.7118878364562988,-0.09171490371227264
286.0,-0.08942651748657227,-0.12909379601478577,0.39000365138053894,-0.8510000109672546,-1.7946418523788452,-0.147576704621315
287.0,-0.09812041372060776,-0.12065289914608002,0.3720986545085907,-0.8374003171920776,-1.7645082473754883,-0.12707790732383728
288.0,-0.1062346026301384,-0.1145651713013649,0.3586556613445282,-0.8266865015029907,-1.7350574731826782,-0.10732915252447128
289.0,-0.12373664975166321,-0.110125832259655,0.34651443362236023,-0.8114298582077026,-1.6723606586456299,-0.06561683118343353
290.0,-0.1440562605857849,0.20743082463741302,-0.3472927510738373,-0.42746567726135254,-1.602316975593567,-0.020079055801033974
291.0,-0.1546548306941986,0.2111823856830597,-0.3556855022907257,-0.4208187460899353,-1.5709428787231445,-9.293353650718927e-05
292.0,-0.13552270829677582,0.20871712267398834,-0.3541227877140045,-0.42430517077445984,-1.6308393478393555,-0.03841916471719742
293.0,-0.14554601907730103,0.21085990965366364,-0.3603903353214264,-0.41652512550354004,-1.597927451133728,-0.017235800623893738
294.0,-0.12435280531644821,0.21064850687980652,-0.36023372411727905,-0.4247887432575226,-1.6713811159133911,-0.06489318609237671
295.0,-0.11486373841762543,0.2146058976650238,-0.3722839951515198,-0.4201676547527313,-1.7063170671463013,-0.08787508308887482
296.0,-0.09808111190795898,0.22614821791648865,-0.39744624495506287,-0.41372713446617126,-1.766901969909668,-0.12835480272769928
297.0,-0.10664655268192291,0.22073985636234283,-0.3870967924594879,-0.4150327444076538,-1.7361705303192139,-0.10776297748088837
298.0,-0.12040795385837555,0.21526706218719482,-0.37737610936164856,-0.4133245646953583,-1.6870735883712769,-0.07511313259601593
299.0,-0.13074544072151184,0.21504396200180054,-0.3786963224411011,-0.40742772817611694,-1.6502975225448608,-0.05098097398877144
300.0,-0.13030074536800385,0.21211430430412292,-0.366934597492218,-0.416824072599411,-1.6507383584976196,-0.051326096057891846
301.0,-0.13927045464515686,0.21287250518798828,-0.37027597427368164,-0.4100989103317261,-1.61899733543396,-0.030704187229275703
302.0,-0.15104003250598907,0.21402035653591156,-0.3705015182495117,-0.40786755084991455,-1.5817996263504028,-0.0069650947116315365
303.0,-0.1664503961801529,0.22680963575839996,-0.400981605052948,-0.39034515619277954,-1.5335631370544434,0.02356850542128086
304.0,-0.18222171068191528,0.24022804200649261,-0.4289470613002777,-0.3766416907310486,-1.4855271577835083,0.05398039519786835
305.0,-0.17556071281433105,0.23489660024642944,-0.4189015030860901,-0.38093826174736023,-1.50466787815094,0.041860997676849365
306.0,-0.16994529962539673,0.2316049188375473,-0.41603755950927734,-0.3795105814933777,-1.5225600004196167,0.030486127361655235
307.0,-0.15587928891181946,0.21907606720924377,-0.3869996964931488,-0.39509162306785583,-1.5671567916870117,0.002297111786901951
308.0,-0.1488078087568283,0.21645672619342804,-0.3823810815811157,-0.39776432514190674,-1.5883631706237793,-0.01110296044498682
309.0,-0.14061829447746277,0.21576935052871704,-0.38194921612739563,-0.40032854676246643,-1.615376353263855,-0.02833830937743187
310.0,-0.13282467424869537,0.21804526448249817,-0.39134126901626587,-0.3964598774909973,-1.6441664695739746,-0.046926070004701614
311.0,-0.11860563606023788,0.22022698819637299,-0.3972623646259308,-0.39843878149986267,-1.6954357624053955,-0.08047259598970413
312.0,-0.13424266874790192,0.22062188386917114,-0.4025237262248993,-0.38684818148612976,-1.6403025388717651,-0.04436391219496727
313.0,-0.14194978773593903,0.21885915100574493,-0.394840270280838,-0.38948431611061096,-1.6120023727416992,-0.026135580614209175
314.0,-0.15010766685009003,0.22038879990577698,-0.3994111716747284,-0.3829272985458374,-1.584582805633545,-0.00868043303489685
315.0,-0.15920081734657288,0.22473806142807007,-0.4065196216106415,-0.38035646080970764,-1.5566915273666382,0.008884512819349766
316.0,-0.16593168675899506,0.22993135452270508,-0.4170266091823578,-0.37578085064888,-1.5353586673736572,0.022351427003741264
317.0,-0.1740487813949585,0.23729746043682098,-0.43481457233428955,-0.36552056670188904,-1.509702205657959,0.038518909364938736
318.0,-0.17897669970989227,0.23987802863121033,-0.43547487258911133,-0.3684435188770294,-1.4941608905792236,0.048393748700618744
319.0,-0.1909475326538086,0.25090301036834717,-0.45464134216308594,-0.36274003982543945,-1.4588810205459595,0.07091177999973297
320.0,-0.1993856579065323,0.262050986289978,-0.4797908365726471,-0.3509417474269867,-1.431982398033142,0.0882033035159111
321.0,-0.20617537200450897,0.2710118591785431,-0.5006176829338074,-0.34052804112434387,-1.41029953956604,0.10210613161325455
322.0,-0.22473695874214172,0.29581326246261597,-0.5508131384849548,-0.32154619693756104,-1.3542935848236084,0.1387842297554016
323.0,-0.23179876804351807,0.3073806166648865,-0.579668402671814,-0.3069932162761688,-1.331106185913086,0.15406358242034912
324.0,-0.22443820536136627,0.29638224840164185,-0.5576666593551636,-0.31426018476486206,-1.354354977607727,0.13844597339630127
325.0,-0.21592853963375092,0.2833631932735443,-0.5288299322128296,-0.32633671164512634,-1.3811999559402466,0.12068924307823181
326.0,-0.20870451629161835,0.2754269540309906,-0.5159186124801636,-0.32924342155456543,-1.4019052982330322,0.10726381838321686
327.0,-0.20085026323795319,0.26576492190361023,-0.49528568983078003,-0.3382757902145386,-1.4268183708190918,0.09126714617013931
328.0,-0.1935056746006012,0.25586655735969543,-0.47116631269454956,-0.3509526550769806,-1.4503233432769775,0.07625073194503784
329.0,-0.18730640411376953,0.24866344034671783,-0.457838773727417,-0.35483384132385254,-1.4698158502578735,0.06368031352758408
330.0,-0.1814846396446228,0.24397926032543182,-0.45065584778785706,-0.3563186526298523,-1.4865708351135254,0.053044579923152924
331.0,-0.19395531713962555,0.2582928240299225,-0.48352158069610596,-0.33995336294174194,-1.4483751058578491,0.07729052007198334
332.0,-0.1741630584001541,0.2394047975540161,-0.44583573937416077,-0.3555006980895996,-1.509486198425293,0.038560256361961365
333.0,-0.15989699959754944,0.2274201661348343,-0.418110191822052,-0.3705255091190338,-1.5545507669448853,0.010211901739239693
334.0,-0.16729570925235748,0.23408061265945435,-0.4349774420261383,-0.36053669452667236,-1.5311915874481201,0.02489766851067543
335.0,-0.18645314872264862,0.2503086030483246,-0.4710763692855835,-0.34135159850120544,-1.471754550933838,0.062204718589782715
336.0,-0.17947565019130707,0.2449568808078766,-0.4621872901916504,-0.3441164493560791,-1.4928367137908936,0.04893442988395691
337.0,-0.17076537013053894,0.23849444091320038,-0.45005983114242554,-0.3491383194923401,-1.5203393697738647,0.031659454107284546
338.0,-0.1520225703716278,0.22343598306179047,-0.41269123554229736,-0.37113356590270996,-1.5790200233459473,-0.0051602269522845745
339.0,-0.12958282232284546,0.22307102382183075,-0.41279616951942444,-0.3807019889354706,-1.6580042839050293,-0.055821217596530914
340.0,-0.1385861188173294,0.22326840460300446,-0.4144876301288605,-0.375150203704834,-1.626176118850708,-0.03518117591738701
341.0,-0.13339687883853912,0.22533300518989563,-0.42375895380973816,-0.36994820833206177,-1.6456815004348755,-0.0477464385330677
342.0,-0.12143788486719131,0.22920237481594086,-0.4361504316329956,-0.3679155707359314,-1.6891683340072632,-0.076359823346138
343.0,-0.14180800318717957,0.22965966165065765,-0.4373925030231476,-0.36100906133651733,-1.616507887840271,-0.02920011430978775
344.0,-0.15200383961200714,0.22596417367458344,-0.4250508248806,-0.36042922735214233,-1.579727292060852,-0.005593135952949524
345.0,-0.1599976271390915,0.23044352233409882,-0.4334677755832672,-0.3566893935203552,-1.5543315410614014,0.010315165854990482
346.0,-0.16550937294960022,0.24053114652633667,-0.46089980006217957,-0.34616202116012573,-1.537152647972107,0.02139291726052761
347.0,-0.17681896686553955,0.27718663215637207,-0.5510127544403076,-0.34041449427604675,-1.5023974180221558,0.04816340655088425
348.0,-0.1833791583776474,0.24944519996643066,-0.4771445095539093,-0.3327902555465698,-1.480700135231018,0.05641084536910057
349.0,-0.19150108098983765,0.25832071900367737,-0.496370792388916,-0.3242723047733307,-1.455191969871521,0.07256286591291428
350.0,-0.20650222897529602,0.2758263945579529,-0.5329170227050781,-0.309397429227829,-1.4078760147094727,0.10279993712902069
351.0,-0.21448874473571777,0.2850155532360077,-0.55135577917099,-0.302115797996521,-1.3827136754989624,0.11887550354003906
352.0,-0.19949421286582947,0.2668333053588867,-0.5099596381187439,-0.3222254514694214,-1.4302717447280884,0.08862714469432831
353.0,-0.21050125360488892,0.27959370613098145,-0.5353802442550659,-0.3125641644001007,-1.395574927330017,0.11087580025196075
354.0,-0.22031576931476593,0.29202601313591003,-0.5596449971199036,-0.30417752265930176,-1.3656665086746216,0.13033542037010193
355.0,-0.203471377491951,0.27030640840530396,-0.5110462307929993,-0.32670849561691284,-1.4181089401245117,0.09663938730955124
356.0,-0.21626882255077362,0.285207062959671,-0.5403860807418823,-0.31544944643974304,-1.3790779113769531,0.12169868499040604
357.0,-0.22442403435707092,0.2972520589828491,-0.5647485852241516,-0.3072502017021179,-1.3535751104354858,0.13869117200374603
358.0,-0.23132659494876862,0.30747780203819275,-0.5853336453437805,-0.3003702759742737,-1.3317798376083374,0.1532975435256958
359.0,-0.2387177050113678,0.31879687309265137,-0.6122273802757263,-0.28770023584365845,-1.3077914714813232,0.16912220418453217
360.0,-0.2466212511062622,0.33039647340774536,-0.6389066576957703,-0.2754596471786499,-1.2834593057632446,0.18514171242713928
361.0,-0.23262733221054077,0.31043288111686707,-0.5993273258209229,-0.28875458240509033,-1.3264665603637695,0.15639005601406097
362.0,-0.2412223368883133,0.3231631815433502,-0.6284804344177246,-0.2758183181285858,-1.2987924814224243,0.17465740442276
363.0,-0.22423920035362244,0.29866522550582886,-0.5788500905036926,-0.2927967607975006,-1.3524150848388672,0.13887886703014374
364.0,-0.23474645614624023,0.3141487240791321,-0.6126860976219177,-0.279239684343338,-1.3189055919647217,0.1610923856496811
365.0,-0.25171664357185364,0.33982858061790466,-0.6667872667312622,-0.259686142206192,-1.2652989625930786,0.1973208785057068
366.0,-0.25918829441070557,0.35242193937301636,-0.6942216157913208,-0.2500976622104645,-1.2411236763000488,0.21430601179599762
367.0,-0.24337716400623322,0.3267166018486023,-0.6414754986763,-0.26644375920295715,-1.2911505699157715,0.1793627291917801
368.0,-0.25140103697776794,0.3544062376022339,-0.7102307677268982,-0.26459261775016785,-1.2676184177398682,0.210178405046463
369.0,-0.23892094194889069,0.36039161682128906,-0.736060619354248,-0.29465436935424805,-1.3097941875457764,0.20179180800914764
370.0,-0.23229444026947021,0.34447216987609863,-0.6984983682632446,-0.2951755225658417,-1.3299564123153687,0.17908315360546112
371.0,-0.22265903651714325,0.34056252241134644,-0.6945109367370605,-0.3091406226158142,-1.3617842197418213,0.16066938638687134
372.0,-0.21783629059791565,0.30487900972366333,-0.6039330363273621,-0.29918867349624634,-1.3734790086746216,0.13282592594623566
373.0,-0.2091226577758789,0.3389180302619934,-0.6977397799491882,-0.32918781042099,-1.4038972854614258,0.13571478426456451
374.0,-0.21419499814510345,0.3702014684677124,-0.776673436164856,-0.34460094571113586,-1.3909125328063965,0.1655077040195465
375.0,-0.22116316854953766,0.39115023612976074,-0.8273226618766785,-0.35176897048950195,-1.3722007274627686,0.19575922191143036
376.0,-0.2304716259241104,0.40213248133659363,-0.8508158326148987,-0.3470081388950348,-1.3448584079742432,0.22481486201286316
377.0,-0.24663813412189484,0.4149309992790222,-0.8740267753601074,-0.32985183596611023,-1.2939502000808716,0.2686176002025604
378.0,-0.2524678409099579,0.43558529019355774,-0.923600971698761,-0.3414003252983093,-1.2795318365097046,0.30391061305999756
379.0,-0.25287559628486633,0.4684434235095978,-1.0064173936843872,-0.38262656331062317,-1.2865869998931885,0.35323286056518555
380.0,-0.24143019318580627,0.465426504611969,-1.004714012145996,-0.4002845585346222,-1.3237066268920898,0.3228819966316223
381.0,-0.23736904561519623,0.43749555945396423,-0.9375523328781128,-0.37446659803390503,-1.328763484954834,0.27922576665878296
382.0,-0.22295303642749786,0.43320098519325256,-0.9333065152168274,-0.3934018015861511,-1.373440146446228,0.2391544133424759
383.0,-0.22707022726535797,0.4527036249637604,-0.9796847701072693,-0.4099472463130951,-1.3649449348449707,0.2712227404117584
384.0,-0.21591521799564362,0.43187475204467773,-0.9327183961868286,-0.40251779556274414,-1.3953776359558105,0.21793107688426971
385.0,-0.2076353132724762,0.4379449784755707,-0.950323224067688,-0.42153796553611755,-1.4213297367095947,0.19865557551383972
386.0,-0.20473939180374146,0.40028107166290283,-0.8578980565071106,-0.38545840978622437,-1.4242640733718872,0.1624586433172226
387.0,-0.1969679296016693,0.39500704407691956,-0.8471073508262634,-0.3898709714412689,-1.4470356702804565,0.1373954713344574
388.0,-0.19094011187553406,0.3655266761779785,-0.7739318609237671,-0.3709433376789093,-1.4630340337753296,0.1058630421757698
389.0,-0.1998090296983719,0.34370553493499756,-0.714359700679779,-0.3441944718360901,-1.434810757637024,0.11713266372680664
390.0,-0.19336339831352234,0.310433030128479,-0.6307481527328491,-0.3339342176914215,-1.4528838396072388,0.08997776359319687
391.0,-0.18462759256362915,0.32619136571884155,-0.6748824119567871,-0.3520497679710388,-1.4795730113983154,0.0766945630311966
392.0,-0.18412724137306213,0.3815948963165283,-0.8169741630554199,-0.39250504970550537,-1.4843568801879883,0.09372259676456451
393.0,-0.18992163240909576,0.42006716132164,-0.9111788272857666,-0.4229017198085785,-1.471832513809204,0.12745967507362366
394.0,-0.19587767124176025,0.44133201241493225,-0.9614676237106323,-0.4398690462112427,-1.4570403099060059,0.16073699295520782
395.0,-0.20097459852695465,0.4725879728794098,-1.034502625465393,-0.47332772612571716,-1.4467053413391113,0.20563334226608276
396.0,-0.2069389969110489,0.4850139915943146,-1.0621627569198608,-0.48153358697891235,-1.4330271482467651,0.23961283266544342
397.0,-0.18795104324817657,0.4776267111301422,-1.048143982887268,-0.4946640729904175,-1.4846569299697876,0.15416865050792694
398.0,-0.1811884641647339,0.44868388772010803,-0.9815943837165833,-0.465017169713974,-1.4990968704223633,0.11060944199562073
399.0,-0.175218403339386,0.4324146807193756,-0.943623423576355,-0.45140743255615234,-1.5146595239639282,0.08041540533304214
400.0,-0.16682711243629456,0.42734530568122864,-0.9323545694351196,-0.4522700309753418,-1.5394558906555176,0.04447053372859955
401.0,-0.16858962178230286,0.47329241037368774,-1.0398646593093872,-0.5072824954986572,-1.5361813306808472,0.0637262687087059
402.0,-0.17602047324180603,0.48566603660583496,-1.0675026178359985,-0.5185279250144958,-1.5169241428375244,0.10549715906381607
403.0,-0.18106301128864288,0.5026771426200867,-1.1047691106796265,-0.5367839932441711,-1.5068705081939697,0.1377120316028595
404.0,-0.17985659837722778,0.5364505052566528,-1.1763277053833008,-0.5876771211624146,-1.517626404762268,0.14762146770954132
405.0,-0.19099420309066772,0.5230174660682678,-1.1480783224105835,-0.5558350086212158,-1.4850586652755737,0.20544315874576569
406.0,-0.19877368211746216,0.5125329494476318,-1.1251733303070068,-0.5313547253608704,-1.4628902673721313,0.2325393557548523
407.0,-0.19746807217597961,0.5439326167106628,-1.1918563842773438,-0.5792035460472107,-1.4761823415756226,0.25809842348098755
408.0,-0.19965076446533203,0.5592337846755981,-1.2232248783111572,-0.599862813949585,-1.4772180318832397,0.286685585975647
409.0,-0.21098607778549194,0.5153787732124329,-1.130099892616272,-0.5191472172737122,-1.42941415309906,0.29303088784217834
410.0,-0.20874790847301483,0.5544360280036926,-1.213243007659912,-0.5806720852851868,-1.4498705863952637,0.33727601170539856
411.0,-0.20894555747509003,0.5914371013641357,-1.2872437238693237,-0.6387377977371216,-1.466933250427246,0.4066409766674042
412.0,-0.20060913264751434,0.5954694151878357,-1.2941207885742188,-0.6586341261863708,-1.488306999206543,0.3631707429885864
413.0,-0.19628708064556122,0.620466947555542,-1.3398659229278564,-0.7030576467514038,-1.5095610618591309,0.3886828124523163
414.0,-0.19363145530223846,0.6080050468444824,-1.3167097568511963,-0.6870023012161255,-1.5089054107666016,0.336353063583374
415.0,-0.18569543957710266,0.6203939914703369,-1.3379753828048706,-0.7160775065422058,-1.531363606452942,0.2782520651817322
416.0,-0.18679533898830414,0.6010249257087708,-1.3028228282928467,-0.6848635673522949,-1.5199623107910156,0.26634302735328674
417.0,-0.17986860871315002,0.6346367001533508,-1.361534833908081,-0.7478477954864502,-1.544094204902649,1.3915950059890747
418.0,-0.17455779016017914,0.6510486006736755,-1.3881016969680786,-0.7821570038795471,-1.5578724145889282,1.3964316844940186
419.0,-0.17718082666397095,0.6562168598175049,-1.3988522291183472,-0.7802755832672119,-1.5573278665542603,1.393778681755066
420.0,-0.17872166633605957,0.6627452969551086,-1.4127352237701416,-0.7764273881912231,-1.5580620765686035,1.3922148942947388
421.0,-0.17413774132728577,0.6596828103065491,-1.406135082244873,-0.7786896228790283,-1.5601141452789307,1.396812081336975
422.0,-0.17314088344573975,0.6646366119384766,-1.4166182279586792,-0.7760235071182251,-1.5619603395462036,1.397792935371399
423.0,-0.171981543302536,0.6562612652778625,-1.3988136053085327,-0.7809464335441589,-1.5609625577926636,1.3989815711975098
424.0,-0.1710052192211151,0.6505586504936218,-1.3866788148880005,-0.784360945224762,-1.5604344606399536,1.3999792337417603
425.0,-0.16846035420894623,0.6535657048225403,-1.3929946422576904,-0.7829849720001221,-1.5629960298538208,1.4025137424468994
426.0,-0.16411876678466797,0.6530842185020447,-1.3918750286102295,-0.783750593662262,-1.565643548965454,1.4068564176559448
427.0,-0.1612267643213272,0.6491182446479797,-1.3833743333816528,-0.7864394187927246,-1.5670841932296753,1.4097625017166138
428.0,-0.15955130755901337,0.6528910994529724,-1.3913556337356567,-0.7843946218490601,-1.5687865018844604,1.4114224910736084
429.0,-0.1661853939294815,0.6576707363128662,-1.4016731977462769,-0.7808049321174622,-1.5648696422576904,1.4047731161117554
430.0,-0.16208459436893463,0.6601415872573853,-1.4068249464035034,-0.7798365950584412,-1.568069577217102,1.408864140510559
431.0,-0.16755111515522003,0.6641536355018616,-1.4154720306396484,-0.7768987417221069,-1.5651103258132935,1.4033849239349365
432.0,-0.1689847707748413,0.6685923933982849,-1.42490816116333,-0.7742841243743896,-1.5654869079589844,1.4019371271133423
433.0,-0.16686831414699554,0.6713770627975464,-1.43080472946167,-0.7727563381195068,-1.5663878917694092,1.4040437936782837
434.0,-0.16341134905815125,0.6659435033798218,-1.4191818237304688,-0.7763010263442993,-1.5679900646209717,1.407517910003662
435.0,-0.16042299568653107,0.6692148447036743,-1.4260547161102295,-0.7747484445571899,-1.570540189743042,1.4104942083358765
436.0,-0.15850141644477844,0.66225665807724,-1.4112309217453003,-0.779008686542511,-1.5708634853363037,1.4124377965927124
437.0,-0.15184810757637024,0.6660637259483337,-1.418525218963623,-0.7801114320755005,-1.5891783237457275,1.4190483093261719
438.0,-0.14175769686698914,0.6686398386955261,-1.4219753742218018,-0.7853211760520935,-1.626662015914917,1.4289283752441406
439.0,-0.151584655046463,0.6596945524215698,-1.4050441980361938,-0.7836911082267761,-1.5877224206924438,1.4193365573883057
440.0,-0.14919140934944153,0.6546009182929993,-1.3938840627670288,-0.788031280040741,-1.5945360660552979,1.4217252731323242
441.0,-0.13995514810085297,0.6577587723731995,-1.3987116813659668,-0.7922864556312561,-1.629379153251648,1.4307442903518677
442.0,-0.12982091307640076,0.6633144021034241,-1.4078952074050903,-0.7955411672592163,-1.6682595014572144,1.440474510192871
443.0,-0.1236034706234932,0.6595003604888916,-1.3981798887252808,-0.8012183308601379,-1.6896604299545288,1.4464387893676758
444.0,-0.11799950152635574,0.6557475328445435,-1.3879972696304321,-0.8070539236068726,-1.709100604057312,-1.346144199371338
445.0,-0.1189354658126831,0.6508005857467651,-1.378179907798767,-0.8090309500694275,-1.7042721509933472,1.450939416885376
446.0,-0.13050460815429688,0.6494709253311157,-1.3790510892868042,-0.802639901638031,-1.6612529754638672,1.439917802810669
447.0,-0.14169301092624664,0.6508897542953491,-1.384628176689148,-0.7949187159538269,-1.620622158050537,1.42909574508667
448.0,-0.13348408043384552,0.633079469203949,-1.3511865139007568,-0.7794216275215149,-1.6494157314300537,1.4373606443405151
449.0,-0.11593188345432281,0.6331740617752075,-1.3467135429382324,-0.7856432199478149,-1.714921236038208,-1.1075774431228638
450.0,-0.12554620206356049,0.6115541458129883,-1.3126386404037476,-0.7454689145088196,-1.679241418838501,-0.714081346988678
451.0,-0.13793028891086578,0.5842934846878052,-1.2660855054855347,-0.6956973671913147,-1.633093237876892,-0.3079236149787903
452.0,-0.14226529002189636,0.5506691932678223,-1.2025408744812012,-0.6378591656684875,-1.6175165176391602,-0.16037695109844208
453.0,-0.15521787106990814,0.5305333733558655,-1.1632664203643799,-0.5989829301834106,-1.570948600769043,-0.0004316501144785434
454.0,-0.1569807380437851,0.5793864130973816,-1.2592607736587524,-0.6779565811157227,-1.5677884817123413,0.013908796943724155
455.0,-0.1523529291152954,0.6055476069450378,-1.3065812587738037,-0.7229809165000916,-1.5794692039489746,-0.058594219386577606
456.0,-0.14689885079860687,0.6271483898162842,-1.3434914350509644,-0.7626368999481201,-1.5997792482376099,1.4245035648345947
457.0,-0.15048745274543762,0.6470382809638977,-1.378135085105896,-0.7913044691085815,-1.5870084762573242,1.4204806089401245
458.0,-0.15617746114730835,0.6519820690155029,-1.3893426656723022,-0.7853148579597473,-1.5710021257400513,1.4147969484329224
459.0,-0.15671588480472565,0.6471666693687439,-1.3791180849075317,-0.7881178855895996,-1.5699418783187866,1.4142776727676392
460.0,-0.15613940358161926,0.629615306854248,-1.3488998413085938,-0.7616121768951416,-1.5703208446502686,1.415276288986206
461.0,-0.15806062519550323,0.6037288308143616,-1.3040083646774292,-0.716066300868988,-1.569650650024414,0.00735863670706749
462.0,-0.1620471030473709,0.6112067699432373,-1.3177721500396729,-0.7257151007652283,-1.5640970468521118,1.4102473258972168
463.0,-0.16704969108104706,0.6187514662742615,-1.3315815925598145,-0.7350431680679321,-1.5559173822402954,1.4049159288406372
464.0,-0.1637565940618515,0.6430225372314453,-1.3724827766418457,-0.7796878218650818,-1.5651887655258179,1.4073336124420166
465.0,-0.16773578524589539,0.640670657157898,-1.3692626953125,-0.7719195485115051,-1.5603302717208862,1.4034374952316284
466.0,-0.17354311048984528,0.6150282025337219,-1.3262364864349365,-0.7216033935546875,-1.5490442514419556,1.3987418413162231
467.0,-0.1802186369895935,0.6053848266601562,-1.3097952604293823,-0.6995404362678528,-1.5323818922042847,0.22420893609523773
468.0,-0.1882682889699936,0.5711261034011841,-1.2460567951202393,-0.6351694464683533,-1.5046846866607666,0.24276062846183777
469.0,-0.17820550501346588,0.5851237773895264,-1.2720444202423096,-0.669856607913971,-1.5293108224868774,0.18855024874210358
470.0,-0.1729390025138855,0.5858857035636902,-1.2729029655456543,-0.6761938333511353,-1.5399017333984375,0.14562276005744934
471.0,-0.16662061214447021,0.5912014245986938,-1.282098412513733,-0.6899164915084839,-1.5519068241119385,0.09790831804275513
472.0,-0.17062494158744812,0.5659260153770447,-1.2346667051315308,-0.6451026201248169,-1.5406854152679443,0.11407927423715591
473.0,-0.16521170735359192,0.5634286403656006,-1.2295081615447998,-0.6448339223861694,-1.5527986288070679,0.06758004426956177
474.0,-0.16021963953971863,0.5442007184028625,-1.1912610530853271,-0.6168367266654968,-1.5619980096817017,0.02775528095662594
475.0,-0.16577154397964478,0.5120555758476257,-1.1250768899917603,-0.5634182691574097,-1.5466206073760986,0.05802205577492714
476.0,-0.1565069854259491,0.4810187816619873,-1.057665228843689,-0.5268714427947998,-1.5670310258865356,0.007462585810571909
477.0,-0.1612727791070938,0.46077215671539307,-1.0114555358886719,-0.49637559056282043,-1.5549417734146118,0.02744399942457676
478.0,-0.1564866453409195,0.436981201171875,-0.9560372233390808,-0.47089049220085144,-1.5672290325164795,0.005434699356555939
479.0,-0.14647001028060913,0.4312312602996826,-0.9424111843109131,-0.4700106680393219,-1.6013743877410889,-0.0456693060696125
480.0,-0.13711829483509064,0.44624584913253784,-0.9771085977554321,-0.4916609823703766,-1.6362056732177734,-0.10661782324314117
481.0,-0.1273006796836853,0.4384787678718567,-0.9578114748001099,-0.4859580993652344,-1.6728709936141968,-0.15919940173625946
482.0,-0.15348060429096222,0.3954724967479706,-0.8561192750930786,-0.42975878715515137,-1.5753902196884155,-0.005676195956766605
483.0,-0.14123943448066711,0.3946830928325653,-0.8541253805160522,-0.43496790528297424,-1.6205737590789795,-0.06190749257802963
484.0,-0.119941845536232,0.4036250412464142,-0.873698353767395,-0.4506990909576416,-1.699821949005127,-0.16765721142292023
485.0,-0.10384444147348404,0.4405936896800995,-0.9562311172485352,-0.4919406771659851,-1.7610538005828857,-0.2909906208515167
486.0,-0.11319354176521301,0.4672679603099823,-1.0214043855667114,-0.5253868103027344,-1.726312279701233,-0.28179654479026794
487.0,-0.13056398928165436,0.48703235387802124,-1.0688130855560303,-0.547297477722168,-1.6611318588256836,-0.18850736320018768
488.0,-0.14250028133392334,0.49850964546203613,-1.095095157623291,-0.5582652688026428,-1.6164710521697998,-0.10300065577030182
489.0,-0.13130541145801544,0.5317539572715759,-1.1630775928497314,-0.6122140884399414,-1.6586540937423706,-0.25294360518455505
490.0,-0.11934502422809601,0.5012160539627075,-1.0972931385040283,-0.5705586075782776,-1.7035273313522339,-0.3000779449939728
491.0,-0.10887575149536133,0.5200246572494507,-1.133311152458191,-0.5994554162025452,-1.7427626848220825,-0.42892134189605713
492.0,-0.10398194193840027,0.5541865825653076,-1.199542760848999,-0.6535990238189697,-1.761094570159912,-0.5962134003639221
493.0,-0.12161567807197571,0.555084764957428,-1.2075899839401245,-0.6530988812446594,-1.6944684982299805,-0.4263455867767334
494.0,-0.11320950090885162,0.580355703830719,-1.2529538869857788,-0.6980456113815308,-1.7256157398223877,-0.6499371528625488
495.0,-0.10767465829849243,0.608470618724823,-1.3012619018554688,-0.7438993453979492,-1.7464247941970825,-0.9132691621780396
496.0,-0.09993140399456024,0.6226876378059387,-1.322404384613037,-0.7686042189598083,-1.7757692337036133,-1.102970838546753
497.0,-0.10043724626302719,0.5915009379386902,-1.2678427696228027,-0.7168061137199402,-1.7740973234176636,-0.8439568877220154
498.0,-0.08954834938049316,0.5976308584213257,-1.273596167564392,-0.7269991636276245,-1.815783143043518,-0.9610531330108643
499.0,-0.08782880753278732,0.6222168207168579,-1.3156678676605225,-0.7683619856834412,-1.822253704071045,-1.1564987897872925
500.0,-0.08083520829677582,0.6234918832778931,-1.3145334720611572,-0.7684201598167419,-1.8414280414581299,-1.1747145652770996
501.0,-0.08065050840377808,0.6005454659461975,-1.2741568088531494,-0.7310516834259033,-1.848438024520874,-1.0217679738998413
502.0,-0.07620987296104431,0.572593092918396,-1.2206836938858032,-0.68104088306427,-1.8616950511932373,-0.860880970954895
503.0,-0.08923093229532242,0.5419898629188538,-1.168518304824829,-0.6327821612358093,-1.817571997642517,-0.6490510106086731
504.0,-0.0986509770154953,0.4987797439098358,-1.0842275619506836,-0.5685010552406311,-1.7814425230026245,-0.441167414188385
505.0,-0.0813305675983429,0.517516553401947,-1.114600658416748,-0.593805193901062,-1.8478277921676636,-0.6005496978759766
506.0,-0.0947127416729927,0.46275803446769714,-1.0027854442596436,-0.5186706185340881,-1.7960186004638672,-0.3781675100326538
507.0,-0.08209869265556335,0.4260213375091553,-0.9109255075454712,-0.472951740026474,-1.8417755365371704,-0.3636678457260132
508.0,-0.07262405008077621,0.4435098469257355,-0.9461138248443604,-0.49019908905029297,-1.8760921955108643,-0.4317907392978668
509.0,-0.06753411889076233,0.4760568141937256,-1.0168923139572144,-0.5287071466445923,-1.8891373872756958,-0.5189915895462036
510.0,-0.05268990993499756,0.5231617093086243,-1.1093140840530396,-0.588177502155304,-1.92437744140625,-0.6910583972930908
511.0,-0.05217979848384857,0.4735388457775116,-1.000900387763977,-0.5173088312149048,-1.9314680099487305,-0.5460575222969055
512.0,-0.059980638325214386,0.4485555589199066,-0.9493382573127747,-0.48977208137512207,-1.9097206592559814,-0.469386488199234
513.0,-0.07689303159713745,0.39390885829925537,-0.8309411406517029,-0.4394432306289673,-1.8592537641525269,-0.3292243182659149
514.0,-0.09605348855257034,0.3667527735233307,-0.7744293808937073,-0.41899681091308594,-1.7870460748672485,-0.22896741330623627
515.0,-0.10713930428028107,0.374589741230011,-0.7991013526916504,-0.42617592215538025,-1.7464734315872192,-0.1966531127691269
516.0,-0.11946070194244385,0.34037190675735474,-0.7167558073997498,-0.39901086688041687,-1.6997795104980469,-0.1254161298274994
517.0,-0.13155357539653778,0.3414772152900696,-0.7207155227661133,-0.39629191160202026,-1.654983401298523,-0.08225826919078827
518.0,-0.14311583340168,0.3428027629852295,-0.7243921160697937,-0.3926243484020233,-1.6123844385147095,-0.04063398018479347
519.0,-0.15805086493492126,0.34973129630088806,-0.7410625219345093,-0.38891783356666565,-1.5616124868392944,0.009089406579732895
520.0,-0.16687126457691193,0.348058819770813,-0.73532634973526,-0.3809409737586975,-1.5357367992401123,0.03385453298687935
521.0,-0.15656733512878418,0.2802848517894745,-0.5638793706893921,-0.35703667998313904,-1.5659252405166626,0.0036315228790044785
522.0,-0.14817070960998535,0.2801075577735901,-0.5644267201423645,-0.3618565499782562,-1.5940842628479004,-0.017560074105858803
523.0,-0.13748681545257568,0.28986260294914246,-0.5896318554878235,-0.3692772090435028,-1.6323163509368896,-0.048575159162282944
524.0,-0.11260701715946198,0.28713056445121765,-0.5807138085365295,-0.37526562809944153,-1.7231117486953735,-0.11935247480869293
525.0,-0.10313300788402557,0.3235127627849579,-0.6690612435340881,-0.39042913913726807,-1.7592633962631226,-0.1680922508239746
526.0,-0.09125122427940369,0.33000868558883667,-0.6798581480979919,-0.39295244216918945,-1.8031924962997437,-0.20840924978256226
527.0,-0.10347282141447067,0.2511265277862549,-0.4864220917224884,-0.3695690929889679,-1.7541048526763916,-0.12535236775875092
528.0,-0.09534157812595367,0.2602290213108063,-0.5058645606040955,-0.37003299593925476,-1.7834620475769043,-0.14821135997772217
529.0,-0.07387468218803406,0.3116661608219147,-0.6241775751113892,-0.3798653781414032,-1.8626126050949097,-0.23421570658683777
530.0,-0.06493942439556122,0.2824935019016266,-0.5448030829429626,-0.36566635966300964,-1.887449026107788,-0.22233571112155914
531.0,-0.0724518895149231,0.2578328251838684,-0.48702800273895264,-0.3671703338623047,-1.8620895147323608,-0.1925346553325653
532.0,-0.08129648864269257,0.2470768690109253,-0.46254095435142517,-0.3739715814590454,-1.8316457271575928,-0.17078839242458344
533.0,-0.08879277855157852,0.24302776157855988,-0.4586203694343567,-0.37091758847236633,-1.8052048683166504,-0.15313658118247986
534.0,-0.11172759532928467,0.2289923131465912,-0.4308256208896637,-0.3753597140312195,-1.723038911819458,-0.0984332337975502
535.0,-0.11859840899705887,0.2255006581544876,-0.42051008343696594,-0.37962856888771057,-1.6978660821914673,-0.0818769559264183
536.0,-0.09888671338558197,0.23567426204681396,-0.44186931848526,-0.3766247034072876,-1.768497347831726,-0.12876206636428833
537.0,-0.10862419754266739,0.22867046296596527,-0.42462581396102905,-0.3830133378505707,-1.733060359954834,-0.10521639883518219
538.0,-0.11908837407827377,0.2229892462491989,-0.4094161093235016,-0.38842687010765076,-1.6949563026428223,-0.0800575539469719
539.0,-0.10820617526769638,0.22659045457839966,-0.41447314620018005,-0.39169982075691223,-1.7334492206573486,-0.1056048795580864
540.0,-0.100893035531044,0.23188583552837372,-0.42729902267456055,-0.38711124658584595,-1.7600446939468384,-0.12330194562673569
541.0,-0.09107016026973724,0.239101380109787,-0.4437437057495117,-0.38157129287719727,-1.7957698106765747,-0.1470748484134674
542.0,-0.07551147788763046,0.25192874670028687,-0.46902182698249817,-0.3770138621330261,-1.849674940109253,-0.18385568261146545
543.0,-0.08336444199085236,0.2437511533498764,-0.45050498843193054,-0.382405549287796,-1.823240041732788,-0.16540645062923431
544.0,-0.09416676312685013,0.2348167449235916,-0.42924684286117554,-0.39106079936027527,-1.7835613489151,-0.13910652697086334
545.0,-0.08615312725305557,0.23897728323936462,-0.4334643483161926,-0.39428168535232544,-1.81185781955719,-0.158089742064476
546.0,-0.10810361802577972,0.22245682775974274,-0.3962499499320984,-0.4065477252006531,-1.7319912910461426,-0.10484541207551956
547.0,-0.09418554604053497,0.23113101720809937,-0.41264909505844116,-0.4046589732170105,-1.7818865776062012,-0.13824470341205597
548.0,-0.08476291596889496,0.2374524027109146,-0.42334407567977905,-0.40447714924812317,-1.8146253824234009,-0.16038373112678528
549.0,-0.07994598150253296,0.2432089000940323,-0.43922317028045654,-0.3967956602573395,-1.830684781074524,-0.17140667140483856
550.0,-0.0744190365076065,0.251591295003891,-0.4601026773452759,-0.3892904818058014,-1.8495278358459473,-0.18519756197929382
551.0,-0.0680442675948143,0.2616513967514038,-0.48176124691963196,-0.385550856590271,-1.8705047369003296,-0.20166948437690735
552.0,-0.06261841952800751,0.27100247144699097,-0.5062721371650696,-0.3757179081439972,-1.8904412984848022,-0.21662960946559906
553.0,-0.06837375462055206,0.2628818154335022,-0.49228471517562866,-0.37357375025749207,-1.8729639053344727,-0.20209833979606628
554.0,-0.05558311194181442,0.28171125054359436,-0.5291521549224854,-0.3720436096191406,-1.913817048072815,-0.2354029417037964
555.0,-0.03725377842783928,0.312922865152359,-0.5954614877700806,-0.36259496212005615,-1.9738399982452393,-0.2870166301727295
556.0,-0.026894474402070045,0.3319368362426758,-0.6363736987113953,-0.35683298110961914,-2.0089173316955566,-0.3188537657260895
557.0,-0.03105434961616993,0.3379139304161072,-0.6574403047561646,-0.361298531293869,-1.9967901706695557,-0.3230016529560089
558.0,-0.04387785494327545,0.300874263048172,-0.5718168020248413,-0.3632204532623291,-1.9529839754104614,-0.26772403717041016
559.0,-0.06148408353328705,0.2737707495689392,-0.5177621245384216,-0.36674490571022034,-1.896675944328308,-0.2204618752002716
560.0,-0.0545167401432991,0.2843093276023865,-0.5408158898353577,-0.3624468445777893,-1.9200645685195923,-0.2391035258769989
561.0,-0.04207968711853027,0.333568274974823,-0.6559345126152039,-0.37038519978523254,-1.960864543914795,-0.3057050108909607
562.0,-0.03719764202833176,0.38944166898727417,-0.7905954122543335,-0.40721413493156433,-1.9752017259597778,-0.3907880485057831
563.0,-0.04788783937692642,0.3291398584842682,-0.6497355699539185,-0.3737146854400635,-1.9441587924957275,-0.29484105110168457
564.0,-0.05462781339883804,0.33751267194747925,-0.6756640672683716,-0.3828757405281067,-1.9228118658065796,-0.2942359149456024
565.0,-0.058591362088918686,0.3824809193611145,-0.7901957035064697,-0.4191352427005768,-1.9113317728042603,-0.3481166660785675
566.0,-0.06671993434429169,0.37484657764434814,-0.7772324085235596,-0.41717708110809326,-1.8882306814193726,-0.32254940271377563
567.0,-0.05089067295193672,0.4222555458545685,-0.8811721205711365,-0.45487964153289795,-1.9361964464187622,-0.4338328540325165
568.0,-0.046555571258068085,0.4462217688560486,-0.9343589544296265,-0.4784983992576599,-1.947326898574829,-0.48945683240890503
569.0,-0.04080260545015335,0.43175235390663147,-0.8958601355552673,-0.4559682607650757,-1.964633822441101,-0.46686220169067383
570.0,-0.035066910088062286,0.44084569811820984,-0.9127456545829773,-0.4608745574951172,-1.9804202318191528,-0.49290505051612854
571.0,-0.028676463291049004,0.47083064913749695,-0.9772263169288635,-0.4926193356513977,-1.9963451623916626,-0.570404589176178
572.0,-0.03517532721161842,0.48601293563842773,-1.0164977312088013,-0.5187196731567383,-1.975667119026184,-0.6008790135383606
573.0,-0.04101337864995003,0.4696131944656372,-0.9839542508125305,-0.5021139979362488,-1.9606962203979492,-0.5506171584129333
574.0,-0.03988819569349289,0.5123404264450073,-1.077732801437378,-0.559882402420044,-1.9574565887451172,-0.6684046387672424
575.0,-0.045811980962753296,0.5028849244117737,-1.061407208442688,-0.5513946413993835,-1.9433223009109497,-0.632534921169281
576.0,-0.04619796574115753,0.5374432802200317,-1.1348382234573364,-0.6040700674057007,-1.9372164011001587,-0.746753990650177
577.0,-0.044796496629714966,0.560295045375824,-1.179938554763794,-0.6380531191825867,-1.9338253736495972,-0.8315590620040894
578.0,-0.049648966640233994,0.5885660648345947,-1.2372212409973145,-0.6877092123031616,-1.9114160537719727,-0.9501488208770752
579.0,-0.051743656396865845,0.6146200895309448,-1.2862979173660278,-0.7329550385475159,-1.8951138257980347,-1.08633553981781
580.0,-0.05565199628472328,0.5750093460083008,-1.2147296667099,-0.6701755523681641,-1.901855707168579,-0.8831532001495361
581.0,-0.05603055655956268,0.6023302674293518,-1.2659721374511719,-0.7163587212562561,-1.8916674852371216,-1.0213130712509155
582.0,-0.059567954391241074,0.6259185075759888,-1.3098658323287964,-0.7570223212242126,-1.874147891998291,-1.1587485074996948
583.0,-0.061229754239320755,0.6564695835113525,-1.3635932207107544,-0.803478479385376,-1.8517085313796997,-1.356738567352295
584.0,-0.054125308990478516,0.6386457085609436,-1.330531120300293,-0.7689689993858337,-1.8747934103012085,-1.2174965143203735
585.0,-0.046255484223365784,0.6193185448646545,-1.2925760746002197,-0.7333292961120605,-1.9039433002471924,-1.1018000841140747
586.0,-0.0438147597014904,0.6301507353782654,-1.3110616207122803,-0.7476586699485779,-1.9030603170394897,-1.157130479812622
587.0,-0.042251117527484894,0.6399530172348022,-1.3282462358474731,-0.7583520412445068,-1.8993746042251587,-1.2017922401428223
588.0,-0.042965102940797806,0.6546282172203064,-1.3549166917800903,-0.7770719528198242,-1.886766791343689,-1.2779021263122559
589.0,-0.036519236862659454,0.6367502212524414,-1.3201022148132324,-0.7470824718475342,-1.9152953624725342,-1.1745625734329224
590.0,-0.039693281054496765,0.6624763011932373,-1.3675521612167358,-0.7834190130233765,-1.8887733221054077,-1.312836766242981
591.0,-0.03189990296959877,0.655101478099823,-1.3516435623168945,-0.7641990184783936,-1.9124523401260376,-1.2522212266921997
592.0,-0.029387183487415314,0.6364622712135315,-1.316698670387268,-0.7356205582618713,-1.932307481765747,-1.154943823814392
593.0,-0.030038565397262573,0.6091691851615906,-1.2662767171859741,-0.6963542699813843,-1.9483840465545654,-1.0311453342437744
594.0,-0.04197263717651367,0.5863797664642334,-1.2292896509170532,-0.6751415729522705,-1.9292575120925903,-0.9362152218818665
595.0,-0.03705185279250145,0.5970599055290222,-1.2470225095748901,-0.6865214109420776,-1.936658501625061,-0.9824191331863403
596.0,-0.03608318418264389,0.5490376353263855,-1.1521849632263184,-0.6122877597808838,-1.9599299430847168,-0.7964181303977966
597.0,-0.031693000346422195,0.5066574215888977,-1.0594576597213745,-0.5438849925994873,-1.9820119142532349,-0.6617813110351562
598.0,-0.026930075138807297,0.5120807886123657,-1.0678110122680664,-0.5451162457466125,-1.992856502532959,-0.6787121891975403
599.0,-0.019988836720585823,0.5468162894248962,-1.1365035772323608,-0.5892994403839111,-2.0047872066497803,-0.7941823601722717
600.0,-0.018122326582670212,0.5064871907234192,-1.048649787902832,-0.5271198153495789,-2.0210487842559814,-0.670922577381134
601.0,-0.02228657342493534,0.4841090142726898,-1.0021477937698364,-0.501847505569458,-2.013092279434204,-0.6084993481636047
602.0,-0.016319161280989647,0.45115387439727783,-0.9210458993911743,-0.44893524050712585,-2.0363330841064453,-0.5316200256347656
603.0,-0.028249148279428482,0.3938612937927246,-0.7939271926879883,-0.4017201066017151,-2.004769802093506,-0.40988266468048096
604.0,-0.02256760746240616,0.4088952839374542,-0.8256433606147766,-0.4097744822502136,-2.022338628768921,-0.44247251749038696
605.0,-0.015914641320705414,0.3866325616836548,-0.7647818326950073,-0.3777768611907959,-2.043877601623535,-0.40570640563964844
606.0,-0.011285068467259407,0.41373497247695923,-0.8267930150032043,-0.39715126156806946,-2.0572750568389893,-0.45667192339897156
607.0,-0.004853690974414349,0.45493215322494507,-0.9194621443748474,-0.4360460042953491,-2.074474334716797,-0.5469638109207153
608.0,0.0011511851334944367,0.4785518944263458,-0.9687711596488953,-0.4561333954334259,-2.0891993045806885,-0.6023386120796204
609.0,0.0025928590912371874,0.5061662197113037,-1.0301594734191895,-0.4933345913887024,-2.086566209793091,-0.6736491322517395
610.0,0.0025928590912371874,0.5061662197113037,-1.0301594734191895,-0.4933345913887024,-2.086566209793091,-0.6736491322517395
611.0,0.0026778769679367542,0.49811941385269165,-1.0196235179901123,-0.49829745292663574,-2.0867085456848145,-0.6725438833236694
612.0,0.0027748625725507736,0.48455968499183655,-0.9968731999397278,-0.5085767507553101,-2.087002754211426,-0.6702547073364258
613.0,0.0028728055767714977,0.46623215079307556,-0.9625440835952759,-0.5238437652587891,-2.0874388217926025,-0.6668547987937927
614.0,0.0029702065512537956,0.4435795545578003,-0.9175662398338318,-0.5436913967132568,-2.0880038738250732,-0.6624345183372498
615.0,0.0030666529200971127,0.41700905561447144,-0.8629017472267151,-0.5677030086517334,-2.0886857509613037,-0.6570863127708435
616.0,0.0031619274523109198,0.386923223733902,-0.7995155453681946,-0.5954614877700806,-2.0894720554351807,-0.6509026885032654
617.0,0.003255930496379733,0.35372477769851685,-0.7283726930618286,-0.6265500783920288,-2.0903513431549072,-0.6439760327339172
618.0,0.003348575672134757,0.31781670451164246,-0.6504385471343994,-0.6605530381202698,-2.091311454772949,-0.6363989114761353
619.0,0.0034396550618112087,0.2796039581298828,-0.5666781067848206,-0.6970555186271667,-2.0923397541046143,-0.6282637119293213
620.0,0.0035288005601614714,0.2394929826259613,-0.47805657982826233,-0.7356424927711487,-2.0934231281280518,-0.6196629405021667
621.0,0.0036155912093818188,0.19789105653762817,-0.38553735613822937,-0.7758961319923401,-2.0945496559143066,-0.6106897592544556
622.0,0.0036996996495872736,0.1552041620016098,-0.2900841236114502,-0.817400336265564,-2.095707893371582,-0.6014369130134583
623.0,0.0037809298373758793,0.1118369996547699,-0.1926611065864563,-0.8597372770309448,-2.0968852043151855,-0.5919976830482483
624.0,0.003859133692458272,0.06819403171539307,-0.0942336842417717,-0.9024920463562012,-2.098069906234741,-0.5824648141860962
625.0,0.003934089560061693,0.024681171402335167,0.004232387524098158,-0.9452500939369202,-2.0992496013641357,-0.5729323029518127
626.0,0.004005467053502798,-0.018293892964720726,0.10177232325077057,-0.987596869468689,-2.1004135608673096,-0.5634923577308655
627.0,0.004072877578437328,-0.06032252311706543,0.19742204248905182,-1.0291155576705933,-2.1015496253967285,-0.5542377233505249
628.0,0.004135963041335344,-0.1009964868426323,0.2902181148529053,-1.0693886280059814,-2.1026477813720703,-0.5452616214752197
629.0,0.004194431938230991,-0.13990887999534607,0.3791971206665039,-1.1079978942871094,-2.103696823120117,-0.5366570353507996
630.0,0.004248033743351698,-0.1766536980867386,0.46339553594589233,-1.1445271968841553,-2.104686737060547,-0.5285166501998901
631.0,0.004296513739973307,-0.21082527935504913,0.5418491959571838,-1.1785595417022705,-2.1056060791015625,-0.5209343433380127
632.0,0.004339599050581455,-0.242017924785614,0.6135927438735962,-1.2096765041351318,-2.1064438819885254,-0.5140026807785034
633.0,0.004377014935016632,-0.2698267102241516,0.677660346031189,-1.2374612092971802,-2.1071884632110596,-0.5078149437904358
634.0,0.00440851878374815,-0.29384705424308777,0.7330864071846008,-1.2614959478378296,-2.1078290939331055,-0.5024644732475281
635.0,0.004433893598616123,-0.3136753737926483,0.7789056301116943,-1.2813645601272583,-2.1083555221557617,-0.49804413318634033
636.0,0.004452932626008987,-0.32890865206718445,0.8141552209854126,-1.2966492176055908,-2.108757734298706,-0.49464577436447144
637.0,0.00446544773876667,-0.33915337920188904,0.8378921747207642,-1.3069416284561157,-2.1090264320373535,-0.4923582077026367
638.0,0.004471354186534882,-0.34409403800964355,0.8493534326553345,-1.3119115829467773,-2.1091554164886475,-0.49125388264656067
639.0,0.004471354186534882,-0.34409403800964355,0.8493534326553345,-1.3119115829467773,-2.1091554164886475,-0.49125388264656067
640.0,0.009991723112761974,-0.357260525226593,0.8816413283348083,-1.354647159576416,-2.12636661529541,-0.523347795009613
641.0,0.01588628999888897,-0.39620912075042725,0.9698070287704468,-1.4937360286712646,-2.1401402950286865,-0.6161791682243347
642.0,0.016686052083969116,-0.4303128123283386,1.0462610721588135,-1.6277810335159302,-2.1329572200775146,-0.7057319283485413
643.0,0.009298334829509258,-0.44377240538597107,1.0699139833450317,-1.6820534467697144,-2.1033358573913574,-0.7313608527183533
644.0,0.013670602813363075,-0.4667454659938812,1.1288434267044067,-1.78457510471344,-2.1073555946350098,-0.8158251047134399
645.0,0.01631041243672371,-0.4786968231201172,1.1609981060028076,-1.8411155939102173,-2.109630584716797,-0.8653702139854431
646.0,0.005823603365570307,-0.4883494973182678,1.1742347478866577,-1.8760383129119873,-2.072131872177124,-0.8764742016792297
647.0,0.0009307344444096088,-0.4591607451438904,1.0980993509292603,-1.7434005737304688,-2.0717289447784424,-0.7618981003761292
648.0,-0.007199072279036045,-0.4451686441898346,1.057762861251831,-1.6796810626983643,-2.052323341369629,-0.6988563537597656
649.0,-0.009936845861375332,-0.4324532151222229,1.0262565612792969,-1.6275423765182495,-2.0477797985076904,-0.6568269729614258
650.0,-0.007262146566063166,-0.47358468174934387,1.1250652074813843,-1.7991162538528442,-2.041814088821411,-0.7891857028007507
651.0,-0.0044836499728262424,-0.48917099833488464,1.1665269136428833,-1.8737441301345825,-2.043243885040283,-0.8585260510444641
652.0,-0.0032778482418507338,-0.5075855255126953,1.2154557704925537,-1.9642435312271118,-2.036219835281372,-0.9437358975410461
653.0,-0.009856076911091805,-0.5291538834571838,1.268452525138855,-2.069962501525879,-2.0018303394317627,-1.040698528289795
654.0,-0.008914249949157238,-0.5101114511489868,1.2168697118759155,-1.9731732606887817,-2.0193002223968506,-0.9438351988792419
655.0,-0.013214994221925735,-0.5046225190162659,1.1982452869415283,-1.941305160522461,-2.0113627910614014,-0.9051468968391418
656.0,-0.01786653883755207,-0.4949379861354828,1.1690138578414917,-1.891137719154358,-2.0049755573272705,-0.8503749370574951
657.0,-0.027210209518671036,-0.5018206238746643,1.1787158250808716,-1.917206883430481,-1.978273630142212,-0.8572660684585571
658.0,-0.026471197605133057,-0.5172105431556702,1.2208267450332642,-1.9961515665054321,-1.9703972339630127,-0.9374317526817322
659.0,-0.020851226523518562,-0.514098048210144,1.2169135808944702,-1.9835822582244873,-1.986148715019226,-0.9339730143547058
660.0,-0.020148681476712227,-0.5313112139701843,1.265972375869751,-2.076205015182495,-1.9743773937225342,-1.0346449613571167
661.0,-0.01791413500905037,-0.5369824767112732,1.284427523612976,-2.109213352203369,-1.9745129346847534,-1.0756758451461792
662.0,-0.020710362121462822,-0.5483596324920654,1.315873622894287,-2.170227289199829,-1.9552648067474365,-1.1459397077560425
663.0,-0.016205808147788048,-0.5484496355056763,1.3194254636764526,-2.1706948280334473,-1.9654709100723267,-1.1485098600387573
664.0,-0.016537852585315704,-0.5565626621246338,1.3445544242858887,-2.219197988510132,-1.9555236101150513,-1.2125768661499023
665.0,-0.007005778141319752,-0.5416693687438965,1.307645320892334,-2.141139030456543,-1.997588872909546,-1.1243168115615845
666.0,-0.005944602657109499,-0.54787278175354,1.3267239332199097,-2.173464059829712,-1.9933208227157593,-1.161201000213623
667.0,0.001262327074073255,-0.5330415964126587,1.2900352478027344,-2.099621534347534,-2.0285327434539795,-1.0869859457015991
668.0,-0.0031144898384809494,-0.5287846922874451,1.273718237876892,-2.0737760066986084,-2.020620584487915,-1.0545549392700195
669.0,0.0007979160873219371,-0.5097589492797852,1.2250195741653442,-1.9768471717834473,-2.045468330383301,-0.9607702493667603
670.0,0.006494234316051006,-0.509471595287323,1.2299920320510864,-1.9802017211914062,-2.0618059635162354,-0.9722776412963867
671.0,0.011175684630870819,-0.51260906457901,1.2435377836227417,-2.0015013217926025,-2.0738375186920166,-0.9999510049819946
672.0,0.008164049126207829,-0.530024528503418,1.2884799242019653,-2.0883467197418213,-2.0511815547943115,-1.0821679830551147
673.0,0.0008149961940944195,-0.5452892780303955,1.3253567218780518,-2.1636552810668945,-2.0151450634002686,-1.1557362079620361
674.0,-0.009095289744436741,-0.569142758846283,1.3900326490402222,-2.290327787399292,-1.9589438438415527,-1.308269739151001
675.0,-0.008510855957865715,-0.5614829659461975,1.365788459777832,-2.2452480792999268,-1.9699748754501343,-1.2466518878936768
676.0,-0.014969698153436184,-0.5621929168701172,1.3631857633590698,-2.250037431716919,-1.952408790588379,-1.2533587217330933
677.0,-0.01893223449587822,-0.5713356137275696,1.3891594409942627,-2.3002712726593018,-1.9297850131988525,-1.323816180229187
678.0,-0.02519950643181801,-0.5735952854156494,1.3916070461273193,-2.3097434043884277,-1.9113433361053467,-1.337888240814209
679.0,-0.02128012292087078,-0.580830991268158,1.4179115295410156,-2.348839044570923,-1.9109503030776978,-1.395455002784729
680.0,-0.025606412440538406,-0.5890291929244995,1.439902901649475,-2.3826003074645996,-1.8880589008331299,-1.4461455345153809
681.0,-0.030690474435687065,-0.5893886089324951,1.4395464658737183,-2.391782283782959,-1.8752976655960083,-1.473775029182434
682.0,-0.03845112770795822,-0.594450831413269,1.4518684148788452,-2.418750047683716,-1.8487311601638794,-1.53631591796875
683.0,-0.032265935093164444,-0.586080014705658,1.4271703958511353,-2.37286376953125,-1.8763478994369507,-1.4417295455932617
684.0,-0.03928852453827858,-0.5890939235687256,1.4342846870422363,-2.3948161602020264,-1.8553791046142578,-1.4955207109451294
685.0,-0.04514028877019882,-0.5935919880867004,1.444096565246582,-2.4100425243377686,-1.8414889574050903,-1.5287162065505981
686.0,-0.04343365132808685,-0.5973740220069885,1.4555563926696777,-2.4197945594787598,-1.8409466743469238,-1.5363956689834595
687.0,-0.04849565401673317,-0.5989593863487244,1.4560229778289795,-2.419104814529419,-1.8378759622573853,-1.5376334190368652
688.0,-0.046980276703834534,-0.6020776629447937,1.465612530708313,-2.427530527114868,-1.837076187133789,-1.5449576377868652
689.0,-0.048413150012493134,-0.6063670516014099,1.4762144088745117,-2.436154365539551,-1.834748387336731,-1.5535902976989746
690.0,-0.045175597071647644,-0.6044890880584717,1.4734095335006714,-2.434047222137451,-1.8362337350845337,-1.5491876602172852
691.0,-0.03942669555544853,-0.5982850193977356,1.4613739252090454,-2.4261720180511475,-1.8456788063049316,-1.5423870086669922
692.0,-0.0386117547750473,-0.6031404733657837,1.4751553535461426,-2.437746047973633,-1.8437912464141846,-1.5520116090774536
693.0,-0.03667318448424339,-0.5992465615272522,1.4660626649856567,-2.430530548095703,-1.84727144241333,-1.5448576211929321
694.0,-0.029639549553394318,-0.5975000858306885,1.463344693183899,-2.4170796871185303,-1.8649502992630005,-1.5034209489822388
695.0,-0.03462044149637222,-0.603879451751709,1.4799593687057495,-2.4417665004730225,-1.845529317855835,-1.5519636869430542
696.0,-0.036592889577150345,-0.6083824038505554,1.490706443786621,-2.450312376022339,-1.840469241142273,-1.5602564811706543
697.0,-0.028307484462857246,-0.604483425617218,1.4846560955047607,-2.4400222301483154,-1.860129952430725,-1.5324459075927734
698.0,-0.01972091570496559,-0.5973663926124573,1.4679527282714844,-2.4104933738708496,-1.8929836750030518,-1.4735207557678223
699.0,-0.0216837115585804,-0.5945760011672974,1.4593247175216675,-2.404597759246826,-1.8905938863754272,-1.472640037536621
700.0,-0.014553500339388847,-0.58689945936203,1.4404882192611694,-2.3722317218780518,-1.9200761318206787,-1.4194276332855225
701.0,-0.01733151078224182,-0.5842159390449524,1.4301084280014038,-2.3597183227539062,-1.9162195920944214,-1.4039247035980225
702.0,-0.008029865100979805,-0.5763366222381592,1.4125076532363892,-2.323047399520874,-1.9523059129714966,-1.348600149154663
703.0,-0.011052658781409264,-0.5897438526153564,1.451386570930481,-2.382826805114746,-1.926761269569397,-1.4292702674865723
704.0,-0.0009567776578478515,-0.580546498298645,1.4316223859786987,-2.3446919918060303,-1.968560814857483,-1.3737432956695557
705.0,-0.002424907870590687,-0.588970422744751,1.4561784267425537,-2.3816068172454834,-1.954439640045166,-1.4210907220840454
706.0,-0.0042040697298944,-0.5951052904129028,1.4739724397659302,-2.409210681915283,-1.9421875476837158,-1.4597270488739014
707.0,-0.014479350298643112,-0.6025906801223755,1.487850546836853,-2.4319281578063965,-1.903623342514038,-1.4970656633377075
708.0,-0.019927771762013435,-0.6022944450378418,1.4830549955368042,-2.4302337169647217,-1.8871121406555176,-1.5023447275161743
709.0,-0.024753207340836525,-0.6095088720321655,1.5012983083724976,-2.4545035362243652,-1.865755319595337,-1.5430004596710205
710.0,-0.02089095488190651,-0.6109212040901184,1.5072805881500244,-2.4560678005218506,-1.8771021366119385,-1.5340402126312256
711.0,-0.027621958404779434,-0.6169319152832031,1.5205193758010864,-2.474505662918091,-1.8513182401657104,-1.571236491203308
712.0,-0.03070448897778988,-0.6213011145591736,1.5304754972457886,-2.483530282974243,-1.8397682905197144,-1.5841898918151855
713.0,-0.03675151988863945,-0.6230994462966919,1.530849575996399,-2.4829776287078857,-1.8296849727630615,-1.5881037712097168
714.0,-0.03573446720838547,-0.6267633438110352,1.5417027473449707,-2.491898775100708,-1.8254332542419434,-1.5952588319778442
715.0,-0.03979282081127167,-0.6298659443855286,1.5473250150680542,-2.496066093444824,-1.8210294246673584,-1.602328896522522
716.0,-0.03964680805802345,-0.6333019137382507,1.5570199489593506,-2.5040361881256104,-1.8178592920303345,-1.6097122430801392
717.0,-0.036545902490615845,-0.6300729513168335,1.5502666234970093,-2.498735189437866,-1.8204593658447266,-1.6021333932876587
718.0,-0.03700057789683342,-0.6333334445953369,1.5590015649795532,-2.5057547092437744,-1.815602421760559,-1.6091094017028809
719.0,-0.037813086062669754,-0.6362746953964233,1.566778540611267,-2.5124125480651855,-1.8203438520431519,-1.615763783454895
720.0,-0.04310585558414459,-0.6345354318618774,1.5579818487167358,-2.504704475402832,-1.8197338581085205,-1.6132348775863647
721.0,-0.04278936982154846,-0.6310820579528809,1.5485807657241821,-2.4970316886901855,-1.8227487802505493,-1.6058287620544434
722.0,-0.04523417353630066,-0.6300612092018127,1.5438189506530762,-2.492621898651123,-1.8233826160430908,-1.6030689477920532
723.0,-0.04087226092815399,-0.6270241737365723,1.5386710166931152,-2.4889731407165527,-1.8243008852005005,-1.5968276262283325
724.0,-0.04172974079847336,-0.6246389746665955,1.531488060951233,-2.48313307762146,-1.8276853561401367,-1.5923916101455688
725.0,-0.038816891610622406,-0.6208667159080505,1.5231491327285767,-2.4764225482940674,-1.828977108001709,-1.5838921070098877
726.0,-0.037027422338724136,-0.6171461343765259,1.5142414569854736,-2.469309091567993,-1.8333572149276733,-1.5762579441070557
727.0,-0.032910626381635666,-0.6175476908683777,1.5184696912765503,-2.4734156131744385,-1.8384208679199219,-1.577214241027832
728.0,-0.030891885980963707,-0.6095825433731079,1.4982348680496216,-2.4571731090545654,-1.8470072746276855,-1.5624526739120483
729.0,-0.036489006131887436,-0.6131449937820435,1.5037084817886353,-2.4608118534088135,-1.8369046449661255,-1.5687124729156494
730.0,-0.04019260033965111,-0.6171072721481323,1.511888861656189,-2.4672675132751465,-1.8329185247421265,-1.5773167610168457
731.0,-0.04312284290790558,-0.6160368919372559,1.5066157579421997,-2.4621386528015137,-1.8324676752090454,-1.573747992515564
732.0,-0.04399191215634346,-0.6193534731864929,1.5150210857391357,-2.4687960147857666,-1.8297494649887085,-1.5799037218093872
733.0,-0.043638311326503754,-0.622302770614624,1.523496389389038,-2.4760329723358154,-1.8287348747253418,-1.5866446495056152
734.0,-0.04759138077497482,-0.6252851486206055,1.5287010669708252,-2.4797277450561523,-1.8252630233764648,-1.592703104019165
735.0,-0.04882670193910599,-0.6292216181755066,1.5387428998947144,-2.488029956817627,-1.8229237794876099,-1.6017025709152222
736.0,-0.052231620997190475,-0.6296735405921936,1.5375198125839233,-2.486743927001953,-1.8221299648284912,-1.6033610105514526
737.0,-0.05287160351872444,-0.6269506216049194,1.5294934511184692,-2.4799952507019043,-1.8235167264938354,-1.5974104404449463
738.0,-0.05554017052054405,-0.6238702535629272,1.5189039707183838,-2.4704911708831787,-1.8242777585983276,-1.5893815755844116
739.0,-0.051621854305267334,-0.6230033040046692,1.519454002380371,-2.4717137813568115,-1.8257646560668945,-1.5885051488876343
740.0,-0.047081347554922104,-0.6192069053649902,1.51224684715271,-2.4660401344299316,-1.8284809589385986,-1.5794442892074585
741.0,-0.04847709462046623,-0.6163199543952942,1.5032812356948853,-2.4584836959838867,-1.8296419382095337,-1.5736331939697266
742.0,-0.052063945680856705,-0.6195271015167236,1.5095665454864502,-2.463473081588745,-1.8275409936904907,-1.5811820030212402
743.0,-0.04697936400771141,-0.6126903295516968,1.4944183826446533,-2.4512484073638916,-1.831758975982666,-1.5658507347106934
744.0,-0.04311162233352661,-0.6119678020477295,1.4954500198364258,-2.4528536796569824,-1.8344581127166748,-1.5653290748596191
745.0,-0.04576785862445831,-0.6088382601737976,1.4847943782806396,-2.443387031555176,-1.8339650630950928,-1.5578597784042358
746.0,-0.04987013339996338,-0.6115460991859436,1.4892680644989014,-2.4468185901641846,-1.8319380283355713,-1.564212679862976
747.0,-0.05185193195939064,-0.6096377372741699,1.4824970960617065,-2.440502166748047,-1.831976294517517,-1.558584451675415
748.0,-0.05486170947551727,-0.615626871585846,1.4965879917144775,-2.451566696166992,-1.8281331062316895,-1.5700461864471436
749.0,-0.05654403194785118,-0.6204413771629333,1.5086214542388916,-2.4615375995635986,-1.8257696628570557,-1.5809507369995117
750.0,-0.059410832822322845,-0.6184658408164978,1.5011035203933716,-2.455049991607666,-1.8272000551223755,-1.5771684646606445
751.0,-0.05907212942838669,-0.6149472594261169,1.4916502237319946,-2.447033643722534,-1.8286387920379639,-1.5689705610275269
752.0,-0.056033700704574585,-0.6110997200012207,1.4833345413208008,-2.440333843231201,-1.8304771184921265,-1.5602926015853882
753.0,-0.05416041240096092,-0.6073516607284546,1.4744547605514526,-2.433012008666992,-1.8320881128311157,-1.5518789291381836
754.0,-0.05043228343129158,-0.6046605110168457,1.470007061958313,-2.4303359985351562,-1.8346763849258423,-1.548536777496338
755.0,-0.05535409599542618,-0.6043882369995117,1.465565800666809,-2.425546169281006,-1.8337339162826538,-1.5460714101791382
756.0,-0.05787423998117447,-0.6088610291481018,1.4758483171463013,-2.433767318725586,-1.8311758041381836,-1.5551972389221191
757.0,-0.06261727958917618,-0.6103399991989136,1.4761099815368652,-2.4325692653656006,-1.8275082111358643,-1.5550554990768433
758.0,-0.0591924712061882,-0.6054131388664246,1.4653551578521729,-2.4243693351745605,-1.831215500831604,-1.5460656881332397
759.0,-0.055749353021383286,-0.5987579822540283,1.449967861175537,-2.4122278690338135,-1.8354302644729614,-1.533427357673645
760.0,-0.05205095186829567,-0.6010676622390747,1.4589812755584717,-2.420496702194214,-1.835452914237976,-1.5394070148468018
761.0,-0.05142057687044144,-0.5973601341247559,1.4494361877441406,-2.4126405715942383,-1.8372443914413452,-1.5319552421569824
762.0,-0.05028891563415527,-0.592748761177063,1.4378836154937744,-2.403275966644287,-1.8396066427230835,-1.5231791734695435
763.0,-0.045950617641210556,-0.5890465378761292,1.431268572807312,-2.3990588188171387,-1.8430067300796509,-1.518918752670288
764.0,-0.03538765385746956,-0.58177250623703,1.4124888181686401,-2.356827974319458,-1.8758962154388428,-1.423026442527771
765.0,-0.025154804810881615,-0.5691068172454834,1.377880573272705,-2.288886547088623,-1.9177383184432983,-1.3094803094863892
766.0,-0.028772763907909393,-0.5679782032966614,1.3716347217559814,-2.2813236713409424,-1.9114704132080078,-1.298218011856079
767.0,-0.03542335331439972,-0.5769497156143188,1.396379828453064,-2.3297998905181885,-1.8834037780761719,-1.3765536546707153
768.0,-0.04150549694895744,-0.5783268213272095,1.3978309631347656,-2.3400816917419434,-1.8692320585250854,-1.4014921188354492
769.0,-0.04823894053697586,-0.5877682566642761,1.4260975122451782,-2.394028425216675,-1.8425027132034302,-1.5145972967147827
770.0,-0.052122846245765686,-0.587131679058075,1.4214509725570679,-2.3890583515167236,-1.8410805463790894,-1.5107250213623047
771.0,-0.048176027834415436,-0.5804376602172852,1.4026845693588257,-2.35953688621521,-1.8540723323822021,-1.451442837715149
772.0,-0.04966156184673309,-0.577100396156311,1.3899078369140625,-2.337700843811035,-1.857337236404419,-1.409680724143982
773.0,-0.054644256830215454,-0.584144115447998,1.4114950895309448,-2.3799352645874023,-1.8400893211364746,-1.5024418830871582
774.0,-0.055293336510658264,-0.590626060962677,1.4283605813980103,-2.3939952850341797,-1.8379300832748413,-1.5157827138900757
775.0,-0.055551934987306595,-0.5944573879241943,1.4384819269180298,-2.4025070667266846,-1.8367278575897217,-1.5239735841751099
776.0,-0.05918971076607704,-0.5962339043617249,1.4404217004776,-2.403092861175537,-1.8337057828903198,-1.525071382522583
777.0,-0.06012045592069626,-0.6006187796592712,1.4515635967254639,-2.412304401397705,-1.8318761587142944,-1.5342527627944946
778.0,-0.06296996027231216,-0.5999388694763184,1.4474831819534302,-2.407895803451538,-1.8304784297943115,-1.5301403999328613
779.0,-0.06292866170406342,-0.60489422082901,1.4609763622283936,-2.4194538593292236,-1.829016923904419,-1.5417286157608032
780.0,-0.06568906456232071,-0.6085315346717834,1.468726396560669,-2.4251513481140137,-1.8266295194625854,-1.5477228164672852
781.0,-0.06626137346029282,-0.6053903698921204,1.4597071409225464,-2.4172141551971436,-1.8273104429244995,-1.5396716594696045
782.0,-0.06924216449260712,-0.6039248704910278,1.4535634517669678,-2.41147518157959,-1.8272159099578857,-1.5354830026626587
783.0,-0.06745140999555588,-0.599275529384613,1.4421998262405396,-2.401864528656006,-1.828599214553833,-1.524324655532837
784.0,-0.06480380147695541,-0.5925143361091614,1.4260419607162476,-2.389028310775757,-1.8317910432815552,-1.5115853548049927
785.0,-0.06298895925283432,-0.5958449840545654,1.4364062547683716,-2.3984506130218506,-1.8316762447357178,-1.5207948684692383
786.0,-0.05961024388670921,-0.5905744433403015,1.4248502254486084,-2.3897688388824463,-1.8349101543426514,-1.512237310409546
787.0,-0.0585288442671299,-0.5864647626876831,1.4146820306777954,-2.3814995288848877,-1.8367458581924438,-1.5042506456375122
788.0,-0.0631985142827034,-0.5883956551551819,1.4162461757659912,-2.381287097930908,-1.8337355852127075,-1.5040993690490723
789.0,-0.06199062988162041,-0.5823748707771301,1.4011218547821045,-2.3689470291137695,-1.8360190391540527,-1.492371916770935
