Sungjin-Park-dev/vision_inspection/data/trajectory/5504/joint_trajectory_dp.csv
time,ur20-shoulder_pan_joint,ur20-shoulder_lift_joint,ur20-elbow_joint,ur20-wrist_1_joint,ur20-wrist_2_joint,ur20-wrist_3_joint,target-POS_X,target-POS_Y,target-POS_Z,target-ROT_X,target-ROT_Y,target-ROT_Z,target-ROT_W
0.0,0.10245367139577866,-0.5048180222511292,1.392189383506775,-2.1850578784942627,-2.4607837200164795,-1.2248238325119019,1.3264851570129395,0.21790733933448792,-0.04832766205072403,0.8947077989578247,-0.05044574290513992,-0.024982495233416557,0.44309061765670776
1.0,0.0994998887181282,-0.4934694766998291,1.3487865924835205,-2.092651844024658,-2.4426722526550293,-1.1458743810653687,1.3402658700942993,0.21708768606185913,-0.0513397678732872,0.8934492468833923,-0.075654536485672,-0.03735676407814026,0.4411681592464447
2.0,0.09516818821430206,-0.48295027017593384,1.3038091659545898,-1.9977635145187378,-2.42449951171875,-1.0668679475784302,1.3540318012237549,0.21433734893798828,-0.05138210952281952,0.8905397057533264,-0.10185311734676361,-0.05037928372621536,0.4404848515987396
3.0,0.09715190529823303,-0.48988041281700134,1.3281664848327637,-2.0459439754486084,-2.4353535175323486,-1.10758376121521,1.3467416763305664,0.21525517106056213,-0.05009029060602188,0.8919386863708496,-0.08816497772932053,-0.043623607605695724,0.4413270056247711
4.0,0.09882353991270065,-0.4971814453601837,1.3523255586624146,-2.0938594341278076,-2.446709394454956,-1.1488152742385864,1.339388370513916,0.21567785739898682,-0.04782724380493164,0.8928075432777405,-0.07450936734676361,-0.036945100873708725,0.44269418716430664
5.0,0.10050560534000397,-0.5022637248039246,1.372859001159668,-2.137991428375244,-2.4555063247680664,-1.1863151788711548,1.3329205513000488,0.21644610166549683,-0.04684995114803314,0.893531084060669,-0.062383100390434265,-0.030968230217695236,0.4435668885707855
6.0,0.09542622417211533,-0.49141785502433777,1.3214786052703857,-2.02494740486145,-2.4354774951934814,-1.0922960042953491,1.3489971160888672,0.21309885382652283,-0.0463164821267128,0.8905881643295288,-0.09294966608285904,-0.04621516540646553,0.4428061246871948
7.0,0.0931500792503357,-0.4850929081439972,1.2969335317611694,-1.975202202796936,-2.4252419471740723,-1.0510414838790894,1.3563177585601807,0.2117021381855011,-0.046618081629276276,0.8888457417488098,-0.10675118863582611,-0.05313490331172943,0.44241875410079956
8.0,0.09119810163974762,-0.47724196314811707,1.273401141166687,-1.9329559803009033,-2.413611888885498,-1.0151925086975098,1.363202691078186,0.2108374536037445,-0.04867393523454666,0.8874639868736267,-0.11936043947935104,-0.05933699756860733,0.4411800801753998
9.0,0.08792494982481003,-0.4699362814426422,1.2466590404510498,-1.8821877241134644,-2.400681734085083,-0.9732807874679565,1.370907187461853,0.20833560824394226,-0.04869394749403,0.8851604461669922,-0.13449206948280334,-0.0669102892279625,0.44037047028541565
10.0,0.08514385670423508,-0.4660119116306305,1.2280296087265015,-1.844659686088562,-2.3927714824676514,-0.9435212016105652,1.3761731386184692,0.20575301349163055,-0.04694758355617523,0.882925808429718,-0.14516408741474152,-0.07243900001049042,0.44059282541275024
11.0,0.08184874057769775,-0.4587423503398895,1.202185034751892,-1.7976248264312744,-2.3806238174438477,-0.9056084752082825,1.383287787437439,0.20303454995155334,-0.046398378908634186,0.8800474405288696,-0.1591513454914093,-0.07962226867675781,0.44028139114379883
12.0,0.07932792603969574,-0.45077866315841675,1.1792622804641724,-1.7602713108062744,-2.36879301071167,-0.8748636245727539,1.389479398727417,0.20126944780349731,-0.04749586433172226,0.8776984214782715,-0.17095214128494263,-0.08558846265077591,0.4394262433052063
13.0,0.07577420026063919,-0.44352754950523376,1.1556310653686523,-1.7205142974853516,-2.3561694622039795,-0.8427698016166687,1.3958081007003784,0.19812974333763123,-0.04718862473964691,0.8748354315757751,-0.18377037346363068,-0.09214109182357788,0.4386358857154846
14.0,0.07128950953483582,-0.43592867255210876,1.1282031536102295,-1.6728568077087402,-2.3421850204467773,-0.8053413033485413,1.4028733968734741,0.19385045766830444,-0.04540592432022095,0.8708406686782837,-0.19865186512470245,-0.1000002846121788,0.4383765161037445
15.0,0.06109295412898064,-0.463065505027771,1.1767274141311646,-1.7892906665802002,-2.2861838340759277,-0.8819779753684998,1.3981995582580566,0.1855061948299408,-0.03384069353342056,0.8902689814567566,-0.19876740872859955,-0.08928991109132767,0.39992496371269226
16.0,0.06476208567619324,-0.47559529542922974,1.2143757343292236,-1.8585424423217773,-2.295832633972168,-0.9399994611740112,1.3887674808502197,0.18894672393798828,-0.03309372812509537,0.8972203731536865,-0.1783488541841507,-0.07875886559486389,0.39621251821517944
17.0,0.0724020004272461,-0.47386685013771057,1.2221955060958862,-1.8584792613983154,-2.331401824951172,-0.9468554258346558,1.3835371732711792,0.1952265501022339,-0.03710133582353592,0.8929480910301208,-0.16461604833602905,-0.0759597197175026,0.412038117647171
18.0,0.06851892173290253,-0.492483913898468,1.265372633934021,-1.9539240598678589,-2.30131196975708,-1.0189698934555054,1.374956488609314,0.1926315724849701,-0.03175196051597595,0.9062783122062683,-0.15213099122047424,-0.06528442353010178,0.3889138400554657
19.0,0.08639617264270782,-0.4775363504886627,1.2581027746200562,-1.900852084159851,-2.398524284362793,-0.9896364808082581,1.3685799837112427,0.206236332654953,-0.043643638491630554,0.8872693777084351,-0.13144154846668243,-0.06479032337665558,0.43735381960868835
20.0,0.08629065752029419,-0.4901014566421509,1.2936434745788574,-1.9803391695022583,-2.3898167610168457,-1.0533835887908936,1.3602896928787231,0.20628958940505981,-0.04093179851770401,0.8954233527183533,-0.11628733575344086,-0.05534762144088745,0.4261818528175354
21.0,0.07922638952732086,-0.5134685039520264,1.3482563495635986,-2.1098132133483887,-2.337965726852417,-1.1571292877197266,1.3483519554138184,0.20124492049217224,-0.03304969519376755,0.9135915040969849,-0.09828685224056244,-0.04220610111951828,0.39231225848197937
22.0,0.08677548915147781,-0.5108196139335632,1.3588241338729858,-2.122447967529297,-2.378955841064453,-1.1711978912353516,1.3423577547073364,0.20655328035354614,-0.03724142909049988,0.9073299169540405,-0.08432226628065109,-0.0381133034825325,0.4101092219352722
23.0,0.07584718614816666,-0.5304878950119019,1.3965858221054077,-2.2189900875091553,-2.308891534805298,-1.2528941631317139,1.3352044820785522,0.19892093539237976,-0.028578706085681915,0.9250948429107666,-0.07299848645925522,-0.0293146800249815,0.3714989125728607
24.0,0.09013102948665619,-0.5192133188247681,1.3982127904891968,-2.2105324268341064,-2.390289068222046,-1.2486317157745361,1.3296583890914917,0.20876628160476685,-0.03722616285085678,0.9100479483604431,-0.05819045007228851,-0.026188267394900322,0.4095616936683655
25.0,0.0979088544845581,-0.5133463144302368,1.4019644260406494,-2.2079102993011475,-2.4372518062591553,-1.2455871105194092,1.3251808881759644,0.2139820009469986,-0.042408280074596405,0.9006107449531555,-0.04980367794632912,-0.023840079084038734,0.4311053454875946
26.0,0.0788392499089241,-0.538964033126831,1.4364349842071533,-2.303744077682495,-2.3181850910186768,-1.3312357664108276,1.3211159706115723,0.2007899284362793,-0.028679922223091125,0.9272505044937134,-0.044581856578588486,-0.01785432919859886,0.37134918570518494
27.0,0.07147663831710815,-0.5420002341270447,1.4267640113830566,-2.289759874343872,-2.2785215377807617,-1.3188668489456177,1.3272268772125244,0.19597384333610535,-0.024806685745716095,0.9336028099060059,-0.05565384402871132,-0.02106292173266411,0.35333412885665894
28.0,0.05763307213783264,-0.5525377988815308,1.4299209117889404,-2.3041269779205322,-2.2051613330841064,-1.3307613134384155,1.3307654857635498,0.1865149438381195,-0.017562322318553925,0.9457603096961975,-0.0639556348323822,-0.02148953080177307,0.317781925201416
29.0,0.06339871883392334,-0.5387539267539978,1.395381212234497,-2.2295596599578857,-2.243053436279297,-1.2593379020690918,1.3402893543243408,0.19020697474479675,-0.021755613386631012,0.9362363815307617,-0.08389025181531906,-0.030451638624072075,0.33984795212745667
30.0,0.05802077054977417,-0.5402023196220398,1.389314889907837,-2.224276542663574,-2.2172021865844727,-1.252945899963379,1.3444461822509766,0.1863374412059784,-0.019183143973350525,0.9397561550140381,-0.09149878472089767,-0.031918250024318695,0.32782262563705444
31.0,0.06872223317623138,-0.5207985639572144,1.3492772579193115,-2.1312408447265625,-2.281855344772339,-1.172471046447754,1.352863073348999,0.1936538964509964,-0.026696518063545227,0.9240986704826355,-0.10653787851333618,-0.04203280806541443,0.36458829045295715
32.0,0.07187943905591965,-0.5068124532699585,1.3127665519714355,-2.047830820083618,-2.30739426612854,-1.1007002592086792,1.3615171909332275,0.19563162326812744,-0.030671171844005585,0.9138285517692566,-0.12426228076219559,-0.05209333077073097,0.38309600949287415
33.0,0.06043571978807449,-0.5143503546714783,1.3135405778884888,-2.0668230056762695,-2.2490601539611816,-1.10831618309021,1.3659451007843018,0.18702878057956696,-0.024174697697162628,0.9234882593154907,-0.136917382478714,-0.05255661532282829,0.3544868528842926
34.0,0.055533166974782944,-0.5090683102607727,1.2907761335372925,-2.0315494537353516,-2.2324516773223877,-1.074831247329712,1.374598503112793,0.18277275562286377,-0.022733129560947418,0.9224128723144531,-0.15329039096832275,-0.05811208486557007,0.3496849238872528
35.0,0.045070573687553406,-0.5382108092308044,1.3599019050598145,-2.1803345680236816,-2.1653010845184326,-1.2036665678024292,1.3586336374282837,0.17596915364265442,-0.013967514038085938,0.9434422850608826,-0.12183161824941635,-0.039489686489105225,0.30580106377601624
36.0,0.05141418054699898,-0.5390278100967407,1.3731038570404053,-2.1999499797821045,-2.1886918544769287,-1.2263346910476685,1.3522026538848877,0.18134215474128723,-0.01651892066001892,0.9420437812805176,-0.10759175568819046,-0.036058373749256134,0.3157171607017517
37.0,0.0431218296289444,-0.5529493093490601,1.402823567390442,-2.262239694595337,-2.1463255882263184,-1.2852728366851807,1.3451247215270996,0.17516686022281647,-0.011330150067806244,0.9515769481658936,-0.09327542781829834,-0.028575453907251358,0.29152098298072815
38.0,0.045856647193431854,-0.5566501617431641,1.4194307327270508,-2.289313554763794,-2.1544110774993896,-1.3130295276641846,1.338161587715149,0.1775026023387909,-0.012149974703788757,0.9520707726478577,-0.08040586858987808,-0.024835605174303055,0.2940737307071686
39.0,0.03386392444372177,-0.5666587352752686,1.4315149784088135,-2.318692207336426,-2.101700782775879,-1.342769742012024,1.3377668857574463,0.1682656705379486,-0.006247498095035553,0.9602746963500977,-0.07811294496059418,-0.021720517426729202,0.2670193016529083
40.0,0.04239314794540405,-0.5673080086708069,1.4490537643432617,-2.345611810684204,-2.13372540473938,-1.3723078966140747,1.3285144567489624,0.17511576414108276,-0.009686723351478577,0.9575141072273254,-0.05999493971467018,-0.017639493569731712,0.28152480721473694
41.0,0.056931670755147934,-0.5600365400314331,1.4553474187850952,-2.3548789024353027,-2.1960699558258057,-1.3822451829910278,1.32193124294281,0.18620604276657104,-0.016486823558807373,0.9491224884986877,-0.0454183891415596,-0.014894661493599415,0.3112584948539734
42.0,0.05666743218898773,-0.5645156502723694,1.4715572595596313,-2.3856687545776367,-2.1932685375213623,-1.413573145866394,1.3158668279647827,0.18586131930351257,-0.01599907875061035,0.9504525065422058,-0.03370141237974167,-0.01095107477158308,0.3088439106941223
43.0,0.05958867818117142,-0.5675474405288696,1.4917402267456055,-2.425081491470337,-2.205092430114746,-1.4531834125518799,1.3072525262832642,0.18774475157260895,-0.017029806971549988,0.9494648575782776,-0.016650699079036713,-0.005495778284966946,0.31338322162628174
44.0,0.05835411697626114,-0.5724695324897766,1.508545160293579,-2.4583349227905273,-2.196972608566284,-1.4880995750427246,1.3010207414627075,0.1867671012878418,-0.016129881143569946,0.9511273503303528,-0.004102567210793495,-0.001331835170276463,0.3087688386440277
45.0,0.08037431538105011,-0.545451283454895,1.4675260782241821,-2.3697659969329834,-2.322361469268799,-1.3915265798568726,1.3094813823699951,0.2014322280883789,-0.028603404760360718,0.9284400939941406,-0.023343540728092194,-0.009318680502474308,0.37063083052635193
46.0,0.08940844237804413,-0.5316681265830994,1.443590760231018,-2.312453031539917,-2.378948926925659,-1.3373347520828247,1.3147850036621094,0.20766502618789673,-0.03490743041038513,0.9161666035652161,-0.03258451074361801,-0.014198669232428074,0.39921876788139343
47.0,0.09069641679525375,-0.5371567010879517,1.4754852056503296,-2.3909912109375,-2.382378101348877,-1.4086134433746338,1.3035544157028198,0.20799490809440613,-0.03461446613073349,0.9174351096153259,-0.009488377720117569,-0.004113656468689442,0.3977510631084442
48.0,0.08724565804004669,-0.5454301238059998,1.5026103258132935,-2.45863938331604,-2.35933780670166,-1.4731996059417725,1.294963002204895,0.2051679790019989,-0.03180895745754242,0.9227786660194397,0.008539004251360893,0.003564656712114811,0.3852193057537079
49.0,0.09174737334251404,-0.5427501797676086,1.5185235738754272,-2.503551959991455,-2.3867475986480713,-1.5117685794830322,1.2875947952270508,0.20745161175727844,-0.034421078860759735,0.9174511432647705,0.02354489453136921,0.010188884101808071,0.3970204293727875
50.0,0.07235407829284668,-0.5647392272949219,1.531754970550537,-2.5193912982940674,-2.2725605964660645,-1.5422663688659668,1.2882556915283203,0.1950286626815796,-0.022977560758590698,0.9387352466583252,0.023739520460367203,0.008692042902112007,0.34371069073677063
51.0,0.06518437713384628,-0.5749953389167786,1.5504975318908691,-2.551156759262085,-2.233072280883789,-1.578696846961975,1.282239317893982,0.1900452971458435,-0.0191742405295372,0.945067822933197,0.0337601937353611,0.011606932617723942,0.32491931319236755
52.0,0.08669769763946533,-0.5511825680732727,1.541393756866455,-2.5588293075561523,-2.3557825088500977,-1.5677146911621094,1.2802886962890625,0.20356202125549316,-0.03106965869665146,0.9231330156326294,0.03903381898999214,0.016158971935510635,0.3821526765823364
53.0,0.07912790030241013,-0.5633698105812073,1.5663926601409912,-2.605560302734375,-2.311145305633545,-1.6178330183029175,1.2718076705932617,0.19806785881519318,-0.026522763073444366,0.9306547045707703,0.05303303152322769,0.02059701830148697,0.36144858598709106
54.0,0.06326849013566971,-0.5813103914260864,1.5807380676269531,-2.6167993545532227,-2.224247455596924,-1.6473151445388794,1.2699743509292603,0.18786801397800446,-0.01827649027109146,0.9450516700744629,0.05866925045847893,0.019927559420466423,0.32099559903144836
55.0,0.06978115439414978,-0.5757266283035278,1.597001075744629,-2.6699931621551514,-2.2628989219665527,-1.6925442218780518,1.2614482641220093,0.1909509301185608,-0.021841101348400116,0.9369617104530334,0.07673045247793198,0.02782440185546875,0.3397660255432129
56.0,0.07522378116846085,-0.5699043869972229,1.6099117994308472,-2.7167036533355713,-2.2958407402038574,-1.7297320365905762,1.2542625665664673,0.1934816539287567,-0.02504681795835495,0.9294952750205994,0.09042660892009735,0.03462369367480278,0.35589709877967834
57.0,0.09657509624958038,-0.5406173467636108,1.5916911363601685,-2.7227210998535156,-2.420766830444336,-1.704689860343933,1.2555955648422241,0.20711641013622284,-0.0378216877579689,0.9062418341636658,0.08397408574819565,0.03822936490178108,0.4125683009624481
58.0,0.0923757404088974,-0.5472522974014282,1.5751034021377563,-2.6574819087982178,-2.3918228149414062,-1.651107907295227,1.2642360925674438,0.20557141304016113,-0.03467272222042084,0.9141173958778381,0.06734295934438705,0.029374951496720314,0.3987372815608978
59.0,0.09618924558162689,-0.5411320924758911,1.5524731874465942,-2.6003050804138184,-2.413782835006714,-1.5951271057128906,1.272532343864441,0.20897576212882996,-0.03701864182949066,0.9110090136528015,0.05124083161354065,0.02297911047935486,0.4085448682308197
60.0,0.10830359160900116,-0.5233717560768127,1.5352836847305298,-2.569437026977539,-2.4921398162841797,-1.5541330575942993,1.2750378847122192,0.21720722317695618,-0.04611460864543915,0.894659161567688,0.0439751110970974,0.02182604745030403,0.44404375553131104
61.0,0.1083974838256836,-0.5235661268234253,1.5588937997817993,-2.645876169204712,-2.492264747619629,-1.6206903457641602,1.2652555704116821,0.216252863407135,-0.04632110148668289,0.8934445977210999,0.061996180564165115,0.030795816332101822,0.4438072144985199
62.0,0.10790669918060303,-0.5231871604919434,1.5751460790634155,-2.7015018463134766,-2.490321636199951,-1.6696912050247192,1.2583547830581665,0.2150554358959198,-0.04652271419763565,0.8924834132194519,0.0750531479716301,0.037273142486810684,0.4432280361652374
63.0,0.10802259296178818,-0.5209425687789917,1.5868160724639893,-2.7446963787078857,-2.4864189624786377,-1.7067204713821411,1.252790927886963,0.2149687260389328,-0.0487426221370697,0.8919623494148254,0.0852983146905899,0.04226594418287277,0.4419739246368408
64.0,0.10659792274236679,-0.5207098126411438,1.6080812215805054,-2.820756196975708,-2.483206272125244,-1.7752814292907715,1.243401050567627,0.21245069801807404,-0.047431014478206635,0.8895062804222107,0.10327035933732986,0.05133067071437836,0.44213029742240906
65.0,0.10527466982603073,-0.5201495289802551,1.6231727600097656,-2.876615524291992,-2.4795334339141846,-1.8258215188980103,1.2364442348480225,0.21039001643657684,-0.04652305692434311,0.8874168992042542,0.11646263301372528,0.058036115020513535,0.44222110509872437
66.0,0.08868782967329025,-0.5504869818687439,1.628949761390686,-2.815690279006958,-2.3785548210144043,-1.799169659614563,1.2410129308700562,0.20018652081489563,-0.033715732395648956,0.9100273847579956,0.11240815371274948,0.0489155575633049,0.3960076868534088
67.0,0.09561819583177567,-0.5348992943763733,1.6411411762237549,-2.8994486331939697,-2.4261155128479004,-1.8619099855422974,1.2320125102996826,0.20308847725391388,-0.03935064375400543,0.8963090777397156,0.12860792875289917,0.060273926705121994,0.4200679361820221
68.0,0.09626186639070511,-0.513049840927124,1.681509017944336,-3.112063407897949,-2.445213556289673,-2.0422470569610596,1.207170009613037,0.19957470893859863,-0.04526478052139282,0.876594603061676,0.17399199306964874,0.08735169470310211,0.4400893449783325
69.0,0.09554990381002426,-0.5243083834648132,1.6673004627227783,-3.0243396759033203,-2.4357666969299316,-1.969857096672058,1.2172051668167114,0.20060795545578003,-0.04182057082653046,0.8855800032615662,0.15673232078552246,0.07620053738355637,0.43055373430252075
70.0,0.08052664995193481,-0.5585461854934692,1.6545525789260864,-2.8783462047576904,-2.338397979736328,-1.8707306385040283,1.2316091060638428,0.1935497224330902,-0.030085012316703796,0.912907600402832,0.135530024766922,0.05653855949640274,0.38083428144454956
71.0,0.0733996331691742,-0.5712867379188538,1.643545150756836,-2.8103597164154053,-2.2938663959503174,-1.8206924200057983,1.2392646074295044,0.1902935802936554,-0.025156058371067047,0.9246896505355835,0.12084508687257767,0.046784695237874985,0.3579898774623871
72.0,0.07434747368097305,-0.5658707022666931,1.6691590547561646,-2.902275323867798,-2.3087003231048584,-1.903196930885315,1.2263904809951782,0.18881309032440186,-0.02721206098794937,0.915836751461029,0.14694663882255554,0.05920277535915375,0.36897799372673035
73.0,0.07329068332910538,-0.5644806623458862,1.685055136680603,-2.9528467655181885,-2.3096201419830322,-1.9490411281585693,1.2183443307876587,0.186806321144104,-0.02764587104320526,0.9116550087928772,0.16109561920166016,0.06578747928142548,0.372297465801239
74.0,0.05460916459560394,-0.5941085815429688,1.673867106437683,-2.83624529838562,-2.20534086227417,-1.877673625946045,1.229587435722351,0.17690637707710266,-0.016494929790496826,0.9357873797416687,0.1416005790233612,0.048307325690984726,0.31924575567245483
75.0,0.053355321288108826,-0.596373438835144,1.6573314666748047,-2.7851791381835938,-2.1931121349334717,-1.8301092386245728,1.2377256155014038,0.17731593549251556,-0.01514384150505066,0.941257655620575,0.12460831552743912,0.04119068756699562,0.31114333868026733
76.0,0.0542280375957489,-0.5953645706176758,1.636489748954773,-2.7316904067993164,-2.190460443496704,-1.7751232385635376,1.2471481561660767,0.17924919724464417,-0.014807991683483124,0.945097029209137,0.10446369647979736,0.03401842340826988,0.307769238948822
77.0,0.05830126255750656,-0.5906290411949158,1.6249676942825317,-2.711559534072876,-2.2067930698394775,-1.7487456798553467,1.2514756917953491,0.18258044123649597,-0.01650935411453247,0.9438686370849609,0.09526973217725754,0.03176288306713104,0.31468531489372253
78.0,0.05367979034781456,-0.5932990908622742,1.6064265966415405,-2.6601452827453613,-2.181952476501465,-1.7031095027923584,1.2609184980392456,0.18037354946136475,-0.013923995196819305,0.9499272704124451,0.07708308845758438,0.02449173852801323,0.3018220067024231
79.0,0.044853050261735916,-0.603653073310852,1.6270041465759277,-2.690474510192871,-2.1464059352874756,-1.7464752197265625,1.2534472942352295,0.17338383197784424,-0.01010306179523468,0.9534446597099304,0.09181132167577744,0.027533456683158875,0.28593018651008606
80.0,0.04359932243824005,-0.6059281229972839,1.6459572315216064,-2.7341818809509277,-2.1464366912841797,-1.7947359085083008,1.245132565498352,0.17143604159355164,-0.010063163936138153,0.9508252143859863,0.11030072718858719,0.033350829035043716,0.28749412298202515
81.0,0.032197821885347366,-0.6151432394981384,1.6305007934570312,-2.67478084564209,-2.092669725418091,-1.747195839881897,1.2541099786758423,0.16453857719898224,-0.0045506954193115234,0.9611450433731079,0.08912031352519989,0.024121534079313278,0.26014599204063416
82.0,0.03381782025098801,-0.6110419631004333,1.6117826700210571,-2.6399378776550293,-2.0955100059509277,-1.7067047357559204,1.2624332904815674,0.1664808690547943,-0.004965268075466156,0.9624947905540466,0.07297654449939728,0.019755186513066292,0.2605530917644501
83.0,0.04256187006831169,-0.6020472645759583,1.601033329963684,-2.632939577102661,-2.1312496662139893,-1.6892104148864746,1.2657979726791382,0.17299385368824005,-0.008682586252689362,0.9581061601638794,0.06852229684591293,0.01983831450343132,0.27738726139068604
84.0,0.03973397612571716,-0.6025723218917847,1.588500738143921,-2.601996660232544,-2.116579294204712,-1.657849907875061,1.2717865705490112,0.17156004905700684,-0.007267884910106659,0.9612014889717102,0.05490339174866676,0.01541589479893446,0.2698882520198822
85.0,0.03942824527621269,-0.5975913405418396,1.5616704225540161,-2.550417423248291,-2.1128363609313965,-1.6009163856506348,1.2836426496505737,0.17213143408298492,-0.007028527557849884,0.9629591107368469,0.03141793981194496,0.008733075112104416,0.26766854524612427
86.0,0.05479579046368599,-0.5872729420661926,1.5694552659988403,-2.5806937217712402,-2.181593656539917,-1.619095802307129,1.2768080234527588,0.18270866572856903,-0.014077842235565186,0.9525835514068604,0.0449749231338501,0.014192418195307255,0.3006000518798828
87.0,0.05300043895840645,-0.5852519869804382,1.551100730895996,-2.5417699813842773,-2.172987461090088,-1.579843282699585,1.2850815057754517,0.1819303035736084,-0.013242140412330627,0.9545730352401733,0.02886362187564373,0.008963526226580143,0.2964403033256531
88.0,0.05534578487277031,-0.579818069934845,1.5323445796966553,-2.5047614574432373,-2.1831252574920654,-1.5385105609893799,1.2922152280807495,0.1840762495994568,-0.014439865946769714,0.9533600211143494,0.013790130615234375,0.004360970109701157,0.3014891445636749
89.0,0.047532860189676285,-0.5838699340820312,1.5245912075042725,-2.485255241394043,-2.147480010986328,-1.5226564407348633,1.2973734140396118,0.17871488630771637,-0.010778404772281647,0.958635151386261,0.003442955669015646,0.0010222004493698478,0.2846151292324066
90.0,0.036512166261672974,-0.5957232117652893,1.544428825378418,-2.5174756050109863,-2.09930419921875,-1.5667775869369507,1.2918217182159424,0.17046529054641724,-0.005781911313533783,0.9651555418968201,0.015946676954627037,0.004314908757805824,0.26115524768829346
91.0,0.042463164776563644,-0.5836556553840637,1.5088906288146973,-2.452425479888916,-2.126218557357788,-1.4882358312606812,1.3048920631408691,0.17518839240074158,-0.00865357369184494,0.9613835215568542,-0.013298939913511276,-0.0038022350054234266,0.27486443519592285
92.0,0.04215027391910553,-0.5799814462661743,1.4934872388839722,-2.4234652519226074,-2.1263396739959717,-1.4558120965957642,1.3110806941986084,0.1750229001045227,-0.008730709552764893,0.9608903527259827,-0.02666281722486019,-0.007645600009709597,0.2755366563796997
93.0,0.037710435688495636,-0.5802160501480103,1.4852542877197266,-2.410911798477173,-2.108015298843384,-1.4444299936294556,1.3158378601074219,0.17176836729049683,-0.006853044033050537,0.9630681276321411,-0.03409688547253609,-0.009450271725654602,0.26692336797714233
94.0,0.03529953211545944,-0.5782060623168945,1.4734960794448853,-2.3922007083892822,-2.0988216400146484,-1.4249240159988403,1.3213777542114258,0.16999948024749756,-0.005948670208454132,0.9637506008148193,-0.043683622032403946,-0.011917945928871632,0.2629343867301941
95.0,0.029383478686213493,-0.5795425176620483,1.4669444561004639,-2.3816897869110107,-2.07551646232605,-1.4135767221450806,1.3255926370620728,0.1654026210308075,-0.003533080220222473,0.9662514328956604,-0.05227625370025635,-0.013626829721033573,0.25187236070632935
96.0,0.024246660992503166,-0.5878264904022217,1.486649751663208,-2.4152467250823975,-2.0506949424743652,-1.4534521102905273,1.3190416097640991,0.16178813576698303,-0.0012773200869560242,0.9702399373054504,-0.0387289822101593,-0.009533681906759739,0.23883818089962006
97.0,0.03038034960627556,-0.59095698595047,1.509328842163086,-2.4523727893829346,-2.0741212368011475,-1.4946246147155762,1.307985544204712,0.1663825362920761,-0.003399863839149475,0.9681869745254517,-0.017588935792446136,-0.004533867817372084,0.24956780672073364
98.0,0.02749091573059559,-0.5966614484786987,1.5246063470840454,-2.4771342277526855,-2.0605127811431885,-1.5248857736587524,1.3021987676620483,0.16427722573280334,-0.0021745115518569946,0.970098078250885,-0.0063156504184007645,-0.001579573261551559,0.24262599647045135
99.0,0.017884019762277603,-0.5976483225822449,1.5094021558761597,-2.4490013122558594,-2.02228045463562,-1.4940248727798462,1.3107614517211914,0.15714426338672638,0.0011480599641799927,0.9741793274879456,-0.024935705587267876,-0.005741859786212444,0.22432094812393188
100.0,0.013027997687458992,-0.6052177548408508,1.5281537771224976,-2.477692127227783,-2.000819444656372,-1.5323362350463867,1.3037856817245483,0.15367187559604645,0.0028897225856781006,0.9768853187561035,-0.01071151066571474,-0.0023408313281834126,0.2134828418493271
101.0,0.020321784541010857,-0.6046708226203918,1.5405274629592896,-2.50093150138855,-2.030179977416992,-1.5578932762145996,1.29691481590271,0.1589706838130951,0.000445440411567688,0.9737235307693481,0.004263244103640318,0.0009968987433239818,0.22769132256507874
102.0,0.027927514165639877,-0.6047347187995911,1.5581796169281006,-2.5339412689208984,-2.0629520416259766,-1.5913220643997192,1.2874860763549805,0.16410470008850098,-0.0022432804107666016,0.969607949256897,0.022313103079795837,0.005605383776128292,0.2435799390077591
103.0,0.018939122557640076,-0.6129602789878845,1.5714062452316284,-2.5515635013580322,-2.0262699127197266,-1.621504306793213,1.2835241556167603,0.15746094286441803,0.0009268522262573242,0.973616361618042,0.0313972644507885,0.007284955121576786,0.2259034812450409
104.0,0.030543141067028046,-0.6065477132797241,1.5730565786361694,-2.5612919330596924,-2.0747573375701904,-1.620437502861023,1.2802997827529907,0.1656644344329834,-0.0032400786876678467,0.9676926732063293,0.03582516312599182,0.00923324003815651,0.24940404295921326
105.0,0.026166120544075966,-0.6138302683830261,1.5944963693618774,-2.5957117080688477,-2.0595738887786865,-1.6648181676864624,1.2715096473693848,0.16187100112438202,-0.0016920119524002075,0.9686185121536255,0.052915699779987335,0.013247411698102951,0.24249303340911865
106.0,0.01932862028479576,-0.6158702969551086,1.5830793380737305,-2.568175792694092,-2.0288777351379395,-1.6389353275299072,1.2778323888778687,0.1574908196926117,0.0007849335670471191,0.972992479801178,0.039151642471551895,0.009146522730588913,0.22730843722820282
107.0,0.002890359377488494,-0.6232548952102661,1.57563316822052,-2.542877197265625,-1.9613341093063354,-1.6225122213363647,1.2840543985366821,0.14597216248512268,0.006175100803375244,0.9806345105171204,0.024868929758667946,0.004924895241856575,0.19419904053211212
108.0,0.011310841888189316,-0.6144245862960815,1.5609322786331177,-2.5309436321258545,-1.9941967725753784,-1.6039838790893555,1.2898496389389038,0.1522025465965271,0.0034920573234558105,0.9774423241615295,0.020317524671554565,0.004368847236037254,0.21017800271511078
109.0,0.002649674890562892,-0.6150800585746765,1.54635488986969,-2.503023624420166,-1.9578322172164917,-1.573319911956787,1.2979686260223389,0.14619991183280945,0.006264328956604004,0.9813306331634521,0.00244676205329597,0.00047949430881999433,0.19231227040290833
110.0,-0.004346637520939112,-0.6218962669372559,1.5589065551757812,-2.5162649154663086,-1.9318324327468872,-1.594736933708191,1.293287992477417,0.14087438583374023,0.008301794528961182,0.9837023615837097,0.008878284133970737,0.0016207637963816524,0.1795785278081894
111.0,-0.008220326155424118,-0.6268382668495178,1.5705831050872803,-2.530142068862915,-1.9188545942306519,-1.6165087223052979,1.2884132862091064,0.13778601586818695,0.009320199489593506,0.9847175478935242,0.01711084134876728,0.003011172404512763,0.1732909232378006
112.0,-0.014289678074419498,-0.6253585815429688,1.557777762413025,-2.5119059085845947,-1.8958022594451904,-1.5980058908462524,1.2956972122192383,0.13322892785072327,0.010879531502723694,0.9868000745773315,0.005671737715601921,0.0009301999234594405,0.1618412882089615
113.0,-0.02550096996128559,-0.6296136975288391,1.5586044788360596,-2.509241819381714,-1.85570228099823,-1.6044237613677979,1.2972384691238403,0.12459458410739899,0.013606101274490356,0.9898542165756226,0.0033508646301925182,0.0004808568919543177,0.14204637706279755
114.0,-0.03283645212650299,-0.6295487880706787,1.5515766143798828,-2.50026535987854,-1.8249990940093994,-1.6003782749176025,1.3020658493041992,0.11951446533203125,0.015027612447738647,0.9919246435165405,-0.002085735322907567,-0.00026664958568289876,0.12681202590465546
115.0,-0.018062923103570938,-0.623487651348114,1.5470452308654785,-2.4971814155578613,-1.882037878036499,-1.5800286531448364,1.3014878034591675,0.1302608996629715,0.011838763952255249,0.9879039525985718,-0.004581022076308727,-0.0007187426672317088,0.15499787032604218
116.0,-0.019496824592351913,-0.6213405132293701,1.5387535095214844,-2.4872045516967773,-1.8774964809417725,-1.567468285560608,1.3057655096054077,0.12898245453834534,0.012221813201904297,0.9882013201713562,-0.011201540939509869,-0.0017313590506091714,0.1527407020330429
117.0,-0.025988757610321045,-0.6219574213027954,1.5358293056488037,-2.487492084503174,-1.854836344718933,-1.580872654914856,1.3089635372161865,0.12378686666488647,0.013818949460983276,0.9898982048034668,-0.008075852878391743,-0.001154762809164822,0.1415451467037201
118.0,-0.016623202711343765,-0.6154211759567261,1.5244585275650024,-2.473954200744629,-1.8887330293655396,-1.5519906282424927,1.312433123588562,0.1309669464826584,0.01155322790145874,0.987240195274353,-0.017024829983711243,-0.0027298980858176947,0.15830202400684357
119.0,-0.006624887231737375,-0.61807781457901,1.5432251691818237,-2.4956870079040527,-1.9229660034179688,-1.570052146911621,1.3012090921401978,0.13915926218032837,0.00891229510307312,0.984530508518219,-0.003605062374845147,-0.000641440215986222,0.17517516016960144
120.0,-0.007794603705406189,-0.6146402359008789,1.5306602716445923,-2.479595899581909,-1.9197077751159668,-1.5496786832809448,1.3073673248291016,0.13806256651878357,0.009242430329322815,0.9847208857536316,-0.013609552755951881,-0.002399150747805834,0.17359085381031036
121.0,0.0027003418654203415,-0.6102550029754639,1.5294805765151978,-2.478456735610962,-1.9591197967529297,-1.5402604341506958,1.3055685758590698,0.14610227942466736,0.006234705448150635,0.981113851070404,-0.012539967894554138,-0.002466910984367132,0.19300851225852966
122.0,0.004015926271677017,-0.6055663824081421,1.5160890817642212,-2.4610371589660645,-1.9656181335449219,-1.518108606338501,1.3114540576934814,0.14691734313964844,0.0057989805936813354,0.9802854061126709,-0.02187129482626915,-0.004380218684673309,0.1963242143392563
123.0,-0.006554140709340572,-0.6104174256324768,1.5186715126037598,-2.4649457931518555,-1.925028920173645,-1.5301532745361328,1.3127520084381104,0.13887692987918854,0.008924558758735657,0.9840866923332214,-0.021984491497278214,-0.003938096109777689,0.17628006637096405
124.0,-0.004616039805114269,-0.6063895225524902,1.5087025165557861,-2.4541094303131104,-1.932969331741333,-1.5172162055969238,1.3171520233154297,0.14025190472602844,0.008410260081291199,0.983237624168396,-0.026906821876764297,-0.004933049436658621,0.18026505410671234
125.0,-0.014377893880009651,-0.6099559664726257,1.51004958152771,-2.4574623107910156,-1.8988561630249023,-1.5291439294815063,1.3188353776931763,0.13233572244644165,0.011031106114387512,0.9861986041069031,-0.02653895877301693,-0.004396259784698486,0.16336682438850403
126.0,-0.006852844264358282,-0.6037228107452393,1.4979851245880127,-2.440718650817871,-1.9275691509246826,-1.5012032985687256,1.3225682973861694,0.1380503624677658,0.009047329425811768,0.9834221601486206,-0.03544662147760391,-0.006405659485608339,0.17771701514720917
127.0,0.005869607906788588,-0.595734179019928,1.4858145713806152,-2.416581392288208,-1.9776177406311035,-1.459243893623352,1.3241406679153442,0.1477193832397461,0.005071952939033508,0.9780126810073853,-0.047247741371393204,-0.009801413863897324,0.20288605988025665
128.0,0.0005307316896505654,-0.5954753160476685,1.4796767234802246,-2.4128949642181396,-1.9588273763656616,-1.4599121809005737,1.3286337852478027,0.14332321286201477,0.006807535886764526,0.9797514081001282,-0.050049785524606705,-0.009890349581837654,0.19360889494419098
129.0,0.008246601559221745,-0.5990254282951355,1.500667691230774,-2.440068483352661,-1.984084963798523,-1.4903438091278076,1.3173942565917969,0.14989852905273438,0.004384472966194153,0.9780789017677307,-0.03200404718518257,-0.006729157641530037,0.2056504637002945
130.0,0.01678052358329296,-0.5902151465415955,1.4832422733306885,-2.411515712738037,-2.021359443664551,-1.451143741607666,1.322492003440857,0.15601962804794312,0.001359313726425171,0.9734095931053162,-0.04426321014761925,-0.010209565050899982,0.22452253103256226
131.0,0.019328584894537926,-0.5837989449501038,1.4653170108795166,-2.381761312484741,-2.035379648208618,-1.4143567085266113,1.3290517330169678,0.1575823575258255,0.00025869905948638916,0.9708077311515808,-0.058520328253507614,-0.013996399007737637,0.2321896255016327
132.0,0.014218253083527088,-0.5841732025146484,1.4591118097305298,-2.3731861114501953,-2.0163724422454834,-1.4037368297576904,1.332923173904419,0.1534668505191803,0.002006053924560547,0.9724107980728149,-0.06642075628042221,-0.015238857828080654,0.22309936583042145
133.0,0.02231014333665371,-0.5739848613739014,1.437479853630066,-2.335942029953003,-2.0532662868499756,-1.3612580299377441,1.339245319366455,0.15932555496692657,-0.0012152716517448425,0.9667208790779114,-0.07896918058395386,-0.019811928272247314,0.2425326555967331
134.0,0.013895099982619286,-0.5771997570991516,1.4370862245559692,-2.341015338897705,-2.0212082862854004,-1.3671327829360962,1.342076301574707,0.15248998999595642,0.0018716305494308472,0.9703367948532104,-0.08229334652423859,-0.019209852442145348,0.22650712728500366
135.0,0.023269135504961014,-0.5670194625854492,1.4167234897613525,-2.3012795448303223,-2.0631000995635986,-1.3225855827331543,1.3468446731567383,0.15944921970367432,-0.0019759610295295715,0.9636471271514893,-0.09423233568668365,-0.024331633001565933,0.24882228672504425
136.0,0.03325175121426582,-0.562126874923706,1.4161163568496704,-2.2935245037078857,-2.102518320083618,-1.3160667419433594,1.343795657157898,0.16753500699996948,-0.006340019404888153,0.9587963819503784,-0.08927462995052338,-0.025004204362630844,0.26854151487350464
137.0,0.03450896590948105,-0.5528904795646667,1.3881796598434448,-2.240164279937744,-2.1149277687072754,-1.2579340934753418,1.3528227806091309,0.16789792478084564,-0.00785825401544571,0.953712522983551,-0.11111301928758621,-0.032337579876184464,0.2775620222091675
138.0,0.03515985608100891,-0.5442823767662048,1.36268949508667,-2.1932730674743652,-2.1243667602539062,-1.2098116874694824,1.361063838005066,0.16782887279987335,-0.009102888405323029,0.9489858150482178,-0.12889771163463593,-0.03873118758201599,0.28515127301216125
139.0,0.039671219885349274,-0.5331063866615295,1.3361190557479858,-2.140979528427124,-2.1492271423339844,-1.1615469455718994,1.3679800033569336,0.17103230953216553,-0.012354649603366852,0.9418597221374512,-0.1423535943031311,-0.04548485949635506,0.3009432852268219
140.0,0.02983265183866024,-0.5452234148979187,1.3585261106491089,-2.1930088996887207,-2.1051578521728516,-1.2077871561050415,1.3646306991577148,0.16319341957569122,-0.006731867790222168,0.951004683971405,-0.13436782360076904,-0.03895564377307892,0.27571332454681396
141.0,0.017689529806375504,-0.5669851899147034,1.4092450141906738,-2.292081356048584,-2.0440914630889893,-1.3101609945297241,1.351309061050415,0.15459367632865906,-4.991888999938965e-06,0.9649186134338379,-0.10351383686065674,-0.025736406445503235,0.2399054616689682
142.0,0.012213691137731075,-0.5673971176147461,1.4038288593292236,-2.286943197250366,-2.025075674057007,-1.3020185232162476,1.355022668838501,0.1498514711856842,0.0019259452819824219,0.966293215751648,-0.11099499464035034,-0.02650783769786358,0.23077024519443512
143.0,0.0043532648123800755,-0.5670974850654602,1.3948729038238525,-2.280313730239868,-2.0006766319274902,-1.2930786609649658,1.3610737323760986,0.14262008666992188,0.004643067717552185,0.9679032564163208,-0.12040233612060547,-0.027232281863689423,0.21891778707504272
144.0,0.003951492719352245,-0.5601216554641724,1.3726907968521118,-2.242191791534424,-2.007256031036377,-1.2464765310287476,1.368850588798523,0.1411822885274887,0.004335999488830566,0.9638192653656006,-0.14025524258613586,-0.032641805708408356,0.22431102395057678
145.0,0.01568453200161457,-0.556313693523407,1.3741114139556885,-2.2350685596466064,-2.048124074935913,-1.2459001541137695,1.3645825386047363,0.1515340507030487,-4.5299530029296875e-06,0.9600296020507812,-0.131272092461586,-0.033490683883428574,0.2449267953634262
146.0,0.01913674734532833,-0.5467393398284912,1.3491721153259277,-2.1863808631896973,-2.0687096118927,-1.1938761472702026,1.3714150190353394,0.15357831120491028,-0.0023105815052986145,0.9536346197128296,-0.14908245205879211,-0.040382020175457,0.25831136107444763
147.0,0.016133558005094528,-0.5437873005867004,1.3371543884277344,-2.1689820289611816,-2.062371015548706,-1.1741557121276855,1.3764533996582031,0.15039382874965668,-0.0014181658625602722,0.9523962140083313,-0.15927135944366455,-0.042876679450273514,0.2563900649547577
148.0,0.010368688963353634,-0.5428276062011719,1.3280545473098755,-2.160083055496216,-2.0456926822662354,-1.161250114440918,1.3815544843673706,0.14477932453155518,0.0007802695035934448,0.952640175819397,-0.16922788321971893,-0.04419148340821266,0.24876858294010162
149.0,0.010611620731651783,-0.5349742770195007,1.3052126169204712,-2.1164700984954834,-2.0537986755371094,-1.1137206554412842,1.3880037069320679,0.14407368004322052,-0.00032542645931243896,0.9468569755554199,-0.18747231364250183,-0.050764963030815125,0.2563960552215576
150.0,0.02080228552222252,-0.524485170841217,1.2871086597442627,-2.0717809200286865,-2.093981981277466,-1.0788133144378662,1.3894277811050415,0.15283948183059692,-0.0057554468512535095,0.9391443729400635,-0.19074532389640808,-0.056866031140089035,0.2799828350543976
151.0,0.020882023498415947,-0.510481059551239,1.2483067512512207,-1.9975223541259766,-2.104485273361206,-1.0071314573287964,1.3994179964065552,0.15175925195217133,-0.007940083742141724,0.9290332198143005,-0.2161061316728592,-0.06804327666759491,0.2925158441066742
152.0,0.021594999358057976,-0.49343204498291016,1.2040728330612183,-1.914538860321045,-2.117732524871826,-0.9344156384468079,1.4099724292755127,0.15123401582241058,-0.01092182844877243,0.9172157049179077,-0.23948492109775543,-0.08043111115694046,0.3080472946166992
153.0,0.020211968570947647,-0.48518988490104675,1.1815309524536133,-1.875348687171936,-2.1183223724365234,-0.8999491930007935,1.4157634973526,0.14931894838809967,-0.011671140789985657,0.9116339087486267,-0.25195935368537903,-0.08650260418653488,0.31298187375068665
154.0,0.031671226024627686,-0.452843576669693,1.1145716905593872,-1.7299680709838867,-2.176292896270752,-0.8028651475906372,1.4242050647735596,0.1583552062511444,-0.02223780006170273,0.8892794251441956,-0.26355236768722534,-0.10621364414691925,0.3583865165710449
155.0,0.029924077913165092,-0.4828314483165741,1.186403751373291,-1.8689268827438354,-2.1527507305145264,-0.9078165292739868,1.4105534553527832,0.15846197307109833,-0.016194775700569153,0.9097110033035278,-0.23718687891960144,-0.08599033206701279,0.32980895042419434
156.0,0.029310693964362144,-0.49965816736221313,1.229531168937683,-1.9533926248550415,-2.139143466949463,-0.9787928462028503,1.4011591672897339,0.15908101201057434,-0.013068214058876038,0.9217350482940674,-0.21597297489643097,-0.07348565757274628,0.3136240243911743
157.0,0.028526389971375465,-0.5194992423057556,1.2823469638824463,-2.0532796382904053,-2.1223795413970947,-1.0683505535125732,1.387754201889038,0.15978844463825226,-0.009647771716117859,0.9350787997245789,-0.1866767257452011,-0.05898604169487953,0.2954658567905426
158.0,0.026863936334848404,-0.5307244062423706,1.3115981817245483,-2.107846260070801,-2.1075832843780518,-1.1180256605148315,1.3798166513442993,0.15921474993228912,-0.0074578747153282166,0.9422389268875122,-0.17074795067310333,-0.05138048157095909,0.2835330665111542
159.0,0.02978043258190155,-0.5342630743980408,1.3257535696029663,-2.131563186645508,-2.1144797801971436,-1.1445306539535522,1.3746564388275146,0.16218560934066772,-0.00814315676689148,0.9442211389541626,-0.15815210342407227,-0.04771619290113449,0.2848816514015198
160.0,0.0351981446146965,-0.5151087641716003,1.278682827949524,-2.038367748260498,-2.14801025390625,-1.061180830001831,1.3862195014953613,0.16568471491336823,-0.013100624084472656,0.9314730763435364,-0.18201392889022827,-0.06041105464100838,0.30915912985801697
161.0,0.040681805461645126,-0.4918484091758728,1.2230052947998047,-1.9235152006149292,-2.1862375736236572,-0.9676910042762756,1.3980319499969482,0.16891822218894958,-0.01912180334329605,0.9150599241256714,-0.2050304412841797,-0.0759374275803566,0.3389120399951935
162.0,0.0397987924516201,-0.5200866460800171,1.2988972663879395,-2.0714187622070312,-2.1601545810699463,-1.0961565971374512,1.3789446353912354,0.17023642361164093,-0.014271542429924011,0.9340293407440186,-0.16510054469108582,-0.05513467267155647,0.31191539764404297
163.0,0.04831276461482048,-0.49785086512565613,1.2487354278564453,-1.9580491781234741,-2.2107796669006348,-1.003435730934143,1.3880839347839355,0.1760963797569275,-0.021574020385742188,0.9169237613677979,-0.18460625410079956,-0.06982927769422531,0.3468361496925354
164.0,0.05026416853070259,-0.4794362485408783,1.203161597251892,-1.8652924299240112,-2.231828451156616,-0.9301790595054626,1.3979077339172363,0.17672860622406006,-0.025653883814811707,0.9043117761611938,-0.2027241587638855,-0.08217489719390869,0.36656567454338074
165.0,0.04347320646047592,-0.4709305465221405,1.1727111339569092,-1.8186116218566895,-2.209989070892334,-0.8851969242095947,1.4074599742889404,0.1702810823917389,-0.024183206260204315,0.9000556468963623,-0.2248203456401825,-0.09046613425016403,0.3621760904788971
166.0,0.041034869849681854,-0.44667401909828186,1.1105751991271973,-1.7025251388549805,-2.212336778640747,-0.7934766411781311,1.4202338457107544,0.1670655906200409,-0.027719110250473022,0.884086012840271,-0.2521525025367737,-0.10791638493537903,0.3783716857433319
167.0,0.04180661216378212,-0.42643535137176514,1.06450355052948,-1.6152880191802979,-2.2243380546569824,-0.7334116101264954,1.4279295206069946,0.16701072454452515,-0.03184953331947327,0.8713268637657166,-0.2642993927001953,-0.1200101375579834,0.39564239978790283
168.0,0.049087632447481155,-0.4383772313594818,1.1010602712631226,-1.6685649156570435,-2.2486250400543213,-0.7800737619400024,1.4183331727981567,0.17404228448867798,-0.03292418271303177,0.877760648727417,-0.24185632169246674,-0.10986069589853287,0.39871352910995483
169.0,0.052582383155822754,-0.39863717555999756,1.0153191089630127,-1.5003118515014648,-2.2775073051452637,-0.6694195866584778,1.4303092956542969,0.1762254536151886,-0.04229920357465744,0.8530147075653076,-0.25752192735671997,-0.13119031488895416,0.4345543682575226
170.0,0.054369259625673294,-0.45313724875450134,1.1432372331619263,-1.7406829595565796,-2.264061450958252,-0.8399745225906372,1.4085428714752197,0.17920279502868652,-0.03239170461893082,0.8863840103149414,-0.21915772557258606,-0.09787855297327042,0.39587005972862244
171.0,0.06124548614025116,-0.44681960344314575,1.137085199356079,-1.7107290029525757,-2.2947804927825928,-0.8236348032951355,1.4058837890625,0.1851930171251297,-0.03706281632184982,0.8799551725387573,-0.21203242242336273,-0.09958430379629135,0.4132845401763916
172.0,0.06164068728685379,-0.4152134358882904,1.0655126571655273,-1.5751032829284668,-2.3080501556396484,-0.7282142043113708,1.4184633493423462,0.18500173091888428,-0.0442657470703125,0.8615361452102661,-0.23092958331108093,-0.1170601174235344,0.4367198050022125
173.0,0.06814701110124588,-0.42618316411972046,1.1029726266860962,-1.6363903284072876,-2.3277978897094727,-0.7753405570983887,1.40931236743927,0.1914457082748413,-0.04699958860874176,0.8677589893341064,-0.21129558980464935,-0.10642267018556595,0.43706175684928894
174.0,0.06047230213880539,-0.40798401832580566,1.0523202419281006,-1.562313437461853,-2.2988433837890625,-0.7161077260971069,1.4218664169311523,0.18459533154964447,-0.047660231590270996,0.860405683517456,-0.23704981803894043,-0.1198234036564827,0.4349158704280853
175.0,0.05669233947992325,-0.4025971293449402,1.0332106351852417,-1.5312933921813965,-2.2878034114837646,-0.69232177734375,1.4262934923171997,0.1807115375995636,-0.045725107192993164,0.8568249940872192,-0.2474602311849594,-0.1255117952823639,0.4345815181732178
176.0,0.052758749574422836,-0.39377838373184204,1.0092281103134155,-1.4978909492492676,-2.273308038711548,-0.6658400297164917,1.4318904876708984,0.1770571768283844,-0.04581204801797867,0.8528304100036621,-0.25960642099380493,-0.13194359838962555,0.4334465563297272
177.0,0.048884227871894836,-0.38296398520469666,0.9829102754592896,-1.4645426273345947,-2.2572081089019775,-0.6390281319618225,1.4379783868789673,0.17368391156196594,-0.04720444977283478,0.8485976457595825,-0.2722938656806946,-0.13858410716056824,0.4318941831588745
178.0,0.040159471333026886,-0.36221590638160706,0.9318169951438904,-1.401351809501648,-2.2244718074798584,-0.5884184837341309,1.4494746923446655,0.165496826171875,-0.049074627459049225,0.8395599126815796,-0.2975107431411743,-0.15182974934577942,0.4284556806087494
179.0,0.044660840183496475,-0.37078502774238586,0.9550472497940063,-1.4320957660675049,-2.2395620346069336,-0.6125428080558777,1.4444501399993896,0.16998964548110962,-0.04946846514940262,0.8441685438156128,-0.28555309772491455,-0.14537721872329712,0.4297724962234497
180.0,0.05706501007080078,-0.3976554870605469,1.0279499292373657,-1.5314587354660034,-2.2833025455474854,-0.6902632713317871,1.4277993440628052,0.18185830116271973,-0.04979191720485687,0.8570564985275269,-0.2492181658744812,-0.12591011822223663,0.43300244212150574
181.0,0.05572054535150528,-0.38941100239753723,1.0129060745239258,-1.5173157453536987,-2.273035764694214,-0.6770064830780029,1.4315569400787354,0.18134048581123352,-0.053525105118751526,0.8555489778518677,-0.25604498386383057,-0.12901267409324646,0.4310831129550934
182.0,0.05075237154960632,-0.37798771262168884,0.9822816848754883,-1.4755682945251465,-2.2547457218170166,-0.6440752744674683,1.4385747909545898,0.17671144008636475,-0.053685739636421204,0.8502501845359802,-0.2712971866130829,-0.13711902499198914,0.4297334849834442
183.0,0.04586723446846008,-0.36630886793136597,0.9525119066238403,-1.4373754262924194,-2.236743688583374,-0.61402827501297,1.4453133344650269,0.17212310433387756,-0.05431671440601349,0.8450080752372742,-0.28573280572891235,-0.14479175209999084,0.4281979501247406
184.0,0.039516616612672806,-0.35577237606048584,0.9220010042190552,-1.395707368850708,-2.2175045013427734,-0.5820990204811096,1.4519293308258057,0.16551420092582703,-0.05276261270046234,0.8387044072151184,-0.30148881673812866,-0.15341529250144958,0.4267823398113251
185.0,0.03463296219706535,-0.3421054184436798,0.8911826610565186,-1.3612831830978394,-2.19736647605896,-0.5540434718132019,1.4585695266723633,0.16112422943115234,-0.05513320118188858,0.8330965638160706,-0.3160972595214844,-0.16102281212806702,0.4243869483470917
186.0,0.025519056245684624,-0.32105395197868347,0.8398433923721313,-1.300886631011963,-2.1648457050323486,-0.5074672102928162,1.46892511844635,0.15216606855392456,-0.05612105876207352,0.8223737478256226,-0.3401699960231781,-0.17431962490081787,0.4214242994785309
187.0,0.02955540083348751,-0.33304983377456665,0.8655645251274109,-1.3270515203475952,-2.1815178394317627,-0.528599202632904,1.4635696411132812,0.15583348274230957,-0.053656116127967834,0.8272159099578857,-0.3286210894584656,-0.16826660931110382,0.42356622219085693
188.0,0.011581295169889927,-0.29666730761528015,0.7764059901237488,-1.2256311178207397,-2.1206552982330322,-0.44981539249420166,1.4807720184326172,0.1375260204076767,-0.054317593574523926,0.8068423867225647,-0.37189212441444397,-0.19214557111263275,0.4168713688850403
189.0,0.01665973849594593,-0.3078109323978424,0.8025750517845154,-1.253891944885254,-2.1388652324676514,-0.47197696566581726,1.475919246673584,0.1425928771495819,-0.05362638831138611,0.8129569888114929,-0.35943660140037537,-0.18526600301265717,0.41902604699134827
190.0,0.024116361513733864,-0.3245145380496979,0.8409637212753296,-1.2946655750274658,-2.165776491165161,-0.5047597885131836,1.4683066606521606,0.14996641874313354,-0.051835812628269196,0.8212904930114746,-0.3408375382423401,-0.1753644347190857,0.42256247997283936
191.0,0.03515879064798355,-0.34942105412483215,0.901801586151123,-1.3663103580474854,-2.204821825027466,-0.5601791739463806,1.4559327363967896,0.1608715057373047,-0.050707243382930756,0.8339622020721436,-0.312020868062973,-0.1594889760017395,0.4262784421443939
192.0,0.030945027247071266,-0.3425961136817932,0.8814342021942139,-1.3379857540130615,-2.1921775341033936,-0.5392361283302307,1.4599084854125977,0.15641750395298004,-0.049055710434913635,0.8292005062103271,-0.322206974029541,-0.16542693972587585,0.42572665214538574
193.0,0.02316470444202423,-0.3290727436542511,0.8444347381591797,-1.2907439470291138,-2.1683285236358643,-0.5039520263671875,1.4671680927276611,0.1482134461402893,-0.0473288893699646,0.8206630945205688,-0.340384840965271,-0.17583954334259033,0.42394664883613586
194.0,0.028057757765054703,-0.3405839204788208,0.8708176612854004,-1.3193047046661377,-2.1860485076904297,-0.5266454815864563,1.4616941213607788,0.15301021933555603,-0.04594250023365021,0.8260007500648499,-0.3278762102127075,-0.16915850341320038,0.426151841878891
195.0,0.033332474529743195,-0.3522303104400635,0.9001571536064148,-1.355299949645996,-2.2045600414276123,-0.5541264414787292,1.4557609558105469,0.15822938084602356,-0.04587931931018829,0.8321673274040222,-0.31398048996925354,-0.1613520085811615,0.4276439845561981
196.0,0.0419718436896801,-0.37106916308403015,0.9478985071182251,-1.4151517152786255,-2.2356224060058594,-0.6012270450592041,1.4456442594528198,0.16661417484283447,-0.04535626620054245,0.8416110873222351,-0.29030299186706543,-0.14850758016109467,0.43053510785102844
197.0,0.04812895879149437,-0.38612326979637146,0.9846535325050354,-1.4606355428695679,-2.2593631744384766,-0.6378704905509949,1.4373362064361572,0.17230328917503357,-0.04377611726522446,0.8479809761047363,-0.2721122205257416,-0.1389768272638321,0.43309226632118225
198.0,0.03740428388118744,-0.36364221572875977,0.9257898330688477,-1.3839219808578491,-2.2213919162750244,-0.577364444732666,1.4502146244049072,0.1618914157152176,-0.04389332979917526,0.8368094563484192,-0.30187082290649414,-0.15499289333820343,0.4296523928642273
199.0,0.020596301183104515,-0.3295220732688904,0.838664174079895,-1.2768645286560059,-2.163743734359741,-0.4946640431880951,1.4677867889404297,0.14503557980060577,-0.04343757778406143,0.8180267214775085,-0.3446812033653259,-0.17879599332809448,0.4243338406085968
200.0,0.026645177975296974,-0.3430275022983551,0.869911789894104,-1.310948133468628,-2.186166763305664,-0.5223772525787354,1.461431622505188,0.1509176790714264,-0.04196193069219589,0.8246093988418579,-0.32913723587989807,-0.1705595850944519,0.42731425166130066
201.0,0.0320717878639698,-0.355424165725708,0.9005751013755798,-1.3479822874069214,-2.2055461406707764,-0.5506646037101746,1.4552150964736938,0.15624749660491943,-0.041633978486061096,0.8309828639030457,-0.3147623538970947,-0.16247697174549103,0.42894452810287476
202.0,0.034216344356536865,-0.3849785327911377,0.9643858075141907,-1.4501242637634277,-2.208523988723755,-0.6152323484420776,1.4460500478744507,0.1586959958076477,-0.03641544282436371,0.846811056137085,-0.30024492740631104,-0.14671970903873444,0.41380834579467773
203.0,0.03580716252326965,-0.410150945186615,1.021064043045044,-1.5480942726135254,-2.207768678665161,-0.6805493235588074,1.4375057220458984,0.16079296171665192,-0.032253019511699677,0.8617563843727112,-0.2851394712924957,-0.13181263208389282,0.3983677923679352
204.0,0.02631210722029209,-0.43271830677986145,1.0615432262420654,-1.6383693218231201,-2.163804531097412,-0.7266587018966675,1.4351030588150024,0.1525772213935852,-0.023958876729011536,0.875363826751709,-0.2911373972892761,-0.12181122601032257,0.36625027656555176
205.0,0.024564292281866074,-0.3786081373691559,0.9405839443206787,-1.4283769130706787,-2.1740033626556396,-0.5885997414588928,1.4534560441970825,0.14921224117279053,-0.03336108475923538,0.8426692485809326,-0.32198020815849304,-0.15403294563293457,0.4031267464160919
206.0,0.016286978498101234,-0.3536054193973541,0.8799743056297302,-1.341822624206543,-2.1495370864868164,-0.526240885257721,1.4640593528747559,0.1404651701450348,-0.034549929201602936,0.827453076839447,-0.3464969992637634,-0.1706790179014206,0.40759041905403137
207.0,0.01244165375828743,-0.3173682987689972,0.8039471507072449,-1.232096552848816,-2.1386020183563232,-0.46085426211357117,1.4739758968353271,0.13636881113052368,-0.04073023796081543,0.8088733553886414,-0.36287397146224976,-0.1893700361251831,0.4221200942993164
208.0,0.006944912485778332,-0.30455493927001953,0.7748385667800903,-1.201709508895874,-2.1184027194976807,-0.43712499737739563,1.4794093370437622,0.13094189763069153,-0.04196185618638992,0.8021703362464905,-0.3763692080974579,-0.1968928426504135,0.41964536905288696
209.0,0.00048310510464943945,-0.29241374135017395,0.7454726099967957,-1.1697075366973877,-2.0969207286834717,-0.4123953580856323,1.4845606088638306,0.12422996759414673,-0.04194177687168121,0.7945768237113953,-0.3907190263271332,-0.20507647097110748,0.4170491397380829
210.0,-0.006283879280090332,-0.28566035628318787,0.7228047251701355,-1.1382721662521362,-2.077606439590454,-0.38890522718429565,1.487686276435852,0.11675810813903809,-0.03804165869951248,0.786659300327301,-0.4039343595504761,-0.21327556669712067,0.41535261273384094
211.0,-0.012329263612627983,-0.27342209219932556,0.6950117349624634,-1.1103559732437134,-2.0564281940460205,-0.3668752908706665,1.4922479391098022,0.11058837175369263,-0.03884461522102356,0.7790576219558716,-0.41727539896965027,-0.22093090415000916,0.4124803841114044
212.0,-0.019180938601493835,-0.2599342465400696,0.663783609867096,-1.0785589218139648,-2.0331385135650635,-0.3427318036556244,1.4970519542694092,0.10348109900951385,-0.03916459530591965,0.7701436877250671,-0.4317660927772522,-0.2296096533536911,0.4095560908317566
213.0,-0.01659686677157879,-0.25993087887763977,0.6693002581596375,-1.0905051231384277,-2.0384740829467773,-0.35033130645751953,1.496817946434021,0.10661263763904572,-0.04267852008342743,0.7732429504394531,-0.4279312193393707,-0.2265857756137848,0.409425288438797
214.0,-0.02478790283203125,-0.24681177735328674,0.6371942758560181,-1.0565863847732544,-2.012718677520752,-0.324323832988739,1.5014349222183228,0.09782573580741882,-0.04183755815029144,0.7630500197410583,-0.4439280927181244,-0.23623237013816833,0.4060502052307129
215.0,-0.030722536146640778,-0.2358573079109192,0.6130352020263672,-1.034293293952942,-1.992172360420227,-0.30566421151161194,1.5049644708633423,0.09170298278331757,-0.04278402030467987,0.7554240822792053,-0.4561103284358978,-0.2431493103504181,0.4027114510536194
216.0,-0.036784425377845764,-0.22549092769622803,0.5892419219017029,-1.011291742324829,-1.9718995094299316,-0.28713706135749817,1.508154034614563,0.0853496789932251,-0.04297162592411041,0.7474237680435181,-0.46800896525382996,-0.25023597478866577,0.3996340036392212
217.0,-0.047087594866752625,-0.2049303650856018,0.5446772575378418,-0.9715611934661865,-1.9365355968475342,-0.2560117244720459,1.5140068531036377,0.07463432103395462,-0.04477398097515106,0.7331537008285522,-0.48811784386634827,-0.2624223828315735,0.39415884017944336
218.0,-0.05446605011820793,-0.19716070592403412,0.524492084980011,-0.9499391913414001,-1.9148907661437988,-0.23758989572525024,1.5160752534866333,0.0665125846862793,-0.0432513952255249,0.7238881587982178,-0.5004716515541077,-0.2700595557689667,0.39061737060546875
219.0,-0.06195421889424324,-0.18304309248924255,0.49562862515449524,-0.9269826412200928,-1.8886768817901611,-0.21702899038791656,1.519610047340393,0.05879968777298927,-0.04554598778486252,0.713384211063385,-0.5146605372428894,-0.2782672643661499,0.3857133984565735
220.0,-0.052873700857162476,-0.19369222223758698,0.5220415592193604,-0.9540978074073792,-1.9173076152801514,-0.2406598925590515,1.517063856124878,0.06851719319820404,-0.04689048230648041,0.7256466150283813,-0.4988815486431122,-0.268461674451828,0.3904900550842285
221.0,-0.04955426603555679,-0.1920551061630249,0.5238950252532959,-0.9622678756713867,-1.9241212606430054,-0.24734392762184143,1.5175176858901978,0.07252956926822662,-0.05058078467845917,0.7292690277099609,-0.49467647075653076,-0.26536378264427185,0.39120835065841675
222.0,-0.041388142853975296,-0.2122109830379486,0.5641804337501526,-0.9935454726219177,-1.953803539276123,-0.2722305953502655,1.5120038986206055,0.08084439486265182,-0.046636588871479034,0.7408950924873352,-0.47814562916755676,-0.2557489275932312,0.3962874412536621
223.0,-0.029045578092336655,-0.23364496231079102,0.6132986545562744,-1.0407593250274658,-1.9950358867645264,-0.3098810017108917,1.5055632591247559,0.0938015729188919,-0.04625879228115082,0.7573800683021545,-0.4540441930294037,-0.24129030108451843,0.4024904668331146
224.0,-0.02182861790060997,-0.2455235719680786,0.6404349207878113,-1.0666321516036987,-2.0182454586029053,-0.3313160240650177,1.5015835762023926,0.10148872435092926,-0.04579383134841919,0.7661232352256775,-0.4399873614311218,-0.23330730199813843,0.40624383091926575
225.0,-0.00633864663541317,-0.27785593271255493,0.7132545709609985,-1.1381829977035522,-2.0721607208251953,-0.3866254687309265,1.49014151096344,0.11739690601825714,-0.043613359332084656,0.7862493991851807,-0.4064611494541168,-0.21372631192207336,0.413427472114563
226.0,-0.008527278900146484,-0.26801595091819763,0.6965480446815491,-1.1280494928359985,-2.06083607673645,-0.3770914673805237,1.493470311164856,0.11564613878726959,-0.04777047038078308,0.7832401394844055,-0.4130050539970398,-0.21675798296928406,0.4110689163208008
227.0,-0.0018675810424610972,-0.28224995732307434,0.7281923294067383,-1.1589994430541992,-2.0848100185394287,-0.40206560492515564,1.4881391525268555,0.12235536426305771,-0.04629364609718323,0.7915544509887695,-0.3978078365325928,-0.20830656588077545,0.4144865572452545
228.0,0.006629095878452063,-0.2960781753063202,0.7635942697525024,-1.1992172002792358,-2.111196756362915,-0.43278419971466064,1.4821457862854004,0.13144391775131226,-0.047524936497211456,0.8013078570365906,-0.3799608051776886,-0.19798602163791656,0.4175371527671814
229.0,0.013746608048677444,-0.3130955696105957,0.8019254803657532,-1.2387332916259766,-2.137613534927368,-0.4637465178966522,1.475008249282837,0.1384374499320984,-0.045680053532123566,0.8100697994232178,-0.36232197284698486,-0.1882181465625763,0.42081308364868164
230.0,0.018201079219579697,-0.31726258993148804,0.8179177045822144,-1.2630008459091187,-2.1493022441864014,-0.4811932146549225,1.4724600315093994,0.14345547556877136,-0.04899219423532486,0.8150287866592407,-0.3533402979373932,-0.18265759944915771,0.4213252663612366
231.0,0.0115957111120224,-0.30170318484306335,0.7826730012893677,-1.2262071371078491,-2.124626874923706,-0.4518299996852875,1.4791831970214844,0.13700705766677856,-0.050754696130752563,0.807136058807373,-0.37002503871917725,-0.19170454144477844,0.41816532611846924
232.0,0.00482699740678072,-0.2857727110385895,0.7463587522506714,-1.1885563135147095,-2.099996566772461,-0.42281317710876465,1.485751748085022,0.1302759051322937,-0.05213344097137451,0.7986264228820801,-0.3864803910255432,-0.20095926523208618,0.41526395082473755
233.0,-0.00046976530575193465,-0.2755425274372101,0.7227370142936707,-1.164678931236267,-2.0826869010925293,-0.40393194556236267,1.4899659156799316,0.12471987307071686,-0.05276720970869064,0.7926319241523743,-0.39792174100875854,-0.20725677907466888,0.4128408432006836
234.0,-0.005227974615991116,-0.26894956827163696,0.7047784924507141,-1.1434423923492432,-2.0685267448425293,-0.3877180516719818,1.4927586317062378,0.11952970921993256,-0.0514632984995842,0.7871310114860535,-0.40743306279182434,-0.2128617912530899,0.41123345494270325
235.0,-0.014650044962763786,-0.24753238260746002,0.6580033898353577,-1.099188208580017,-2.0343618392944336,-0.3526880741119385,1.500354290008545,0.11003859341144562,-0.053985774517059326,0.7748492956161499,-0.4287724792957306,-0.22490113973617554,0.40642645955085754
236.0,-0.020086847245693207,-0.23887769877910614,0.6354473829269409,-1.0735929012298584,-2.0175137519836426,-0.33420127630233765,1.5033965110778809,0.10416580736637115,-0.05254966765642166,0.7677023410797119,-0.4394688606262207,-0.23169457912445068,0.4047442078590393
237.0,-0.014325186610221863,-0.2548246383666992,0.6678178310394287,-1.100923776626587,-2.039825201034546,-0.3556976020336151,1.4981369972229004,0.109804168343544,-0.049336567521095276,0.7756652235984802,-0.4260622560977936,-0.22417378425598145,0.4081183075904846
238.0,-0.026331333443522453,-0.23342475295066833,0.6177494525909424,-1.0507473945617676,-2.0012266635894775,-0.31708258390426636,1.505494236946106,0.09701303392648697,-0.04942428320646286,0.7605503797531128,-0.44995445013046265,-0.23834016919136047,0.40286239981651306
239.0,-0.03252498432993889,-0.22168610990047455,0.5920670032501221,-1.0275503396987915,-1.9800984859466553,-0.2979256212711334,1.5091756582260132,0.09056398272514343,-0.05053020268678665,0.7525506615638733,-0.46246832609176636,-0.24546009302139282,0.39942440390586853
240.0,-0.043929729610681534,-0.1983666867017746,0.5417574644088745,-0.9832044243812561,-1.940531849861145,-0.26273319125175476,1.5158675909042358,0.07874651253223419,-0.05285748839378357,0.7368292808532715,-0.48521366715431213,-0.258928507566452,0.39320021867752075
241.0,-0.03714589402079582,-0.21021200716495514,0.5691878795623779,-1.0096710920333862,-1.9628546237945557,-0.2830752730369568,1.512548565864563,0.08593054115772247,-0.052955470979213715,0.7461743950843811,-0.4723486304283142,-0.2509380877017975,0.39640966057777405
242.0,-0.03364245966076851,-0.21205930411815643,0.5778278112411499,-1.023131251335144,-1.972256064414978,-0.2929466664791107,1.511970043182373,0.08989943563938141,-0.05579262971878052,0.7506884932518005,-0.46657413244247437,-0.24690619111061096,0.3972565233707428
243.0,-0.027727536857128143,-0.22405950725078583,0.6033801436424255,-1.0451489686965942,-1.9924412965774536,-0.31103554368019104,1.5082842111587524,0.09607216715812683,-0.05424198508262634,0.7583447694778442,-0.45466262102127075,-0.24019424617290497,0.40062686800956726
244.0,-0.007248814217746258,-0.25989052653312683,0.6892790198326111,-1.1339502334594727,-2.0581367015838623,-0.37885919213294983,1.4957996606826782,0.11790518462657928,-0.05523160845041275,0.7843397259712219,-0.41347190737724304,-0.21565064787864685,0.4090806841850281
245.0,0.005925152916461229,-0.2817855477333069,0.7440319061279297,-1.1939107179641724,-2.0988941192626953,-0.42489251494407654,1.486733317375183,0.1320609748363495,-0.05654793232679367,0.7996079325675964,-0.3862285017967224,-0.2000044584274292,0.41406872868537903
246.0,0.0016698039835318923,-0.27058300375938416,0.7205963730812073,-1.172684907913208,-2.082764148712158,-0.40777719020843506,1.4910434484481812,0.12789933383464813,-0.058710575103759766,0.7943576574325562,-0.39659836888313293,-0.20552890002727509,0.41165944933891296
247.0,-0.0033822068944573402,-0.262968510389328,0.7011387944221497,-1.1512939929962158,-2.068037986755371,-0.3913173973560333,1.4942940473556519,0.12234511226415634,-0.05800097435712814,0.7888085246086121,-0.40653374791145325,-0.2111862748861313,0.4097704589366913
248.0,-0.00839593168348074,-0.2515227198600769,0.6764100193977356,-1.1284233331680298,-2.050158739089966,-0.37295880913734436,1.4984748363494873,0.11725793778896332,-0.05959406495094299,0.782559871673584,-0.41785377264022827,-0.21738247573375702,0.4071156680583954
249.0,-0.015599716454744339,-0.23587541282176971,0.6412350535392761,-1.0942211151123047,-2.024837017059326,-0.3465768098831177,1.5038888454437256,0.1098780483007431,-0.060737401247024536,0.7729934453964233,-0.4337150454521179,-0.2265586107969284,0.4037865996360779
250.0,-0.023039842024445534,-0.22167885303497314,0.6077547073364258,-1.060338020324707,-2.0005381107330322,-0.3214341104030609,1.5085996389389038,0.10198530554771423,-0.060584016144275665,0.7631235122680664,-0.4487976133823395,-0.23572489619255066,0.40082040429115295
251.0,-0.027440926060080528,-0.21824035048484802,0.5962276458740234,-1.0453979969024658,-1.9893790483474731,-0.309988409280777,1.5099117755889893,0.09689061343669891,-0.058371663093566895,0.7581897974014282,-0.4559682011604309,-0.2402103692293167,0.3994249403476715
252.0,-0.0389569066464901,-0.19796814024448395,0.550113320350647,-1.0021865367889404,-1.952117681503296,-0.27572572231292725,1.5159940719604492,0.0845983624458313,-0.05899138003587723,0.7432044744491577,-0.4780391752719879,-0.25323256850242615,0.3936990797519684
253.0,-0.03169805929064751,-0.20747260749340057,0.5752121210098267,-1.0298622846603394,-1.9740833044052124,-0.29687419533729553,1.5131924152374268,0.09253518283367157,-0.06100201606750488,0.7527196407318115,-0.4649181067943573,-0.24494192004203796,0.39656999707221985
254.0,-0.05482853204011917,-0.16637912392616272,0.4824243187904358,-0.9446046352386475,-1.8990987539291382,-0.2302268147468567,1.5242342948913574,0.06782028079032898,-0.06216289848089218,0.7213129997253418,-0.5079331398010254,-0.27110061049461365,0.3849884569644928
255.0,-0.0460992157459259,-0.17903494834899902,0.5123299956321716,-0.9732601642608643,-1.9255893230438232,-0.2530871033668518,1.521073579788208,0.07738350331783295,-0.06277672946453094,0.7328230142593384,-0.4929076135158539,-0.2617854177951813,0.38920554518699646
256.0,-0.034774549305438995,-0.19665053486824036,0.5558223724365234,-1.0179678201675415,-1.961319923400879,-0.2865948975086212,1.516312837600708,0.0895979031920433,-0.06472371518611908,0.748420000076294,-0.47212842106819153,-0.24851982295513153,0.3939547538757324
257.0,-0.021405715495347977,-0.21876248717308044,0.6067988872528076,-1.0659973621368408,-2.0020670890808105,-0.3247179388999939,1.5092970132827759,0.10421741753816605,-0.06433438509702682,0.764716386795044,-0.4473220109939575,-0.2341793328523636,0.4003397524356842
258.0,-0.028270814567804337,-0.206107497215271,0.5788682103157043,-1.0409955978393555,-1.9801990985870361,-0.3044545352458954,1.5133534669876099,0.0968397706747055,-0.0654151439666748,0.756324827671051,-0.4606204628944397,-0.24163375794887543,0.39675524830818176
259.0,-0.03824079409241676,-0.18522240221500397,0.5346400141716003,-1.00400972366333,-1.9472988843917847,-0.27502721548080444,1.5194857120513916,0.08623935282230377,-0.0681559145450592,0.7434200644493103,-0.48002296686172485,-0.2526324987411499,0.3912564218044281
260.0,-0.04627528041601181,-0.17126743495464325,0.5015555620193481,-0.9716764092445374,-1.9213238954544067,-0.2510054409503937,1.5231168270111084,0.07764001190662384,-0.06746380776166916,0.732104480266571,-0.49496084451675415,-0.26212844252586365,0.38771840929985046
261.0,-0.055706191807985306,-0.15656188130378723,0.46763670444488525,-0.9403202533721924,-1.8923410177230835,-0.22612428665161133,1.526700496673584,0.06733796000480652,-0.06728260219097137,0.7195290923118591,-0.5113352537155151,-0.27220669388771057,0.38303762674331665
262.0,-0.06083285063505173,-0.1451348066329956,0.44520303606987,-0.9245576858520508,-1.8751906156539917,-0.21273885667324066,1.529384732246399,0.061888933181762695,-0.06972885876893997,0.7125647068023682,-0.5207242965698242,-0.27743327617645264,0.37964269518852234
263.0,-0.06756038963794708,-0.13735634088516235,0.42575156688690186,-0.905012309551239,-1.856012225151062,-0.19685247540473938,1.5309704542160034,0.05435514450073242,-0.06851018965244293,0.7037100791931152,-0.5312725305557251,-0.2842395603656769,0.37649649381637573
264.0,-0.060809437185525894,-0.1535942256450653,0.4572541415691376,-0.9266499280929565,-1.8792184591293335,-0.21472223103046417,1.5273172855377197,0.06145689636468887,-0.06486791372299194,0.7132793664932251,-0.518844723701477,-0.27718213200569153,0.3810548782348633
265.0,-0.07349929958581924,-0.13542933762073517,0.4147548973560333,-0.8866435885429382,-1.839277744293213,-0.18229690194129944,1.5309438705444336,0.047776199877262115,-0.06393802165985107,0.6952384114265442,-0.5401435494422913,-0.2909449338912964,0.3744857907295227
266.0,-0.08101673424243927,-0.11949753016233444,0.3820362687110901,-0.8615745902061462,-1.8135638236999512,-0.16266942024230957,1.5339679718017578,0.039897527545690536,-0.06607283651828766,0.6838024258613586,-0.5532363653182983,-0.29924091696739197,0.36986297369003296
267.0,-0.09222923964262009,-0.10693728178739548,0.3550274670124054,-0.8394414782524109,-1.7795377969741821,-0.13826924562454224,1.5360324382781982,0.027675867080688477,-0.06703154742717743,0.6685657501220703,-0.5707107186317444,-0.3095434308052063,0.36261823773384094
268.0,-0.08502737432718277,-0.12178841978311539,0.38246428966522217,-0.8558629155158997,-1.8037102222442627,-0.1550285965204239,1.5332304239273071,0.035303451120853424,-0.06287003308534622,0.6788687109947205,-0.5584797263145447,-0.3028479814529419,0.368131548166275
269.0,-0.09227194637060165,-0.11913663893938065,0.3732825815677643,-0.8434431552886963,-1.7835959196090698,-0.14026623964309692,1.5333701372146606,0.027241801843047142,-0.06070902943611145,0.6693599224090576,-0.5688387751579285,-0.3094682991504669,0.3641553521156311
270.0,-0.08102291822433472,-0.1332576721906662,0.4022429287433624,-0.8655983805656433,-1.8184009790420532,-0.1649419069290161,1.5308176279067993,0.03941744565963745,-0.05865444242954254,0.6846708655357361,-0.5509812831878662,-0.2991287112236023,0.3717089891433716
271.0,-0.07362530380487442,-0.14181815087795258,0.4235628545284271,-0.887390673160553,-1.841261863708496,-0.18294230103492737,1.5293896198272705,0.04740244895219803,-0.06007865071296692,0.6953752636909485,-0.5392142534255981,-0.29112133383750916,0.3754325807094574
272.0,-0.06483764201402664,-0.15468613803386688,0.4535995125770569,-0.9158363938331604,-1.8698140382766724,-0.20597589015960693,1.5268667936325073,0.05673617124557495,-0.06072147935628891,0.7082648873329163,-0.5242034196853638,-0.2812920808792114,0.3800610601902008
273.0,-0.05461301654577255,-0.17448221147060394,0.4938754737377167,-0.94667649269104,-1.903582215309143,-0.23254422843456268,1.5221478939056396,0.06760670244693756,-0.05743369460105896,0.7221885323524475,-0.5057829022407532,-0.27066928148269653,0.3864785432815552
274.0,-0.0660940408706665,-0.15917310118675232,0.4579622745513916,-0.9125682711601257,-1.868096947669983,-0.20353570580482483,1.525638461112976,0.05515752732753754,-0.05677013099193573,0.7067210674285889,-0.525254487991333,-0.2827339172363281,0.380413681268692
275.0,-0.05008430778980255,-0.18546539545059204,0.5143671035766602,-0.9599690437316895,-1.9195367097854614,-0.24470381438732147,1.5192879438400269,0.07230347394943237,-0.05429309606552124,0.7281889915466309,-0.4969770908355713,-0.26605451107025146,0.3898327946662903
276.0,-0.05801853537559509,-0.17724841833114624,0.49353042244911194,-0.9385203123092651,-1.8971391916275024,-0.22602157294750214,1.5213733911514282,0.06342271715402603,-0.052993208169937134,0.7184657454490662,-0.5097583532333374,-0.27384161949157715,0.3859589695930481
277.0,-0.06979827582836151,-0.1594778150320053,0.4532257914543152,-0.9014369249343872,-1.8581799268722534,-0.19463537633419037,1.5252948999404907,0.05101225525140762,-0.05306939780712128,0.7015952467918396,-0.530605137348175,-0.2869003415107727,0.37935543060302734
278.0,-0.08253514766693115,-0.13941101729869843,0.4100249409675598,-0.8648232817649841,-1.816625714302063,-0.16297310590744019,1.5292915105819702,0.03750003129243851,-0.054497845470905304,0.6831796169281006,-0.552065908908844,-0.30043625831604004,0.3717888295650482
279.0,-0.07643652707338333,-0.14994603395462036,0.4310055375099182,-0.8802217841148376,-1.8367359638214111,-0.1775882989168167,1.5271453857421875,0.04395979270339012,-0.05256243050098419,0.6918144822120667,-0.5417154431343079,-0.29434213042259216,0.37589871883392334
280.0,-0.06357798725366592,-0.17265020310878754,0.4796181321144104,-0.9214385151863098,-1.880143642425537,-0.21159355342388153,1.5222946405410767,0.057422149926424026,-0.0507008358836174,0.7107545733451843,-0.5190452933311462,-0.2800067067146301,0.3834271728992462
281.0,-0.0720055103302002,-0.16228878498077393,0.4539969265460968,-0.8951287865638733,-1.853305697441101,-0.18980491161346436,1.5244065523147583,0.048441022634506226,-0.04924217611551285,0.6986546516418457,-0.5332592725753784,-0.28940093517303467,0.37916138768196106
282.0,-0.07987481355667114,-0.15020640194416046,0.4274351894855499,-0.8716998100280762,-1.8276803493499756,-0.1701030135154724,1.526822805404663,0.04010009765625,-0.049701713025569916,0.6871922016143799,-0.5464551448822021,-0.2979435920715332,0.3746776580810547
283.0,-0.09015122056007385,-0.13624142110347748,0.3999563157558441,-0.8521761298179626,-1.7947920560836792,-0.14716048538684845,1.5296390056610107,0.0291319377720356,-0.05258671194314957,0.6732127070426941,-0.5633754730224609,-0.307376891374588,0.3673039972782135
284.0,-0.10533776134252548,-0.12537485361099243,0.3755340576171875,-0.8325997591018677,-1.7396571636199951,-0.11024563014507294,1.5318220853805542,0.014086024835705757,-0.05300813913345337,0.6500242948532104,-0.5904138088226318,-0.32166171073913574,0.35413795709609985
285.0,-0.11295303702354431,-0.1179644837975502,0.36074280738830566,-0.8219848275184631,-1.7118878364562988,-0.09171490371227264,1.533190131187439,0.006532886065542698,-0.05436620116233826,0.63775634765625,-0.6035125851631165,-0.32894665002822876,0.34761133790016174
286.0,-0.08942651748657227,-0.12909379601478577,0.39000365138053894,-0.8510000109672546,-1.7946418523788452,-0.147576704621315,1.5313054323196411,0.03011181950569153,-0.05678208917379379,0.6737375855445862,-0.5633421540260315,-0.30677667260169983,0.36689427495002747
287.0,-0.09812041372060776,-0.12065289914608002,0.3720986545085907,-0.8374003171920776,-1.7645082473754883,-0.12707790732383728,1.5329078435897827,0.021230638027191162,-0.05771070718765259,0.6609458923339844,-0.5783394575119019,-0.3148997128009796,0.3598780930042267
288.0,-0.1062346026301384,-0.1145651713013649,0.3586556613445282,-0.8266865015029907,-1.7350574731826782,-0.10732915252447128,1.5340286493301392,0.013182075694203377,-0.0580420047044754,0.6482703685760498,-0.5925701856613159,-0.3225861191749573,0.3529084622859955
289.0,-0.12373664975166321,-0.110125832259655,0.34651443362236023,-0.8114298582077026,-1.6723606586456299,-0.06561683118343353,1.5342671871185303,-0.004036318976432085,-0.05678623914718628,-0.6198037266731262,0.621592104434967,0.3392106890678406,-0.3382347822189331
290.0,-0.1440562605857849,0.20743082463741302,-0.3472927510738373,-0.42746567726135254,-1.602316975593567,-0.020079055801033974,1.5330538749694824,-0.02419641613960266,-0.05686108022928238,-0.585968554019928,0.6520717144012451,0.3578324615955353,-0.32155755162239075
291.0,-0.1546548306941986,0.2111823856830597,-0.3556855022907257,-0.4208187460899353,-1.5709428787231445,-9.293353650718927e-05,1.5318251848220825,-0.03540609031915665,-0.05662789195775986,-0.569955050945282,0.6655787229537964,0.365976482629776,-0.3133966326713562
292.0,-0.13552270829677582,0.20871712267398834,-0.3541227877140045,-0.42430517077445984,-1.6308393478393555,-0.03841916471719742,1.5324957370758057,-0.015453577041625977,-0.05394396930932999,-0.5999244451522827,0.6397647857666016,0.3504358232021332,-0.32861295342445374
293.0,-0.14554601907730103,0.21085990965366364,-0.3603903353214264,-0.41652512550354004,-1.597927451133728,-0.017235800623893738,1.5312120914459229,-0.025531597435474396,-0.052734680473804474,-0.5835841298103333,0.6538229584693909,0.35929957032203674,-0.3207007646560669
294.0,-0.12435280531644821,0.21064850687980652,-0.36023372411727905,-0.4247887432575226,-1.6713811159133911,-0.06489318609237671,1.5324350595474243,-0.0046014562249183655,-0.05248887836933136,-0.6191336512565613,0.6220571994781494,0.3397061228752136,-0.3381096124649048
295.0,-0.11486373841762543,0.2146058976650238,-0.3722839951515198,-0.4201676547527313,-1.7063170671463013,-0.08787508308887482,1.5314620733261108,0.004660918843001127,-0.049794405698776245,0.6349928975105286,-0.6061272621154785,-0.33070316910743713,0.3464522957801819
296.0,-0.09808111190795898,0.22614821791648865,-0.39744624495506287,-0.41372713446617126,-1.766901969909668,-0.12835480272769928,1.5293147563934326,0.021280236542224884,-0.04914960265159607,0.6615157723426819,-0.5772476196289062,-0.3147578537464142,0.36070704460144043
297.0,-0.10664655268192291,0.22073985636234283,-0.3870967924594879,-0.4150327444076538,-1.7361705303192139,-0.10776297748088837,1.5300759077072144,0.012803466059267521,-0.04848065227270126,0.6482633948326111,-0.5921158790588379,-0.3228389024734497,0.3534521758556366
298.0,-0.12040795385837555,0.21526706218719482,-0.37737610936164856,-0.4133245646953583,-1.6870735883712769,-0.07511313259601593,1.5303572416305542,-0.0007287055486813188,-0.04726681858301163,0.626127302646637,-0.6150012612342834,-0.3358716070652008,0.3419478237628937
299.0,-0.13074544072151184,0.21504396200180054,-0.3786963224411011,-0.40742772817611694,-1.6502975225448608,-0.05098097398877144,1.5294650793075562,-0.010747184045612812,-0.04608457535505295,-0.6088797450065613,0.6314130425453186,0.3456578850746155,-0.3333223760128021
300.0,-0.13030074536800385,0.21211430430412292,-0.366934597492218,-0.416824072599411,-1.6507383584976196,-0.051326096057891846,1.5311294794082642,-0.01035292912274599,-0.04999253898859024,-0.6092857718467712,0.6312010884284973,0.34532076120376587,-0.3333311975002289
301.0,-0.13927045464515686,0.21287250518798828,-0.37027597427368164,-0.4100989103317261,-1.61899733543396,-0.030704187229275703,1.5300748348236084,-0.019024750217795372,-0.048759825527668,-0.5938904881477356,0.6447834968566895,0.35393744707107544,-0.32600101828575134
302.0,-0.15104003250598907,0.21402035653591156,-0.3705015182495117,-0.40786755084991455,-1.5817996263504028,-0.0069650947116315365,1.5296859741210938,-0.03121955506503582,-0.05034059286117554,-0.5752545595169067,0.6606805920600891,0.3637184202671051,-0.3166895806789398
303.0,-0.1664503961801529,0.22680963575839996,-0.400981605052948,-0.39034515619277954,-1.5335631370544434,0.02356850542128086,1.5259044170379639,-0.04671812057495117,-0.04833821952342987,-0.5508984923362732,0.6810502409934998,0.3750353455543518,-0.30336442589759827
304.0,-0.18222171068191528,0.24022804200649261,-0.4289470613002777,-0.3766416907310486,-1.4855271577835083,0.05398039519786835,1.5223617553710938,-0.06277291476726532,-0.048959411680698395,-0.525673508644104,0.7003958821296692,0.38615453243255615,-0.2898235321044922
305.0,-0.17556071281433105,0.23489660024642944,-0.4189015030860901,-0.38093826174736023,-1.50466787815094,0.041860997676849365,1.5236485004425049,-0.05578208342194557,-0.047969475388526917,-0.5359505414962769,0.6927163004875183,0.3816941976547241,-0.29531461000442505
306.0,-0.16994529962539673,0.2316049188375473,-0.41603755950927734,-0.3795105814933777,-1.5225600004196167,0.030486127361655235,1.5237164497375488,-0.04998385161161423,-0.04494193196296692,-0.5451343655586243,0.6854044198989868,0.3778219223022461,-0.3004995286464691
307.0,-0.15587928891181946,0.21907606720924377,-0.3869996964931488,-0.39509162306785583,-1.5671567916870117,0.002297111786901951,1.5273195505142212,-0.03598929941654205,-0.04631222039461136,-0.5676940083503723,0.6667765974998474,0.36763903498649597,-0.3130080997943878
308.0,-0.1488078087568283,0.21645672619342804,-0.3823810815811157,-0.39776432514190674,-1.5883631706237793,-0.01110296044498682,1.5279362201690674,-0.02855665609240532,-0.04556269198656082,-0.5784331560134888,0.65766841173172,0.3623684048652649,-0.3187106251716614
309.0,-0.14061829447746277,0.21576935052871704,-0.38194921612739563,-0.40032854676246643,-1.615376353263855,-0.02833830937743187,1.528344750404358,-0.020282290875911713,-0.0448576956987381,-0.5919157266616821,0.6463078260421753,0.35514673590660095,-0.32525816559791565
310.0,-0.13282467424869537,0.21804526448249817,-0.39134126901626587,-0.3964598774909973,-1.6441664695739746,-0.046926070004701614,1.5275001525878906,-0.012716516852378845,-0.041664913296699524,-0.6057291030883789,0.634097695350647,0.34754741191864014,-0.33199870586395264
311.0,-0.11860563606023788,0.22022698819637299,-0.3972623646259308,-0.39843878149986267,-1.6954357624053955,-0.08047259598970413,1.5276026725769043,0.001067612785845995,-0.04063791781663895,0.62961345911026,-0.611221969127655,-0.3340495526790619,0.3441010117530823
312.0,-0.13424266874790192,0.22062188386917114,-0.4025237262248993,-0.38684818148612976,-1.6403025388717651,-0.04436391219496727,1.5257313251495361,-0.014046164229512215,-0.037639252841472626,-0.6036714911460876,0.6357831358909607,0.3488127589225769,-0.3311951756477356
313.0,-0.14194978773593903,0.21885915100574493,-0.394840270280838,-0.38948431611061096,-1.6120023727416992,-0.026135580614209175,1.5263749361038208,-0.021514393389225006,-0.04038593918085098,-0.5900275707244873,0.6477225422859192,0.3563246726989746,-0.32458552718162537
314.0,-0.15010766685009003,0.22038879990577698,-0.3994111716747284,-0.3829272985458374,-1.584582805633545,-0.00868043303489685,1.5252584218978882,-0.029553651809692383,-0.039394527673721313,-0.5762565732002258,0.6590307950973511,0.3638502061367035,-0.3181506395339966
315.0,-0.15920081734657288,0.22473806142807007,-0.4065196216106415,-0.38035646080970764,-1.5566915273666382,0.008884512819349766,1.5244765281677246,-0.03899078443646431,-0.04108136147260666,-0.5623014569282532,0.6710355877876282,0.37039682269096375,-0.31037798523902893
316.0,-0.16593168675899506,0.22993135452270508,-0.4170266091823578,-0.37578085064888,-1.5353586673736572,0.022351427003741264,1.5232535600662231,-0.04575939476490021,-0.04162652790546417,-0.5515698194503784,0.6800100803375244,0.37517109513282776,-0.30430877208709717
317.0,-0.1740487813949585,0.23729746043682098,-0.43481457233428955,-0.36552056670188904,-1.509702205657959,0.038518909364938736,1.520833134651184,-0.053755950182676315,-0.0402546152472496,-0.5383095145225525,0.6903648972511292,0.38116294145584106,-0.2972103953361511
318.0,-0.17897669970989227,0.23987802863121033,-0.43547487258911133,-0.3684435188770294,-1.4941608905792236,0.048393748700618744,1.5210784673690796,-0.05891430750489235,-0.04374540597200394,-0.5302679538726807,0.6966591477394104,0.3844907879829407,-0.29265835881233215
319.0,-0.1909475326538086,0.25090301036834717,-0.45464134216308594,-0.36274003982543945,-1.4588810205459595,0.07091177999973297,1.5188144445419312,-0.07131844013929367,-0.046983107924461365,-0.5113939642906189,0.7107246518135071,0.3921054005622864,-0.2821350395679474
320.0,-0.1993856579065323,0.262050986289978,-0.4797908365726471,-0.3509417474269867,-1.431982398033142,0.0882033035159111,1.5153895616531372,-0.0793711468577385,-0.04611790180206299,-0.4969606399536133,0.7209028005599976,0.3977012634277344,-0.274158775806427
321.0,-0.20617537200450897,0.2710118591785431,-0.5006176829338074,-0.34052804112434387,-1.41029953956604,0.10210613161325455,1.5123430490493774,-0.08576139807701111,-0.04493104666471481,-0.48510995507240295,0.7287471294403076,0.40232840180397034,-0.2678206264972687
322.0,-0.22473695874214172,0.29581326246261597,-0.5508131384849548,-0.32154619693756104,-1.3542935848236084,0.1387842297554016,1.5049026012420654,-0.10383255034685135,-0.04687667638063431,-0.45359286665916443,0.7486361861228943,0.4135412275791168,-0.250561386346817
323.0,-0.23179876804351807,0.3073806166648865,-0.579668402671814,-0.3069932162761688,-1.331106185913086,0.15406358242034912,1.500087857246399,-0.10992182791233063,-0.04389970749616623,-0.4404779076576233,0.7562178373336792,0.41809821128845215,-0.2435317039489746
324.0,-0.22443820536136627,0.29638224840164185,-0.5576666593551636,-0.31426018476486206,-1.354354977607727,0.13844597339630127,1.5034399032592773,-0.10305147618055344,-0.04287941753864288,-0.453670859336853,0.7483173608779907,0.4138340950012207,-0.250888854265213
325.0,-0.21592853963375092,0.2833631932735443,-0.5288299322128296,-0.32633671164512634,-1.3811999559402466,0.12068924307823181,1.507874846458435,-0.09519992768764496,-0.043585337698459625,-0.46870729327201843,0.738944947719574,0.40873071551322937,-0.2592548429965973
326.0,-0.20870451629161835,0.2754269540309906,-0.5159186124801636,-0.32924342155456543,-1.4019052982330322,0.10726381838321686,1.5096646547317505,-0.08775971084833145,-0.04074990749359131,-0.480435311794281,0.7314704656600952,0.40443742275238037,-0.2656375467777252
327.0,-0.20085026323795319,0.26576492190361023,-0.49528568983078003,-0.3382757902145386,-1.4268183708190918,0.09126714617013931,1.5126501321792603,-0.08025175333023071,-0.04073899984359741,-0.49408984184265137,0.722482442855835,0.3992021381855011,-0.27300554513931274
328.0,-0.1935056746006012,0.25586655735969543,-0.47116631269454956,-0.3509526550769806,-1.4503233432769775,0.07625073194503784,1.5161858797073364,-0.07338868081569672,-0.04279247671365738,-0.5067780017852783,0.7137705683708191,0.3941829800605774,-0.2798703908920288
329.0,-0.18730640411376953,0.24866344034671783,-0.457838773727417,-0.35483384132385254,-1.4698158502578735,0.06368031352758408,1.5177481174468994,-0.06724591553211212,-0.04122147709131241,-0.5170751810073853,0.7060886025428772,0.3903375566005707,-0.2858477532863617
330.0,-0.1814846396446228,0.24397926032543182,-0.45065584778785706,-0.3563186526298523,-1.4865708351135254,0.053044579923152924,1.518572449684143,-0.06111016869544983,-0.03916950523853302,-0.5260810256004333,0.6993951201438904,0.3866512179374695,-0.2908368408679962
331.0,-0.19395531713962555,0.2582928240299225,-0.48352158069610596,-0.33995336294174194,-1.4483751058578491,0.07729052007198334,1.5139399766921997,-0.07333167642354965,-0.03768826276063919,-0.5056637525558472,0.7142022848129272,0.39498478174209595,-0.27965396642684937
332.0,-0.1741630584001541,0.2394047975540161,-0.44583573937416077,-0.3555006980895996,-1.509486198425293,0.038560256361961365,1.5188924074172974,-0.05355558544397354,-0.035605110228061676,-0.5380340814590454,0.6902388334274292,0.3815939724445343,-0.29744863510131836
333.0,-0.15989699959754944,0.2274201661348343,-0.418110191822052,-0.3705255091190338,-1.5545507669448853,0.010211901739239693,1.522609829902649,-0.039420925080776215,-0.03691034018993378,-0.5610759854316711,0.6717637777328491,0.3712120056152344,-0.3100467026233673
334.0,-0.16729570925235748,0.23408061265945435,-0.4349774420261383,-0.36053669452667236,-1.5311915874481201,0.02489766851067543,1.5202856063842773,-0.046695031225681305,-0.03516030311584473,-0.5492098927497864,0.6814396381378174,0.3766443133354187,-0.30355846881866455
335.0,-0.18645314872264862,0.2503086030483246,-0.4710763692855835,-0.34135159850120544,-1.471754550933838,0.062204718589782715,1.5152077674865723,-0.06576382368803024,-0.03427407145500183,-0.5179795622825623,0.7048982381820679,0.39048728346824646,-0.2869413197040558
336.0,-0.17947565019130707,0.2449568808078766,-0.4621872901916504,-0.3441164493560791,-1.4928367137908936,0.04893442988395691,1.5163108110427856,-0.0586065873503685,-0.03243593871593475,-0.5292016267776489,0.6966352462768555,0.3857266306877136,-0.29301872849464417
337.0,-0.17076537013053894,0.23849444091320038,-0.45005983114242554,-0.3491383194923401,-1.5203393697738647,0.031659454107284546,1.5178591012954712,-0.049883220344781876,-0.0311763733625412,-0.5434986352920532,0.6856836080551147,0.3794536590576172,-0.30076926946640015
338.0,-0.1520225703716278,0.22343598306179047,-0.41269123554229736,-0.37113356590270996,-1.5790200233459473,-0.0051602269522845745,1.5230653285980225,-0.03127913549542427,-0.03455963730812073,-0.5732101202011108,0.6611951589584351,0.3657020926475525,-0.3170381784439087
339.0,-0.12958282232284546,0.22307102382183075,-0.41279616951942444,-0.3807019889354706,-1.6580042839050293,-0.055821217596530914,1.5244629383087158,-0.009510703384876251,-0.03405384719371796,-0.6119310855865479,0.6281004548072815,0.3442777097225189,-0.335414856672287
340.0,-0.1385861188173294,0.22326840460300446,-0.4144876301288605,-0.375150203704834,-1.626176118850708,-0.03518117591738701,1.523586392402649,-0.01818779483437538,-0.033160701394081116,-0.5966072082519531,0.6418213248252869,0.35288259387016296,-0.3280232548713684
341.0,-0.13339687883853912,0.22533300518989563,-0.42375895380973816,-0.36994820833206177,-1.6456815004348755,-0.0477464385330677,1.5224559307098389,-0.013149891048669815,-0.029727041721343994,-0.6058513522148132,0.6334991455078125,0.34781613945961,-0.33263638615608215
342.0,-0.12143788486719131,0.22920237481594086,-0.4361504316329956,-0.3679155707359314,-1.6891683340072632,-0.076359823346138,1.5216469764709473,-0.0015654575545340776,-0.0268222838640213,0.6264342665672302,-0.6144410967826843,-0.33585408329963684,0.34240955114364624
343.0,-0.14180800318717957,0.22965966165065765,-0.4373925030231476,-0.36100906133651733,-1.616507887840271,-0.02920011430978775,1.520592451095581,-0.021173568442463875,-0.02688019722700119,-0.5923462510108948,0.6466304063796997,0.3543993830680847,-0.32464778423309326
344.0,-0.15200383961200714,0.22596417367458344,-0.4250508248806,-0.36042922735214233,-1.579727292060852,-0.005593135952949524,1.5210165977478027,-0.031047092750668526,-0.029613927006721497,-0.573351263999939,0.6607917547225952,0.3658573031425476,-0.3174445331096649
345.0,-0.1599976271390915,0.23044352233409882,-0.4334677755832672,-0.3566893935203552,-1.5543315410614014,0.010315165854990482,1.5199707746505737,-0.039114631712436676,-0.03056478500366211,-0.560728132724762,0.6715800762176514,0.3717699348926544,-0.31040507555007935
346.0,-0.16550937294960022,0.24053114652633667,-0.46089980006217957,-0.34616202116012573,-1.537152647972107,0.02139291726052761,1.5170629024505615,-0.04435930401086807,-0.026937715709209442,-0.5529639720916748,0.6800243258476257,0.3735436797142029,-0.3037482798099518
347.0,-0.17681896686553955,0.27718663215637207,-0.5510127544403076,-0.34041449427604675,-1.5023974180221558,0.04816340655088425,1.5105326175689697,-0.0550132691860199,-0.021436914801597595,-0.5406947135925293,0.703665018081665,0.365532785654068,-0.2808746099472046
348.0,-0.1833791583776474,0.24944519996643066,-0.4771445095539093,-0.3327902555465698,-1.480700135231018,0.05641084536910057,1.5137732028961182,-0.0622011199593544,-0.028624020516872406,-0.5226441621780396,0.7011173367500305,0.3888920843601227,-0.28989750146865845
349.0,-0.19150108098983765,0.25832071900367737,-0.496370792388916,-0.3242723047733307,-1.455191969871521,0.07256286591291428,1.5110933780670166,-0.07009386271238327,-0.028558023273944855,-0.5091589093208313,0.7110232710838318,0.3943050503730774,-0.28235912322998047
350.0,-0.20650222897529602,0.2758263945579529,-0.5329170227050781,-0.309397429227829,-1.4078760147094727,0.10279993712902069,1.50584876537323,-0.08452402055263519,-0.02930179238319397,-0.4835994839668274,0.7286385893821716,0.4040897786617279,-0.2681955099105835
351.0,-0.21448874473571777,0.2850155532360077,-0.55135577917099,-0.302115797996521,-1.3827136754989624,0.11887550354003906,1.5030672550201416,-0.0921868085861206,-0.030122049152851105,-0.46966317296028137,0.73745197057724,0.40939104557037354,-0.2607300281524658
352.0,-0.19949421286582947,0.2668333053588867,-0.5099596381187439,-0.3222254514694214,-1.4302717447280884,0.08862714469432831,1.5095592737197876,-0.07809194922447205,-0.03192327171564102,-0.4958488643169403,0.7206594944000244,0.3991832137107849,-0.2746575176715851
353.0,-0.21050125360488892,0.27959370613098145,-0.5353802442550659,-0.3125641644001007,-1.395574927330017,0.11087580025196075,1.5059117078781128,-0.08872027695178986,-0.03325176239013672,-0.47685158252716064,0.7332211136817932,0.4063848555088043,-0.26429304480552673
354.0,-0.22031576931476593,0.29202601313591003,-0.5596449971199036,-0.30417752265930176,-1.3656665086746216,0.13033542037010193,1.502276062965393,-0.09824883937835693,-0.03487741947174072,-0.4600905776023865,0.7437847852706909,0.4123559594154358,-0.25507527589797974
355.0,-0.203471377491951,0.27030640840530396,-0.5110462307929993,-0.32670849561691284,-1.4181089401245117,0.09663938730955124,1.5099127292633057,-0.082338847219944,-0.03644191473722458,-0.48929113149642944,0.7254024147987366,0.40136483311653137,-0.2707245945930481
356.0,-0.21626882255077362,0.285207062959671,-0.5403860807418823,-0.31544944643974304,-1.3790779113769531,0.12169868499040604,1.5055667161941528,-0.09488391131162643,-0.038172103464603424,-0.4675421714782715,0.7392810583114624,0.4095935821533203,-0.259038507938385
357.0,-0.22442403435707092,0.2972520589828491,-0.5647485852241516,-0.3072502017021179,-1.3535751104354858,0.13869117200374603,1.5019539594650269,-0.10257008671760559,-0.03918111324310303,-0.4532722234725952,0.7483100295066833,0.41425979137420654,-0.25092872977256775
358.0,-0.23132659494876862,0.30747780203819275,-0.5853336453437805,-0.3003702759742737,-1.3317798376083374,0.1532975435256958,1.4987778663635254,-0.10899651795625687,-0.04004765301942825,-0.44091248512268066,0.755709707736969,0.41826608777046204,-0.24403385818004608
359.0,-0.2387177050113678,0.31879687309265137,-0.6122273802757263,-0.28770023584365845,-1.3077914714813232,0.16912220418453217,1.4941060543060303,-0.11545020341873169,-0.03804708272218704,-0.42716673016548157,0.7632657289505005,0.4229835271835327,-0.23672549426555634
360.0,-0.2466212511062622,0.33039647340774536,-0.6389066576957703,-0.2754596471786499,-1.2834593057632446,0.18514171242713928,1.4891948699951172,-0.12253445386886597,-0.036571212112903595,-0.41290512681007385,0.7706344723701477,0.42787230014801025,-0.22925351560115814
361.0,-0.23262733221054077,0.31043288111686707,-0.5993273258209229,-0.28875458240509033,-1.3264665603637695,0.15639005601406097,1.4959152936935425,-0.10948359221220016,-0.03462192416191101,-0.43795010447502136,0.7570461630821228,0.4196850061416626,-0.24278715252876282
362.0,-0.2412223368883133,0.3231631815433502,-0.6284804344177246,-0.2758183181285858,-1.2987924814224243,0.17465740442276,1.4907974004745483,-0.1170712411403656,-0.03314073383808136,-0.4220333695411682,0.7656911611557007,0.42509588599205017,-0.23430417478084564
363.0,-0.22423920035362244,0.29866522550582886,-0.5788500905036926,-0.2927967607975006,-1.3524150848388672,0.13887886703014374,1.498885989189148,-0.1014091819524765,-0.031352490186691284,-0.4527053236961365,0.7481241822242737,0.41506993770599365,-0.2511673867702484
364.0,-0.23474645614624023,0.3141487240791321,-0.6126860976219177,-0.279239684343338,-1.3189055919647217,0.1610923856496811,1.49326753616333,-0.11091360449790955,-0.030792661011219025,-0.43367257714271545,0.7592048645019531,0.42141425609588623,-0.2407200038433075
365.0,-0.25171664357185364,0.33982858061790466,-0.6667872667312622,-0.259686142206192,-1.2652989625930786,0.1973208785057068,1.4837775230407715,-0.12612608075141907,-0.031120456755161285,-0.402488112449646,0.775868833065033,0.43125563859939575,-0.22371728718280792
366.0,-0.25918829441070557,0.35242193937301636,-0.6942216157913208,-0.2500976622104645,-1.2411236763000488,0.21430601179599762,1.4787335395812988,-0.13246610760688782,-0.03064417839050293,-0.3882417380809784,0.7830796837806702,0.4352923035621643,-0.21581284701824188
367.0,-0.24337716400623322,0.3267166018486023,-0.6414754986763,-0.26644375920295715,-1.2911505699157715,0.1793627291917801,1.4881032705307007,-0.11850890517234802,-0.029317595064640045,-0.4176562428474426,0.7677330374717712,0.4268735647201538,-0.2322244942188263
368.0,-0.25140103697776794,0.3544062376022339,-0.7102307677268982,-0.26459261775016785,-1.2676184177398682,0.210178405046463,1.4797085523605347,-0.12495505809783936,-0.02421759068965912,-0.4041634202003479,0.7836337685585022,0.41929152607917786,-0.2162519097328186
369.0,-0.23892094194889069,0.36039161682128906,-0.736060619354248,-0.29465436935424805,-1.3097941875457764,0.20179180800914764,1.4819806814193726,-0.11311333626508713,-0.017761483788490295,-0.43016305565834045,0.7842572331428528,0.3920065462589264,-0.21501459181308746
370.0,-0.23229444026947021,0.34447216987609863,-0.6984983682632446,-0.2951755225658417,-1.3299564123153687,0.17908315360546112,1.4870253801345825,-0.10741110891103745,-0.019656620919704437,-0.4424034357070923,0.7731948494911194,0.3943735957145691,-0.22565105557441711
371.0,-0.22265903651714325,0.34056252241134644,-0.6945109367370605,-0.3091406226158142,-1.3617842197418213,0.16066938638687134,1.4901632070541382,-0.0984782800078392,-0.017508871853351593,-0.4621710479259491,0.7664704322814941,0.38194283843040466,-0.2303062379360199
372.0,-0.21783629059791565,0.30487900972366333,-0.6039330363273621,-0.29918867349624634,-1.3734790086746216,0.13282592594623566,1.4982155561447144,-0.09478174149990082,-0.02461431920528412,-0.46631720662117004,0.7474488615989685,0.4014304280281067,-0.25044378638267517
373.0,-0.2091226577758789,0.3389180302619934,-0.6977397799491882,-0.32918781042099,-1.4038972854614258,0.13571478426456451,1.4936984777450562,-0.0853201225399971,-0.014068163931369781,-0.4892325699329376,0.757456362247467,0.3631671071052551,-0.2345655858516693
374.0,-0.21419499814510345,0.3702014684677124,-0.776673436164856,-0.34460094571113586,-1.3909125328063965,0.1655077040195465,1.4856579303741455,-0.08922514319419861,-0.007507748901844025,-0.4827907085418701,0.7762855291366577,0.34419572353363037,-0.2140636146068573
