Sungjin-Park-dev/vision_inspection/data/trajectory/5504/joint_trajectory_dp.csv
time,ur20-shoulder_pan_joint,ur20-shoulder_lift_joint,ur20-elbow_joint,ur20-wrist_1_joint,ur20-wrist_2_joint,ur20-wrist_3_joint,target-POS_X,target-POS_Y,target-POS_Z,target-ROT_X,target-ROT_Y,target-ROT_Z,target-ROT_W
0.0,0.09548109024763107,-0.42358747124671936,1.1868311166763306,-2.069244623184204,-2.4626364707946777,-1.2355155944824219,1.4264850616455078,0.21790733933448792,-0.04832766205072403,0.8947077989578247,-0.05044574290513992,-0.024982495233416557,0.44309061765670776
1.0,0.09281758964061737,-0.4082460403442383,1.1365790367126465,-1.9732069969177246,-2.444835662841797,-1.1557137966156006,1.4402658939361572,0.21708768606185913,-0.0513397678732872,0.8934492468833923,-0.075654536485672,-0.03735676407814026,0.4411681592464447
2.0,0.08885896950960159,-0.39316946268081665,1.0836966037750244,-1.8741390705108643,-2.426901340484619,-1.075757622718811,1.4540318250656128,0.21433734893798828,-0.05138210952281952,0.8905397057533264,-0.10185311734676361,-0.05037928372621536,0.4404848515987396
3.0,0.09066686779260635,-0.40250304341316223,1.1123865842819214,-1.924674153327942,-2.4376354217529297,-1.1169499158859253,1.4467417001724243,0.21525517106056213,-0.05009029060602188,0.8919386863708496,-0.08816497772932053,-0.043623607605695724,0.4413270056247711
4.0,0.0921805128455162,-0.4120527505874634,1.1405973434448242,-1.9748198986053467,-2.4488513469696045,-1.1586487293243408,1.439388394355774,0.21567785739898682,-0.04782724380493164,0.8928075432777405,-0.07450936734676361,-0.036945100873708725,0.44269418716430664
5.0,0.09370751678943634,-0.41907209157943726,1.1644471883773804,-2.0207207202911377,-2.4575116634368896,-1.1965810060501099,1.4329205751419067,0.21644610166549683,-0.04684995114803314,0.893531084060669,-0.062383100390434265,-0.030968230217695236,0.4435668885707855
6.0,0.08906923979520798,-0.4030945301055908,1.104401707649231,-1.903153419494629,-2.437790632247925,-1.1014336347579956,1.448997139930725,0.21309885382652283,-0.0463164821267128,0.8905881643295288,-0.09294966608285904,-0.04621516540646553,0.4428061246871948
7.0,0.08698702603578568,-0.3942625820636749,1.0753952264785767,-1.8510187864303589,-2.4276654720306396,-1.059683084487915,1.4563177824020386,0.2117021381855011,-0.046618081629276276,0.8888457417488098,-0.10675118863582611,-0.05313490331172943,0.44241875410079956
8.0,0.08520223945379257,-0.3840506374835968,1.0473941564559937,-1.8062678575515747,-2.41611647605896,-1.023391604423523,1.463202714920044,0.2108374536037445,-0.04867393523454666,0.8874639868736267,-0.11936043947935104,-0.05933699756860733,0.4411800801753998
9.0,0.08218447118997574,-0.37378090620040894,1.015176773071289,-1.7524914741516113,-2.403243064880371,-0.9809028506278992,1.470907211303711,0.20833560824394226,-0.04869394749403,0.8851604461669922,-0.13449206948280334,-0.0669102892279625,0.44037047028541565
10.0,0.07961110770702362,-0.367599219083786,0.9924763441085815,-1.7127978801727295,-2.395353317260742,-0.9507191181182861,1.4761730432510376,0.20575301349163055,-0.04694758355617523,0.882925808429718,-0.14516408741474152,-0.07243900001049042,0.44059282541275024
11.0,0.07656372338533401,-0.3572160005569458,0.960748553276062,-1.6625593900680542,-2.383223056793213,-0.9122902154922485,1.4832878112792969,0.20303454995155334,-0.046398378908634186,0.8800474405288696,-0.1591513454914093,-0.07962226867675781,0.44028139114379883
12.0,0.07423356175422668,-0.34647244215011597,0.9323410987854004,-1.6221576929092407,-2.3713979721069336,-0.8811428546905518,1.489479422569275,0.20126944780349731,-0.04749586433172226,0.8776984214782715,-0.17095214128494263,-0.08558846265077591,0.4394262433052063
13.0,0.07093461602926254,-0.3361033499240875,0.902628481388092,-1.5790457725524902,-2.358741521835327,-0.8485747575759888,1.4958081245422363,0.19812974333763123,-0.04718862473964691,0.8748354315757751,-0.18377037346363068,-0.09214109182357788,0.4386358857154846
14.0,0.06676410883665085,-0.3245945870876312,0.8676189184188843,-1.5272761583328247,-2.3446967601776123,-0.8105983734130859,1.502873420715332,0.19385045766830444,-0.04540592432022095,0.8708406686782837,-0.19865186512470245,-0.1000002846121788,0.4383765161037445
15.0,0.057183410972356796,-0.3569796085357666,0.9275916218757629,-1.649237871170044,-2.288036346435547,-0.886542558670044,1.498199462890625,0.1855061948299408,-0.03384069353342056,0.8902689814567566,-0.19876740872859955,-0.08928991109132767,0.39992496371269226
16.0,0.06058088690042496,-0.3740819990634918,0.9741321206092834,-1.7231550216674805,-2.2976489067077637,-0.9450352191925049,1.4887675046920776,0.18894672393798828,-0.03309372812509537,0.8972203731536865,-0.1783488541841507,-0.07875886559486389,0.39621251821517944
17.0,0.06771381199359894,-0.37374433875083923,0.9842551946640015,-1.7246699333190918,-2.33347749710083,-0.9526640176773071,1.4835370779037476,0.1952265501022339,-0.03710133582353592,0.8929480910301208,-0.16461604833602905,-0.0759597197175026,0.412038117647171
18.0,0.06403794884681702,-0.396612286567688,1.0358853340148926,-1.8240307569503784,-2.303006887435913,-1.0245431661605835,1.4749563932418823,0.1926315724849701,-0.03175196051597595,0.9062783122062683,-0.15213099122047424,-0.06528442353010178,0.3889138400554657
19.0,0.08074086904525757,-0.3822548985481262,1.0287110805511475,-1.7723041772842407,-2.400972604751587,-0.9971816539764404,1.4685800075531006,0.206236332654953,-0.043643638491630554,0.8872693777084351,-0.13144154846668243,-0.06479032337665558,0.43735381960868835
20.0,0.08059268444776535,-0.3983363211154938,1.0708810091018677,-1.8549884557724,-2.391989231109619,-1.0611056089401245,1.4602895975112915,0.20628958940505981,-0.04093179851770401,0.8954233527183533,-0.11628733575344086,-0.05534762144088745,0.4261818528175354
21.0,0.07392042130231857,-0.42628973722457886,1.13421630859375,-1.9878568649291992,-2.3394999504089355,-1.164190411567688,1.4483519792556763,0.20124492049217224,-0.03304969519376755,0.9135915040969849,-0.09828685224056244,-0.04220610111951828,0.39231225848197937
22.0,0.08094089478254318,-0.4251762628555298,1.147058367729187,-2.002181053161621,-2.380643367767334,-1.1792898178100586,1.4423576593399048,0.20655328035354614,-0.03724142909049988,0.9073299169540405,-0.08432226628065109,-0.0381133034825325,0.4101092219352722
23.0,0.07069358974695206,-0.447390079498291,1.189751148223877,-2.099837303161621,-2.3099942207336426,-1.2597029209136963,1.4352043867111206,0.19892093539237976,-0.028578706085681915,0.9250948429107666,-0.07299848645925522,-0.0293146800249815,0.3714989125728607
24.0,0.08399547636508942,-0.43735307455062866,1.1926649808883667,-2.093240737915039,-2.391724109649658,-1.2573777437210083,1.4296584129333496,0.20876628160476685,-0.03722616285085678,0.9100479483604431,-0.05819045007228851,-0.026188267394900322,0.4095616936683655
25.0,0.09122943133115768,-0.43244728446006775,1.1975998878479004,-2.09207820892334,-2.438889503479004,-1.2555971145629883,1.4251809120178223,0.2139820009469986,-0.042408280074596405,0.9006107449531555,-0.04980367794632912,-0.023840079084038734,0.4311053454875946
26.0,0.07340963929891586,-0.4595455825328827,1.235457181930542,-2.187155246734619,-2.319061040878296,-1.3385443687438965,1.4211159944534302,0.2007899284362793,-0.028679922223091125,0.9272505044937134,-0.044581856578588486,-0.01785432919859886,0.37134918570518494
27.0,0.06657321006059647,-0.4612281918525696,1.2239680290222168,-2.1718785762786865,-2.27932071685791,-1.3252358436584473,1.4272267818450928,0.19597384333610535,-0.024806685745716095,0.9336028099060059,-0.05565384402871132,-0.02106292173266411,0.35333412885665894
28.0,0.05367853492498398,-0.4711160957813263,1.2267394065856934,-2.185249090194702,-2.205723285675049,-1.3356221914291382,1.4307655096054077,0.1865149438381195,-0.017562322318553925,0.9457603096961975,-0.0639556348323822,-0.02148953080177307,0.317781925201416
29.0,0.05909683182835579,-0.45471659302711487,1.1875635385513306,-2.109140634536743,-2.243891954421997,-1.2647323608398438,1.4402893781661987,0.19020697474479675,-0.021755613386631012,0.9362363815307617,-0.08389025181531906,-0.030451638624072075,0.33984795212745667
30.0,0.05409303307533264,-0.4553074538707733,1.1802687644958496,-2.1030354499816895,-2.2179598808288574,-1.2577751874923706,1.444446086883545,0.1863374412059784,-0.019183143973350525,0.9397561550140381,-0.09149878472089767,-0.031918250024318695,0.32782262563705444
31.0,0.06412363797426224,-0.43300533294677734,1.134650468826294,-2.0082335472106934,-2.283064842224121,-1.1783298254013062,1.452863097190857,0.1936538964509964,-0.026696518063545227,0.9240986704826355,-0.10653787851333618,-0.04203280806541443,0.36458829045295715
32.0,0.06711778044700623,-0.4158255159854889,1.0922296047210693,-1.9223765134811401,-2.3089232444763184,-1.1067922115325928,1.4615172147750854,0.19563162326812744,-0.030671171844005585,0.9138285517692566,-0.12426228076219559,-0.05209333077073097,0.38309600949287415
33.0,0.05643589794635773,-0.42268434166908264,1.0923442840576172,-1.9403740167617798,-2.250248432159424,-1.1132234334945679,1.4659451246261597,0.18702878057956696,-0.024174697697162628,0.9234882593154907,-0.136917382478714,-0.05255661532282829,0.3544868528842926
34.0,0.0518827848136425,-0.4149174690246582,1.0651758909225464,-1.9028019905090332,-2.2335987091064453,-1.0792256593704224,1.4745985269546509,0.18277275562286377,-0.022733129560947418,0.9224128723144531,-0.15329039096832275,-0.05811208486557007,0.3496849238872528
35.0,0.04205016791820526,-0.44995996356010437,1.1455601453781128,-2.056241750717163,-2.1659340858459473,-1.2072323560714722,1.4586336612701416,0.17596915364265442,-0.013967514038085938,0.9434422850608826,-0.12183161824941635,-0.039489686489105225,0.30580106377601624
36.0,0.047953132539987564,-0.45231160521507263,1.1611952781677246,-2.0771682262420654,-2.18939208984375,-1.2304941415786743,1.4522026777267456,0.18134215474128723,-0.01651892066001892,0.9420437812805176,-0.10759175568819046,-0.036058373749256134,0.3157171607017517
37.0,0.04019220173358917,-0.46836841106414795,1.194979190826416,-2.1408543586730957,-2.146785259246826,-1.2887223958969116,1.4451247453689575,0.17516686022281647,-0.011330150067806244,0.9515769481658936,-0.09327542781829834,-0.028575453907251358,0.29152098298072815
38.0,0.042723290622234344,-0.4736310541629791,1.2141361236572266,-2.1690869331359863,-2.154858350753784,-1.316746473312378,1.4381616115570068,0.1775026023387909,-0.012149974703788757,0.9520707726478577,-0.08040586858987808,-0.024835605174303055,0.2940737307071686
39.0,0.03154163807630539,-0.48401689529418945,1.2273468971252441,-2.1985206604003906,-2.1019701957702637,-1.345444679260254,1.4377669095993042,0.1682656705379486,-0.006247498095035553,0.9602746963500977,-0.07811294496059418,-0.021720517426729202,0.2670193016529083
40.0,0.03946690633893013,-0.4865841567516327,1.2477068901062012,-2.226825475692749,-2.134035110473633,-1.3757489919662476,1.4285144805908203,0.17511576414108276,-0.009686723351478577,0.9575141072273254,-0.05999493971467018,-0.017639493569731712,0.28152480721473694
41.0,0.05299040302634239,-0.4807172417640686,1.2555975914001465,-2.2372777462005615,-2.1965019702911377,-1.3870775699615479,1.421931266784668,0.18620604276657104,-0.016486823558807373,0.9491224884986877,-0.0454183891415596,-0.014894661493599415,0.3112584948539734
42.0,0.05272133648395538,-0.486531525850296,1.2739266157150269,-2.268843412399292,-2.1936261653900146,-1.4184108972549438,1.4158668518066406,0.18586131930351257,-0.01599907875061035,0.9504525065422058,-0.03370141237974167,-0.01095107477158308,0.3088439106941223
43.0,0.05540715903043747,-0.4914321005344391,1.2968403100967407,-2.3093669414520264,-2.2053780555725098,-1.4583631753921509,1.407252550125122,0.18774475157260895,-0.017029806971549988,0.9494648575782776,-0.016650699079036713,-0.005495778284966946,0.31338322162628174
44.0,0.054233040660619736,-0.49765777587890625,1.315653681755066,-2.343233108520508,-2.1971664428710938,-1.493180274963379,1.4010206460952759,0.1867671012878418,-0.016129881143569946,0.9511273503303528,-0.004102567210793495,-0.001331835170276463,0.3087688386440277
45.0,0.07477700710296631,-0.46879759430885315,1.2707862854003906,-2.2548763751983643,-2.3230342864990234,-1.3991343975067139,1.4094812870025635,0.2014322280883789,-0.028603404760360718,0.9284400939941406,-0.023343540728092194,-0.009318680502474308,0.37063083052635193
46.0,0.08322982490062714,-0.45368692278862,1.2443269491195679,-2.1975531578063965,-2.379976272583008,-1.3461586236953735,1.4147850275039673,0.20766502618789673,-0.03490743041038513,0.9161666035652161,-0.03258451074361801,-0.014198669232428074,0.39921876788139343
47.0,0.0843561589717865,-0.4620649218559265,1.280476450920105,-2.277716636657715,-2.3831045627593994,-1.4177671670913696,1.4035544395446777,0.20799490809440613,-0.03461446613073349,0.9174351096153259,-0.009488377720117569,-0.004113656468689442,0.3977510631084442
48.0,0.08108539134263992,-0.4724222421646118,1.310740351676941,-2.3459653854370117,-2.359745740890503,-1.481921672821045,1.394963026046753,0.2051679790019989,-0.03180895745754242,0.9227786660194397,0.008539004251360893,0.003564656712114811,0.3852193057537079
49.0,0.08522497117519379,-0.4715835154056549,1.3288813829421997,-2.3920063972473145,-2.387005567550659,-1.5212818384170532,1.3875948190689087,0.20745161175727844,-0.034421078860759735,0.9174511432647705,0.02354489453136921,0.010188884101808071,0.3970204293727875
50.0,0.06719186156988144,-0.4930071532726288,1.3424365520477295,-2.4061684608459473,-2.272644519805908,-1.5490251779556274,1.3882555961608887,0.1950286626815796,-0.022977560758590698,0.9387352466583252,0.023739520460367203,0.008692042902112007,0.34371069073677063
51.0,0.06050030142068863,-0.5042371153831482,1.362929105758667,-2.4379987716674805,-2.2330408096313477,-1.5846364498138428,1.3822393417358398,0.1900452971458435,-0.0191742405295372,0.945067822933197,0.0337601937353611,0.011606932617723942,0.32491931319236755
52.0,0.08047882467508316,-0.48159873485565186,1.3540929555892944,-2.447326183319092,-2.355776786804199,-1.5765058994293213,1.3802887201309204,0.20356202125549316,-0.03106965869665146,0.9231330156326294,0.03903381898999214,0.016158971935510635,0.3821526765823364
53.0,0.07339581102132797,-0.4952273964881897,1.3814361095428467,-2.4939796924591064,-2.310948371887207,-1.6255923509597778,1.3718076944351196,0.19806785881519318,-0.026522763073444366,0.9306547045707703,0.05303303152322769,0.02059701830148697,0.36144858598709106
54.0,0.05866336449980736,-0.5129950642585754,1.3964405059814453,-2.504338264465332,-2.224025011062622,-1.6531078815460205,1.3699743747711182,0.18786801397800446,-0.01827649027109146,0.9450516700744629,0.05866925045847893,0.019927559420466423,0.32099559903144836
55.0,0.06466074287891388,-0.5095115900039673,1.4148457050323486,-2.558281660079956,-2.2624895572662354,-1.6991724967956543,1.3614482879638672,0.1909509301185608,-0.021841101348400116,0.9369617104530334,0.07673045247793198,0.02782440185546875,0.3397660255432129
56.0,0.06966604292392731,-0.5054689049720764,1.4294636249542236,-2.605583667755127,-2.2952396869659424,-1.737112045288086,1.3542624711990356,0.1934816539287567,-0.02504681795835495,0.9294952750205994,0.09042660892009735,0.03462369367480278,0.35589709877967834
57.0,0.08947617560625076,-0.47689318656921387,1.4106826782226562,-2.61346697807312,-2.4200236797332764,-1.7153820991516113,1.3555954694747925,0.20711641013622284,-0.0378216877579689,0.9062418341636658,0.08397408574819565,0.03822936490178108,0.4125683009624481
58.0,0.08564524352550507,-0.48134148120880127,1.3919785022735596,-2.547478675842285,-2.3914027214050293,-1.6609629392623901,1.3642361164093018,0.20557141304016113,-0.03467272222042084,0.9141173958778381,0.06734295934438705,0.029374951496720314,0.3987372815608978
59.0,0.08924844861030579,-0.4734906256198883,1.3670740127563477,-2.4903345108032227,-2.4136297702789307,-1.6055573225021362,1.3725323677062988,0.20897576212882996,-0.03701864182949066,0.9110090136528015,0.05124083161354065,0.02297911047935486,0.4085448682308197
60.0,0.10053247213363647,-0.4554483890533447,1.3488075733184814,-2.461118698120117,-2.4922032356262207,-1.5669833421707153,1.3750379085540771,0.21720722317695618,-0.04611460864543915,0.894659161567688,0.0439751110970974,0.02182604745030403,0.44404375553131104
61.0,0.10053614526987076,-0.4579699635505676,1.3751059770584106,-2.5380258560180664,-2.4919118881225586,-1.6336758136749268,1.36525559425354,0.216252863407135,-0.04632110148668289,0.8934445977210999,0.061996180564165115,0.030795816332101822,0.4438072144985199
62.0,0.10001962631940842,-0.45923760533332825,1.393143653869629,-2.5937533378601074,-2.4896607398986816,-1.6826505661010742,1.3583548069000244,0.2150554358959198,-0.04652271419763565,0.8924834132194519,0.0750531479716301,0.037273142486810684,0.4432280361652374
63.0,0.10007870197296143,-0.4583657383918762,1.4061521291732788,-2.636871814727783,-2.4855220317840576,-1.7196673154830933,1.3527909517288208,0.2149687260389328,-0.0487426221370697,0.8919623494148254,0.0852983146905899,0.04226594418287277,0.4419739246368408
64.0,0.09867168962955475,-0.4602663218975067,1.429623007774353,-2.7128310203552246,-2.4818837642669678,-1.788043737411499,1.3434010744094849,0.21245069801807404,-0.047431014478206635,0.8895062804222107,0.10327035933732986,0.05133067071437836,0.44213029742240906
65.0,0.09738150984048843,-0.46126559376716614,1.446250081062317,-2.76846981048584,-2.4779052734375,-1.8383721113204956,1.3364442586898804,0.21039001643657684,-0.04652305692434311,0.8874168992042542,0.11646263301372528,0.058036115020513535,0.44222110509872437
66.0,0.08205404877662659,-0.48960447311401367,1.451391339302063,-2.7058441638946533,-2.3774335384368896,-1.8086246252059937,1.341012954711914,0.20018652081489563,-0.033715732395648956,0.9100273847579956,0.11240815371274948,0.0489155575633049,0.3960076868534088
67.0,0.08839794248342514,-0.4765697419643402,1.465410590171814,-2.790130138397217,-2.424494504928589,-1.8726258277893066,1.3320125341415405,0.20308847725391388,-0.03935064375400543,0.8963090777397156,0.12860792875289917,0.060273926705121994,0.4200679361820221
68.0,0.08877361565828323,-0.46081191301345825,1.5104252099990845,-3.001521587371826,-2.4424569606781006,-2.0530834197998047,1.307170033454895,0.19957470893859863,-0.04526478052139282,0.876594603061676,0.17399199306964874,0.08735169470310211,0.4400893449783325
69.0,0.08820564299821854,-0.4695656895637512,1.4944636821746826,-2.9144208431243896,-2.4334938526153564,-1.9806091785430908,1.3172051906585693,0.20060795545578003,-0.04182057082653046,0.8855800032615662,0.15673232078552246,0.07620053738355637,0.43055373430252075
70.0,0.07442790269851685,-0.499485582113266,1.4791492223739624,-2.767746686935425,-2.3371002674102783,-1.8790068626403809,1.3316091299057007,0.1935497224330902,-0.030085012316703796,0.912907600402832,0.135530024766922,0.05653855949640274,0.38083428144454956
71.0,0.06788501888513565,-0.5100109577178955,1.4665091037750244,-2.6993918418884277,-2.2929348945617676,-1.8279387950897217,1.3392645120620728,0.1902935802936554,-0.025156058371067047,0.9246896505355835,0.12084508687257767,0.046784695237874985,0.3579898774623871
72.0,0.06867892295122147,-0.5075863599777222,1.4948430061340332,-2.791254758834839,-2.3074042797088623,-1.9106509685516357,1.3263905048370361,0.18881309032440186,-0.02721206098794937,0.915836751461029,0.14694663882255554,0.05920277535915375,0.36897799372673035
73.0,0.06765123456716537,-0.5078818798065186,1.5122941732406616,-2.8416364192962646,-2.3081488609313965,-1.9564003944396973,1.3183443546295166,0.186806321144104,-0.02764587104320526,0.9116550087928772,0.16109561920166016,0.06578747928142548,0.372297465801239
74.0,0.050454992800951004,-0.5336847901344299,1.4987517595291138,-2.724555730819702,-2.2045679092407227,-1.8827403783798218,1.329587459564209,0.17690637707710266,-0.016494929790496826,0.9357873797416687,0.1416005790233612,0.048307325690984726,0.31924575567245483
75.0,0.04933260381221771,-0.5341437458992004,1.480492353439331,-2.673419237136841,-2.1924917697906494,-1.8349997997283936,1.3377256393432617,0.17731593549251556,-0.01514384150505066,0.941257655620575,0.12460831552743912,0.04119068756699562,0.31114333868026733
76.0,0.050181567668914795,-0.5312143564224243,1.4575847387313843,-2.6197996139526367,-2.1899712085723877,-1.7800565958023071,1.347148060798645,0.17924919724464417,-0.014807991683483124,0.945097029209137,0.10446369647979736,0.03401842340826988,0.307769238948822
77.0,0.05397293344140053,-0.5257984399795532,1.4450985193252563,-2.599696636199951,-2.206326484680176,-1.7540936470031738,1.351475715637207,0.18258044123649597,-0.01650935411453247,0.9438686370849609,0.09526973217725754,0.03176288306713104,0.31468531489372253
78.0,0.04973064363002777,-0.5264109373092651,1.424376130104065,-2.5477406978607178,-2.1816463470458984,-1.707916498184204,1.3609185218811035,0.18037354946136475,-0.013923995196819305,0.9499272704124451,0.07708308845758438,0.02449173852801323,0.3018220067024231
79.0,0.04152452200651169,-0.537805438041687,1.4466415643692017,-2.578108549118042,-2.1460821628570557,-1.7504239082336426,1.3534473180770874,0.17338383197784424,-0.01010306179523468,0.9534446597099304,0.09181132167577744,0.027533456683158875,0.28593018651008606
80.0,0.04033467918634415,-0.5417015552520752,1.4674630165100098,-2.6220154762268066,-2.146031618118286,-1.7985970973968506,1.34513258934021,0.17143604159355164,-0.010063163936138153,0.9508252143859863,0.11030072718858719,0.033350829035043716,0.28749412298202515
81.0,0.029807239770889282,-0.5485425591468811,1.4498828649520874,-2.5621323585510254,-2.092456579208374,-1.749942421913147,1.3541100025177002,0.16453857719898224,-0.0045506954193115234,0.9611450433731079,0.08912031352519989,0.024121534079313278,0.26014599204063416
82.0,0.031327858567237854,-0.5430043935775757,1.4293160438537598,-2.5269463062286377,-2.0953378677368164,-1.709574818611145,1.3624333143234253,0.1664808690547943,-0.004965268075466156,0.9624947905540466,0.07297654449939728,0.019755186513066292,0.2605530917644501
83.0,0.03944098576903343,-0.5338075757026672,1.4178553819656372,-2.5199553966522217,-2.131049633026123,-1.6928871870040894,1.365797996520996,0.17299385368824005,-0.008682586252689362,0.9581061601638794,0.06852229684591293,0.01983831450343132,0.27738726139068604
84.0,0.03683711960911751,-0.5330452919006348,1.4038429260253906,-2.4886231422424316,-2.116445779800415,-1.6612353324890137,1.3717865943908691,0.17156004905700684,-0.007267884910106659,0.9612014889717102,0.05490339174866676,0.01541589479893446,0.2698882520198822
85.0,0.03658631443977356,-0.525851309299469,1.3740500211715698,-2.4362480640411377,-2.1127898693084717,-1.6042332649230957,1.3836426734924316,0.17213143408298492,-0.007028527557849884,0.9629591107368469,0.03141793981194496,0.008733075112104416,0.26766854524612427
86.0,0.05082952231168747,-0.5172892212867737,1.383459448814392,-2.4674570560455322,-2.181478261947632,-1.6239352226257324,1.3768080472946167,0.18270866572856903,-0.014077842235565186,0.9525835514068604,0.0449749231338501,0.014192418195307255,0.3006000518798828
87.0,0.04919402673840523,-0.5136098861694336,1.362950086593628,-2.42787766456604,-2.1729629039764404,-1.58446204662323,1.3850815296173096,0.1819303035736084,-0.013242140412330627,0.9545730352401733,0.02886362187564373,0.008963526226580143,0.2964403033256531
88.0,0.05140078812837601,-0.5067761540412903,1.3421428203582764,-2.3903725147247314,-2.1831932067871094,-1.5433309078216553,1.3922152519226074,0.1840762495994568,-0.014439865946769714,0.9533600211143494,0.013790130615234375,0.004360970109701157,0.3014891445636749
89.0,0.04415665566921234,-0.5096477270126343,1.3330764770507812,-2.3701581954956055,-2.1475651264190674,-1.5266828536987305,1.3973734378814697,0.17871488630771637,-0.010778404772281647,0.958635151386261,0.003442955669015646,0.0010222004493698478,0.2846151292324066
90.0,0.033899374306201935,-0.5224063992500305,1.354715347290039,-2.402604341506958,-2.0993075370788574,-1.569803237915039,1.3918217420578003,0.17046529054641724,-0.005781911313533783,0.9651555418968201,0.015946676954627037,0.004314908757805824,0.26115524768829346
91.0,0.03946627303957939,-0.5078167915344238,1.3152364492416382,-2.336468458175659,-2.1263465881347656,-1.4917597770690918,1.404892086982727,0.17518839240074158,-0.00865357369184494,0.9613835215568542,-0.013298939913511276,-0.0038022350054234266,0.27486443519592285
92.0,0.039192985743284225,-0.5028669238090515,1.2979127168655396,-2.306838274002075,-2.126516819000244,-1.4592868089675903,1.4110805988311768,0.1750229001045227,-0.008730709552764893,0.9608903527259827,-0.02666281722486019,-0.007645600009709597,0.2755366563796997
93.0,0.03507331386208534,-0.5021914839744568,1.2884341478347778,-2.2936840057373047,-2.108184337615967,-1.447493314743042,1.4158378839492798,0.17176836729049683,-0.006853044033050537,0.9630681276321411,-0.03409688547253609,-0.009450271725654602,0.26692336797714233
94.0,0.032842006534338,-0.49910083413124084,1.2750552892684937,-2.274294853210449,-2.099001407623291,-1.4277615547180176,1.4213777780532837,0.16999948024749756,-0.005948670208454132,0.9637506008148193,-0.043683622032403946,-0.011917945928871632,0.2629343867301941
95.0,0.02734319306910038,-0.4995841085910797,1.267382264137268,-2.2632100582122803,-2.0756711959838867,-1.4159010648727417,1.4255926609039307,0.1654026210308075,-0.003533080220222473,0.9662514328956604,-0.05227625370025635,-0.013626829721033573,0.25187236070632935
96.0,0.0225510373711586,-0.5091937780380249,1.2894145250320435,-2.297525405883789,-2.050786256790161,-1.4553608894348145,1.4190415143966675,0.16178813576698303,-0.0012773200869560242,0.9702399373054504,-0.0387289822101593,-0.009533681906759739,0.23883818089962006
97.0,0.028236914426088333,-0.5144495368003845,1.315177321434021,-2.3359084129333496,-2.0741989612579346,-1.4970699548721313,1.4079855680465698,0.1663825362920761,-0.003399863839149475,0.9681869745254517,-0.017588935792446136,-0.004533867817372084,0.24956780672073364
98.0,0.025539973750710487,-0.5212015509605408,1.3321707248687744,-2.3611981868743896,-2.060554027557373,-1.5270960330963135,1.4021987915039062,0.16427722573280334,-0.0021745115518569946,0.970098078250885,-0.0063156504184007645,-0.001579573261551559,0.24262599647045135
99.0,0.016622763127088547,-0.5204797983169556,1.3147392272949219,-2.332118034362793,-2.022322416305542,-1.495425820350647,1.4107614755630493,0.15714426338672638,0.0011480599641799927,0.9741793274879456,-0.024935705587267876,-0.005741859786212444,0.22432094812393188
100.0,0.012102625332772732,-0.5292721390724182,1.3355557918548584,-2.361464023590088,-2.0008339881896973,-1.5333541631698608,1.4037857055664062,0.15367187559604645,0.0028897225856781006,0.9768853187561035,-0.01071151066571474,-0.0023408313281834126,0.2134828418493271
101.0,0.018870849162340164,-0.5300750732421875,1.3496654033660889,-2.385382890701294,-2.0301876068115234,-1.5595120191574097,1.3969148397445679,0.1589706838130951,0.000445440411567688,0.9737235307693481,0.004263244103640318,0.0009968987433239818,0.22769132256507874
102.0,0.025918614119291306,-0.5319514870643616,1.3696479797363281,-2.4192698001861572,-2.062931537628174,-1.5936013460159302,1.3874861001968384,0.16410470008850098,-0.0022432804107666016,0.969607949256897,0.022313103079795837,0.005605383776128292,0.2435799390077591
103.0,0.017569808289408684,-0.540708601474762,1.3839794397354126,-2.437058925628662,-2.0262389183044434,-1.6230287551879883,1.3835241794586182,0.15746094286441803,0.0009268522262573242,0.973616361618042,0.0313972644507885,0.007284955121576786,0.2259034812450409
104.0,0.028332224115729332,-0.5350975394248962,1.3862920999526978,-2.4471964836120605,-2.0747029781341553,-1.6229615211486816,1.3802998065948486,0.1656644344329834,-0.0032400786876678467,0.9676926732063293,0.03582516312599182,0.00923324003815651,0.24940404295921326
105.0,0.024255089461803436,-0.5438171029090881,1.409864902496338,-2.4821085929870605,-2.059488296508789,-1.6669803857803345,1.3715096712112427,0.16187100112438202,-0.0016920119524002075,0.9686185121536255,0.052915699779987335,0.013247411698102951,0.24249303340911865
106.0,0.017924321815371513,-0.5445153713226318,1.396936297416687,-2.4540798664093018,-2.028834819793701,-1.6405003070831299,1.3778324127197266,0.1574908196926117,0.0007849335670471191,0.972992479801178,0.039151642471551895,0.009146522730588913,0.22730843722820282
107.0,0.002681161742657423,-0.5504041910171509,1.3880527019500732,-2.4282333850860596,-1.9613300561904907,-1.6227384805679321,1.38405442237854,0.14597216248512268,0.006175100803375244,0.9806345105171204,0.024868929758667946,0.004924895241856575,0.19419904053211212
108.0,0.010496826842427254,-0.5409538745880127,1.3720464706420898,-2.415895462036133,-1.9941855669021606,-1.6048766374588013,1.3898495435714722,0.1522025465965271,0.0034920573234558105,0.9774423241615295,0.020317524671554565,0.004368847236037254,0.21017800271511078
109.0,0.0024601684417575598,-0.5400349497795105,1.3554961681365967,-2.3872873783111572,-1.9578319787979126,-1.5735245943069458,1.3979686498641968,0.14619991183280945,0.006264328956604004,0.9813306331634521,0.00244676205329597,0.00047949430881999433,0.19231227040290833
110.0,-0.004034262150526047,-0.5474568009376526,1.369227647781372,-2.400907516479492,-1.9318350553512573,-1.5944030284881592,1.393288016319275,0.14087438583374023,0.008301794528961182,0.9837023615837097,0.008878284133970737,0.0016207637963816524,0.1795785278081894
111.0,-0.007626820355653763,-0.5530937314033508,1.3820730447769165,-2.4151611328125,-1.9188637733459473,-1.6158775091171265,1.3884131908416748,0.13778601586818695,0.009320199489593506,0.9847175478935242,0.01711084134876728,0.003011172404512763,0.1732909232378006
112.0,-0.013263512402772903,-0.55042964220047,1.3676561117172241,-2.396367311477661,-1.8958109617233276,-1.5969229936599731,1.3956972360610962,0.13322892785072327,0.010879531502723694,0.9868000745773315,0.005671737715601921,0.0009301999234594405,0.1618412882089615
113.0,-0.023669717833399773,-0.5543103814125061,1.3682456016540527,-2.3936500549316406,-1.8557190895080566,-1.602515697479248,1.3972384929656982,0.12459458410739899,0.013606101274490356,0.9898542165756226,0.0033508646301925182,0.0004808568919543177,0.14204637706279755
114.0,-0.03048555739223957,-0.5534945726394653,1.360229730606079,-2.384361743927002,-1.825015902519226,-1.5979493856430054,1.4020658731460571,0.11951446533203125,0.015027612447738647,0.9919246435165405,-0.002085735322907567,-0.00026664958568289876,0.12681202590465546
115.0,-0.016771512106060982,-0.5476228594779968,1.355594277381897,-2.3811795711517334,-1.882041335105896,-1.5786720514297485,1.4014877080917358,0.1302608996629715,0.011838763952255249,0.9879039525985718,-0.004581022076308727,-0.0007187426672317088,0.15499787032604218
116.0,-0.01810752972960472,-0.5448196530342102,1.3463071584701538,-2.3708391189575195,-1.8774946928024292,-1.5660109519958496,1.4057655334472656,0.12898245453834534,0.012221813201904297,0.9882013201713562,-0.011201540939509869,-0.0017313590506091714,0.1527407020330429
117.0,-0.02413928508758545,-0.545038640499115,1.3428657054901123,-2.3709073066711426,-1.8548411130905151,-1.5789459943771362,1.4089635610580444,0.12378686666488647,0.013818949460983276,0.9898982048034668,-0.008075852878391743,-0.001154762809164822,0.1415451467037201
118.0,-0.01544517744332552,-0.5379900932312012,1.3304263353347778,-2.3569655418395996,-1.8887258768081665,-1.550750494003296,1.41243314743042,0.1309669464826584,0.01155322790145874,0.987240195274353,-0.017024829983711243,-0.0027298980858176947,0.15830202400684357
119.0,-0.006151799578219652,-0.5423880219459534,1.3516926765441895,-2.3796703815460205,-1.9229658842086792,-1.5695481300354004,1.4012089967727661,0.13915926218032837,0.00891229510307312,0.984530508518219,-0.003605062374845147,-0.000641440215986222,0.17517516016960144
120.0,-0.007240760140120983,-0.5379738807678223,1.337629795074463,-2.363030195236206,-1.919703722000122,-1.5490893125534058,1.4073673486709595,0.13806256651878357,0.009242430329322815,0.9847208857536316,-0.013609552755951881,-0.002399150747805834,0.17359085381031036
121.0,0.0025085005909204483,-0.5339297652244568,1.3366619348526,-2.36204195022583,-1.9591220617294312,-1.5404677391052246,1.4055685997009277,0.14610227942466736,0.006234705448150635,0.981113851070404,-0.012539967894554138,-0.002466910984367132,0.19300851225852966
122.0,0.0037320945411920547,-0.5282939076423645,1.321722149848938,-2.3440608978271484,-1.9656238555908203,-1.5184160470962524,1.4114539623260498,0.14691734313964844,0.0057989805936813354,0.9802854061126709,-0.02187129482626915,-0.004380218684673309,0.1963242143392563
123.0,-0.006090593058615923,-0.5329078435897827,1.324257731437683,-2.347870111465454,-1.9250223636627197,-1.5296590328216553,1.4127520322799683,0.13887692987918854,0.008924558758735657,0.9840866923332214,-0.021984491497278214,-0.003938096109777689,0.17628006637096405
124.0,-0.004290799144655466,-0.5282214283943176,1.313147783279419,-2.336599588394165,-1.9329631328582764,-1.5168683528900146,1.417151927947998,0.14025190472602844,0.008410260081291199,0.983237624168396,-0.026906821876764297,-0.004933049436658621,0.18026505410671234
125.0,-0.013364579528570175,-0.5315425992012024,1.314353108406067,-2.339834213256836,-1.898842453956604,-1.5280736684799194,1.4188354015350342,0.13233572244644165,0.011031106114387512,0.9861986041069031,-0.02653895877301693,-0.004396259784698486,0.16336682438850403
126.0,-0.006371999625116587,-0.5246606469154358,1.3010365962982178,-2.32265305519104,-1.927557349205017,-1.500690221786499,1.4225683212280273,0.1380503624677658,0.009047329425811768,0.9834221601486206,-0.03544662147760391,-0.006405659485608339,0.17771701514720917
127.0,0.005459497217088938,-0.5161921381950378,1.2877607345581055,-2.298246145248413,-1.9776358604431152,-1.4596900939941406,1.4241406917572021,0.1477193832397461,0.005071952939033508,0.9780126810073853,-0.047247741371393204,-0.009801413863897324,0.20288605988025665
128.0,0.0004937396734021604,-0.5152686834335327,1.2806541919708252,-2.2940940856933594,-1.9588289260864258,-1.4599521160125732,1.4286338090896606,0.14332321286201477,0.006807535886764526,0.9797514081001282,-0.050049785524606705,-0.009890349581837654,0.19360889494419098
129.0,0.007667125668376684,-0.520763635635376,1.304569125175476,-2.3224856853485107,-1.9841036796569824,-1.490976333618164,1.4173942804336548,0.14989852905273438,0.004384472966194153,0.9780789017677307,-0.03200404718518257,-0.006729157641530037,0.2056504637002945
130.0,0.015608800575137138,-0.5109627842903137,1.285272479057312,-2.2933642864227295,-2.0214202404022217,-1.4524435997009277,1.4224920272827148,0.15601962804794312,0.001359313726425171,0.9734095931053162,-0.04426321014761925,-0.010209565050899982,0.22452253103256226
131.0,0.017987728118896484,-0.5032238960266113,1.265119194984436,-2.2628090381622314,-2.0354738235473633,-1.4158529043197632,1.4290517568588257,0.1575823575258255,0.00025869905948638916,0.9708077311515808,-0.058520328253507614,-0.013996399007737637,0.2321896255016327
132.0,0.013234293088316917,-0.5028634071350098,1.2578872442245483,-2.253740072250366,-2.0164434909820557,-1.4048243761062622,1.4329231977462769,0.1534668505191803,0.002006053924560547,0.9724107980728149,-0.06642075628042221,-0.015238857828080654,0.22309936583042145
133.0,0.02077767439186573,-0.49127474427223206,1.2336353063583374,-2.215606689453125,-2.0534162521362305,-1.3629796504974365,1.439245343208313,0.15932555496692657,-0.0012152716517448425,0.9667208790779114,-0.07896918058395386,-0.019811928272247314,0.2425326555967331
134.0,0.012941058725118637,-0.49410220980644226,1.2328497171401978,-2.2203357219696045,-2.0212934017181396,-1.3681883811950684,1.442076325416565,0.15248998999595642,0.0018716305494308472,0.9703367948532104,-0.08229334652423859,-0.019209852442145348,0.22650712728500366
135.0,0.021682217717170715,-0.48262476921081543,1.2099813222885132,-2.1797776222229004,-2.0632882118225098,-1.324373722076416,1.4468446969985962,0.15944921970367432,-0.0019759610295295715,0.9636471271514893,-0.09423233568668365,-0.024331633001565933,0.24882228672504425
136.0,0.030983584001660347,-0.47816625237464905,1.209731936454773,-2.172423839569092,-2.102813720703125,-1.3186759948730469,1.4437956809997559,0.16753500699996948,-0.006340019404888153,0.9587963819503784,-0.08927462995052338,-0.025004204362630844,0.26854151487350464
137.0,0.032176673412323,-0.46657752990722656,1.1777154207229614,-2.117405414581299,-2.11531138420105,-1.2606232166290283,1.4528226852416992,0.16789792478084564,-0.00785825401544571,0.953712522983551,-0.11111301928758621,-0.032337579876184464,0.2775620222091675
138.0,0.032802801579236984,-0.4557497501373291,1.1482821702957153,-2.0688281059265137,-2.124824047088623,-1.212530255317688,1.4610637426376343,0.16782887279987335,-0.009102888405323029,0.9489858150482178,-0.12889771163463593,-0.03873118758201599,0.28515127301216125
139.0,0.03703271597623825,-0.4423917233943939,1.1175816059112549,-2.0148346424102783,-2.1498336791992188,-1.164614200592041,1.4679800271987915,0.17103230953216553,-0.012354649603366852,0.9418597221374512,-0.1423535943031311,-0.04548485949635506,0.3009432852268219
140.0,0.027835942804813385,-0.45606741309165955,1.1431940793991089,-2.067993640899658,-2.1055359840393066,-1.2100656032562256,1.4646307229995728,0.16319341957569122,-0.006731867790222168,0.951004683971405,-0.13436782360076904,-0.03895564377307892,0.27571332454681396
141.0,0.01648644357919693,-0.4817105233669281,1.2011821269989014,-2.169904947280884,-2.044236421585083,-1.3115029335021973,1.451309084892273,0.15459367632865906,-4.991888999938965e-06,0.9649186134338379,-0.10351383686065674,-0.025736406445503235,0.2399054616689682
142.0,0.011384708806872368,-0.4814314544200897,1.194748044013977,-2.1642298698425293,-2.025174856185913,-1.3029345273971558,1.4550226926803589,0.1498514711856842,0.0019259452819824219,0.966293215751648,-0.11099499464035034,-0.02650783769786358,0.23077024519443512
143.0,0.004058768041431904,-0.4800739884376526,1.1841553449630737,-2.1567535400390625,-2.00071120262146,-1.2934002876281738,1.4610737562179565,0.14262008666992188,0.004643067717552185,0.9679032564163208,-0.12040233612060547,-0.027232281863689423,0.21891778707504272
144.0,0.0036861225962638855,-0.47113046050071716,1.1585301160812378,-2.117144823074341,-2.007293224334717,-1.246766448020935,1.4688506126403809,0.1411822885274887,0.004335999488830566,0.9638192653656006,-0.14025524258613586,-0.032641805708408356,0.22431102395057678
145.0,0.01463024690747261,-0.46791476011276245,1.1606355905532837,-2.1105308532714844,-2.0482850074768066,-1.2470732927322388,1.4645825624465942,0.1515340507030487,-4.5299530029296875e-06,0.9600296020507812,-0.131272092461586,-0.033490683883428574,0.2449267953634262
146.0,0.017860310152173042,-0.456240177154541,1.1318268775939941,-2.0602169036865234,-2.068946361541748,-1.1953039169311523,1.4714150428771973,0.15357831120491028,-0.0023105815052986145,0.9536346197128296,-0.14908245205879211,-0.040382020175457,0.25831136107444763
147.0,0.015061581507325172,-0.452059268951416,1.1176717281341553,-2.041790723800659,-2.0625786781311035,-1.1753487586975098,1.476453423500061,0.15039382874965668,-0.0014181658625602722,0.9523962140083313,-0.15927135944366455,-0.042876679450273514,0.2563900649547577
148.0,0.009681861847639084,-0.4500133693218231,1.1067742109298706,-2.031963348388672,-2.0458264350891113,-1.1620076894760132,1.481554388999939,0.14477932453155518,0.0007802695035934448,0.952640175819397,-0.16922788321971893,-0.04419148340821266,0.24876858294010162
149.0,0.009913412854075432,-0.43997642397880554,1.079899549484253,-1.9865119457244873,-2.0539541244506836,-1.1144893169403076,1.4880037307739258,0.14407368004322052,-0.00032542645931243896,0.9468569755554199,-0.18747231364250183,-0.050764963030815125,0.2563960552215576
150.0,0.019439836964011192,-0.4281562268733978,1.0589103698730469,-1.9406710863113403,-2.0943338871002197,-1.08033287525177,1.4894278049468994,0.15283948183059692,-0.0057554468512535095,0.9391443729400635,-0.19074532389640808,-0.056866031140089035,0.2799828350543976
151.0,0.019528597593307495,-0.41016247868537903,1.012495517730713,-1.8627914190292358,-2.1048991680145264,-1.008628487586975,1.499418020248413,0.15175925195217133,-0.007940083742141724,0.9290332198143005,-0.2161061316728592,-0.06804327666759491,0.2925158441066742
152.0,0.020210834220051765,-0.3882737457752228,0.9587476253509521,-1.775159239768982,-2.1182284355163574,-0.9359287619590759,1.5099724531173706,0.15123401582241058,-0.01092182844877243,0.9172157049179077,-0.23948492109775543,-0.08043111115694046,0.3080472946166992
153.0,0.01892356015741825,-0.3773214519023895,0.9308593273162842,-1.7332721948623657,-2.118813991546631,-0.9013442993164062,1.515763521194458,0.14931894838809967,-0.011671140789985657,0.9116339087486267,-0.25195935368537903,-0.08650260418653488,0.31298187375068665
154.0,0.029678862541913986,-0.33695006370544434,0.8470235466957092,-1.5795238018035889,-2.1772513389587402,-0.8049901127815247,1.5242050886154175,0.1583552062511444,-0.02223780006170273,0.8892794251441956,-0.26355236768722534,-0.10621364414691925,0.3583865165710449
155.0,0.028012610971927643,-0.37603774666786194,0.9374403953552246,-1.7279142141342163,-2.153503656387329,-0.9099202156066895,1.5105534791946411,0.15846197307109833,-0.016194775700569153,0.9097110033035278,-0.23718687891960144,-0.08599033206701279,0.32980895042419434
156.0,0.027419032528996468,-0.39774081110954285,0.9902313947677612,-1.8171473741531372,-2.1397862434387207,-0.980904221534729,1.5011591911315918,0.15908101201057434,-0.013068214058876038,0.9217350482940674,-0.21597297489643097,-0.07348565757274628,0.3136240243911743
157.0,0.026659592986106873,-0.4230567514896393,1.053627848625183,-1.9221076965332031,-2.1228952407836914,-1.0704575777053833,1.4877541065216064,0.15978844463825226,-0.009647771716117859,0.9350787997245789,-0.1866767257452011,-0.05898604169487953,0.2954658567905426
158.0,0.025091413408517838,-0.4370555579662323,1.0881673097610474,-1.979108452796936,-2.1080102920532227,-1.120027780532837,1.4798166751861572,0.15921474993228912,-0.0074578747153282166,0.9422389268875122,-0.17074795067310333,-0.05138048157095909,0.2835330665111542
159.0,0.02780698426067829,-0.4420824646949768,1.1049467325210571,-2.004098892211914,-2.1149299144744873,-1.1467760801315308,1.4746564626693726,0.16218560934066772,-0.00814315676689148,0.9442211389541626,-0.15815210342407227,-0.04771619290113449,0.2848816514015198
160.0,0.0328960083425045,-0.4186345338821411,1.0496171712875366,-1.9072115421295166,-2.1486802101135254,-1.0638096332550049,1.4862195253372192,0.16568471491336823,-0.013100624084472656,0.9314730763435364,-0.18201392889022827,-0.06041105464100838,0.30915912985801697
161.0,0.03805781528353691,-0.3898169696331024,0.982962965965271,-1.7872307300567627,-2.1872050762176514,-0.9706792831420898,1.4980318546295166,0.16891822218894958,-0.01912180334329605,0.9150599241256714,-0.2050304412841797,-0.0759374275803566,0.3389120399951935
162.0,0.037180300801992416,-0.4258524775505066,1.0738481283187866,-1.942289113998413,-2.160871744155884,-1.0991867780685425,1.4789445400238037,0.17023642361164093,-0.014271542429924011,0.9340293407440186,-0.16510054469108582,-0.05513467267155647,0.31191539764404297
163.0,0.04517385736107826,-0.3990027606487274,1.0145512819290161,-1.82490074634552,-2.21189284324646,-1.0070961713790894,1.4880839586257935,0.1760963797569275,-0.021574020385742188,0.9169237613677979,-0.18460625410079956,-0.06982927769422531,0.3468361496925354
164.0,0.047033656388521194,-0.3757335841655731,0.9593645334243774,-1.7274870872497559,-2.2331695556640625,-0.9339042901992798,1.4979077577590942,0.17672860622406006,-0.025653883814811707,0.9043117761611938,-0.2027241587638855,-0.08217489719390869,0.36656567454338074
165.0,0.04070061445236206,-0.3632497489452362,0.9213088750839233,-1.6767454147338867,-2.211202621459961,-0.8883044719696045,1.5074598789215088,0.1702810823917389,-0.024183206260204315,0.9000556468963623,-0.2248203456401825,-0.09046613425016403,0.3621760904788971
166.0,0.038451988250017166,-0.33077511191368103,0.8425292372703552,-1.5520436763763428,-2.2136454582214355,-0.7962573766708374,1.5202337503433228,0.1670655906200409,-0.027719110250473022,0.884086012840271,-0.2521525025367737,-0.10791638493537903,0.3783716857433319
167.0,0.03919745609164238,-0.3037669062614441,0.7823108434677124,-1.4574235677719116,-2.2257955074310303,-0.7361388802528381,1.5279295444488525,0.16701072454452515,-0.03184953331947327,0.8713268637657166,-0.2642993927001953,-0.1200101375579834,0.39564239978790283
168.0,0.045999813824892044,-0.3216584622859955,0.8308553099632263,-1.5171834230422974,-2.2502753734588623,-0.7834264636039734,1.5183331966400146,0.17404228448867798,-0.03292418271303177,0.877760648727417,-0.24185632169246674,-0.10986069589853287,0.39871352910995483
169.0,0.04932108521461487,-0.26843228936195374,0.7165440320968628,-1.3339005708694458,-2.2795732021331787,-0.6727405190467834,1.5303092002868652,0.1762254536151886,-0.04229920357465744,0.8530147075653076,-0.25752192735671997,-0.13119031488895416,0.4345543682575226
170.0,0.05091829597949982,-0.3424689471721649,0.8851795792579651,-1.595787525177002,-2.265773057937622,-0.8438732028007507,1.5085428953170776,0.17920279502868652,-0.03239170461893082,0.8863840103149414,-0.21915772557258606,-0.09787855297327042,0.39587005972862244
171.0,0.057357996702194214,-0.33582034707069397,0.8779644966125488,-1.5655457973480225,-2.2968087196350098,-0.8280656933784485,1.505883812904358,0.1851930171251297,-0.03706281632184982,0.8799551725387573,-0.21203242242336273,-0.09958430379629135,0.4132845401763916
172.0,0.05777939036488533,-0.2941586673259735,0.7853896617889404,-1.4188443422317505,-2.3103702068328857,-0.7323877811431885,1.518463373184204,0.18500173091888428,-0.0442657470703125,0.8615361452102661,-0.23092958331108093,-0.1170601174235344,0.4367198050022125
173.0,0.06384482979774475,-0.3112531900405884,0.8350200057029724,-1.486708402633667,-2.330260992050171,-0.7801989316940308,1.5093122720718384,0.1914457082748413,-0.04699958860874176,0.8677589893341064,-0.21129558980464935,-0.10642267018556595,0.43706175684928894
174.0,0.056694693863391876,-0.2849043309688568,0.7677221894264221,-1.4034788608551025,-2.301133871078491,-0.7201359868049622,1.5218663215637207,0.18459533154964447,-0.047660231590270996,0.860405683517456,-0.23704981803894043,-0.1198234036564827,0.4349158704280853
175.0,0.053164128214120865,-0.2759847640991211,0.741534948348999,-1.3686484098434448,-2.2899911403656006,-0.6959972977638245,1.5262935161590576,0.1807115375995636,-0.045725107192993164,0.8568249940872192,-0.2474602311849594,-0.1255117952823639,0.4345815181732178
176.0,0.049490608274936676,-0.2626165747642517,0.7081281542778015,-1.330095887184143,-2.275381565093994,-0.6691528558731079,1.5318903923034668,0.1770571768283844,-0.04581204801797867,0.8528304100036621,-0.25960642099380493,-0.13194359838962555,0.4334465563297272
177.0,0.045871201902627945,-0.2464788556098938,0.6705877184867859,-1.2905887365341187,-2.2591612339019775,-0.641996443271637,1.5379784107208252,0.17368391156196594,-0.04720444977283478,0.8485976457595825,-0.2722938656806946,-0.13858410716056824,0.4318941831588745
178.0,0.037707097828388214,-0.21373964846134186,0.5941179394721985,-1.2135207653045654,-2.2261223793029785,-0.5907046794891357,1.5494745969772339,0.165496826171875,-0.049074627459049225,0.8395599126815796,-0.2975107431411743,-0.15182974934577942,0.4284556806087494
179.0,0.04192236810922623,-0.22813880443572998,0.6295927166938782,-1.250914454460144,-2.2413721084594727,-0.6151637434959412,1.5444501638412476,0.16998964548110962,-0.04946846514940262,0.8441685438156128,-0.28555309772491455,-0.14537721872329712,0.4297724962234497
180.0,0.053517695516347885,-0.27033695578575134,0.7344235777854919,-1.3676612377166748,-2.285501003265381,-0.6939456462860107,1.527799367904663,0.18185830116271973,-0.04979191720485687,0.8570564985275269,-0.2492181658744812,-0.12591011822223663,0.43300244212150574
181.0,0.05226728320121765,-0.2594718635082245,0.7135997414588928,-1.3502330780029297,-2.275195837020874,-0.6805389523506165,1.5315569639205933,0.18134048581123352,-0.053525105118751526,0.8555489778518677,-0.25604498386383057,-0.12901267409324646,0.4310831129550934
182.0,0.04762519896030426,-0.24178747832775116,0.6699351668357849,-1.3013782501220703,-2.2567567825317383,-0.647167444229126,1.5385748147964478,0.17671144008636475,-0.053685739636421204,0.8502501845359802,-0.2712971866130829,-0.13711902499198914,0.4297334849834442
183.0,0.04305646941065788,-0.22337721288204193,0.6259989738464355,-1.2554593086242676,-2.2385945320129395,-0.61672043800354,1.5453133583068848,0.17212310433387756,-0.05431671440601349,0.8450080752372742,-0.28573280572891235,-0.14479175209999084,0.4281979501247406
184.0,0.03710794448852539,-0.2049194872379303,0.5789293646812439,-1.2048330307006836,-2.219129800796509,-0.5843278765678406,1.5519293546676636,0.16551420092582703,-0.05276261270046234,0.8387044072151184,-0.30148881673812866,-0.15341529250144958,0.4267823398113251
185.0,0.03253312408924103,-0.1824105978012085,0.5291376113891602,-1.1600384712219238,-2.19881010055542,-0.5559269189834595,1.5585695505142212,0.16112422943115234,-0.05513320118188858,0.8330965638160706,-0.3160972595214844,-0.16102281212806702,0.4243869483470917
186.0,0.023984570056200027,-0.14290450513362885,0.43830186128616333,-1.078226089477539,-2.165933847427368,-0.5087732076644897,1.568925142288208,0.15216606855392456,-0.05612105876207352,0.8223737478256226,-0.3401699960231781,-0.17431962490081787,0.4214242994785309
187.0,0.02777078188955784,-0.16467970609664917,0.48517298698425293,-1.1159230470657349,-2.182767391204834,-0.5301549434661865,1.5635695457458496,0.15583348274230957,-0.053656116127967834,0.8272159099578857,-0.3286210894584656,-0.16826660931110382,0.42356622219085693
188.0,0.010891461744904518,-0.08402986824512482,0.3007865250110626,-0.9629362225532532,-2.121161937713623,-0.4503646194934845,1.580772042274475,0.1375260204076767,-0.054317593574523926,0.8068423867225647,-0.37189212441444397,-0.19214557111263275,0.4168713688850403
189.0,0.01566358655691147,-0.11157785356044769,0.36240914463996887,-1.01039719581604,-2.139587640762329,-0.47279074788093567,1.575919270515442,0.1425928771495819,-0.05362638831138611,0.8129569888114929,-0.35943660140037537,-0.18526600301265717,0.41902604699134827
190.0,0.02266574278473854,-0.14652562141418457,0.440163254737854,-1.0725442171096802,-2.166809320449829,-0.5059902667999268,1.568306565284729,0.14996641874313354,-0.051835812628269196,0.8212904930114746,-0.3408375382423401,-0.1753644347190857,0.42256247997283936
191.0,0.0330229215323925,-0.19267703592777252,0.546442449092865,-1.1688393354415894,-2.2062876224517822,-0.56210857629776,1.5559327602386475,0.1608715057373047,-0.050707243382930756,0.8339622020721436,-0.312020868062973,-0.1594889760017395,0.4262784421443939
192.0,0.029071344062685966,-0.1793651133775711,0.5124343037605286,-1.1331802606582642,-2.193483352661133,-0.5408893823623657,1.5599085092544556,0.15641750395298004,-0.049055710434913635,0.8292005062103271,-0.322206974029541,-0.16542693972587585,0.42572665214538574
193.0,0.021770324558019638,-0.1521957665681839,0.44643542170524597,-1.070286750793457,-2.1693239212036133,-0.5051334500312805,1.567168116569519,0.1482134461402893,-0.0473288893699646,0.8206630945205688,-0.340384840965271,-0.17583954334259033,0.42394664883613586
194.0,0.026361597701907158,-0.1735532283782959,0.4940064549446106,-1.1103763580322266,-2.1872429847717285,-0.5281208157539368,1.5616941452026367,0.15301021933555603,-0.04594250023365021,0.8260007500648499,-0.3278762102127075,-0.16915850341320038,0.426151841878891
195.0,0.031307708472013474,-0.1946759670972824,0.5435329675674438,-1.1573072671890259,-2.2059590816497803,-0.5559436678886414,1.5557608604431152,0.15822938084602356,-0.04587931931018829,0.8321673274040222,-0.31398048996925354,-0.1613520085811615,0.4276439845561981
196.0,0.03940115123987198,-0.22642211616039276,0.6186279654502869,-1.2320301532745361,-2.237339973449707,-0.60365891456604,1.5456442832946777,0.16661417484283447,-0.04535626620054245,0.8416110873222351,-0.29030299186706543,-0.14850758016109467,0.43053510785102844
197.0,0.04516118764877319,-0.24979116022586823,0.6729784607887268,-1.28715181350708,-2.2612924575805664,-0.6407931447029114,1.5373362302780151,0.17230328917503357,-0.04377611726522446,0.8479809761047363,-0.2721122205257416,-0.1389768272638321,0.43309226632118225
198.0,0.035122063010931015,-0.21323037147521973,0.5844939947128296,-1.1943130493164062,-2.222944974899292,-0.5794674158096313,1.5502145290374756,0.1618914157152176,-0.04389332979917526,0.8368094563484192,-0.30187082290649414,-0.15499289333820343,0.4296523928642273
199.0,0.019357427954673767,-0.1499769687652588,0.435312420129776,-1.0536383390426636,-2.1646347045898438,-0.4957021474838257,1.5677868127822876,0.14503557980060577,-0.04343757778406143,0.8180267214775085,-0.3446812033653259,-0.17879599332809448,0.4243338406085968
200.0,0.025034364312887192,-0.175418421626091,0.49223798513412476,-1.1016888618469238,-2.1873068809509277,-0.5237714052200317,1.561431646347046,0.1509176790714264,-0.04196193069219589,0.8246093988418579,-0.32913723587989807,-0.1705595850944519,0.42731425166130066
201.0,0.030123112723231316,-0.19771797955036163,0.5440291166305542,-1.150176763534546,-2.2068991661071777,-0.5524071455001831,1.5552151203155518,0.15624749660491943,-0.041633978486061096,0.8309828639030457,-0.3147623538970947,-0.16247697174549103,0.42894452810287476
202.0,0.032117899507284164,-0.24331305921077728,0.6422964334487915,-1.270891785621643,-2.2098751068115234,-0.6172318458557129,1.5460500717163086,0.1586959958076477,-0.03641544282436371,0.846811056137085,-0.30024492740631104,-0.14671970903873444,0.41380834579467773
203.0,0.03359115496277809,-0.27979764342308044,0.7230035662651062,-1.3817107677459717,-2.2090795040130615,-0.6827729940414429,1.5375057458877563,0.16079296171665192,-0.032253019511699677,0.8617563843727112,-0.2851394712924957,-0.13181263208389282,0.3983677923679352
204.0,0.024674469605088234,-0.3086250424385071,0.7772186398506165,-1.4790735244750977,-2.16467547416687,-0.7283315062522888,1.5351030826568604,0.1525772213935852,-0.023958876729011536,0.875363826751709,-0.2911373972892761,-0.12181122601032257,0.36625027656555176
205.0,0.023065514862537384,-0.23081988096237183,0.6059276461601257,-1.2422966957092285,-2.174973487854004,-0.5899875164031982,1.5534560680389404,0.14921224117279053,-0.03336108475923538,0.8426692485809326,-0.32198020815849304,-0.15403294563293457,0.4031267464160919
206.0,0.015302672050893307,-0.18846599757671356,0.508362889289856,-1.1358191967010498,-2.150211811065674,-0.5270972847938538,1.5640593767166138,0.1404651701450348,-0.034549929201602936,0.827453076839447,-0.3464969992637634,-0.1706790179014206,0.40759041905403137
207.0,0.01169713493436575,-0.12095297873020172,0.36458513140678406,-0.9894722104072571,-2.1391489505767822,-0.46145349740982056,1.573975920677185,0.13636881113052368,-0.04073023796081543,0.8088733553886414,-0.36287397146224976,-0.1893700361251831,0.4221200942993164
208.0,0.006531104911118746,-0.08981974422931671,0.29582181572914124,-0.9375965595245361,-2.11871075630188,-0.43744879961013794,1.5794093608856201,0.13094189763069153,-0.04196185618638992,0.8021703362464905,-0.3763692080974579,-0.1968928426504135,0.41964536905288696
209.0,0.00045443803537636995,-0.050746820867061615,0.2081230729818344,-0.8740358948707581,-2.09694242477417,-0.41241714358329773,1.5845606327056885,0.12422996759414673,-0.04194177687168121,0.7945768237113953,-0.3907190263271332,-0.20507647097110748,0.4170491397380829
210.0,-0.005912063643336296,-0.004959400277584791,0.10097004473209381,-0.797005295753479,-2.077322483062744,-0.3886309564113617,1.58768630027771,0.11675810813903809,-0.03804165869951248,0.786659300327301,-0.4039343595504761,-0.21327556669712067,0.41535261273384094
211.0,-0.011602401733398438,0.04098132625222206,-1.567108890604982e-17,-0.7295039892196655,-2.0558669567108154,-0.3663530647754669,1.5922479629516602,0.11058837175369263,-0.03884461522102356,0.7790576219558716,-0.41727539896965027,-0.22093090415000916,0.4124803841114044
212.0,-0.018054524436593056,0.040372319519519806,-1.567108890604982e-17,-0.7147316336631775,-2.0322587490081787,-0.34194597601890564,1.597051978111267,0.10348109900951385,-0.03916459530591965,0.7701436877250671,-0.4317660927772522,-0.2296096533536911,0.4095560908317566
213.0,-0.015621730126440525,0.04271974042057991,-1.567108890604982e-17,-0.7235457301139832,-2.0377163887023926,-0.34964367747306824,1.596817970275879,0.10661263763904572,-0.04267852008342743,0.7732429504394531,-0.4279312193393707,-0.2265857756137848,0.409425288438797
214.0,-0.023337040096521378,0.041378993541002274,-1.567108890604982e-17,-0.7071593999862671,-2.011577844619751,-0.32333242893218994,1.6014348268508911,0.09782573580741882,-0.04183755815029144,0.7630500197410583,-0.4439280927181244,-0.23623237013816833,0.4060502052307129
215.0,-0.02892938069999218,0.04137634485960007,-1.567108890604982e-17,-0.6980019211769104,-1.9907523393630981,-0.3044646680355072,1.6049643754959106,0.09170298278331757,-0.04278402030467987,0.7554240822792053,-0.4561103284358978,-0.2431493103504181,0.4027114510536194
216.0,-0.03464309126138687,0.04097020998597145,-1.567108890604982e-17,-0.687964677810669,-1.970191240310669,-0.28573501110076904,1.6081539392471313,0.0853496789932251,-0.04297162592411041,0.7474237680435181,-0.46800896525382996,-0.25023597478866577,0.3996340036392212
217.0,-0.044359300285577774,0.04126547649502754,-1.567108890604982e-17,-0.6724649667739868,-1.9343334436416626,-0.2542876899242401,1.614006757736206,0.07463432103395462,-0.04477398097515106,0.7331537008285522,-0.48811784386634827,-0.2624223828315735,0.39415884017944336
218.0,-0.05131633207201958,0.039941877126693726,-1.567108890604982e-17,-0.6618944406509399,-1.912331461906433,-0.2356405258178711,1.6160751581192017,0.0665125846862793,-0.0432513952255249,0.7238881587982178,-0.5004716515541077,-0.2700595557689667,0.39061737060546875
219.0,-0.058381520211696625,0.04086649417877197,-1.567108890604982e-17,-0.6545895934104919,-1.8857568502426147,-0.2148628979921341,1.619610071182251,0.05879968777298927,-0.04554598778486252,0.713384211063385,-0.5146605372428894,-0.2782672643661499,0.3857133984565735
220.0,-0.049817297607660294,0.042152341455221176,-1.567108890604982e-17,-0.6672571897506714,-1.9148298501968384,-0.23875831067562103,1.6170638799667358,0.06851719319820404,-0.04689048230648041,0.7256466150283813,-0.4988815486431122,-0.268461674451828,0.3904900550842285
221.0,-0.04668965935707092,0.044481925666332245,-1.567108890604982e-17,-0.6742895841598511,-1.9218066930770874,-0.2455456256866455,1.6175177097320557,0.07252956926822662,-0.05058078467845917,0.7292690277099609,-0.49467647075653076,-0.26536378264427185,0.39120835065841675
222.0,-0.038985591381788254,0.042751509696245193,-1.567108890604982e-17,-0.6837500333786011,-1.951878309249878,-0.2706816494464874,1.6120038032531738,0.08084439486265182,-0.046636588871479034,0.7408950924873352,-0.47814562916755676,-0.2557489275932312,0.3962874412536621
223.0,-0.027350544929504395,0.04356515780091286,-1.567108890604982e-17,-0.7042016983032227,-1.9936977624893188,-0.30873972177505493,1.6055631637573242,0.0938015729188919,-0.04625879228115082,0.7573800683021545,-0.4540441930294037,-0.24129030108451843,0.4024904668331146
224.0,-0.020550701767206192,0.043967343866825104,-1.567108890604982e-17,-0.7153070569038391,-2.017245054244995,-0.33043432235717773,1.601583480834961,0.10148872435092926,-0.04579383134841919,0.7661232352256775,-0.4399873614311218,-0.23330730199813843,0.40624383091926575
225.0,-0.0059641688130795956,0.04456242918968201,-1.567108890604982e-17,-0.7472141981124878,-2.0718748569488525,-0.38634949922561646,1.5901415348052979,0.11739690601825714,-0.043613359332084656,0.7862493991851807,-0.4064611494541168,-0.21372631192207336,0.413427472114563
226.0,-0.008024688810110092,0.04670538008213043,-1.567108890604982e-17,-0.746050238609314,-2.0604515075683594,-0.3767247796058655,1.5934703350067139,0.11564613878726959,-0.04777047038078308,0.7832401394844055,-0.4130050539970398,-0.21675798296928406,0.4110689163208008
227.0,-0.0017570435302332044,0.10871250927448273,-0.13522519171237946,-0.686503529548645,-2.084726333618164,-0.4019825756549835,1.5881391763687134,0.12235536426305771,-0.04629364609718323,0.7915544509887695,-0.3978078365325928,-0.20830656588077545,0.4144865572452545
228.0,0.006234835833311081,0.1704896092414856,-0.2657863199710846,-0.6365624070167542,-2.111490249633789,-0.4330914616584778,1.5821458101272583,0.13144391775131226,-0.047524936497211456,0.8013078570365906,-0.3799608051776886,-0.19798602163791656,0.4175371527671814
229.0,0.01292443461716175,0.21400876343250275,-0.36046260595321655,-0.6038065552711487,-2.1382150650024414,-0.46441102027893066,1.5750082731246948,0.1384374499320984,-0.045680053532123566,0.8100697994232178,-0.36232197284698486,-0.1882181465625763,0.42081308364868164
230.0,0.017110036686062813,0.23245356976985931,-0.39462965726852417,-0.6006622314453125,-2.1500911712646484,-0.48209360241889954,1.5724599361419678,0.14345547556877136,-0.04899219423532486,0.8150287866592407,-0.3533402979373932,-0.18265759944915771,0.4213252663612366
231.0,0.010904289782047272,0.1963280886411667,-0.3161891996860504,-0.6256663799285889,-2.1251351833343506,-0.4523814916610718,1.5791831016540527,0.13700705766677856,-0.050754696130752563,0.807136058807373,-0.37002503871917725,-0.19170454144477844,0.41816532611846924
232.0,0.004540659952908754,0.1484259068965912,-0.21237964928150177,-0.6641279458999634,-2.100210428237915,-0.4230338931083679,1.5857517719268799,0.1302759051322937,-0.05213344097137451,0.7986264228820801,-0.3864803910255432,-0.20095926523208618,0.41526395082473755
233.0,-0.0004419893666636199,0.09824371337890625,-0.1036742702126503,-0.7120436429977417,-2.0826659202575684,-0.4039109945297241,1.5899659395217896,0.12471987307071686,-0.05276720970869064,0.7926319241523743,-0.39792174100875854,-0.20725677907466888,0.4128408432006836
234.0,-0.00491957226768136,0.049322351813316345,-1.567108890604982e-17,-0.7568268775939941,-2.0682923793792725,-0.387489914894104,1.5927585363388062,0.11952970921993256,-0.0514632984995842,0.7871310114860535,-0.40743306279182434,-0.2128617912530899,0.41123345494270325
235.0,-0.013790943659842014,0.04955330491065979,-1.567108890604982e-17,-0.737997829914093,-2.033698558807373,-0.352077841758728,1.6003541946411133,0.11003859341144562,-0.053985774517059326,0.7748492956161499,-0.4287724792957306,-0.22490113973617554,0.40642645955085754
236.0,-0.01891195774078369,0.048083096742630005,-1.567108890604982e-17,-0.7247542142868042,-2.0165977478027344,-0.33338549733161926,1.6033965349197388,0.10416580736637115,-0.05254966765642166,0.7677023410797119,-0.4394688606262207,-0.23169457912445068,0.4047442078590393
237.0,-0.013483951799571514,0.046881310641765594,-1.567108890604982e-17,-0.7345415353775024,-2.039175271987915,-0.35509899258613586,1.5981370210647583,0.109804168343544,-0.049336567521095276,0.7756652235984802,-0.4260622560977936,-0.22417378425598145,0.4081183075904846
238.0,-0.02479415014386177,0.045667365193367004,-1.567108890604982e-17,-0.711654543876648,-2.0000181198120117,-0.31603753566741943,1.6054942607879639,0.09701303392648697,-0.04942428320646286,0.7605503797531128,-0.44995445013046265,-0.23834016919136047,0.40286239981651306
239.0,-0.030631735920906067,0.04574604704976082,-1.567108890604982e-17,-0.7024149298667908,-1.9785993099212646,-0.296665757894516,1.609175682067871,0.09056398272514343,-0.05053020268678665,0.7525506615638733,-0.46246832609176636,-0.24546009302139282,0.39942440390586853
240.0,-0.04138614982366562,0.046182241290807724,-1.567108890604982e-17,-0.6854093074798584,-1.9384909868240356,-0.2611057758331299,1.6158676147460938,0.07874651253223419,-0.05285748839378357,0.7368292808532715,-0.48521366715431213,-0.258928507566452,0.39320021867752075
241.0,-0.03498915210366249,0.04676416516304016,-1.567108890604982e-17,-0.6969206929206848,-1.9611382484436035,-0.28166258335113525,1.612548589706421,0.08593054115772247,-0.052955470979213715,0.7461743950843811,-0.4723486304283142,-0.2509380877017975,0.39640966057777405
242.0,-0.03168762847781181,0.04871424660086632,-1.567108890604982e-17,-0.705571174621582,-1.9707082509994507,-0.29164987802505493,1.611970067024231,0.08989943563938141,-0.05579262971878052,0.7506884932518005,-0.46657413244247437,-0.24690619111061096,0.3972565233707428
243.0,-0.02611180767416954,0.04833884537220001,-1.567108890604982e-17,-0.7137203812599182,-1.9911705255508423,-0.3099423050880432,1.6082841157913208,0.09607216715812683,-0.05424198508262634,0.7583447694778442,-0.45466262102127075,-0.24019424617290497,0.40062686800956726
244.0,-0.006822120863944292,0.05124368891119957,-1.567108890604982e-17,-0.7556589841842651,-2.057811737060547,-0.37854647636413574,1.5957996845245361,0.11790518462657928,-0.05523160845041275,0.7843397259712219,-0.41347190737724304,-0.21565064787864685,0.4090806841850281
245.0,0.005573851987719536,0.14763428270816803,-0.20463071763515472,-0.6748049259185791,-2.0991554260253906,-0.42516428232192993,1.586733341217041,0.1320609748363495,-0.05654793232679367,0.7996079325675964,-0.3862285017967224,-0.2000044584274292,0.41406872868537903
246.0,0.00157112383749336,0.09544166177511215,-0.08937694877386093,-0.7287729978561401,-2.0828380584716797,-0.40785205364227295,1.5910433530807495,0.12789933383464813,-0.058710575103759766,0.7943576574325562,-0.39659836888313293,-0.20552890002727509,0.41165944933891296
247.0,-0.0031828386709094048,0.053390104323625565,-1.567108890604982e-17,-0.766443133354187,-2.067887306213379,-0.391169011592865,1.5942940711975098,0.12234511226415634,-0.05800097435712814,0.7888085246086121,-0.40653374791145325,-0.2111862748861313,0.4097704589366913
248.0,-0.007902606390416622,0.05363073572516441,-1.567108890604982e-17,-0.7570009231567383,-2.0497825145721436,-0.37259918451309204,1.5984748601913452,0.11725793778896332,-0.05959406495094299,0.782559871673584,-0.41785377264022827,-0.21738247573375702,0.4071156680583954
249.0,-0.014687019400298595,0.05336349830031395,-1.567108890604982e-17,-0.7419421672821045,-2.024132251739502,-0.3459314703941345,1.6038888692855835,0.1098780483007431,-0.060737401247024536,0.7729934453964233,-0.4337150454521179,-0.2265586107969284,0.4037865996360779
250.0,-0.021696947515010834,0.05243859067559242,-1.567108890604982e-17,-0.7263170480728149,-1.9994888305664062,-0.3205122947692871,1.6085995435714722,0.10198530554771423,-0.060584016144275665,0.7631235122680664,-0.4487976133823395,-0.23572489619255066,0.40082040429115295
251.0,-0.025843437761068344,0.05075480788946152,-1.567108890604982e-17,-0.717726469039917,-1.9881240129470825,-0.30890679359436035,1.6099116802215576,0.09689061343669891,-0.058371663093566895,0.7581897974014282,-0.4559682011604309,-0.2402103692293167,0.3994249403476715
252.0,-0.036700036376714706,0.05012296512722969,-1.567108890604982e-17,-0.6996182799339294,-1.9503207206726074,-0.2742551863193512,1.6159940958023071,0.0845983624458313,-0.05899138003587723,0.7432044744491577,-0.4780391752719879,-0.25323256850242615,0.3936990797519684
253.0,-0.029857134446501732,0.0519057959318161,-1.567108890604982e-17,-0.7135468125343323,-1.9726310968399048,-0.2956444323062897,1.6131923198699951,0.09253518283367157,-0.06100201606750488,0.7527196407318115,-0.4649181067943573,-0.24494192004203796,0.39656999707221985
254.0,-0.05167277529835701,0.050872765481472015,-1.567108890604982e-17,-0.6788030862808228,-1.8965455293655396,-0.22826829552650452,1.6242343187332153,0.06782028079032898,-0.06216289848089218,0.7213129997253418,-0.5079331398010254,-0.27110061049461365,0.3849884569644928
255.0,-0.04343871772289276,0.05176953598856926,-1.567108890604982e-17,-0.6911482214927673,-1.923454761505127,-0.2513941526412964,1.621073603630066,0.07738350331783295,-0.06277672946453094,0.7328230142593384,-0.4929076135158539,-0.2617854177951813,0.38920554518699646
256.0,-0.03275933116674423,0.05379677936434746,-1.567108890604982e-17,-0.7120862007141113,-1.9597262144088745,-0.28526169061660767,1.616312861442566,0.0895979031920433,-0.06472371518611908,0.748420000076294,-0.47212842106819153,-0.24851982295513153,0.3939547538757324
257.0,-0.02015838772058487,0.054769910871982574,-1.567108890604982e-17,-0.73237144947052,-2.0010955333709717,-0.3238571286201477,1.6092970371246338,0.10421741753816605,-0.06433438509702682,0.764716386795044,-0.4473220109939575,-0.2341793328523636,0.4003397524356842
258.0,-0.026628566905856133,0.054747436195611954,-1.567108890604982e-17,-0.7225416302680969,-1.9789098501205444,-0.3033459484577179,1.6133534908294678,0.0968397706747055,-0.0654151439666748,0.756324827671051,-0.4606204628944397,-0.24163375794887543,0.39675524830818176
259.0,-0.03602968528866768,0.05548764392733574,-1.567108890604982e-17,-0.709549069404602,-1.9455444812774658,-0.2735806107521057,1.61948561668396,0.08623935282230377,-0.0681559145450592,0.7434200644493103,-0.48002296686172485,-0.2526324987411499,0.3912564218044281
260.0,-0.04360780119895935,0.05446105822920799,-1.567108890604982e-17,-0.6952679753303528,-1.9191861152648926,-0.24930746853351593,1.6231168508529663,0.07764001190662384,-0.06746380776166916,0.732104480266571,-0.49496084451675415,-0.26212844252586365,0.38771840929985046
261.0,-0.052504703402519226,0.05376989394426346,-1.567108890604982e-17,-0.6823906898498535,-1.8897520303726196,-0.2241400182247162,1.626700520515442,0.06733796000480652,-0.06728260219097137,0.7195290923118591,-0.5113352537155151,-0.27220669388771057,0.38303762674331665
262.0,-0.057343654334545135,0.05490449443459511,-1.567108890604982e-17,-0.6787564754486084,-1.8723593950271606,-0.21060237288475037,1.6293847560882568,0.061888933181762695,-0.06972885876893997,0.7125647068023682,-0.5207242965698242,-0.27743327617645264,0.37964269518852234
263.0,-0.06369118392467499,0.05388370156288147,-1.567108890604982e-17,-0.6698488593101501,-1.85285484790802,-0.1945229470729828,1.6309704780578613,0.05435514450073242,-0.06851018965244293,0.7037100791931152,-0.5312725305557251,-0.2842395603656769,0.37649649381637573
264.0,-0.05731746181845665,0.05211472138762474,-1.567108890604982e-17,-0.6744590997695923,-1.876381754875183,-0.21258580684661865,1.6273173093795776,0.06145689636468887,-0.06486791372299194,0.7132793664932251,-0.518844723701477,-0.27718213200569153,0.3810548782348633
265.0,-0.06929261982440948,0.050984516739845276,-1.567108890604982e-17,-0.6576468348503113,-1.8358224630355835,-0.17980945110321045,1.630943775177002,0.047776199877262115,-0.06393802165985107,0.6952384114265442,-0.5401435494422913,-0.2909449338912964,0.3744857907295227
266.0,-0.08017216622829437,0.04996459186077118,-1.567108890604982e-17,-0.6445119380950928,-1.7996890544891357,-0.1522335708141327,1.633230447769165,0.035303451120853424,-0.06287003308534622,0.6788687109947205,-0.5584797263145447,-0.3028479814529419,0.368131548166275
267.0,-0.07638885080814362,0.047665007412433624,-1.567108890604982e-17,-0.6436256170272827,-1.814566731452942,-0.16225896775722504,1.6308176517486572,0.03941744565963745,-0.05865444242954254,0.6846708655357361,-0.5509812831878662,-0.2991287112236023,0.3717089891433716
268.0,-0.0694078877568245,0.048754818737506866,-1.567108890604982e-17,-0.653739869594574,-1.8377938270568848,-0.18045316636562347,1.6293896436691284,0.04740244895219803,-0.06007865071296692,0.6953752636909485,-0.5392142534255981,-0.29112133383750916,0.3754325807094574
269.0,-0.06111486256122589,0.049524784088134766,-1.567108890604982e-17,-0.6657877564430237,-1.8667768239974976,-0.20372425019741058,1.6268668174743652,0.05673617124557495,-0.06072147935628891,0.7082648873329163,-0.5242034196853638,-0.2812920808792114,0.3800610601902008
270.0,-0.051465827971696854,0.04815762862563133,-1.567108890604982e-17,-0.6748053431510925,-1.901033639907837,-0.23059147596359253,1.6221479177474976,0.06760670244693756,-0.05743369460105896,0.7221885323524475,-0.5057829022407532,-0.27066928148269653,0.3864785432815552
271.0,-0.06229707598686218,0.04717688634991646,-1.567108890604982e-17,-0.660290002822876,-1.8649922609329224,-0.20125062763690948,1.625638484954834,0.05515752732753754,-0.05677013099193573,0.7067210674285889,-0.525254487991333,-0.2827339172363281,0.380413681268692
272.0,-0.04719217121601105,0.04660028591752052,-1.567108890604982e-17,-0.6770497560501099,-1.917201042175293,-0.2428896725177765,1.6192878484725952,0.07230347394943237,-0.05429309606552124,0.7281889915466309,-0.4969770908355713,-0.26605451107025146,0.3898327946662903
273.0,-0.05467461794614792,0.045411501079797745,-1.567108890604982e-17,-0.6669934391975403,-1.8944213390350342,-0.2239658385515213,1.6213734149932861,0.06342271715402603,-0.052993208169937134,0.7184657454490662,-0.5097583532333374,-0.27384161949157715,0.3859589695930481
274.0,-0.06578937917947769,0.04486404359340668,-1.567108890604982e-17,-0.6518808603286743,-1.8548879623413086,-0.1922508329153061,1.625294804573059,0.05101225525140762,-0.05306939780712128,0.7015952467918396,-0.530605137348175,-0.2869003415107727,0.37935543060302734
275.0,-0.0778111070394516,0.04521804302930832,-1.567108890604982e-17,-0.6387696266174316,-1.8127105236053467,-0.1602490246295929,1.6292915344238281,0.03750003129243851,-0.054497845470905304,0.6831796169281006,-0.552065908908844,-0.30043625831604004,0.3717888295650482
276.0,-0.07205402106046677,0.04430666193366051,-1.567108890604982e-17,-0.6428008079528809,-1.833116054534912,-0.17502924799919128,1.6271454095840454,0.04395979270339012,-0.05256243050098419,0.6918144822120667,-0.5417154431343079,-0.29434213042259216,0.37589871883392334
277.0,-0.05991778150200844,0.04378185793757439,-1.567108890604982e-17,-0.6575818657875061,-1.8771522045135498,-0.20938029885292053,1.6222946643829346,0.057422149926424026,-0.0507008358836174,0.7107545733451843,-0.5190452933311462,-0.2800067067146301,0.3834271728992462
278.0,-0.06786882132291794,0.042553890496492386,-1.567108890604982e-17,-0.6452978253364563,-1.8498988151550293,-0.18736299872398376,1.6244065761566162,0.048441022634506226,-0.04924217611551285,0.6986546516418457,-0.5332592725753784,-0.28940093517303467,0.37916138768196106
279.0,-0.07529587298631668,0.04253349453210831,-1.567108890604982e-17,-0.6363363862037659,-1.8238861560821533,-0.16745410859584808,1.626822829246521,0.04010009765625,-0.049701713025569916,0.6871922016143799,-0.5464551448822021,-0.2979435920715332,0.3746776580810547
280.0,-0.08499512076377869,0.04388245567679405,-1.567108890604982e-17,-0.6316983699798584,-1.7905023097991943,-0.14422793686389923,1.6296390295028687,0.0291319377720356,-0.05258671194314957,0.6732127070426941,-0.5633754730224609,-0.307376891374588,0.3673039972782135
281.0,-0.09932596981525421,0.04362833872437477,-1.567108890604982e-17,-0.6255139112472534,-1.7346357107162476,-0.10689388960599899,1.631822109222412,0.014086024835705757,-0.05300813913345337,0.6500242948532104,-0.5904138088226318,-0.32166171073913574,0.35413795709609985
282.0,-0.08431632816791534,0.04633248597383499,-1.567108890604982e-17,-0.6357819437980652,-1.790394902229309,-0.1446632593870163,1.631305456161499,0.03011181950569153,-0.05678208917379379,0.6737375855445862,-0.5633421540260315,-0.30677667260169983,0.36689427495002747
283.0,-0.10831049084663391,0.04154086112976074,-1.567108890604982e-17,-0.618908703327179,-1.70082688331604,-0.08426510542631149,1.6314620971679688,0.004660918843001127,-0.049794405698776245,0.6349928975105286,-0.6061272621154785,-0.33070316910743713,0.3464522957801819
284.0,-3.0049290657043457,3.1006834506988525,-1.567108890604982e-17,-2.528301239013672,1.571486234664917,0.00044452244765125215,1.6293147802352905,0.021280236542224884,-0.04914960265159607,0.6615157723426819,-0.5772476196289062,-0.3147578537464142,0.36070704460144043
285.0,-3.013162612915039,3.101097583770752,-1.567108890604982e-17,-2.5283193588256836,1.6027015447616577,0.02056916058063507,1.6300759315490723,0.012803466059267521,-0.04848065227270126,0.6482633948326111,-0.5921158790588379,-0.3228389024734497,0.3534521758556366
286.0,-3.026240348815918,3.1017117500305176,-1.567108890604982e-17,-2.5284883975982666,1.652724027633667,0.052778229117393494,1.630357265472412,-0.0007287055486813188,-0.04726681858301163,0.626127302646637,-0.6150012612342834,-0.3358716070652008,0.3419478237628937
287.0,-3.035893201828003,3.102224111557007,-1.567108890604982e-17,-2.5285685062408447,1.6903274059295654,0.07689787447452545,1.6294649839401245,-0.010747184045612812,-0.04608457535505295,-0.6088797450065613,0.6314130425453186,0.3456578850746155,-0.3333223760128021
288.0,-3.0356922149658203,3.0999317169189453,-1.567108890604982e-17,-2.525786876678467,1.6896138191223145,0.0765245109796524,1.631129503250122,-0.01035292912274599,-0.04999253898859024,-0.6092857718467712,0.6312010884284973,0.34532076120376587,-0.3333311975002289
289.0,-3.0440196990966797,3.10042667388916,-1.567108890604982e-17,-2.5262861251831055,1.7221620082855225,0.09722626209259033,1.6300747394561768,-0.019024750217795372,-0.048759825527668,-0.5938904881477356,0.6447834968566895,0.35393744707107544,-0.32600101828575134
290.0,-3.0550477504730225,3.0991756916046143,-1.567108890604982e-17,-2.5233118534088135,1.7600796222686768,0.12156159430742264,1.6296859979629517,-0.03121955506503582,-0.05034059286117554,-0.5752545595169067,0.6606805920600891,0.3637184202671051,-0.3166895806789398
291.0,-3.0689682960510254,3.0998711585998535,-1.567108890604982e-17,-2.5172791481018066,1.8091366291046143,0.1543182134628296,1.6259043216705322,-0.04671812057495117,-0.04833821952342987,-0.5508984923362732,0.6810502409934998,0.3750353455543518,-0.30336442589759827
292.0,-3.0832252502441406,3.0988669395446777,-1.567108890604982e-17,-2.5086326599121094,1.8579046726226807,0.18747331202030182,1.6223617792129517,-0.06277291476726532,-0.048959411680698395,-0.525673508644104,0.7003958821296692,0.38615453243255615,-0.2898235321044922
293.0,-3.0771737098693848,3.0997281074523926,-1.567108890604982e-17,-2.5126566886901855,1.838481068611145,0.1741938292980194,1.6236484050750732,-0.05578208342194557,-0.047969475388526917,-0.5359505414962769,0.6927163004875183,0.3816941976547241,-0.29531461000442505
294.0,-3.071943521499634,3.1017394065856934,-1.567108890604982e-17,-2.5181803703308105,1.820554256439209,0.16177169978618622,1.6237163543701172,-0.04998385161161423,-0.04494193196296692,-0.5451343655586243,0.6854044198989868,0.3778219223022461,-0.3004995286464691
295.0,-3.059278726577759,3.1013996601104736,-1.567108890604982e-17,-2.5249011516571045,1.7752825021743774,0.13126806914806366,1.627319574356079,-0.03598929941654205,-0.04631222039461136,-0.5676940083503723,0.6667765974998474,0.36763903498649597,-0.3130080997943878
296.0,-3.0527215003967285,3.1020350456237793,-1.567108890604982e-17,-2.5276830196380615,1.753733515739441,0.11718480288982391,1.6279362440109253,-0.02855665609240532,-0.04556269198656082,-0.5784331560134888,0.65766841173172,0.3623684048652649,-0.3187106251716614
297.0,-3.045063018798828,3.102689504623413,-1.567108890604982e-17,-2.529052495956421,1.7261357307434082,0.09963249415159225,1.6283447742462158,-0.020282290875911713,-0.0448576956987381,-0.5919157266616821,0.6463078260421753,0.35514673590660095,-0.32525816559791565
298.0,-3.037597417831421,3.1047863960266113,-1.567108890604982e-17,-2.531637191772461,1.6968916654586792,0.0809914693236351,1.627500057220459,-0.012716516852378845,-0.041664913296699524,-0.6057291030883789,0.634097695350647,0.34754741191864014,-0.33199870586395264
299.0,-3.024172067642212,3.105642795562744,-1.567108890604982e-17,-2.533438205718994,1.644648551940918,0.047488022595644,1.6276025772094727,0.001067612785845995,-0.04063791781663895,0.62961345911026,-0.611221969127655,-0.3340495526790619,0.3441010117530823
300.0,-3.0387024879455566,3.107135057449341,-1.567108890604982e-17,-2.5344700813293457,1.7011151313781738,0.08358819037675858,1.625731348991394,-0.014046164229512215,-0.037639252841472626,-0.6036714911460876,0.6357831358909607,0.3488127589225769,-0.3311951756477356
301.0,-3.0460586547851562,3.1052942276000977,-1.567108890604982e-17,-2.532238483428955,1.7298972606658936,0.10187940299510956,1.6263749599456787,-0.021514393389225006,-0.04038593918085098,-0.5900275707244873,0.6477225422859192,0.3563246726989746,-0.32458552718162537
302.0,-3.0535953044891357,3.1056230068206787,-1.567108890604982e-17,-2.5324900150299072,1.7580631971359253,0.11958307772874832,1.625258445739746,-0.029553651809692383,-0.039394527673721313,-0.5762565732002258,0.6590307950973511,0.3638502061367035,-0.3181506395339966
303.0,-3.0620110034942627,3.1043777465820312,-1.567108890604982e-17,-2.5273218154907227,1.7862675189971924,0.1382937729358673,1.6244765520095825,-0.03899078443646431,-0.04108136147260666,-0.5623014569282532,0.6710355877876282,0.37039682269096375,-0.31037798523902893
304.0,-3.06813645362854,3.103839635848999,-1.567108890604982e-17,-2.5231194496154785,1.8078316450119019,0.1528872698545456,1.623253583908081,-0.04575939476490021,-0.04162652790546417,-0.5515698194503784,0.6800100803375244,0.37517109513282776,-0.30430877208709717
305.0,-3.075392007827759,3.1043436527252197,-1.567108890604982e-17,-2.5198724269866943,1.8339658975601196,0.17043469846248627,1.6208330392837524,-0.053755950182676315,-0.0402546152472496,-0.5383095145225525,0.6903648972511292,0.38116294145584106,-0.2972103953361511
306.0,-3.0800209045410156,3.1020724773406982,-1.567108890604982e-17,-2.514396905899048,1.8494882583618164,0.1812574565410614,1.6210784912109375,-0.05891430750489235,-0.04374540597200394,-0.5302679538726807,0.6966591477394104,0.3844907879829407,-0.29265835881233215
307.0,-3.090869188308716,3.0996196269989014,-1.567108890604982e-17,-2.5043036937713623,1.8850585222244263,0.20637725293636322,1.618814468383789,-0.07131844013929367,-0.046983107924461365,-0.5113939642906189,0.7107246518135071,0.3921054005622864,-0.2821350395679474
308.0,-3.098228693008423,3.099669933319092,-1.567108890604982e-17,-2.4979896545410156,1.9122998714447021,0.2260182946920395,1.6153894662857056,-0.0793711468577385,-0.04611790180206299,-0.4969606399536133,0.7209028005599976,0.3977012634277344,-0.274158775806427
309.0,-3.104102373123169,3.099959373474121,-1.567108890604982e-17,-2.4933760166168213,1.9343293905258179,0.2418859750032425,1.6123430728912354,-0.08576139807701111,-0.04493104666471481,-0.48510995507240295,0.7287471294403076,0.40232840180397034,-0.2678206264972687
310.0,-3.1202399730682373,3.0975229740142822,-1.567108890604982e-17,-2.474989414215088,1.9908493757247925,0.2847471535205841,1.6049025058746338,-0.10383255034685135,-0.04687667638063431,-0.45359286665916443,0.7486361861228943,0.4135412275791168,-0.250561386346817
311.0,-3.126051902770996,3.0987112522125244,-1.567108890604982e-17,-2.4691877365112305,2.014406681060791,0.3029989004135132,1.6000878810882568,-0.10992182791233063,-0.04389970749616623,-0.4404779076576233,0.7562178373336792,0.41809821128845215,-0.2435317039489746
312.0,-3.119753360748291,3.0999276638031006,-1.567108890604982e-17,-2.47841477394104,1.9910835027694702,0.284307599067688,1.6034399271011353,-0.10305147618055344,-0.04287941753864288,-0.453670859336853,0.7483173608779907,0.4138340950012207,-0.250888854265213
313.0,-3.1125309467315674,3.100133180618286,-1.567108890604982e-17,-2.4870903491973877,1.9639941453933716,0.26326969265937805,1.6078747510910034,-0.09519992768764496,-0.043585337698459625,-0.46870729327201843,0.738944947719574,0.40873071551322937,-0.2592548429965973
314.0,-3.1060750484466553,3.102283239364624,-1.567108890604982e-17,-2.4947383403778076,1.9431532621383667,0.24775108695030212,1.6096646785736084,-0.08775971084833145,-0.04074990749359131,-0.480435311794281,0.7314704656600952,0.40443742275238037,-0.2656375467777252
315.0,-3.0992109775543213,3.1027743816375732,-1.567108890604982e-17,-2.5011634826660156,1.9179328680038452,0.22944042086601257,1.6126501560211182,-0.08025175333023071,-0.04073899984359741,-0.49408984184265137,0.722482442855835,0.3992021381855011,-0.27300554513931274
316.0,-3.0928850173950195,3.101963520050049,-1.567108890604982e-17,-2.505561351776123,1.8940165042877197,0.21237172186374664,1.6161859035491943,-0.07338868081569672,-0.04279247671365738,-0.5067780017852783,0.7137705683708191,0.3941829800605774,-0.2798703908920288
317.0,-3.087345600128174,3.1032004356384277,-1.567108890604982e-17,-2.5120034217834473,1.8744558095932007,0.19809302687644958,1.6177481412887573,-0.06724591553211212,-0.04122147709131241,-0.5170751810073853,0.7060886025428772,0.3903375566005707,-0.2858477532863617
318.0,-3.0820274353027344,3.104668378829956,-1.567108890604982e-17,-2.5169389247894287,1.8575667142868042,0.18627426028251648,1.618572473526001,-0.06111016869544983,-0.03916950523853302,-0.5260810256004333,0.6993951201438904,0.3866512179374695,-0.2908368408679962
319.0,-3.0929958820343018,3.1049647331237793,-1.567108890604982e-17,-2.5093300342559814,1.8963713645935059,0.21347683668136597,1.6139400005340576,-0.07333167642354965,-0.03768826276063919,-0.5056637525558472,0.7142022848129272,0.39498478174209595,-0.27965396642684937
320.0,-3.075241804122925,3.1070899963378906,-1.567108890604982e-17,-2.523683547973633,1.8345457315444946,0.17040713131427765,1.6188924312591553,-0.05355558544397354,-0.035605110228061676,-0.5380340814590454,0.6902388334274292,0.3815939724445343,-0.29744863510131836
321.0,-3.0624167919158936,3.1068150997161865,-1.567108890604982e-17,-2.5303776264190674,1.7887530326843262,0.13965681195259094,1.6226098537445068,-0.039420925080776215,-0.03691034018993378,-0.5610759854316711,0.6717637777328491,0.3712120056152344,-0.3100467026233673
322.0,-3.069018840789795,3.1076102256774902,-1.567108890604982e-17,-2.527738094329834,1.8125537633895874,0.15554295480251312,1.6202856302261353,-0.046695031225681305,-0.03516030311584473,-0.5492098927497864,0.6814396381378174,0.3766443133354187,-0.30355846881866455
323.0,-3.0862090587615967,3.107351541519165,-1.567108890604982e-17,-2.518329620361328,1.8730217218399048,0.1963077187538147,1.6152077913284302,-0.06576382368803024,-0.03427407145500183,-0.5179795622825623,0.7048982381820679,0.39048728346824646,-0.2869413197040558
324.0,-3.07985258102417,3.1087489128112793,-1.567108890604982e-17,-2.523554563522339,1.8517121076583862,0.18167582154273987,1.616310715675354,-0.0586065873503685,-0.03243593871593475,-0.5292016267776489,0.6966352462768555,0.3857266306877136,-0.29301872849464417
325.0,-3.0719358921051025,3.1098453998565674,-1.567108890604982e-17,-2.5291812419891357,1.8238705396652222,0.16282540559768677,1.617859125137329,-0.049883220344781876,-0.0311763733625412,-0.5434986352920532,0.6856836080551147,0.3794536590576172,-0.30076926946640015
326.0,-3.0551090240478516,3.1084179878234863,-1.567108890604982e-17,-2.536094903945923,1.7641171216964722,0.12314646691083908,1.6230652332305908,-0.03127913549542427,-0.03455963730812073,-0.5732101202011108,0.6611951589584351,0.3657020926475525,-0.3170381784439087
327.0,-3.0341343879699707,3.1093649864196777,-1.567108890604982e-17,-2.53731107711792,1.683267593383789,0.07213890552520752,1.6244629621505737,-0.009510703384876251,-0.03405384719371796,-0.6119310855865479,0.6281004548072815,0.3442777097225189,-0.335414856672287
328.0,-3.0425171852111816,3.1096792221069336,-1.567108890604982e-17,-2.5375335216522217,1.7158735990524292,0.09283476322889328,1.6235864162445068,-0.01818779483437538,-0.033160701394081116,-0.5966072082519531,0.6418213248252869,0.35288259387016296,-0.3280232548713684
329.0,-3.0374698638916016,3.1118524074554443,-1.567108890604982e-17,-2.5402276515960693,1.696153163909912,0.08025363832712173,1.6224558353424072,-0.013149891048669815,-0.029727041721343994,-0.6058513522148132,0.6334991455078125,0.34781613945961,-0.33263638615608215
330.0,-3.026041030883789,3.113837242126465,-1.567108890604982e-17,-2.541391372680664,1.6517517566680908,0.05206557735800743,1.6216468811035156,-0.0015654575545340776,-0.0268222838640213,0.6264342665672302,-0.6144410967826843,-0.33585408329963684,0.34240955114364624
331.0,-3.04510760307312,3.113422393798828,-1.567108890604982e-17,-2.53759503364563,1.7256888151168823,0.09982491284608841,1.620592474937439,-0.021173568442463875,-0.02688019722700119,-0.5923462510108948,0.6466304063796997,0.3543993830680847,-0.32464778423309326
332.0,-3.054821491241455,3.111348867416382,-1.567108890604982e-17,-2.5399715900421143,1.7637531757354736,0.12266716361045837,1.6210166215896606,-0.031047092750668526,-0.029613927006721497,-0.573351263999939,0.6607917547225952,0.3658573031425476,-0.3174445331096649
333.0,-3.062163829803467,3.110560894012451,-1.567108890604982e-17,-2.5355772972106934,1.78946053981781,0.139657661318779,1.619970679283142,-0.039114631712436676,-0.03056478500366211,-0.560728132724762,0.6715800762176514,0.3717699348926544,-0.31040507555007935
334.0,-3.0668437480926514,3.1126909255981445,-1.567108890604982e-17,-2.528372049331665,1.8063023090362549,0.1531103104352951,1.6170629262924194,-0.04435930401086807,-0.026937715709209442,-0.5529639720916748,0.6800243258476257,0.3735436797142029,-0.3037482798099518
335.0,-0.16660407185554504,0.16336484253406525,-1.567108890604982e-17,2.3635590076446533,1.4940509796142578,-3.087524652481079,1.6105326414108276,-0.0550132691860199,-0.021436914801597595,-0.5406947135925293,0.703665018081665,0.365532785654068,-0.2808746099472046
336.0,-0.17283450067043304,0.17348811030387878,-1.567108890604982e-17,2.407083034515381,1.4717702865600586,-3.0795488357543945,1.613773226737976,-0.0622011199593544,-0.028624020516872406,-0.5226441621780396,0.7011173367500305,0.3888920843601227,-0.28989750146865845
337.0,-0.18047261238098145,0.17364826798439026,-1.567108890604982e-17,2.4049110412597656,1.4458637237548828,-3.0631039142608643,1.6110934019088745,-0.07009386271238327,-0.028558023273944855,-0.5091589093208313,0.7110232710838318,0.3943050503730774,-0.28235912322998047
338.0,-0.19457322359085083,0.1744365245103836,-1.567108890604982e-17,2.3995816707611084,1.3978137969970703,-3.0322937965393066,1.605848789215088,-0.08452402055263519,-0.02930179238319397,-0.4835994839668274,0.7286385893821716,0.4040897786617279,-0.2681955099105835
339.0,-0.20207801461219788,0.1751631796360016,-1.567108890604982e-17,2.3966643810272217,1.3722590208053589,-3.015902280807495,1.6030672788619995,-0.0921868085861206,-0.030122049152851105,-0.46966317296028137,0.73745197057724,0.40939104557037354,-0.2607300281524658
340.0,-0.18799489736557007,0.17542265355587006,-1.567108890604982e-17,2.3999156951904297,1.4205644130706787,-3.0467350482940674,1.6095592975616455,-0.07809194922447205,-0.03192327171564102,-0.4958488643169403,0.7206594944000244,0.3991832137107849,-0.2746575176715851
341.0,-0.19834139943122864,0.17644642293453217,-1.567108890604982e-17,2.3956010341644287,1.3853305578231812,-3.0240578651428223,1.6059117317199707,-0.08872027695178986,-0.03325176239013672,-0.47685158252716064,0.7332211136817932,0.4063848555088043,-0.26429304480552673
342.0,-0.20756134390830994,0.17758411169052124,-1.567108890604982e-17,2.390735626220703,1.3549460172653198,-3.0041913986206055,1.6022759675979614,-0.09824883937835693,-0.03487741947174072,-0.4600905776023865,0.7437847852706909,0.4123559594154358,-0.25507527589797974
343.0,-0.19174492359161377,0.1776593029499054,-1.567108890604982e-17,2.3954825401306152,1.4082233905792236,-3.0385663509368896,1.6099127531051636,-0.082338847219944,-0.03644191473722458,-0.48929113149642944,0.7254024147987366,0.40136483311653137,-0.2707245945930481
344.0,-0.20377354323863983,0.17901568114757538,-1.567108890604982e-17,2.3906002044677734,1.368566870689392,-3.0130043029785156,1.6055667400360107,-0.09488391131162643,-0.038172103464603424,-0.4675421714782715,0.7392810583114624,0.4095935821533203,-0.259038507938385
345.0,-0.21142852306365967,0.17971818149089813,-1.567108890604982e-17,2.385526180267334,1.3426731824874878,-2.9956490993499756,1.6019538640975952,-0.10257008671760559,-0.03918111324310303,-0.4532722234725952,0.7483100295066833,0.41425979137420654,-0.25092872977256775
346.0,-0.217904731631279,0.1803659051656723,-1.567108890604982e-17,2.381166934967041,1.3205465078353882,-2.9807238578796387,1.5987778902053833,-0.10899651795625687,-0.04004765301942825,-0.44091248512268066,0.755709707736969,0.41826608777046204,-0.24403385818004608
347.0,-0.22482678294181824,0.1797487586736679,-1.567108890604982e-17,2.3786091804504395,1.2961888313293457,-2.964548110961914,1.5941060781478882,-0.11545020341873169,-0.03804708272218704,-0.42716673016548157,0.7632657289505005,0.4229835271835327,-0.23672549426555634
348.0,-0.23222720623016357,0.17947693169116974,-1.567108890604982e-17,2.375744342803955,1.2714600563049316,-2.948145866394043,1.589194893836975,-0.12253445386886597,-0.036571212112903595,-0.41290512681007385,0.7706344723701477,0.42787230014801025,-0.22925351560115814
349.0,-0.21910667419433594,0.1778714954853058,-1.567108890604982e-17,2.3841841220855713,1.315146565437317,-2.977571725845337,1.5959153175354004,-0.10948359221220016,-0.03462192416191101,-0.43795010447502136,0.7570461630821228,0.4196850061416626,-0.24278715252876282
350.0,-0.22715725004673004,0.17756354808807373,-1.567108890604982e-17,2.3806872367858887,1.2870447635650635,-2.958892345428467,1.5907973051071167,-0.1170712411403656,-0.03314073383808136,-0.4220333695411682,0.7656911611557007,0.42509588599205017,-0.23430417478084564
351.0,-0.21123075485229492,0.17603805661201477,-1.567108890604982e-17,2.390965461730957,1.3414899110794067,-2.995471954345703,1.5988860130310059,-0.1014091819524765,-0.031352490186691284,-0.4527053236961365,0.7481241822242737,0.41506993770599365,-0.2511673867702484
352.0,-0.22108057141304016,0.17615637183189392,-1.567108890604982e-17,2.3856897354125977,1.3074653148651123,-2.9727702140808105,1.5932674407958984,-0.11091360449790955,-0.030792661011219025,-0.43367257714271545,0.7592048645019531,0.42141425609588623,-0.2407200038433075
353.0,-0.23697403073310852,0.1770477443933487,-1.567108890604982e-17,2.3752658367156982,1.2530319690704346,-2.935680866241455,1.5837774276733398,-0.12612608075141907,-0.031120456755161285,-0.402488112449646,0.775868833065033,0.43125563859939575,-0.22371728718280792
354.0,-0.24395768344402313,0.17709429562091827,-1.567108890604982e-17,2.369626760482788,1.2284965515136719,-2.9182658195495605,1.5787335634231567,-0.13246610760688782,-0.03064417839050293,-0.3882417380809784,0.7830796837806702,0.4352923035621643,-0.21581284701824188
355.0,-0.22916296124458313,0.17587000131607056,-1.567108890604982e-17,2.3822247982025146,1.2792792320251465,-2.9540822505950928,1.588103175163269,-0.11850890517234802,-0.029317595064640045,-0.4176562428474426,0.7677330374717712,0.4268735647201538,-0.2322244942188263
356.0,-0.2366163581609726,0.16956938803195953,-1.567108890604982e-17,2.3488550186157227,1.2556008100509644,-2.9223735332489014,1.5797085762023926,-0.12495505809783936,-0.02421759068965912,-0.4041634202003479,0.7836337685585022,0.41929152607917786,-0.2162519097328186
357.0,-0.22485241293907166,0.1590835154056549,-1.567108890604982e-17,2.309796094894409,1.2987802028656006,-2.930727481842041,1.581980586051941,-0.11311333626508713,-0.017761483788490295,-0.43016305565834045,0.7842572331428528,0.3920065462589264,-0.21501459181308746
358.0,-0.21867218613624573,0.16191883385181427,-1.567108890604982e-17,2.328399181365967,1.319113850593567,-2.9540064334869385,1.5870254039764404,-0.10741110891103745,-0.019656620919704437,-0.4424034357070923,0.7731948494911194,0.3943735957145691,-0.22565105557441711
359.0,-0.2096158266067505,0.15835241973400116,-1.567108890604982e-17,2.3184030055999756,1.351511836051941,-2.9726977348327637,1.590163230895996,-0.0984782800078392,-0.017508871853351593,-0.4621710479259491,0.7664704322814941,0.38194283843040466,-0.2303062379360199
360.0,-0.20517800748348236,0.16917316615581512,-1.567108890604982e-17,2.372711181640625,1.363024353981018,-3.001481056213379,1.5982154607772827,-0.09478174149990082,-0.02461431920528412,-0.46631720662117004,0.7474488615989685,0.4014304280281067,-0.25044378638267517
361.0,-0.19687871634960175,0.15266908705234528,-1.567108890604982e-17,2.299565315246582,1.3944438695907593,-2.9979805946350098,1.593698501586914,-0.0853201225399971,-0.014068163931369781,-0.4892325699329376,0.757456362247467,0.3631671071052551,-0.2345655858516693
362.0,-0.20154795050621033,0.14224064350128174,-1.567108890604982e-17,2.24666690826416,1.3816750049591064,-2.9672977924346924,1.5856578350067139,-0.08922514319419861,-0.007507748901844025,-0.4827907085418701,0.7762855291366577,0.34419572353363037,-0.2140636146068573
363.0,-0.20802189409732819,0.1366458386182785,-1.567108890604982e-17,2.2150838375091553,1.362941026687622,-2.936312675476074,1.5787293910980225,-0.09525886923074722,-0.004071921110153198,-0.4700210690498352,0.7915584444999695,0.3357948362827301,-0.19939227402210236
364.0,-0.21673062443733215,0.13636736571788788,-1.567108890604982e-17,2.2072250843048096,1.3352538347244263,-2.9066834449768066,1.573622465133667,-0.10380789637565613,-0.0038748905062675476,-0.4507597088813782,0.8030641078948975,0.33986949920654297,-0.19076870381832123
365.0,-0.2318747341632843,0.1397111713886261,-1.567108890604982e-17,2.2098937034606934,1.2835638523101807,-2.862051486968994,1.5660361051559448,-0.11833283305168152,-0.0058463215827941895,-0.41573813557624817,0.8175926208496094,0.355104923248291,-0.18056751787662506
366.0,-0.23724687099456787,0.1336956024169922,-1.567108890604982e-17,2.1750473976135254,1.2692722082138062,-2.825925827026367,1.5583608150482178,-0.12287620455026627,-0.002329811453819275,-0.40200236439704895,0.8316434025764465,0.34491434693336487,-0.1667257845401764
367.0,-0.2374337911605835,0.11848661303520203,-1.567108890604982e-17,2.0988476276397705,1.277261734008789,-2.775519609451294,1.547617793083191,-0.12178589403629303,0.006171107292175293,-0.39505431056022644,0.8520265221595764,0.31161928176879883,-0.14448674023151398
368.0,-0.22669772803783417,0.11373955011367798,-1.567108890604982e-17,2.0852224826812744,1.315030574798584,-2.806417226791382,1.5513352155685425,-0.11149659752845764,0.0088442862033844,-0.4214446544647217,0.8448537588119507,0.29490038752555847,-0.1471073478460312
369.0,-0.223041832447052,0.12388300150632858,-1.567108890604982e-17,2.140415668487549,1.319589614868164,-2.8510184288024902,1.5618335008621216,-0.10881368815898895,0.0033849477767944336,-0.4338010251522064,0.8271965980529785,0.3163028061389923,-0.16587650775909424
370.0,-0.20951122045516968,0.11905878782272339,-1.567108890604982e-17,2.1268842220306396,1.3650275468826294,-2.891737699508667,1.566365122795105,-0.09533365070819855,0.00613752007484436,-0.4662477970123291,0.8152832388877869,0.2980995178222656,-0.1704784631729126
371.0,-0.21327826380729675,0.11241436004638672,-1.567108890604982e-17,2.0898799896240234,1.3567895889282227,-2.8589978218078613,1.5591884851455688,-0.09848740696907043,0.00969579815864563,-0.4553762972354889,0.8288534879684448,0.28485432267189026,-0.15650039911270142
372.0,-0.20290128886699677,0.11672494560480118,-1.567108890604982e-17,2.1196508407592773,1.3873317241668701,-2.9132659435272217,1.5682183504104614,-0.08868394792079926,0.00745411217212677,-0.4825120270252228,0.8086171746253967,0.28907740116119385,-0.17249615490436554
373.0,-0.19508865475654602,0.11100685596466064,-1.567108890604982e-17,2.095111131668091,1.4138761758804321,-2.932724714279175,1.5680633783340454,-0.08038593828678131,0.010588616132736206,-0.5012782216072083,0.8038755655288696,0.27167120575904846,-0.16940785944461823
