Sungjin-Park-dev/vision_inspection/data/trajectory/5504/joint_trajectory_dp.csv
time,ur20-shoulder_pan_joint,ur20-shoulder_lift_joint,ur20-elbow_joint,ur20-wrist_1_joint,ur20-wrist_2_joint,ur20-wrist_3_joint,target-POS_X,target-POS_Y,target-POS_Z,target-ROT_X,target-ROT_Y,target-ROT_Z,target-ROT_W
0.0,-2.92374587059021,-2.611429214477539,-1.3305405378341675,-1.752953052520752,1.5093613862991333,-0.04093106463551521,1.2282955646514893,0.05632658302783966,-0.0687221810221672,0.7072241306304932,-0.5260881781578064,-0.28189167380332947,0.37894901633262634
1.0,-2.9256389141082764,-2.60823917388916,-1.3316386938095093,-1.757794976234436,1.5129793882369995,-0.03829694911837578,1.2273736000061035,0.05434679239988327,-0.06519778817892075,0.7050551772117615,-0.5279666185379028,-0.28378215432167053,0.37896728515625
2.0,-2.936103582382202,-2.614170789718628,-1.321446418762207,-1.7662259340286255,1.5389567613601685,-0.020914815366268158,1.2307262420654297,0.046184368431568146,-0.0673651322722435,0.6932575106620789,-0.5420590043067932,-0.29254406690597534,0.37414446473121643
3.0,-2.94535756111145,-2.617457866668701,-1.3146421909332275,-1.773414134979248,1.5610166788101196,-0.006374600809067488,1.232779622077942,0.03859669715166092,-0.06790139526128769,0.6828569173812866,-0.5538325905799866,-0.3001040518283844,0.3700181841850281
4.0,-2.964574098587036,-2.6197547912597656,-1.307997226715088,-1.7808884382247925,1.6050375699996948,0.022159766405820847,1.2346819639205933,0.02204883098602295,-0.06720440834760666,0.6619503498077393,-0.5773983597755432,-0.3141724169254303,0.3601785898208618
5.0,-2.951791763305664,-2.623565196990967,-1.3082853555679321,-1.7728699445724487,1.5769500732421875,0.004018219653517008,1.2354053258895874,0.03362906724214554,-0.07237494736909866,0.6759010553359985,-0.5626031756401062,-0.3045608699321747,0.36589378118515015
6.0,-2.942854642868042,-2.623805046081543,-1.3108422756195068,-1.7673717737197876,1.5573115348815918,-0.00885679665952921,1.2349183559417725,0.041549913585186005,-0.07409347593784332,0.6854228973388672,-0.5519692301750183,-0.2978578209877014,0.3698731064796448
7.0,-2.931828498840332,-2.619879961013794,-1.3199059963226318,-1.7564433813095093,1.5304734706878662,-0.026807261630892754,1.2323124408721924,0.05048999935388565,-0.07395245134830475,0.6982103586196899,-0.5377655625343323,-0.2883526682853699,0.37438398599624634
8.0,-2.9631741046905518,-2.630124807357788,-1.3003286123275757,-1.7748159170150757,1.6039716005325317,0.02162940613925457,1.238369107246399,0.024281084537506104,-0.07651178538799286,0.6633058786392212,-0.5770743489265442,-0.3127288520336151,0.3594595789909363
9.0,-2.955387592315674,-2.631059169769287,-1.3016308546066284,-1.7701069116592407,1.5871648788452148,0.010732376947999,1.2383480072021484,0.03132364898920059,-0.07850033789873123,0.6717655062675476,-0.5682154893875122,-0.30692046880722046,0.3628528118133545
10.0,-2.9498534202575684,-2.6324636936187744,-1.3020176887512207,-1.7663978338241577,1.5754399299621582,0.0030576696153730154,1.238563060760498,0.03641234338283539,-0.08056383579969406,0.6776520013809204,-0.5619257688522339,-0.30279818177223206,0.36515820026397705
11.0,-2.9411826133728027,-2.6290435791015625,-1.3080596923828125,-1.7612680196762085,1.5548319816589355,-0.01056872121989727,1.2366360425949097,0.04358772188425064,-0.07942398637533188,0.6873840689659119,-0.5508994460105896,-0.2959931492805481,0.3693251311779022
12.0,-2.9318573474884033,-2.6246354579925537,-1.3165243864059448,-1.7528339624404907,1.5317848920822144,-0.026062127202749252,1.2340302467346191,0.05102654546499252,-0.07830329984426498,0.6982216835021973,-0.5386274456977844,-0.2880289852619171,0.373371422290802
13.0,-2.92378306388855,-2.6213560104370117,-1.3232674598693848,-1.7460240125656128,1.513368010520935,-0.0386224240064621,1.2318772077560425,0.0577053502202034,-0.07765910029411316,0.7068345546722412,-0.5283546447753906,-0.2816036641597748,0.3767302930355072
14.0,-2.9223642349243164,-2.6251933574676514,-1.3211308717727661,-1.7419517040252686,1.5121853351593018,-0.039617981761693954,1.2330758571624756,0.05955188721418381,-0.08147802203893661,0.7080512642860413,-0.5276353359222412,-0.28043508529663086,0.3763251304626465
15.0,-2.9088077545166016,-2.618929624557495,-1.3329451084136963,-1.731953740119934,1.4818886518478394,-0.06058688461780548,1.2290003299713135,0.07072307169437408,-0.0795610174536705,0.7216708660125732,-0.5100322365760803,-0.2701271176338196,0.38221678137779236
16.0,-2.9007866382598877,-2.6164472103118896,-1.3401931524276733,-1.7225334644317627,1.4639161825180054,-0.07347895950078964,1.22676682472229,0.07733729481697083,-0.0801117941737175,0.7299238443374634,-0.4995650053024292,-0.2634909451007843,0.3849916160106659
17.0,-2.9070897102355957,-2.622480630874634,-1.3311854600906372,-1.7278172969818115,1.479909896850586,-0.06223968416452408,1.230028510093689,0.07279689610004425,-0.08318564295768738,0.7231834530830383,-0.5087836980819702,-0.26874643564224243,0.381995290517807
18.0,-2.9185657501220703,-2.628618001937866,-1.3205235004425049,-1.735666036605835,1.5059562921524048,-0.044145528227090836,1.233811616897583,0.06347185373306274,-0.085566945374012,0.7116743922233582,-0.5240030884742737,-0.27743086218833923,0.3767925500869751
19.0,-2.928091049194336,-2.6301193237304688,-1.3144558668136597,-1.7448253631591797,1.5260177850723267,-0.030208511278033257,1.2355527877807617,0.05513780564069748,-0.08430960774421692,0.7019649744033813,-0.5354583859443665,-0.2848125994205475,0.3733781576156616
20.0,-2.9343886375427246,-2.630535364151001,-1.310856580734253,-1.7515356540679932,1.5392842292785645,-0.021104218438267708,1.2364403009414673,0.049564775079488754,-0.08291453868150711,0.6953384876251221,-0.542820155620575,-0.28983768820762634,0.37127456068992615
21.0,-2.959341049194336,-2.6356098651885986,-1.2971150875091553,-1.7694087028503418,1.597287893295288,0.017392482608556747,1.240208387374878,0.028337271884083748,-0.08195439726114273,0.6672720909118652,-0.5736753344535828,-0.30967673659324646,0.360201358795166
22.0,-2.9436700344085693,-2.6351022720336914,-1.3023098707199097,-1.7598936557769775,1.562314510345459,-0.005628446117043495,1.2390698194503784,0.0421561598777771,-0.08419197052717209,0.6844247579574585,-0.554994523525238,-0.2977910041809082,0.3672388195991516
23.0,-2.9515175819396973,-2.638528823852539,-1.2968944311141968,-1.7635762691497803,1.5809638500213623,0.006722251884639263,1.2408766746520996,0.03565309941768646,-0.0856919214129448,0.6756530404090881,-0.5650123953819275,-0.3037864565849304,0.36327388882637024
24.0,-2.965961217880249,-2.6415441036224365,-1.29086434841156,-1.769375205039978,1.61376953125,0.028224678710103035,1.242661952972412,0.02311457134783268,-0.08623991161584854,0.6596546173095703,-0.5824089050292969,-0.3144010901451111,0.35610055923461914
25.0,-2.969846487045288,-2.6386377811431885,-1.29214608669281,-1.773259162902832,1.6213964223861694,0.03306344524025917,1.241744041442871,0.019306279718875885,-0.08308567106723785,0.6554391980171204,-0.5862613916397095,-0.3174237608909607,0.3548791706562042
26.0,-2.9898269176483154,-2.642411947250366,-1.2859036922454834,-1.7760499715805054,1.6739071607589722,0.06716065853834152,1.2439111471176147,0.0029752817936241627,-0.08431697636842728,0.6301902532577515,-0.6123117804527283,-0.33269837498664856,0.34241265058517456
27.0,-2.9801852703094482,-2.6399834156036377,-1.2890946865081787,-1.775942087173462,1.6472729444503784,0.049814868718385696,1.2426577806472778,0.01063125766813755,-0.08304647356271744,0.6428836584091187,-0.5992879867553711,-0.32527032494544983,0.3489323854446411
28.0,-2.988719940185547,-2.6377334594726562,-1.2899158000946045,-1.7772849798202515,1.6709439754486084,0.06516198813915253,1.2422394752502441,0.0036351652815937996,-0.08043927699327469,0.6315566897392273,-0.6107757687568665,-0.332009494304657,0.3433057367801666
29.0,-2.973731756210327,-2.6347150802612305,-1.2943592071533203,-1.7769852876663208,1.6296124458312988,0.038252558559179306,1.2404811382293701,0.015540258958935738,-0.07912541925907135,0.6510311961174011,-0.590334951877594,-0.32050979137420654,0.3534635603427887
30.0,-2.9851295948028564,-2.63303542137146,-1.294211983680725,-1.7783454656600952,1.6611361503601074,0.05872976407408714,1.2404576539993286,0.006292299367487431,-0.07674196362495422,0.6362033486366272,-0.6059176325798035,-0.329387366771698,0.34585118293762207
31.0,-3.002070665359497,-2.6351284980773926,-1.2925875186920166,-1.7762939929962158,1.7089451551437378,0.08981858938932419,1.241033911705017,-0.007231242023408413,-0.07816549390554428,-0.6130688190460205,0.6286543607711792,0.34255412220954895,-0.33406150341033936
32.0,-3.0203869342803955,-2.633122444152832,-1.2965627908706665,-1.7715531587600708,1.7547332048416138,0.11976493895053864,1.2395434379577637,-0.023075353354215622,-0.0771566778421402,-0.5894474387168884,0.6501857042312622,0.35515937209129333,-0.3219815194606781
33.0,-3.0306570529937744,-2.6329357624053955,-1.298419713973999,-1.7680377960205078,1.7785395383834839,0.135416641831398,1.2388957738876343,-0.03221751004457474,-0.07755158096551895,-0.576596736907959,0.6612159609794617,0.36171451210975647,-0.31542402505874634
34.0,-3.039569616317749,-2.6299617290496826,-1.303596019744873,-1.7630447149276733,1.8009508848190308,0.15047188103199005,1.2370578050613403,-0.04001834988594055,-0.07613290101289749,-0.564622163772583,0.671314537525177,0.3674553632736206,-0.3090554475784302
35.0,-3.0527865886688232,-2.624457836151123,-1.3136085271835327,-1.753066897392273,1.8349417448043823,0.17381568253040314,1.233547329902649,-0.05151526629924774,-0.07378789782524109,-0.5462366342544556,0.686279833316803,0.3757599890232086,-0.2990818917751312
36.0,-3.042996883392334,-2.6250553131103516,-1.309028148651123,-1.7616162300109863,1.8107577562332153,0.15696413815021515,1.2349133491516113,-0.04297704994678497,-0.07255706191062927,-0.5594440698623657,0.6754381060600281,0.3699907064437866,-0.30645161867141724
37.0,-3.030571222305298,-2.6276497840881348,-1.3026942014694214,-1.7700648307800293,1.7795655727386475,0.13577112555503845,1.2369946241378784,-0.03216741606593132,-0.07300160080194473,-0.5761016607284546,0.6612897515296936,0.36223751306533813,-0.31557366251945496
38.0,-3.022603988647461,-2.627338171005249,-1.3016066551208496,-1.7729454040527344,1.7612384557724,0.12373411655426025,1.2373440265655518,-0.025086797773838043,-0.0722997710108757,-0.5860276222229004,0.652810275554657,0.35719752311706543,-0.3206561207771301
39.0,-3.015286684036255,-2.6289279460906982,-1.2991656064987183,-1.7749719619750977,1.7439817190170288,0.11245232075452805,1.2382763624191284,-0.018572669476270676,-0.07327312976121902,-0.5951993465423584,0.6447480916976929,0.3524153232574463,-0.32533231377601624
40.0,-3.005526542663574,-2.6304636001586914,-1.2967430353164673,-1.7770589590072632,1.7188875675201416,0.09614545106887817,1.2392414808273315,-0.010228587314486504,-0.07426129281520844,-0.6080770492553711,0.6330940127372742,0.3454557955265045,-0.3318049907684326
41.0,-2.9958584308624268,-2.6311147212982178,-1.295589566230774,-1.7782659530639648,1.6913295984268188,0.07831166684627533,1.2397990226745605,-0.002430313965305686,-0.07477465271949768,0.6216513514518738,-0.6203482747077942,-0.3378148078918457,0.33852437138557434
42.0,-2.9770894050598145,-2.6285009384155273,-1.298975944519043,-1.7790595293045044,1.6390957832336426,0.04435764253139496,1.2384952306747437,0.01251831091940403,-0.07355763018131256,0.6465435028076172,-0.5949410200119019,-0.3233445882797241,0.35139000415802
43.0,-2.9653706550598145,-2.6259713172912598,-1.3029152154922485,-1.7785834074020386,1.607454776763916,0.02378379926085472,1.2369346618652344,0.021841948851943016,-0.07248473167419434,0.6610789895057678,-0.578799843788147,-0.3145172595977783,0.35922732949256897
44.0,-2.980959177017212,-2.6247458457946777,-1.3015093803405762,-1.7804876565933228,1.6498727798461914,0.051308609545230865,1.23737370967865,0.009217523038387299,-0.07003550231456757,0.6414324641227722,-0.6001960039138794,-0.3264809250831604,0.3489118218421936
45.0,-2.9952642917633057,-2.6235241889953613,-1.301872968673706,-1.7804316282272339,1.6898313760757446,0.07720233500003815,1.2371079921722412,-0.0023224621545523405,-0.06838349997997284,0.6222867369651794,-0.6194623112678528,-0.33762699365615845,0.3391663730144501
46.0,-3.0063304901123047,-2.6251285076141357,-1.30124032497406,-1.7784159183502197,1.7212586402893066,0.09755370020866394,1.237305760383606,-0.011121837422251701,-0.06977354735136032,-0.6068295836448669,0.6340444087982178,0.34627896547317505,-0.3314158022403717
47.0,-3.0219593048095703,-2.6224935054779053,-1.3053947687149048,-1.7750345468521118,1.760911226272583,0.12325131148099899,1.2356293201446533,-0.02454693615436554,-0.06808978319168091,-0.5862571001052856,0.6522923707962036,0.357323557138443,-0.32114967703819275
48.0,-3.0379433631896973,-2.6223840713500977,-1.3091607093811035,-1.7671698331832886,1.7986570596694946,0.14834840595722198,1.2344720363616943,-0.038628824055194855,-0.06938400119543076,-0.5659291744232178,0.669680655002594,0.3672979474067688,-0.31039363145828247
49.0,-3.0331003665924072,-2.619377613067627,-1.3097800016403198,-1.7724138498306274,1.7873163223266602,0.14031913876533508,1.2338416576385498,-0.03445414826273918,-0.06601370871067047,-0.5719631910324097,0.6641770005226135,0.36476606130599976,-0.3141222298145294
50.0,-3.056259870529175,-2.6151819229125977,-1.322655200958252,-1.7533022165298462,1.8457459211349487,0.1805994063615799,1.2297379970550537,-0.054496437311172485,-0.06649117916822433,-0.5404157638549805,0.6902898550033569,0.3788130283355713,-0.29656603932380676
51.0,-3.046114206314087,-2.6186683177948,-1.3155286312103271,-1.7610505819320679,1.820116639137268,0.163014218211174,1.2322460412979126,-0.0456608310341835,-0.06765922158956528,-0.5544870495796204,0.679185152053833,0.37251049280166626,-0.30411773920059204
52.0,-3.059434652328491,-2.6208572387695312,-1.3193788528442383,-1.7486722469329834,1.8509804010391235,0.1847410500049591,1.2313470840454102,-0.057473693042993546,-0.0719010978937149,-0.5372177958488464,0.6931341886520386,0.37985143065452576,-0.29440611600875854
53.0,-3.0668022632598877,-2.6197948455810547,-1.3234299421310425,-1.7428895235061646,1.8678258657455444,0.1964125782251358,1.2299003601074219,-0.0641196072101593,-0.07230139523744583,-0.5275242924690247,0.7003710269927979,0.38407284021377563,-0.2892863154411316
54.0,-3.086360216140747,-2.6151862144470215,-1.3391847610473633,-1.719978928565979,1.9173723459243774,0.2325359731912613,1.2246719598770142,-0.08110383152961731,-0.07346288859844208,-0.4992171823978424,0.7209271192550659,0.3951762020587921,-0.27364590764045715
55.0,-3.075087785720825,-2.616907835006714,-1.3301352262496948,-1.7352250814437866,1.8882176876068115,0.2107740342617035,1.2274956703186035,-0.07142370194196701,-0.07166242599487305,-0.5158765316009521,0.7088358998298645,0.38896042108535767,-0.28307756781578064
56.0,-3.082235336303711,-2.609689712524414,-1.3409404754638672,-1.7274314165115356,1.9087191820144653,0.225415900349617,1.223496437072754,-0.07740071415901184,-0.06764484196901321,-0.504431426525116,0.7168646454811096,0.39362141489982605,-0.27697694301605225
57.0,-3.0909264087677,-2.6068994998931885,-1.349210262298584,-1.7162716388702393,1.931394338607788,0.24217642843723297,1.2206895351409912,-0.08484522253274918,-0.06779687106609344,-0.4913303554058075,0.7258890271186829,0.3986053466796875,-0.26980283856391907
58.0,-3.100874423980713,-2.6071293354034424,-1.3558083772659302,-1.70340895652771,1.9535433053970337,0.2589011788368225,1.2184268236160278,-0.09385288506746292,-0.07080977410078049,-0.477801650762558,0.7348519563674927,0.4035482108592987,-0.2623875141143799
59.0,-3.113584518432617,-2.605316162109375,-1.367422103881836,-1.684262752532959,1.9843295812606812,0.2828576862812042,1.2144460678100586,-0.10502631217241287,-0.07344650477170944,-0.4590681195259094,0.7467159628868103,0.4100327789783478,-0.2520810663700104
60.0,-3.1210339069366455,-2.6014516353607178,-1.377771258354187,-1.6709078550338745,2.0048701763153076,0.299342542886734,1.2108696699142456,-0.11123739182949066,-0.07312904298305511,-0.44673606753349304,0.7541876435279846,0.41408461332321167,-0.2452791929244995
61.0,-3.125887632369995,-2.6026580333709717,-1.381291151046753,-1.6618249416351318,2.015634775161743,0.30848515033721924,1.2097500562667847,-0.1156187355518341,-0.07597862929105759,-0.43983346223831177,0.7583843469619751,0.41612204909324646,-0.24133461713790894
62.0,-3.1326475143432617,-2.600757598876953,-1.3892805576324463,-1.6502354145050049,2.031646728515625,0.3215612769126892,1.2067844867706299,-0.12159128487110138,-0.07695996016263962,-0.4296685755252838,0.7641180157661438,0.41939646005630493,-0.23582936823368073
63.0,-3.1172804832458496,-2.608670473098755,-1.3679927587509155,-1.6764895915985107,1.9922337532043457,0.2898791432380676,1.2145941257476807,-0.10838569700717926,-0.07764650136232376,-0.45402345061302185,0.7501149773597717,0.411342054605484,-0.24897374212741852
64.0,-3.106171131134033,-2.6116721630096436,-1.35566246509552,-1.6953396797180176,1.9635860919952393,0.26702362298965454,1.218756079673767,-0.09883987158536911,-0.07610993087291718,-0.4713151156902313,0.7392207384109497,0.40562403202056885,-0.2586192488670349
65.0,-3.0994760990142822,-2.612572431564331,-1.350288987159729,-1.7036619186401367,1.9481641054153442,0.25549644231796265,1.220718264579773,-0.09282952547073364,-0.07498974353075027,-0.48075568675994873,0.7332707047462463,0.40210285782814026,-0.2636314332485199
66.0,-3.0980141162872314,-2.6176905632019043,-1.3449714183807373,-1.7041264772415161,1.9427714347839355,0.25202736258506775,1.222902774810791,-0.09173048287630081,-0.07887483388185501,-0.48373323678970337,0.7316309213638306,0.4006733298301697,-0.2649136483669281
67.0,-3.0882368087768555,-2.619807243347168,-1.3365637063980103,-1.7161732912063599,1.9199881553649902,0.23502840101718903,1.2259279489517212,-0.08294667303562164,-0.07788357138633728,-0.4974246919155121,0.7224700450897217,0.39553102850914,-0.272325336933136
68.0,-3.0772781372070312,-2.62380313873291,-1.3257966041564941,-1.730130910873413,1.8914340734481812,0.2138998657464981,1.2295877933502197,-0.07349501550197601,-0.07809513807296753,-0.5137984156608582,0.7108412384986877,0.3892854154109955,-0.28137674927711487
69.0,-3.0679430961608887,-2.6245436668395996,-1.3200229406356812,-1.740322470664978,1.8688713312149048,0.1975725293159485,1.2314417362213135,-0.0652487725019455,-0.07654757052659988,-0.5267394185066223,0.7012453079223633,0.384121835231781,-0.288532555103302
70.0,-3.062222480773926,-2.629119396209717,-1.3137589693069458,-1.743553638458252,1.8545525074005127,0.18795689940452576,1.2339272499084473,-0.06015663966536522,-0.0794316753745079,-0.5348678231239319,0.6954568028450012,0.3803669512271881,-0.2925358712673187
71.0,-3.068622350692749,-2.6296136379241943,-1.3161193132400513,-1.7380601167678833,1.8687872886657715,0.1979733407497406,1.2331644296646118,-0.0659683346748352,-0.08097932487726212,-0.5266003012657166,0.7016632556915283,0.383874773979187,-0.28809916973114014
72.0,-3.089952230453491,-2.623422861099243,-1.3346447944641113,-1.7129881381988525,1.9223138093948364,0.2371959239244461,1.2268321514129639,-0.08465789258480072,-0.08140578866004944,-0.4958041310310364,0.7238202691078186,0.39588695764541626,-0.2711755633354187
73.0,-3.0807266235351562,-2.6284306049346924,-1.3241835832595825,-1.7239680290222168,1.8986443281173706,0.21982158720493317,1.230602502822876,-0.0766005739569664,-0.08297280967235565,-0.5095099806785583,0.7143231630325317,0.3905596137046814,-0.2785770297050476
74.0,-3.072969913482666,-2.633432626724243,-1.3148409128189087,-1.733211636543274,1.8773863315582275,0.20434065163135529,1.233870029449463,-0.06999029964208603,-0.08498448133468628,-0.5214293003082275,0.7056458592414856,0.38585165143013,-0.2851208746433258
75.0,-3.0648961067199707,-2.6347148418426514,-1.3102447986602783,-1.7394827604293823,1.8587696552276611,0.19140543043613434,1.235550880432129,-0.06269186735153198,-0.08465804159641266,-0.5322312712669373,0.6978021860122681,0.3811606466770172,-0.29072079062461853
76.0,-3.0576703548431396,-2.634248733520508,-1.3075464963912964,-1.7457005977630615,1.8426684141159058,0.180049329996109,1.2364084720611572,-0.056122004985809326,-0.08298833668231964,-0.5415045022964478,0.6906579732894897,0.3772182762622833,-0.2957547605037689
77.0,-3.0457727909088135,-2.6366705894470215,-1.3005683422088623,-1.7550938129425049,1.8150818347930908,0.16083820164203644,1.2388218641281128,-0.04536641761660576,-0.08293596655130386,-0.5569689869880676,0.6782703399658203,0.37042155861854553,-0.3041756749153137
78.0,-3.0498874187469482,-2.631491184234619,-1.3065842390060425,-1.7532095909118652,1.8261377811431885,0.16820509731769562,1.2364524602890015,-0.04900301247835159,-0.07926233112812042,-0.5509687066078186,0.682904064655304,0.37331101298332214,-0.30118826031684875
79.0,-3.036364793777466,-2.6356310844421387,-1.2976124286651611,-1.7640626430511475,1.791515827178955,0.1442745178937912,1.2394375801086426,-0.03724206984043121,-0.0803937166929245,-0.5695531368255615,0.6673591732978821,0.36498379707336426,-0.311492919921875
80.0,-3.028498888015747,-2.6374897956848145,-1.2943276166915894,-1.767086386680603,1.7724796533584595,0.13170494139194489,1.240667462348938,-0.03027123212814331,-0.0813450813293457,-0.5798410773277283,0.6587823033332825,0.35983482003211975,-0.31671616435050964
81.0,-3.0160863399505615,-2.639004945755005,-1.291083812713623,-1.7709386348724365,1.7433679103851318,0.11255568265914917,1.2418643236160278,-0.019202277064323425,-0.08197974413633347,-0.5954242944717407,0.6452133655548096,0.3518054187297821,-0.32465770840644836
82.0,-3.0067012310028076,-2.6393303871154785,-1.289437174797058,-1.774321436882019,1.7216113805770874,0.09813952445983887,1.2423551082611084,-0.010840462520718575,-0.08176083117723465,-0.6067882776260376,0.6346254348754883,0.34592342376708984,-0.33074989914894104
83.0,-3.0073375701904297,-2.6437158584594727,-1.2859197854995728,-1.7725003957748413,1.7219809293746948,0.09857988357543945,1.2439043521881104,-0.011363957077264786,-0.0855581983923912,-0.6065613627433777,0.6351405382156372,0.34583303332328796,-0.33027175068855286
84.0,-3.023442029953003,-2.642385721206665,-1.2894601821899414,-1.7670674324035645,1.7595981359481812,0.12348111718893051,1.2427138090133667,-0.025733940303325653,-0.0852721780538559,-0.5867428183555603,0.653167724609375,0.3560772240161896,-0.3198653757572174
85.0,-3.0359418392181396,-2.6419970989227295,-1.2921196222305298,-1.7623481750488281,1.788926601409912,0.14288879930973053,1.2417820692062378,-0.0368630513548851,-0.08572866767644882,-0.5708473324775696,0.6666260361671448,0.3640706539154053,-0.31176215410232544
86.0,-3.047376871109009,-2.64239764213562,-1.2964149713516235,-1.7518861293792725,1.8169015645980835,0.1625545620918274,1.2406781911849976,-0.046897463500499725,-0.08808517456054688,-0.5557894706726074,0.6796306371688843,0.3706037700176239,-0.3030729293823242
87.0,-3.0580129623413086,-2.640007972717285,-1.3028581142425537,-1.743566870689392,1.8415675163269043,0.1797553300857544,1.2384262084960938,-0.05653926730155945,-0.08793874084949493,-0.5419337749481201,0.6906880140304565,0.37669482827186584,-0.2955656349658966
88.0,-3.0706231594085693,-2.6384947299957275,-1.3095582723617554,-1.7335050106048584,1.87049400806427,0.19997568428516388,1.2360501289367676,-0.06796876341104507,-0.08886817842721939,-0.5252756476402283,0.7031811475753784,0.3839032053947449,-0.2867753505706787
89.0,-3.0632729530334473,-2.642415761947632,-1.303062915802002,-1.738379716873169,1.8526456356048584,0.18776768445968628,1.238547444343567,-0.06136876344680786,-0.09090498834848404,-0.5354928970336914,0.6958175897598267,0.3793068826198578,-0.2919100821018219
90.0,-3.0699729919433594,-2.6433634757995605,-1.3051562309265137,-1.732496976852417,1.8674896955490112,0.19830520451068878,1.2378942966461182,-0.06748004257678986,-0.09287914633750916,-0.5268501043319702,0.7023321986198425,0.3829376995563507,-0.2872583270072937
91.0,-3.057439088821411,-2.6496403217315674,-1.2944409847259521,-1.741065263748169,1.8371520042419434,0.17743411660194397,1.2419499158859253,-0.05619335174560547,-0.09599850326776505,-0.5441224575042725,0.6895760297775269,0.375191867351532,-0.29605191946029663
92.0,-3.047010660171509,-2.6502177715301514,-1.2896268367767334,-1.7498074769973755,1.813485860824585,0.16073760390281677,1.2435166835784912,-0.046689216047525406,-0.09464924037456512,-0.5574455857276917,0.6787533760070801,0.36944228410720825,-0.3034150302410126
93.0,-3.0103602409362793,-2.6562986373901367,-1.2758617401123047,-1.7669658660888672,1.7258570194244385,0.10173021256923676,1.248290777206421,-0.013943396508693695,-0.09648529440164566,-0.6044472455978394,0.6379991769790649,0.346326619386673,-0.32811349630355835
94.0,-3.003023624420166,-2.6558380126953125,-1.2752323150634766,-1.7699319124221802,1.7089550495147705,0.09041266143321991,1.2483729124069214,-0.00738802645355463,-0.0957104042172432,-0.6131594181060791,0.6295555233955383,0.34183526039123535,-0.3329325020313263
95.0,-3.0181283950805664,-2.654431104660034,-1.2785860300064087,-1.764727234840393,1.7443745136260986,0.11400409042835236,1.2472946643829346,-0.02090500295162201,-0.09529685974121094,-0.5947412848472595,0.6468497514724731,0.3513982892036438,-0.3230905532836914
96.0,-3.025859832763672,-2.6522130966186523,-1.281676173210144,-1.762731909751892,1.7629058361053467,0.1262158453464508,1.246103048324585,-0.027832292020320892,-0.09381035715341568,-0.5848549604415894,0.655442476272583,0.3565433621406555,-0.31814563274383545
97.0,-3.0362548828125,-2.6502602100372314,-1.2852554321289062,-1.759409785270691,1.7877485752105713,0.1426081657409668,1.2447327375411987,-0.0371168851852417,-0.09278896450996399,-0.5713784694671631,0.6666930317878723,0.36339113116264343,-0.3114384710788727
98.0,-3.027609348297119,-2.647156238555908,-1.2861905097961426,-1.7638992071151733,1.7681610584259033,0.12941300868988037,1.2441915273666382,-0.029424697160720825,-0.08957989513874054,-0.5820711851119995,0.6575078964233398,0.3582115173339844,-0.3171134889125824
99.0,-3.014181137084961,-2.647364854812622,-1.2838923931121826,-1.7686388492584229,1.73691725730896,0.10868634283542633,1.2449450492858887,-0.017434990033507347,-0.08904585242271423,-0.5987437963485718,0.6427292823791504,0.34969237446784973,-0.32576099038124084
100.0,-3.0084710121154785,-2.652132987976074,-1.2790874242782593,-1.7691106796264648,1.7225048542022705,0.09930378198623657,1.2468738555908203,-0.01229386031627655,-0.09282637387514114,-0.6062213182449341,0.6360341906547546,0.34560924768447876,-0.32940953969955444
101.0,-2.990065336227417,-2.6527035236358643,-1.2772247791290283,-1.7732415199279785,1.6743544340133667,0.06762576848268509,1.2474995851516724,0.00329592009074986,-0.09300199896097183,0.6301229596138,-0.6127769351005554,-0.33249226212501526,0.3419041931629181
102.0,-2.999248743057251,-2.6508541107177734,-1.2790180444717407,-1.7727100849151611,1.7005586624145508,0.08468635380268097,1.2467098236083984,-0.004213480744510889,-0.09133230894804001,-0.617384135723114,0.6251360774040222,0.33976981043815613,-0.3355565071105957
103.0,-2.9912261962890625,-2.647362470626831,-1.2816162109375,-1.7747806310653687,1.67769193649292,0.06970073282718658,1.245680332183838,0.002089523943141103,-0.08840103447437286,0.6284245252609253,-0.6142408847808838,-0.3336101770401001,0.3413136899471283
104.0,-2.9721436500549316,-2.6456778049468994,-1.2861460447311401,-1.7703007459640503,1.6287612915039062,0.03802509233355522,1.2443904876708984,0.018050726503133774,-0.08899243921041489,0.6524455547332764,-0.5901774168014526,-0.31891369819641113,0.35256144404411316
105.0,-2.9810850620269775,-2.648662567138672,-1.2817143201828003,-1.7735904455184937,1.6495065689086914,0.05138211324810982,1.245720624923706,0.010355653241276741,-0.09031854569911957,0.6419594287872314,-0.6006043553352356,-0.32562121748924255,0.34804216027259827
106.0,-2.9596331119537354,-2.6440227031707764,-1.2905274629592896,-1.7645032405853271,1.6005840301513672,0.0196868646889925,1.2432957887649536,0.02905837446451187,-0.08936533331871033,0.6665768623352051,-0.575578510761261,-0.3095836043357849,0.3585284352302551
107.0,-2.944467544555664,-2.6401243209838867,-1.298224687576294,-1.7571842670440674,1.5655640363693237,-0.0034855231642723083,1.240952730178833,0.04204860329627991,-0.08853345364332199,0.6834487318992615,-0.5568646788597107,-0.2981537878513336,0.3659287989139557
108.0,-2.9652135372161865,-2.6484668254852295,-1.285660743713379,-1.7648463249206543,1.6143358945846558,0.02877148613333702,1.2451560497283936,0.024580027908086777,-0.09247992187738419,0.6601431965827942,-0.5828554630279541,-0.31359294056892395,0.35517600178718567
109.0,-2.974907636642456,-2.6520116329193115,-1.280544400215149,-1.7680948972702026,1.6369515657424927,0.043523598462343216,1.246780276298523,0.016284596174955368,-0.09419560432434082,0.6489066481590271,-0.5944657325744629,-0.3207949697971344,0.3501732647418976
110.0,-2.954705238342285,-2.6466968059539795,-1.2896944284439087,-1.7603473663330078,1.5905228853225708,0.013105136342346668,1.2440286874771118,0.03377385437488556,-0.09244793653488159,0.6718778014183044,-0.5702884793281555,-0.3058274984359741,0.36030665040016174
111.0,-2.940690755844116,-2.642835855484009,-1.298365592956543,-1.750349998474121,1.5574114322662354,-0.00899312924593687,1.2415366172790527,0.04560456797480583,-0.09218669682741165,0.6879457235336304,-0.5527791380882263,-0.2945699393749237,0.3665986657142639
112.0,-2.929835557937622,-2.6407392024993896,-1.305473804473877,-1.739800214767456,1.5343109369277954,-0.02479923889040947,1.239558458328247,0.0551309734582901,-0.0933031439781189,0.6995063424110413,-0.5400527119636536,-0.28600645065307617,0.3704514801502228
113.0,-2.9377036094665527,-2.646188259124756,-1.29729425907135,-1.7449005842208862,1.5528262853622437,-0.012156068347394466,1.2424055337905884,0.048799626529216766,-0.09600085765123367,0.6908772587776184,-0.550287127494812,-0.2921408712863922,0.36677855253219604
114.0,-2.9454472064971924,-2.6483325958251953,-1.2916655540466309,-1.7524192333221436,1.5701241493225098,-0.0004508251731749624,1.2439888715744019,0.04214552789926529,-0.09571592509746552,0.6822167038917542,-0.5595353841781616,-0.2984597682952881,0.36389878392219543
115.0,-2.961327314376831,-2.6520302295684814,-1.2838233709335327,-1.760675072669983,1.6068570613861084,0.023960664868354797,1.2462884187698364,0.028472185134887695,-0.09619469940662384,0.6643237471580505,-0.5790370106697083,-0.31055375933647156,0.3562954366207123
116.0,-2.9697093963623047,-2.6537115573883057,-1.2804471254348755,-1.7642124891281128,1.6259838342666626,0.036503277719020844,1.2472316026687622,0.021147025749087334,-0.09645923227071762,0.6547711491584778,-0.5889623761177063,-0.3167944848537445,0.35219210386276245
117.0,-2.9823451042175293,-2.6593055725097656,-1.2730852365493774,-1.768073320388794,1.6558592319488525,0.055935993790626526,1.249611258506775,0.010398432612419128,-0.0995568111538887,0.6397759914398193,-0.6040205359458923,-0.32624512910842896,0.34555745124816895
118.0,-2.9937870502471924,-2.6589062213897705,-1.2717417478561401,-1.7716245651245117,1.684701681137085,0.07447627186775208,1.2497068643569946,0.0005858202930539846,-0.09804132580757141,0.6251932978630066,-0.6178582310676575,-0.3351873755455017,0.3391665816307068
119.0,-3.0022315979003906,-2.660299301147461,-1.2713669538497925,-1.7687361240386963,1.7059918642044067,0.08861072361469269,1.2499839067459106,-0.006631363183259964,-0.09947897493839264,-0.6146383285522461,0.6283977627754211,0.3408580422401428,-0.3333946168422699
120.0,-3.0082130432128906,-2.662508487701416,-1.2703077793121338,-1.7656911611557007,1.7193301916122437,0.09763827174901962,1.2505807876586914,-0.01196373626589775,-0.10167229920625687,-0.6077806353569031,0.6352396607398987,0.3443114161491394,-0.329428106546402
121.0,-3.0184617042541504,-2.6620500087738037,-1.2721976041793823,-1.7620224952697754,1.7433226108551025,0.11368601769208908,1.2499971389770508,-0.02114630490541458,-0.10181399434804916,-0.5952252745628357,0.6469109654426575,0.3507772982120514,-0.32275155186653137
122.0,-3.026029586791992,-2.659308671951294,-1.2757219076156616,-1.7602360248565674,1.7616431713104248,0.1257699429988861,1.2486293315887451,-0.02794257365167141,-0.09987448900938034,-0.5854582786560059,0.6553768515586853,0.35588034987449646,-0.3179134428501129
123.0,-3.0353329181671143,-2.656268358230591,-1.2798720598220825,-1.7580807209014893,1.784085988998413,0.14048023521900177,1.2469698190689087,-0.03628963604569435,-0.09777457267045975,-0.5732710361480713,0.6654446721076965,0.3621937930583954,-0.3120248019695282
124.0,-3.0502254962921143,-2.6549553871154785,-1.286884069442749,-1.7456284761428833,1.8191521167755127,0.16511015594005585,1.2448002099990845,-0.049702927470207214,-0.09922484308481216,-0.5541244745254517,0.6818280816078186,0.37059828639030457,-0.30118677020072937
125.0,-3.0433547496795654,-2.6572155952453613,-1.2821427583694458,-1.7508989572525024,1.802950382232666,0.1538008749485016,1.2464549541473389,-0.04345677047967911,-0.09992264956235886,-0.5630755424499512,0.674423098564148,0.36661815643310547,-0.3060893714427948
126.0,-3.0278985500335693,-2.6637957096099854,-1.2722128629684448,-1.758075475692749,1.7649714946746826,0.1282370388507843,1.2501232624053955,-0.029592253267765045,-0.10379449278116226,-0.5836110711097717,0.6572551727294922,0.35658973455429077,-0.3166346549987793
127.0,-3.0398945808410645,-2.662581443786621,-1.2761180400848389,-1.752372145652771,1.7933887243270874,0.14740993082523346,1.2487678527832031,-0.04036713019013405,-0.10384292900562286,-0.5681742429733276,0.6703366637229919,0.3641144931316376,-0.30862176418304443
128.0,-3.0492420196533203,-2.6600279808044434,-1.2821024656295776,-1.7449928522109985,1.8152683973312378,0.16274355351924896,1.2467305660247803,-0.048888012766838074,-0.10333652049303055,-0.5561381578445435,0.6804835796356201,0.36944296956062317,-0.30193430185317993
129.0,-3.0589945316314697,-2.659770965576172,-1.2863725423812866,-1.736734390258789,1.837400197982788,0.17844106256961823,1.245347261428833,-0.05779936537146568,-0.10482906550168991,-0.5436378121376038,0.6905993819236755,0.3748049736022949,-0.2950453758239746
130.0,-3.049316167831421,-2.6288950443267822,-1.343665361404419,-1.6055556535720825,1.808232307434082,0.19755211472511292,1.2413944005966187,-0.05053285136818886,-0.09758120030164719,-0.5660238265991211,0.7032560706138611,0.33511167764663696,-0.2697185277938843
131.0,-3.069091796875,-2.656764030456543,-1.2932891845703125,-1.729134202003479,1.8612749576568604,0.19511546194553375,1.2428160905838013,-0.0669562891125679,-0.10404986143112183,-0.5299838781356812,0.700849175453186,0.380797415971756,-0.2879599332809448
132.0,-3.0639820098876953,-2.653637409210205,-1.2937877178192139,-1.7343387603759766,1.8506659269332886,0.18733371794223785,1.2424559593200684,-0.06223410367965698,-0.10052244365215302,-0.5362387299537659,0.6959511637687683,0.37832140922546387,-0.29150116443634033
133.0,-3.0702080726623535,-2.6491036415100098,-1.3003660440444946,-1.7305188179016113,1.866216778755188,0.19792470335960388,1.2399122714996338,-0.0678139477968216,-0.09777580946683884,-0.5273826718330383,0.70229572057724,0.3823646306991577,-0.2871333062648773
134.0,-3.0793142318725586,-2.6469461917877197,-1.3072614669799805,-1.720969557762146,1.8886539936065674,0.21417337656021118,1.2375506162643433,-0.0759006142616272,-0.09806859493255615,-0.5145103931427002,0.7117503881454468,0.38755860924720764,-0.28015854954719543
135.0,-3.0864970684051514,-2.643315076828003,-1.3151720762252808,-1.7124615907669067,1.9062749147415161,0.2272045910358429,1.234696388244629,-0.08233409374952316,-0.097076416015625,-0.504252552986145,0.7190688848495483,0.3915201425552368,-0.2745564877986908
136.0,-3.091843843460083,-2.644444465637207,-1.3177465200424194,-1.7052490711212158,1.9178425073623657,0.236147940158844,1.2338879108428955,-0.0872681587934494,-0.09952651709318161,-0.4972369372844696,0.7241009473800659,0.3939962387084961,-0.2705554962158203
137.0,-3.099745273590088,-2.643948793411255,-1.3235104084014893,-1.6951539516448975,1.9359105825424194,0.24987991154193878,1.2318556308746338,-0.09445400536060333,-0.10132096707820892,-0.4862947165966034,0.7315069437026978,0.3980053961277008,-0.2645879089832306
138.0,-3.116962194442749,-2.6400983333587646,-1.3398425579071045,-1.6713415384292603,1.9769481420516968,0.28152817487716675,1.2259304523468018,-0.10988062620162964,-0.10339003801345825,-0.46119627356529236,0.7474035620689392,0.40696704387664795,-0.25112494826316833
139.0,-3.1075546741485596,-2.645148515701294,-1.327796220779419,-1.684826374053955,1.9531669616699219,0.26318612694740295,1.230365514755249,-0.10161535441875458,-0.10447919368743896,-0.4756157100200653,0.7384898066520691,0.4018132984638214,-0.25878313183784485
140.0,-3.089153528213501,-2.6496551036834717,-1.3113670349121094,-1.7075154781341553,1.909622311592102,0.23044581711292267,1.23634934425354,-0.08502736687660217,-0.1031154990196228,-0.5018758773803711,0.7211538553237915,0.39197462797164917,-0.2727886736392975
141.0,-3.075268507003784,-2.6527583599090576,-1.2994931936264038,-1.7250972986221313,1.8766316175460815,0.20562872290611267,1.2404251098632812,-0.07249128073453903,-0.10176383703947067,-0.5211615562438965,0.7070382833480835,0.38477134704589844,-0.28361693024635315
142.0,-3.081584930419922,-2.6541552543640137,-1.302390694618225,-1.7163512706756592,1.890721321105957,0.216494619846344,1.2396156787872314,-0.0782722532749176,-0.10472755879163742,-0.5128818154335022,0.7134172916412354,0.3876928389072418,-0.27871569991111755
143.0,-3.092691421508789,-2.640584707260132,-1.3330509662628174,-1.6553176641464233,1.9137667417526245,0.2523989975452423,1.234195351600647,-0.08888763934373856,-0.1032448261976242,-0.499613493680954,0.7327621579170227,0.381718248128891,-0.26026391983032227
144.0,-3.068514585494995,-2.6084601879119873,-1.3885583877563477,-1.5147745609283447,1.843165397644043,0.25584927201271057,1.2332066297531128,-0.06963688135147095,-0.09347309917211533,-0.543143093585968,0.7353320121765137,0.32602375745773315,-0.24081304669380188
145.0,-3.0475687980651855,-2.569918394088745,-1.4683481454849243,-1.3246537446975708,1.7862733602523804,0.27388736605644226,1.225688099861145,-0.05316922441124916,-0.08304361999034882,-0.5772444605827332,0.7452977299690247,0.26378124952316284,-0.20430263876914978
146.0,-3.046576738357544,-2.5330376625061035,-1.563506841659546,-1.097800612449646,1.752377986907959,0.33241167664527893,1.2100090980529785,-0.05860287696123123,-0.07405094802379608,-0.581049919128418,0.773396372795105,0.2026372253894806,-0.15224061906337738
147.0,-3.0631461143493652,-2.5449063777923584,-1.5339622497558594,-1.1764750480651855,1.7997089624404907,0.35967662930488586,1.2124838829040527,-0.07118779420852661,-0.07760142534971237,-0.5507480502128601,0.783327579498291,0.2357817143201828,-0.16577523946762085
148.0,-3.0723888874053955,-2.5443618297576904,-1.537660837173462,-1.1733143329620361,1.8188741207122803,0.3864399492740631,1.2098236083984375,-0.07964619249105453,-0.07797253131866455,-0.5338475704193115,0.7937227487564087,0.2419348508119583,-0.16272222995758057
149.0,-3.041084051132202,-2.503086566925049,-1.6706606149673462,-0.8106247186660767,1.6961647272109985,0.4214751720428467,1.1905802488327026,-0.06255970895290375,-0.06572762876749039,-0.5716009140014648,0.8069154620170593,0.12147238850593567,-0.08604832738637924
150.0,-3.027242660522461,-2.495633840560913,-1.722173810005188,-0.6479456424713135,1.6410855054855347,0.42645856738090515,1.1821998357772827,-0.05563666671514511,-0.06263239681720734,-0.5843462347984314,0.8071249723434448,0.06819792836904526,-0.04937426373362541
151.0,-3.041813611984253,-2.5120954513549805,-1.6321144104003906,-0.9182295203208923,1.7156081199645996,0.376419335603714,1.198068380355835,-0.05968646705150604,-0.06847222149372101,-0.5820412635803223,0.7911952137947083,0.15121027827262878,-0.11123757064342499
152.0,-3.0325889587402344,-2.51094388961792,-1.6364877223968506,-0.9008593559265137,1.7025483846664429,0.35989150404930115,1.198919415473938,-0.050601691007614136,-0.06779640167951584,-0.5944498777389526,0.7839611768722534,0.14261773228645325,-0.1081419587135315
153.0,-3.0227348804473877,-2.4979608058929443,-1.7036731243133545,-0.701398491859436,1.64926278591156,0.3858156204223633,1.1871367692947388,-0.04847867786884308,-0.06333406269550323,-0.6005265116691589,0.792968213558197,0.08195710182189941,-0.06206732988357544
154.0,-3.0205249786376953,-2.4952642917633057,-1.7332392930984497,-0.6076102256774902,1.6234071254730225,1.6910181045532227,1.1809676885604858,-0.05062853544950485,-0.06216095760464668,0.0012041390873491764,0.9977424144744873,0.018623266369104385,-0.06451182067394257
155.0,-3.021181583404541,-2.4992423057556152,-1.716384768486023,-0.640757143497467,1.630005955696106,0.3874754011631012,1.1875817775726318,-0.04957569018006325,-0.06321101635694504,-0.6031412482261658,0.7938380241394043,0.06189163401722908,-0.0470239482820034
156.0,-3.0172226428985596,-2.499598264694214,-1.7148547172546387,-0.6429189443588257,1.626944661140442,0.36694803833961487,1.18858003616333,-0.04524734243750572,-0.0632091835141182,-0.6128959059715271,0.7863416075706482,0.06122376397252083,-0.047719452530145645
157.0,-3.0278520584106445,-2.5004642009735107,-1.7213746309280396,-0.6141907572746277,1.6268397569656372,1.6837633848190308,1.1874595880508423,-0.05796034261584282,-0.0634322240948677,0.001345160766504705,0.9976985454559326,0.0207996666431427,-0.0645233765244484
158.0,-3.022982597351074,-2.501392364501953,-1.7191916704177856,-0.6139335632324219,1.6223528385162354,1.688598871231079,1.1893393993377686,-0.052681341767311096,-0.0634690597653389,0.0011701059993356466,0.997805118560791,0.018353324383497238,-0.06361450999975204
159.0,-3.017798662185669,-2.501983642578125,-1.717300534248352,-0.6153898239135742,1.6188772916793823,1.6937270164489746,1.190762996673584,-0.04690992459654808,-0.06347817927598953,0.00103814119938761,0.9978435039520264,0.01629420928657055,-0.06357487291097641
160.0,-3.0127041339874268,-2.5023646354675293,-1.715186357498169,-0.6192851066589355,1.616312861442566,1.6987372636795044,1.1919620037078857,-0.0411151684820652,-0.06346219033002853,0.0009423759183846414,0.9978068470954895,0.014563976787030697,-0.0645640417933464
161.0,-3.0085561275482178,-2.50174880027771,-1.7125945091247559,-0.6328269839286804,1.6168220043182373,0.3271048069000244,1.19205904006958,-0.03609978407621384,-0.0633460134267807,-0.6324681043624878,0.7713136672973633,0.055002082139253616,-0.04510105028748512
162.0,-3.0119965076446533,-2.4984242916107178,-1.717907190322876,-0.6391574740409851,1.6217730045318604,0.3399163484573364,1.1874299049377441,-0.04001732915639877,-0.06283897906541824,-0.6257486343383789,0.7763280868530273,0.05905633419752121,-0.04760155826807022
163.0,-3.021235466003418,-2.5009877681732178,-1.6843777894973755,-0.7574183344841003,1.6623141765594482,0.37152963876724243,1.1915273666381836,-0.044154901057481766,-0.0642927959561348,-0.6041141152381897,0.7872721552848816,0.0979674905538559,-0.0751754567027092
164.0,-3.030014991760254,-2.5383529663085938,-1.5459225177764893,-1.1350517272949219,1.7300775051116943,0.2781968414783478,1.215530514717102,-0.04143945872783661,-0.07482197880744934,-0.6079657673835754,0.7496412992477417,0.2031516134738922,-0.16475774347782135
165.0,-3.018127918243408,-2.5062971115112305,-1.6557838916778564,-0.8401418924331665,1.6704912185668945,0.3221099376678467,1.1975228786468506,-0.0384589359164238,-0.06595023721456528,-0.6205190420150757,0.7692351341247559,0.11863722652196884,-0.09570111334323883
166.0,-3.005697250366211,-2.4968180656433105,-1.7233556509017944,-0.6292206048965454,1.6174063682556152,0.3259020745754242,1.185535192489624,-0.03350618854165077,-0.06226172670722008,-0.6339457035064697,0.7699934244155884,0.05579472333192825,-0.04593653604388237
167.0,-3.0034797191619873,-2.4984748363494873,-1.7059248685836792,-0.6828258633613586,1.624871850013733,0.29693835973739624,1.1896660327911377,-0.0291514303535223,-0.06288269907236099,-0.6442743539810181,0.7593209743499756,0.06964433193206787,-0.05909233167767525
168.0,-3.00431489944458,-2.500690221786499,-1.709436297416687,-0.6522268056869507,1.6174055337905884,0.2991059124469757,1.1916859149932861,-0.03102417290210724,-0.06319864839315414,-0.6443156003952026,0.7607290744781494,0.059835873544216156,-0.05067925527691841
169.0,-3.0037899017333984,-2.5031700134277344,-1.7114331722259521,-0.6252639293670654,1.6106692552566528,1.7075073719024658,1.1941579580307007,-0.031106071546673775,-0.06345386058092117,0.0007250925409607589,0.9977715611457825,0.01099400781095028,-0.06580646336078644
170.0,-2.9992809295654297,-2.503352642059326,-1.7102396488189697,-0.62772136926651,1.6077382564544678,1.7119430303573608,1.1948331594467163,-0.026099534705281258,-0.0634453073143959,0.0006085319328121841,0.9977533221244812,0.009148946031928062,-0.06636445224285126
171.0,-2.9959487915039062,-2.5024266242980957,-1.7091110944747925,-0.6388838291168213,1.6083359718322754,0.26386943459510803,1.1941616535186768,-0.022135188803076744,-0.06333456933498383,-0.6614316701889038,0.7465947270393372,0.05347822234034538,-0.04737803339958191
172.0,-2.9929258823394775,-2.500765562057495,-1.7071384191513062,-0.6592655181884766,1.6095446348190308,0.24335788190364838,1.1927342414855957,-0.018559880554676056,-0.06316626816987991,-0.6696007251739502,0.7384353280067444,0.059022631496191025,-0.05352072790265083
173.0,-2.9939534664154053,-2.4976983070373535,-1.7157102823257446,-0.6497045755386353,1.610831379890442,0.25767505168914795,1.188349962234497,-0.020234031602740288,-0.062426988035440445,-0.6640034317970276,0.7436630129814148,0.058090537786483765,-0.051867999136447906
174.0,-2.9975686073303223,-2.4988644123077393,-1.7164454460144043,-0.6384957432746887,1.6104285717010498,0.2714388370513916,1.1892882585525513,-0.024444790557026863,-0.06263767182826996,-0.6578238010406494,0.7495917677879333,0.055130187422037125,-0.048380929976701736
175.0,-3.0041937828063965,-2.504227876663208,-1.6658692359924316,-0.8062114715576172,1.645134449005127,0.26822271943092346,1.197303295135498,-0.025792287662625313,-0.0649954229593277,-0.6495142579078674,0.747987687587738,0.10310275107622147,-0.08952914923429489
176.0,-3.0231497287750244,-2.543581008911133,-1.530137062072754,-1.172183871269226,1.7176157236099243,0.24279610812664032,1.2189717292785645,-0.03462839126586914,-0.07589945197105408,-0.6221825480461121,0.7340096235275269,0.2076769471168518,-0.17603714764118195
177.0,-3.014519214630127,-2.5382602214813232,-1.5437833070755005,-1.1384614706039429,1.6977373361587524,0.2235361933708191,1.217322587966919,-0.027413349598646164,-0.07449743896722794,-0.6375030279159546,0.7258831858634949,0.1940266638994217,-0.1704028993844986
178.0,-3.0183422565460205,-2.5941340923309326,-1.4094176292419434,-1.4533191919326782,1.7339411973953247,0.17449577152729034,1.2367006540298462,-0.02408265694975853,-0.08809461444616318,-0.6179701089859009,0.6935053467750549,0.2765059769153595,-0.2463894784450531
179.0,-3.0140175819396973,-2.6665327548980713,-1.2677096128463745,-1.762176752090454,1.731869101524353,0.10623056441545486,1.2517895698547363,-0.017128804698586464,-0.1054001897573471,-0.6012209057807922,0.6417051553726196,0.347493439912796,-0.32557055354118347
180.0,-3.0027382373809814,-2.6673409938812256,-1.2654478549957275,-1.7662177085876465,1.70539128780365,0.08848834782838821,1.2524712085723877,-0.007009340450167656,-0.10550703853368759,-0.6148959398269653,0.6286225318908691,0.3403981626033783,-0.3329651951789856
181.0,-2.994770050048828,-2.6676692962646484,-1.2641581296920776,-1.7692776918411255,1.6868149042129517,0.07603906840085983,1.2527769804000854,0.00013876793673262,-0.10537926852703094,0.6242483854293823,-0.6191505789756775,-0.33548879623413086,0.3382510542869568
182.0,-2.9854259490966797,-2.6643919944763184,-1.2683634757995605,-1.7669330835342407,1.6644078493118286,0.06163191422820091,1.251509189605713,0.008173156529664993,-0.10359968990087509,0.6357789635658264,-0.6083188056945801,-0.32846102118492126,0.3432881236076355
183.0,-2.976989269256592,-2.6626152992248535,-1.2716822624206543,-1.7631105184555054,1.6450581550598145,0.04918457567691803,1.2506829500198364,0.01559717208147049,-0.10325945913791656,0.6458373665809631,-0.598795473575592,-0.3220282196998596,0.3473270535469055
184.0,-2.9647040367126465,-2.661846160888672,-1.2751972675323486,-1.7568007707595825,1.617465853691101,0.03118189238011837,1.2499927282333374,0.026571404188871384,-0.10435855388641357,0.6600321531295776,-0.584774911403656,-0.31273239850997925,0.35297930240631104
185.0,-2.9732391834259033,-2.6031830310821533,-1.3874636888504028,-1.510193109512329,1.62821364402771,0.05697473883628845,1.2394182682037354,0.015753375366330147,-0.09027338773012161,0.6805610060691833,-0.6234808564186096,-0.2599685788154602,0.283768892288208
186.0,-2.9815404415130615,-2.590256452560425,-1.414586067199707,-1.446349024772644,1.6456917524337769,0.08196089416742325,1.23663330078125,0.007726210169494152,-0.0869675800204277,0.6749878525733948,-0.6426452398300171,-0.24995173513889313,0.2625311613082886
187.0,-2.989689350128174,-2.5679445266723633,-1.4649903774261475,-1.3282431364059448,1.6613227128982544,0.11865843087434769,1.2302942276000977,-0.0008932197233662009,-0.08145780861377716,0.670549750328064,-0.6686850786209106,-0.2268654704093933,0.2274981439113617
188.0,-3.0012283325195312,-2.537177801132202,-1.5454598665237427,-1.1346601247787476,1.6752104759216309,0.1863868236541748,1.2176697254180908,-0.014706037938594818,-0.07412698119878769,-0.6584200859069824,0.7083141803741455,0.18640951812267303,-0.17327871918678284
189.0,-3.001168727874756,-2.5108606815338135,-1.63448166847229,-0.8975185751914978,1.6561440229415894,0.24355442821979523,1.2029521465301514,-0.019671842455863953,-0.06711005419492722,-0.6547867059707642,0.7365307807922363,0.12678058445453644,-0.11270979046821594
190.0,-2.9903454780578613,-2.498593807220459,-1.705519437789917,-0.6821016073226929,1.6140488386154175,0.24143515527248383,1.1906039714813232,-0.015111065469682217,-0.0628117248415947,-0.6704236268997192,0.7365710139274597,0.06612700968980789,-0.06018850952386856
191.0,-2.9914841651916504,-2.508824110031128,-1.6421515941619873,-0.8757486939430237,1.6381700038909912,0.20418794453144073,1.2021119594573975,-0.010965218767523766,-0.06643789261579514,-0.6750415563583374,0.7202368378639221,0.11668986827135086,-0.10936751216650009
192.0,-2.983022451400757,-2.4981179237365723,-1.7116374969482422,-0.6612428426742554,1.604966640472412,0.2104237824678421,1.189780592918396,-0.007954102009534836,-0.06252530962228775,-0.6852924823760986,0.7237471342086792,0.058831535279750824,-0.05570564791560173
193.0,-2.9852232933044434,-2.5019261837005615,-1.707199215888977,-0.6492804288864136,1.6022502183914185,0.2106713056564331,1.1943581104278564,-0.010272035375237465,-0.06325948983430862,-0.6849004030227661,0.7248075604438782,0.05422317236661911,-0.051237694919109344
194.0,-2.9898180961608887,-2.5020666122436523,-1.7080230712890625,-0.645380437374115,1.6054961681365967,0.23631370067596436,1.194197177886963,-0.015268733724951744,-0.0632811188697815,-0.6738495826721191,0.7352003455162048,0.0542089082300663,-0.04968530312180519
195.0,-2.989614725112915,-2.5041091442108154,-1.7097446918487549,-0.6231706738471985,1.600472092628479,1.7215948104858398,1.1961469650268555,-0.015511438250541687,-0.06350328028202057,0.00033547161729075015,0.9979494214057922,0.0052480841986835,-0.06379160284996033
196.0,-2.982854127883911,-2.5044870376586914,-1.7091299295425415,-0.6221466660499573,1.5958378314971924,1.7283204793930054,1.1968913078308105,-0.008041639812290668,-0.06352683901786804,0.00016582425450906157,0.9980199933052063,0.0026335169095546007,-0.06284217536449432
197.0,-2.9775643348693848,-2.49858021736145,-1.7172709703445435,-0.6360293626785278,1.594984531402588,0.1705857366323471,1.1897631883621216,-0.0030278265476226807,-0.06244266405701637,-0.7024217844009399,0.7082388401031494,0.050212908536195755,-0.04980048909783363
198.0,-2.982743740081787,-2.5059449672698975,-1.6549688577651978,-0.8383405804634094,1.6206468343734741,0.16733399033546448,1.2002884149551392,-0.003491629846394062,-0.06548786163330078,-0.6941239833831787,0.705098569393158,0.10333884507417679,-0.10173042118549347
199.0,-2.977266550064087,-2.5097246170043945,-1.636367917060852,-0.8945006132125854,1.614850401878357,0.12861716747283936,1.2034032344818115,0.002693361369892955,-0.0667738988995552,0.7072800397872925,-0.6874642968177795,-0.11484035104513168,0.11815053224563599
200.0,-2.9739608764648438,-2.498749256134033,-1.7025014162063599,-0.6917393207550049,1.595667839050293,0.13536787033081055,1.1918208599090576,0.0017138663679361343,-0.06287422776222229,0.7146588563919067,-0.6935262680053711,-0.06338602304458618,0.06531746685504913
201.0,-2.9683175086975098,-2.4978647232055664,-1.7090015411376953,-0.6735982894897461,1.5869684219360352,0.09502051770687103,1.1902626752853394,0.006809732411056757,-0.06265311688184738,0.7311499118804932,-0.6769858002662659,-0.05728880688548088,0.06187235563993454
202.0,-2.9719982147216797,-2.512413740158081,-1.6242525577545166,-0.9324650168418884,1.6088733673095703,0.10179085284471512,1.2049692869186401,0.008371846750378609,-0.06777380406856537,0.7166388630867004,-0.6742469668388367,-0.12223345786333084,0.1299186497926712
203.0,-2.965656280517578,-2.5131683349609375,-1.6204386949539185,-0.9467089176177979,1.5996935367584229,0.07481400668621063,1.2051293849945068,0.01461772434413433,-0.06818224489688873,0.7275726795196533,-0.6610451936721802,-0.12336869537830353,0.13578449189662933
204.0,-2.9625024795532227,-2.5548579692840576,-1.4956320524215698,-1.2671513557434082,1.6006160974502563,0.04306696727871895,1.224602222442627,0.022097595036029816,-0.07874632626771927,0.7162829041481018,-0.630821168422699,-0.1971748322248459,0.22388745844364166
205.0,-2.9556241035461426,-2.5044734477996826,-1.657057285308838,-0.8448219299316406,1.5794310569763184,0.028514379635453224,1.1985986232757568,0.022336378693580627,-0.06565119326114655,0.7519096732139587,-0.642779529094696,-0.09520359337329865,0.1113671213388443
206.0,-2.9530577659606934,-2.51914644241333,-1.597736120223999,-1.0160223245620728,1.5841846466064453,0.029928719624876976,1.2076916694641113,0.027905728667974472,-0.07027364522218704,0.7432209849357605,-0.6356264352798462,-0.13571695983409882,0.15869022905826569
207.0,-2.9517557621002197,-2.5007574558258057,-1.6775288581848145,-0.7836745381355286,1.5763828754425049,0.021914344280958176,1.1947892904281616,0.02578040584921837,-0.06441355496644974,0.7577484846115112,-0.6405613422393799,-0.08037041872739792,0.09507374465465546
208.0,-2.955108165740967,-2.4963619709014893,-1.7232906818389893,-0.6319177746772766,1.577162504196167,1.7554919719696045,1.186564326286316,0.020330244675278664,-0.062228161841630936,-0.0006709021399728954,0.9975743293762207,-0.009710032492876053,-0.06892611086368561
209.0,-2.9595727920532227,-2.497448444366455,-1.7084567546844482,-0.6800605654716492,1.5807793140411377,0.056871943175792694,1.189749836921692,0.016171710565686226,-0.06275846809148788,0.7468223571777344,-0.6593319177627563,-0.05746078863739967,0.06508559733629227
210.0,-2.9642183780670166,-2.497253656387329,-1.7149714231491089,-0.6556460857391357,1.583965539932251,0.08381649106740952,1.1888318061828613,0.010968364775180817,-0.062453459948301315,0.7368054389953613,-0.6715977787971497,-0.052502695471048355,0.05760036036372185
211.0,-2.96244215965271,-2.4995405673980713,-1.7122496366500854,-0.6488950252532959,1.585490345954895,0.09803944826126099,1.1914546489715576,0.01379786804318428,-0.06291209906339645,0.7327858209609985,-0.6763754487037659,-0.05048927292227745,0.05470012128353119
212.0,-2.9709696769714355,-2.5017895698547363,-1.7077804803848267,-0.6478134393692017,1.5910873413085938,0.13806739449501038,1.1944971084594727,0.005024875048547983,-0.06322691589593887,0.7160874009132385,-0.6941688656806946,-0.050903238356113434,0.05251051485538483
213.0,-2.9752278327941895,-2.504542827606201,-1.7081995010375977,-0.6247220039367676,1.5911141633987427,1.7358496189117432,1.19732666015625,0.00041604728903621435,-0.06351300328969955,-1.9565843103919178e-05,0.9979938864707947,-0.00030842795968055725,-0.06331004202365875
214.0,-2.9701006412506104,-2.5037734508514404,-1.7098828554153442,-0.6247027516365051,1.5877068042755127,1.7409181594848633,1.1962796449661255,0.005843302235007286,-0.06343261152505875,-0.00015153019921854138,0.9979816675186157,-0.002383004641160369,-0.06345953792333603
215.0,-2.965418815612793,-2.5024120807647705,-1.7109525203704834,-0.6314786076545715,1.5850520133972168,1.7454184293746948,1.194697618484497,0.010753457434475422,-0.0632905513048172,-0.00030246214009821415,0.9977825284004211,-0.004544858355075121,-0.06640283018350601
216.0,-2.961477041244507,-2.503422975540161,-1.7126784324645996,-0.6175111532211304,1.58294677734375,1.7495841979980469,1.195404291152954,0.015270397067070007,-0.0633908286690712,-0.0002945626329164952,0.9981452822685242,-0.004845101851969957,-0.060683198273181915
217.0,-2.9577136039733887,-2.5021004676818848,-1.7134698629379272,-0.6249345541000366,1.5805643796920776,1.7531688213348389,1.1938997507095337,0.019127756357192993,-0.06325258314609528,-0.0004390779649838805,0.9979371428489685,-0.006864605937153101,-0.0638306513428688
218.0,-2.9543495178222656,-2.4995884895324707,-1.713323712348938,-0.6452118158340454,1.5792261362075806,0.05736934393644333,1.1912444829940796,0.022444281727075577,-0.06300248950719833,0.7492981553077698,-0.6582054495811462,-0.04812690615653992,0.05478746071457863
219.0,-2.9528589248657227,-2.5018277168273926,-1.7149085998535156,-0.6219503283500671,1.577856421470642,1.7580353021621704,1.1933084726333618,0.024405600503087044,-0.06322029232978821,-0.0005231015384197235,0.99800044298172,-0.008332477882504463,-0.06265310198068619
220.0,-2.949437141418457,-2.5031723976135254,-1.716357946395874,-0.6065573692321777,1.5762051343917847,1.7617216110229492,1.194316029548645,0.028442682698369026,-0.06335821002721786,-0.0004604380519594997,0.9983807802200317,-0.0081659946590662,-0.056293513625860214
221.0,-2.940211057662964,-2.5008649826049805,-1.721946120262146,-0.6053217053413391,1.5704751014709473,1.7708678245544434,1.1906070709228516,0.037864744663238525,-0.06317979097366333,-0.0006632672157138586,0.998325765132904,-0.011689301580190659,-0.05664638802409172
222.0,-2.941587448120117,-2.497832775115967,-1.7204408645629883,-0.6339331269264221,1.5705866813659668,1.7689017057418823,1.1878869533538818,0.035681579262018204,-0.06285538524389267,-0.0009548594243824482,0.9975569248199463,-0.013915262185037136,-0.06845193356275558
223.0,-2.949504852294922,-2.4997427463531494,-1.715212345123291,-0.6371906399726868,1.5756292343139648,1.7610342502593994,1.1910511255264282,0.027636170387268066,-0.06301272660493851,-0.0007539868820458651,0.9975563287734985,-0.010899470187723637,-0.06900741904973984
224.0,-2.948117256164551,-2.495758533477783,-1.732259750366211,-0.6041269898414612,1.5716629028320312,1.7629163265228271,1.1842751502990723,0.027345288544893265,-0.061995405703783035,-0.0006505975034087896,0.9982075691223145,-0.011041642166674137,-0.05881655216217041
225.0,-2.941190004348755,-2.4975218772888184,-1.695959448814392,-0.7340662479400635,1.5622609853744507,-0.03903551399707794,1.1901662349700928,0.035308778285980225,-0.06362990289926529,0.7822266221046448,-0.6136570572853088,-0.0663243755698204,0.08454346656799316
226.0,-2.943615436553955,-2.5116689205169678,-1.6237530708312988,-0.9503438472747803,1.568926215171814,-0.004773618653416634,1.202516794204712,0.035932235419750214,-0.06842409819364548,0.7616795301437378,-0.6208010911941528,-0.11726324260234833,0.14387379586696625
227.0,-2.9357352256774902,-2.504525661468506,-1.6522870063781738,-0.8747262954711914,1.555849552154541,-0.04519958421587944,1.1967424154281616,0.042206939309835434,-0.06652262061834335,0.7807403206825256,-0.6042703986167908,-0.09735811501741409,0.12579040229320526
228.0,-2.936556339263916,-2.494868278503418,-1.7200180292129517,-0.6596404314041138,1.5602998733520508,-0.06408070772886276,1.1847809553146362,0.03943110257387161,-0.06262823194265366,0.7932091951370239,-0.6035184264183044,-0.04913622885942459,0.06458014249801636
229.0,-2.929224729537964,-2.4998722076416016,-1.674209713935852,-0.8148199915885925,1.5456169843673706,-0.08848661184310913,1.192031979560852,0.04743150249123573,-0.06525550782680511,0.7983725666999817,-0.5860507488250732,-0.08187859505414963,0.11154260486364365
230.0,-2.927753448486328,-2.494673490524292,-1.7111210823059082,-0.6989784836769104,1.552606225013733,-0.09310639649629593,1.1849004030227661,0.048755478113889694,-0.06320900470018387,0.8036442995071411,-0.5872395038604736,-0.05691377818584442,0.07788718491792679
231.0,-2.9229953289031982,-2.502668857574463,-1.658057689666748,-0.869814932346344,1.539171814918518,-0.09571457654237747,1.1935762166976929,0.054251641035079956,-0.06657674908638,0.8002188801765442,-0.5782040953636169,-0.0932115837931633,0.12900233268737793
232.0,-2.9226574897766113,-2.493929147720337,-1.7140177488327026,-0.6947677135467529,1.5500785112380981,-0.10711774230003357,1.1833707094192505,0.05411180853843689,-0.06318783015012741,0.8093523383140564,-0.5794952511787415,-0.05563827604055405,0.0777072161436081
233.0,-2.914027452468872,-2.494220018386841,-1.702524185180664,-0.7443826794624329,1.5351730585098267,-0.15180322527885437,1.1835943460464478,0.06213259696960449,-0.06409157812595367,0.8233505487442017,-0.5556634068489075,-0.06459198892116547,0.09570876508951187
234.0,-2.9201464653015137,-2.4925754070281982,-1.7476965188980103,-0.5789262652397156,1.5571990013122559,1.7911102771759033,1.1763544082641602,0.056660860776901245,-0.062078606337308884,-0.0009281481034122407,0.9985508918762207,-0.018318500369787216,-0.05059383064508438
235.0,-2.925502061843872,-2.494452714920044,-1.737587332725525,-0.5996934175491333,1.5600677728652954,1.7854670286178589,1.1806097030639648,0.0516844280064106,-0.06238989904522896,-0.0010285399621352553,0.998205304145813,-0.017976323142647743,-0.057113684713840485
236.0,-2.930938720703125,-2.4967291355133057,-1.7273578643798828,-0.6188380718231201,1.5638389587402344,1.7797541618347168,1.1850287914276123,0.04674878343939781,-0.06281740218400955,-0.0010731156216934323,0.9978641867637634,-0.016978824511170387,-0.0630681961774826
237.0,-2.9360687732696533,-2.4981913566589355,-1.724266767501831,-0.6180176734924316,1.567177414894104,1.7747035026550293,1.1873303651809692,0.04162825644016266,-0.06293211132287979,-0.0009225328103639185,0.9979478716850281,-0.01477843802422285,-0.062296148389577866
238.0,-2.9327197074890137,-2.5000789165496826,-1.7260682582855225,-0.5975385904312134,1.566839337348938,1.7784343957901,1.188654899597168,0.0458628386259079,-0.06314896792173386,-0.0007265952881425619,0.9984499216079712,-0.013432277366518974,-0.05400938540697098
239.0,-2.928253173828125,-2.499920129776001,-1.7283819913864136,-0.5910979509353638,1.564894676208496,1.7829835414886475,1.1877793073654175,0.05072171986103058,-0.0631633922457695,-0.0007331125088967383,0.9985643625259399,-0.014173036441206932,-0.051651597023010254
240.0,-2.92500376701355,-2.4977171421051025,-1.7306336164474487,-0.6002399921417236,1.5616718530654907,1.7860265970230103,1.185037612915039,0.053506139665842056,-0.06295327842235565,-0.0009430524660274386,0.9983019232749939,-0.016888946294784546,-0.05574362725019455
241.0,-2.921518325805664,-2.4982128143310547,-1.7331000566482544,-0.5884324908256531,1.5608084201812744,1.7897051572799683,1.1847343444824219,0.057475265115499496,-0.06304728239774704,-0.0008498385432176292,0.9985468983650208,-0.016548845916986465,-0.051278721541166306
242.0,-2.917611837387085,-2.4983696937561035,-1.7358896732330322,-0.5783094167709351,1.5601674318313599,1.793755292892456,1.183933973312378,0.0618722140789032,-0.06312304735183716,-0.0007762789027765393,0.9987314939498901,-0.01627161353826523,-0.04764704778790474
243.0,-2.918083429336548,-2.4951367378234863,-1.7368319034576416,-0.599362850189209,1.55704927444458,1.7928777933120728,1.1807565689086914,0.06009167060256004,-0.0627746507525444,-0.0011210845550522208,0.9982079863548279,-0.019824262708425522,-0.05644978582859039
244.0,-2.9139959812164307,-2.4962120056152344,-1.739957571029663,-0.5811481475830078,1.55659818649292,1.7972811460494995,1.1807489395141602,0.06490359455347061,-0.06294583529233932,-0.0009274501935578883,0.998598575592041,-0.01871107704937458,-0.04949743300676346
245.0,-2.9098293781280518,-2.4950408935546875,-1.743559718132019,-0.5782709121704102,1.554380178451538,1.8014601469039917,1.1784965991973877,0.06900584697723389,-0.06288114935159683,-0.0009775992948561907,0.9986017346382141,-0.019944345578551292,-0.04894781857728958
246.0,-2.905872344970703,-2.4961822032928467,-1.7451558113098145,-0.5649383068084717,1.5553861856460571,1.80562162399292,1.178770661354065,0.07396169006824493,-0.06305938959121704,-0.0008085489389486611,0.9988685250282288,-0.01842307485640049,-0.04383818432688713
247.0,-2.904754400253296,-2.4922921657562256,-1.7488508224487305,-0.5816618204116821,1.5499258041381836,1.8064206838607788,1.1743170022964478,0.07335813343524933,-0.0626639723777771,-0.0011818240163847804,0.9984215497970581,-0.023043416440486908,-0.05120588839054108
248.0,-2.9053092002868652,-2.489027976989746,-1.7614407539367676,-0.5614009499549866,1.5488086938858032,1.8061283826828003,1.168648362159729,0.07115474343299866,-0.06192343309521675,-0.0010217336239293218,0.9987024664878845,-0.022291427478194237,-0.045775800943374634
249.0,-2.912158489227295,-2.492271661758423,-1.7468634843826294,-0.586765706539154,1.553728461265564,1.798936367034912,1.1754357814788818,0.06540589779615402,-0.062432143837213516,-0.0011301105841994286,0.9983529448509216,-0.02116275765001774,-0.053312961012125015
250.0,-2.907388687133789,-2.4896347522735596,-1.7446281909942627,-0.6164251565933228,1.5420241355895996,1.8031487464904785,1.1730934381484985,0.06867438554763794,-0.06239379569888115,-0.0019174742046743631,0.9975055456161499,-0.02993328496813774,-0.063898466527462
251.0,-2.906717538833618,-2.493438243865967,-1.7027446031570435,-0.7543392181396484,1.5233279466629028,-0.19304557144641876,1.1817940473556519,0.06859045475721359,-0.0643996074795723,0.8364584445953369,-0.5344904661178589,-0.06518885493278503,0.10201821476221085
252.0,-2.897693395614624,-2.5026779174804688,-1.6520520448684692,-0.920487642288208,1.5036134719848633,-0.17502424120903015,1.188239574432373,0.07789280265569687,-0.06843527406454086,0.8277542591094971,-0.5302987098693848,-0.09889020025730133,0.15435975790023804
253.0,-2.902953624725342,-2.5057268142700195,-1.6408463716506958,-0.9457485675811768,1.510409951210022,-0.1499904841184616,1.191424012184143,0.0733974501490593,-0.06902679800987244,0.8182051181793213,-0.5422534346580505,-0.10554377734661102,0.159254789352417
254.0,-2.909780502319336,-2.5065009593963623,-1.6389238834381104,-0.9420354962348938,1.520513892173767,-0.12697426974773407,1.1935368776321411,0.06724851578474045,-0.06875112652778625,0.8099333047866821,-0.555572509765625,-0.10634894669055939,0.15503926575183868
255.0,-2.9110145568847656,-2.5262491703033447,-1.5731358528137207,-1.1131935119628906,1.5112013816833496,-0.10854583978652954,1.2056117057800293,0.0671171322464943,-0.07369646430015564,0.7948033213615417,-0.5534027814865112,-0.14231780171394348,0.20439840853214264
256.0,-2.917022943496704,-2.592430591583252,-1.4138706922531128,-1.4854159355163574,1.5114797353744507,-0.059934020042419434,1.2294859886169434,0.0652824342250824,-0.08976192772388458,0.7466564178466797,-0.545501172542572,-0.2245839238166809,0.3073999285697937
257.0,-2.9316391944885254,-2.5374903678894043,-1.5409997701644897,-1.1761289834976196,1.5438085794448853,-0.04476018622517586,1.214345932006836,0.04899946600198746,-0.07552041858434677,0.7644322514533997,-0.5863168239593506,-0.16316279768943787,0.2127295285463333
258.0,-2.9476468563079834,-2.589967727661133,-1.4157967567443848,-1.4580577611923218,1.5772873163223267,0.00694746058434248,1.2340363264083862,0.03856317326426506,-0.08766693621873856,0.7155584096908569,-0.5944107174873352,-0.23447568714618683,0.28226450085639954
259.0,-2.939824104309082,-2.6079788208007812,-1.3794811964035034,-1.544522762298584,1.5599445104599,-0.010133320465683937,1.2371474504470825,0.04618997871875763,-0.092445008456707,0.7148576974868774,-0.5746455192565918,-0.24963891506195068,0.3105502426624298
260.0,-2.9346320629119873,-2.653968572616577,-1.2927954196929932,-1.7366312742233276,1.5500422716140747,-0.014190234243869781,1.2448245286941528,0.05271722376346588,-0.10375815629959106,0.6935747861862183,-0.548751175403595,-0.2895868718624115,0.3660131096839905
261.0,-2.9544546604156494,-2.659477472305298,-1.2796286344528198,-1.7527940273284912,1.5939111709594727,0.01551707461476326,1.2486599683761597,0.035496119409799576,-0.10374650359153748,0.6716219186782837,-0.5723319053649902,-0.3051612675189972,0.35810166597366333
262.0,-2.9413321018218994,-2.6537892818450928,-1.2895829677581787,-1.7441208362579346,1.5636847019195557,-0.0048204343765974045,1.245502233505249,0.04659489914774895,-0.10176720470190048,0.6864281296730042,-0.5561926960945129,-0.29492607712745667,0.3639846742153168
263.0,-2.9693849086761475,-2.658280611038208,-1.276911973953247,-1.761380672454834,1.626738429069519,0.03714601323008537,1.2488782405853271,0.021957311779260635,-0.10054011642932892,0.6548876762390137,-0.5894577503204346,-0.31639018654823303,0.3515095114707947
264.0,-2.9607174396514893,-2.6560378074645996,-1.2808033227920532,-1.7580227851867676,1.6067649126052856,0.02398582175374031,1.2477167844772339,0.029482342302799225,-0.09981772303581238,0.6648150682449341,-0.5790718197822571,-0.3099517822265625,0.3558463752269745
265.0,-2.9512667655944824,-2.6545512676239014,-1.284373164176941,-1.7540059089660645,1.5853164196014404,0.009726732037961483,1.2467007637023926,0.037772051990032196,-0.09986988455057144,0.6753183007240295,-0.5676287412643433,-0.3029896318912506,0.36047226190567017
266.0,-2.9283316135406494,-2.646946907043457,-1.3014487028121948,-1.7342153787612915,1.5339927673339844,-0.02519865520298481,1.2415882349014282,0.057402804493904114,-0.09923309832811356,0.700671374797821,-0.5398393273353577,-0.2847225069999695,0.3695486783981323
267.0,-2.9205093383789062,-2.6442925930023193,-1.3075059652328491,-1.7275609970092773,1.5167778730392456,-0.03722488507628441,1.2396613359451294,0.06406956911087036,-0.09898470342159271,0.7088813781738281,-0.5300670266151428,-0.2786512076854706,0.37265220284461975
268.0,-2.9239487648010254,-2.6494181156158447,-1.3017578125,-1.7279621362686157,1.526085376739502,-0.030834700912237167,1.2419240474700928,0.0617278628051281,-0.1026085913181305,0.7050592303276062,-0.5353474617004395,-0.28124338388442993,0.3704010546207428
269.0,-2.9129552841186523,-2.644782543182373,-1.311022162437439,-1.7193493843078613,1.5014625787734985,-0.04817982763051987,1.2388211488723755,0.0709359347820282,-0.10143186897039413,0.716473400592804,-0.5211582183837891,-0.27279168367385864,0.37502622604370117
270.0,-2.9061217308044434,-2.644467353820801,-1.3155369758605957,-1.7107172012329102,1.4875636100769043,-0.058344922959804535,1.2375850677490234,0.07702748477458954,-0.10334958881139755,0.723377525806427,-0.5130034685134888,-0.26732388138771057,0.37694892287254333
271.0,-2.8936526775360107,-2.6364846229553223,-1.3308149576187134,-1.6969443559646606,1.45929753780365,-0.0790921002626419,1.2323229312896729,0.08691023290157318,-0.1009044200181961,0.7362072467803955,-0.4962703585624695,-0.2571887969970703,0.38153454661369324
272.0,-2.8861937522888184,-2.634343147277832,-1.3379600048065186,-1.687206506729126,1.4437825679779053,-0.09088628739118576,1.2300018072128296,0.09321503341197968,-0.10174057632684708,0.7434600591659546,-0.48675060272216797,-0.2512167692184448,0.38370704650878906
273.0,-2.877667188644409,-2.6277143955230713,-1.3493483066558838,-1.6790746450424194,1.4237921237945557,-0.10574066638946533,1.225827693939209,0.09963306784629822,-0.09894457459449768,0.7517365217208862,-0.47445380687713623,-0.24446098506450653,0.38733014464378357
274.0,-2.867924451828003,-2.6224660873413086,-1.3610055446624756,-1.6674541234970093,1.4020205736160278,-0.12244021147489548,1.2217074632644653,0.10725761950016022,-0.0979745090007782,0.7609119415283203,-0.4607592523097992,-0.23663723468780518,0.3907899856567383
275.0,-2.8720057010650635,-2.62872314453125,-1.3527945280075073,-1.6701747179031372,1.4133673906326294,-0.11417040973901749,1.2248802185058594,0.10482151806354523,-0.10186217725276947,0.7568352818489075,-0.46768081188201904,-0.24001823365688324,0.38841503858566284
276.0,-2.8802506923675537,-2.5998404026031494,-1.4063314199447632,-1.5403976440429688,1.432397723197937,-0.12446702271699905,1.2217832803726196,0.09667697548866272,-0.09429733455181122,0.772261381149292,-0.4860999286174774,-0.21790103614330292,0.3461768329143524
277.0,-2.8833577632904053,-2.5364561080932617,-1.5466314554214478,-1.2100557088851929,1.4587101936340332,-0.16881902515888214,1.2032679319381714,0.09207813441753387,-0.07803330570459366,0.8131013512611389,-0.5042495727539062,-0.15329265594482422,0.24718411266803741
278.0,-2.875680446624756,-2.517990827560425,-1.5987604856491089,-1.0897653102874756,1.4501837491989136,-0.21974578499794006,1.1925404071807861,0.09723944962024689,-0.07394158840179443,0.8364815711975098,-0.48712632060050964,-0.12631824612617493,0.21691063046455383
279.0,-2.8943612575531006,-2.493560791015625,-1.693962574005127,-0.8002897500991821,1.5091063976287842,-0.21478566527366638,1.1799415349960327,0.08069681376218796,-0.06551582366228104,0.8440006971359253,-0.5175930857658386,-0.07348839938640594,0.11983208358287811
280.0,-2.900132894515991,-2.4880316257476807,-1.7617181539535522,-0.5693526864051819,1.5444786548614502,1.8111746311187744,1.1671817302703857,0.07624845951795578,-0.06202271953225136,-0.0012417020043358207,0.9984899163246155,-0.025483785197138786,-0.04865160211920738
281.0,-2.9009032249450684,-2.4908719062805176,-1.7523834705352783,-0.580898642539978,1.5473920106887817,1.8102515935897827,1.1718435287475586,0.07694192975759506,-0.06256876140832901,-0.001269672648049891,0.9983700513839722,-0.024628082290291786,-0.0514698289334774
282.0,-2.8968138694763184,-2.4876909255981445,-1.771013855934143,-0.5411823987960815,1.5475834608078003,1.8148574829101562,1.164103627204895,0.07991157472133636,-0.06192855164408684,-0.0008660666644573212,0.9989756345748901,-0.02183336392045021,-0.03962649032473564
283.0,-2.8879287242889404,-2.4905588626861572,-1.7077502012252808,-0.7691500782966614,1.5048402547836304,-0.24757888913154602,1.1752046346664429,0.08651937544345856,-0.06500905752182007,0.8550680875778198,-0.50162672996521,-0.06641818583011627,0.11321578919887543
284.0,-2.8773200511932373,-2.4933693408966064,-1.6872247457504272,-0.85019850730896,1.480827808380127,-0.26611417531967163,1.1757019758224487,0.09555579721927643,-0.06713532656431198,0.8594211935997009,-0.484089732170105,-0.08072052896022797,0.1433059424161911
285.0,-2.890475034713745,-2.4856679439544678,-1.7677351236343384,-0.5698108673095703,1.5355325937271118,1.8208255767822266,1.16254723072052,0.08510664105415344,-0.06213038042187691,-0.0015196880558505654,0.9983092546463013,-0.03078499436378479,-0.049281105399131775
286.0,-2.8916828632354736,-2.488924741744995,-1.7623449563980103,-0.5637664198875427,1.5444164276123047,1.8196921348571777,1.1666606664657593,0.08614041656255722,-0.06254875659942627,-0.001182906562462449,0.9985960125923157,-0.025425972416996956,-0.04645823687314987
287.0,-2.896216630935669,-2.4909703731536865,-1.7564375400543213,-0.5673629641532898,1.5472248792648315,1.8151447772979736,1.1704562902450562,0.08215246349573135,-0.0626666322350502,-0.0011160862632095814,0.9986202716827393,-0.02382248267531395,-0.04678548127412796
288.0,-2.899972677230835,-2.494506597518921,-1.7501776218414307,-0.5613271594047546,1.5520992279052734,1.811538815498352,1.1755231618881226,0.07970485836267471,-0.06296253949403763,-0.0008756954339332879,0.9988606572151184,-0.02024417370557785,-0.043207377195358276
289.0,-2.894976854324341,-2.493407964706421,-1.7554001808166504,-0.5530739426612854,1.5506328344345093,1.816619634628296,1.1726815700531006,0.08473190665245056,-0.06295516341924667,-0.0008468205924145877,0.9989480376243591,-0.020670004189014435,-0.04092547670006752
290.0,-2.8909449577331543,-2.491521120071411,-1.7607223987579346,-0.5501551032066345,1.5479795932769775,1.8206591606140137,1.1692252159118652,0.08824162185192108,-0.06284111738204956,-0.0009052011882886291,0.9989222884178162,-0.02218254841864109,-0.04076292738318443
291.0,-2.887756586074829,-2.489595651626587,-1.765508770942688,-0.5491604804992676,1.5451687574386597,1.8238343000411987,1.1659611463546753,0.09074890613555908,-0.06270352751016617,-0.000986976665444672,0.9988628029823303,-0.023904187604784966,-0.041241906583309174
292.0,-2.8882737159729004,-2.486783504486084,-1.7717264890670776,-0.5485929846763611,1.5437792539596558,1.8232756853103638,1.162015438079834,0.0888909101486206,-0.062274280935525894,-0.0010586887365207076,0.9987874031066895,-0.024907570332288742,-0.04245314747095108
293.0,-2.8843135833740234,-2.484679937362671,-1.78449547290802,-0.522291898727417,1.5443004369735718,1.827527642250061,1.1563242673873901,0.09217272698879242,-0.06193774566054344,-0.0007972731837071478,0.9991305470466614,-0.022849183529615402,-0.034862518310546875
294.0,-2.882356643676758,-2.484344244003296,-1.755920648574829,-0.6267449855804443,1.517656922340393,-0.3284299671649933,1.162775993347168,0.0919450893998146,-0.0628293827176094,0.8796200752258301,-0.46862152218818665,-0.03837849944829941,0.07203787565231323
295.0,-2.8736047744750977,-2.4856154918670654,-1.7294460535049438,-0.7285760641098022,1.4903517961502075,-0.3288845717906952,1.165988564491272,0.09887402504682541,-0.06458019465208054,0.8793185949325562,-0.4603429436683655,-0.056583426892757416,0.10808215290307999
296.0,-2.8692615032196045,-2.4846725463867188,-1.731387972831726,-0.7314531803131104,1.487614393234253,-0.3338516056537628,1.1638789176940918,0.10303409397602081,-0.06471268087625504,0.8813135027885437,-0.45590370893478394,-0.05708939582109451,0.1103602722287178
297.0,-2.8627376556396484,-2.482250928878784,-1.7418029308319092,-0.7134664058685303,1.4825127124786377,-0.36750438809394836,1.159037709236145,0.10862249881029129,-0.06454931944608688,0.8907447457313538,-0.43824437260627747,-0.05318758636713028,0.10810534656047821
298.0,-2.8738434314727783,-2.4816298484802246,-1.772679328918457,-0.5899988412857056,1.520500659942627,1.8371093273162842,1.155466914176941,0.10051628947257996,-0.06251184642314911,-0.002373715862631798,0.9975085258483887,-0.041587792336940765,-0.05693502351641655
299.0,-2.8757851123809814,-2.483743667602539,-1.7850342988967896,-0.5302463173866272,1.5391823053359985,1.8359676599502563,1.15426504611969,0.10087758302688599,-0.06225493922829628,-0.0010022071655839682,0.9989368915557861,-0.026599040254950523,-0.03763825446367264
300.0,-2.8790667057037354,-2.4862308502197266,-1.7758777141571045,-0.5415289998054504,1.540466070175171,1.8325799703598022,1.1592868566513062,0.09855660796165466,-0.06252739578485489,-0.00106237200088799,0.9988442063331604,-0.02644983120262623,-0.04011913016438484
301.0,-2.883695125579834,-2.4880294799804688,-1.7703605890274048,-0.5455078482627869,1.5429967641830444,1.8279215097427368,1.1628570556640625,0.09441819787025452,-0.06262263655662537,-0.0010214404901489615,0.9988566637039185,-0.025074301287531853,-0.040689971297979355
302.0,-2.8805646896362305,-2.489712953567505,-1.7701250314712524,-0.5345861315727234,1.5458643436431885,1.8311986923217773,1.16390860080719,0.0988772064447403,-0.06287240982055664,-0.0008236814755946398,0.9990810751914978,-0.022603683173656464,-0.03640665486454964
303.0,-2.8762338161468506,-2.4888370037078857,-1.7742416858673096,-0.5284417867660522,1.5447407960891724,1.835590124130249,1.161488652229309,0.10319899767637253,-0.06287200003862381,-0.0007975550252012908,0.9991323947906494,-0.022924508899450302,-0.034760311245918274
304.0,-2.872123956680298,-2.4856832027435303,-1.7825647592544556,-0.5255089402198792,1.5410606861114502,1.8396999835968018,1.1559785604476929,0.10598087310791016,-0.06265401840209961,-0.0008869404555298388,0.9990618824958801,-0.02513563260436058,-0.03525307774543762
305.0,-2.870043992996216,-2.483072519302368,-1.788165807723999,-0.5269383788108826,1.5376429557800293,1.8417402505874634,1.151965856552124,0.10678287595510483,-0.06243402138352394,-0.001012889901176095,0.9989426732063293,-0.02744276449084282,-0.03687015548348427
306.0,-2.8670082092285156,-2.4792492389678955,-1.792580485343933,-0.5419366359710693,1.522997498512268,1.8446924686431885,1.147409200668335,0.10674270987510681,-0.06217213347554207,-0.0015543826157227159,0.9984300136566162,-0.03669210523366928,-0.04229635372757912
307.0,-2.8564350605010986,-2.4777023792266846,-1.7736024856567383,-0.6286090016365051,1.4894808530807495,-0.44777512550354004,1.1488038301467896,0.11424907296895981,-0.06334982812404633,0.9109522104263306,-0.40191709995269775,-0.03749667853116989,0.08498689532279968
308.0,-2.866896152496338,-2.4800570011138916,-1.8039720058441162,-0.4984343647956848,1.5402265787124634,1.8451311588287354,1.1443575620651245,0.10877462476491928,-0.06201201304793358,-0.0007161441026255488,0.999269425868988,-0.02419784478843212,-0.029573746025562286
309.0,-2.866553783416748,-2.4824836254119873,-1.7922946214675903,-0.5188859701156616,1.5376468896865845,1.8453136682510376,1.1497653722763062,0.11028947681188583,-0.06247147545218468,-0.0009338414529338479,0.999036967754364,-0.02696082554757595,-0.03460361436009407
310.0,-2.8663008213043213,-2.485031843185425,-1.7881784439086914,-0.5137102007865906,1.541640043258667,1.8456329107284546,1.1529349088668823,0.11212343722581863,-0.06275378167629242,-0.0007705299067310989,0.999199390411377,-0.02413814701139927,-0.03189610689878464
311.0,-2.861654043197632,-2.4833853244781494,-1.794387698173523,-0.5069601535797119,1.540292739868164,1.8503316640853882,1.1490784883499146,0.11630812287330627,-0.06270813196897507,-0.0007530141156166792,0.9992294907569885,-0.02463262714445591,-0.03054623119533062
312.0,-2.8628106117248535,-2.4791650772094727,-1.8068675994873047,-0.4969589114189148,1.5382428169250488,1.849232792854309,1.1421728134155273,0.1126352995634079,-0.0620792992413044,-0.0007470723357982934,0.9992445707321167,-0.025343913584947586,-0.029455123469233513
313.0,-2.8584651947021484,-2.4794154167175293,-1.8041437864303589,-0.5054289102554321,1.5348918437957764,1.853523850440979,1.14256751537323,0.11731967329978943,-0.062368955463171005,-0.0008871352765709162,0.9991055130958557,-0.027912607416510582,-0.03175416961312294
314.0,-2.8563711643218994,-2.4813649654388428,-1.8017199039459229,-0.4995765686035156,1.5384478569030762,1.8556721210479736,1.1444602012634277,0.12091127038002014,-0.06263671815395355,-0.0007409286336041987,0.9992519617080688,-0.025388462468981743,-0.0291618462651968
315.0,-2.8527894020080566,-2.4809324741363525,-1.8053280115127563,-0.49236756563186646,1.5391126871109009,1.8593075275421143,1.1423896551132202,0.1246320977807045,-0.0627068504691124,-0.0006704417755827308,0.9993261098861694,-0.024602504447102547,-0.027232592925429344
316.0,-2.845505952835083,-2.478450059890747,-1.8156658411026,-0.4800979197025299,1.5384526252746582,1.8666657209396362,1.1359220743179321,0.13115619122982025,-0.06270307302474976,-0.0006084415945224464,0.9993916153907776,-0.0244743674993515,-0.024845240637660027
317.0,-2.850264072418213,-2.4781641960144043,-1.8131418228149414,-0.48855769634246826,1.536263108253479,1.8618545532226562,1.1373881101608276,0.12565365433692932,-0.06250503659248352,-0.0007174673373810947,0.9992818832397461,-0.02621203102171421,-0.027352022007107735
318.0,-2.851693630218506,-2.4761035442352295,-1.818102240562439,-0.48729419708251953,1.534637689590454,1.8604241609573364,1.13448166847229,0.12284587323665619,-0.06220171973109245,-0.0007601201650686562,0.9992396235466003,-0.027184152975678444,-0.027940621599555016
319.0,-2.8495922088623047,-2.4739010334014893,-1.8333334922790527,-0.45653340220451355,1.5400556325912476,1.8626939058303833,1.127299189567566,0.12402130663394928,-0.061881307512521744,-0.0004461923963390291,0.9995519518852234,-0.02210674248635769,-0.020174497738480568
320.0,-2.8460352420806885,-2.472104549407959,-1.840135097503662,-0.4497328996658325,1.5378291606903076,1.8663012981414795,1.1231014728546143,0.1265297830104828,-0.061812710016965866,-0.00043483631452545524,0.9995568990707397,-0.022982222959399223,-0.018912166357040405
321.0,-2.8420777320861816,-2.4721548557281494,-1.8033583164215088,-0.5723382830619812,1.4880502223968506,-0.5451183915138245,1.1344964504241943,0.1266249269247055,-0.06292553246021271,0.9328595995903015,-0.3514222502708435,-0.027926955372095108,0.07413282990455627
322.0,-2.8291141986846924,-2.4771945476531982,-1.7463741302490234,-0.776268720626831,1.423541784286499,-0.460679829120636,1.1443355083465576,0.13467156887054443,-0.06709388643503189,0.913639485836029,-0.37357595562934875,-0.060678333044052124,0.1483985334634781
323.0,-2.8271892070770264,-2.470170497894287,-1.7905231714248657,-0.6498401165008545,1.4461554288864136,-0.5544026494026184,1.1322468519210815,0.13666319847106934,-0.06453294306993484,0.9347304105758667,-0.33569759130477905,-0.039397403597831726,0.1096997782588005
324.0,-2.8090059757232666,-2.4763474464416504,-1.7437268495559692,-0.8272151350975037,1.3786039352416992,-0.5019742250442505,1.1369848251342773,0.14889967441558838,-0.0691913366317749,0.9214667081832886,-0.3382691740989685,-0.06581376492977142,0.17928089201450348
325.0,-2.8134567737579346,-2.468228340148926,-1.7865837812423706,-0.6981649994850159,1.4187906980514526,-0.552962064743042,1.1270041465759277,0.14667098224163055,-0.06596027314662933,0.9347083568572998,-0.32606756687164307,-0.04658137261867523,0.1335306167602539
326.0,-2.825432300567627,-2.46742582321167,-1.8088340759277344,-0.6023526191711426,1.4627201557159424,-0.5713911652565002,1.125475287437439,0.13918720185756683,-0.06373149156570435,0.9390916228294373,-0.32914769649505615,-0.03269202634692192,0.09327365458011627
327.0,-2.8255350589752197,-2.4657087326049805,-1.8296995162963867,-0.5406447052955627,1.482966423034668,-0.6145399808883667,1.1186050176620483,0.1400911509990692,-0.0628867968916893,0.9473304748535156,-0.31118181347846985,-0.023625073954463005,0.07192178070545197
328.0,-2.8356502056121826,-2.470299243927002,-1.8437062501907349,-0.4551832377910614,1.5331060886383057,1.8766735792160034,1.1187771558761597,0.13649077713489532,-0.06215667352080345,-0.0005676922737620771,0.9994192719459534,-0.026512159034609795,-0.0214000903069973
329.0,-2.8434979915618896,-2.471506118774414,-1.8453203439712524,-0.4392949938774109,1.5412640571594238,1.8688561916351318,1.1202720403671265,0.12916338443756104,-0.0618310309946537,-0.00034017773577943444,0.9996519684791565,-0.020531615242362022,-0.01656271703541279
330.0,-2.8398895263671875,-2.4731991291046143,-1.8322453498840332,-0.46818989515304565,1.5336233377456665,1.8723641633987427,1.1255906820297241,0.1337735801935196,-0.062341246753931046,-0.000636653508991003,0.9993584752082825,-0.02683248370885849,-0.02371175028383732
331.0,-2.8448944091796875,-2.4751999378204346,-1.823860764503479,-0.47816258668899536,1.5343960523605347,1.8672934770584106,1.1307488679885864,0.12963955104351044,-0.062381137162446976,-0.0006902765017002821,0.9993090033531189,-0.026866622269153595,-0.025674965232610703
332.0,-2.841096878051758,-2.476078987121582,-1.8241475820541382,-0.4721360206604004,1.5368672609329224,1.871124267578125,1.1305993795394897,0.1344403475522995,-0.06260484457015991,-0.0005923936259932816,0.9994065761566162,-0.025067567825317383,-0.023617850616574287
333.0,-2.836427927017212,-2.4751765727996826,-1.8289967775344849,-0.4650261402130127,1.5371246337890625,1.875833511352539,1.127465844154358,0.13897381722927094,-0.06266706436872482,-0.0005418463260866702,0.999454915523529,-0.02458139881491661,-0.022030925378203392
334.0,-2.836087703704834,-2.472827434539795,-1.8352582454681396,-0.46271592378616333,1.5342774391174316,1.876196026802063,1.1236090660095215,0.13769562542438507,-0.06242850795388222,-0.0005858007352799177,0.9994068741798401,-0.026186197996139526,-0.02235732041299343
335.0,-2.832674264907837,-2.4718527793884277,-1.840076208114624,-0.4561518430709839,1.5346946716308594,1.879639983177185,1.1205837726593018,0.1407843679189682,-0.06245988979935646,-0.0005398873472586274,0.9994494915008545,-0.025651458650827408,-0.02103545516729355
336.0,-2.8299612998962402,-2.4696338176727295,-1.8480844497680664,-0.44875720143318176,1.5337812900543213,1.882388710975647,1.1156556606292725,0.14221274852752686,-0.062348250299692154,-0.000519824679940939,0.9994631409645081,-0.025897637009620667,-0.02006150409579277
337.0,-2.8288233280181885,-2.4716577529907227,-1.8429604768753052,-0.45014363527297974,1.536234736442566,1.8835102319717407,1.1186559200286865,0.144902765750885,-0.06259769946336746,-0.00048013156629167497,0.9995079040527344,-0.024490702897310257,-0.01959499903023243
338.0,-2.8254809379577637,-2.4697694778442383,-1.8502697944641113,-0.4427429139614105,1.5357580184936523,1.8868848085403442,1.114066481590271,0.14722293615341187,-0.0625411868095398,-0.0004529619181994349,0.9995291829109192,-0.024475641548633575,-0.018497925251722336
339.0,-2.827892303466797,-2.4674384593963623,-1.855591058731079,-0.4425801932811737,1.5324991941452026,1.8844903707504272,1.111030101776123,0.14290869235992432,-0.06220897659659386,-0.0005126752075739205,0.9994627237319946,-0.02641543745994568,-0.019397737458348274
340.0,-2.8231213092803955,-2.464401960372925,-1.8449957370758057,-0.5011382102966309,1.4897515773773193,1.889592170715332,1.11250901222229,0.14199188351631165,-0.0625540241599083,-0.0018252705922350287,0.997976541519165,-0.05378025397658348,-0.03387073799967766
341.0,-2.804917335510254,-2.4670560359954834,-1.787358045578003,-0.7185079455375671,1.3982855081558228,-0.5720685720443726,1.1229915618896484,0.1520298570394516,-0.06687246263027191,0.9378476142883301,-0.31047892570495605,-0.0487334243953228,0.14720654487609863
342.0,-2.8168296813964844,-2.462151288986206,-1.8480182886123657,-0.5121585726737976,1.4791736602783203,-0.6921007037162781,1.108588695526123,0.14626094698905945,-0.06280378252267838,0.9601168632507324,-0.27031928300857544,-0.019360093399882317,0.06876295804977417
343.0,-2.8100342750549316,-2.459831714630127,-1.850928783416748,-0.5248593688011169,1.467645525932312,-0.6935580372810364,1.1044503450393677,0.15084496140480042,-0.06311213970184326,0.9607594013214111,-0.2655414342880249,-0.021360451355576515,0.07728457450866699
344.0,-2.826446056365967,-2.464778423309326,-1.8741061687469482,-0.4079008102416992,1.5422662496566772,1.885982871055603,1.1016772985458374,0.14311820268630981,-0.061901990324258804,-0.00022537053155247122,0.9997503757476807,-0.0188901424407959,-0.011927612125873566
345.0,-2.820605993270874,-2.463196039199829,-1.8781776428222656,-0.4088662564754486,1.5379352569580078,1.891853928565979,1.0980952978134155,0.1479388028383255,-0.062009211629629135,-0.00027542331372387707,0.9996860027313232,-0.021558158099651337,-0.012771815061569214
346.0,-2.820084571838379,-2.46733021736145,-1.8601983785629272,-0.4322236180305481,1.5353463888168335,1.8923242092132568,1.1077055931091309,0.15131722390651703,-0.06250361353158951,-0.0004098328354302794,0.9995625615119934,-0.024292780086398125,-0.016863182187080383
347.0,-2.8159029483795166,-2.466278076171875,-1.8652255535125732,-0.42611217498779297,1.5355803966522217,1.8965270519256592,1.1042959690093994,0.15505145490169525,-0.06255397945642471,-0.0003776365192607045,0.9995893836021423,-0.023911191150546074,-0.015786809846758842
348.0,-2.811800956726074,-2.463620185852051,-1.8759652376174927,-0.41504958271980286,1.535524606704712,1.9006614685058594,1.0975693464279175,0.15748926997184753,-0.06248017027974129,-0.0003357506648171693,0.999621570110321,-0.023520423099398613,-0.014269459061324596
349.0,-2.815671920776367,-2.463806629180908,-1.8735004663467407,-0.41950786113739014,1.5340288877487183,1.8967902660369873,1.099472165107727,0.15343590080738068,-0.06232293322682381,-0.0003717309737112373,0.9995844960212708,-0.024521589279174805,-0.015153035521507263
350.0,-2.816282033920288,-2.4618940353393555,-1.8807055950164795,-0.41207149624824524,1.5343574285507202,1.8961946964263916,1.095491647720337,0.15144436061382294,-0.06211811676621437,-0.0003412628429941833,0.9996106624603271,-0.024014821276068687,-0.014204975217580795
351.0,-2.8133227825164795,-2.459791660308838,-1.8916982412338257,-0.39668944478034973,1.5380276441574097,1.8991564512252808,1.0890332460403442,0.15323790907859802,-0.06204972043633461,-0.00024801798281259835,0.9997057914733887,-0.021275224164128304,-0.011654166504740715
352.0,-2.815741777420044,-2.4597201347351074,-1.8895773887634277,-0.4024641811847687,1.529198169708252,1.8968424797058105,1.0906736850738525,0.14959615468978882,-0.0619349367916584,-0.0003117809828836471,0.9995900392532349,-0.026000674813985825,-0.011986348778009415
353.0,-2.816230058670044,-2.4602391719818115,-1.8777496814727783,-0.4326481819152832,1.5167042016983032,1.896410584449768,1.096024751663208,0.14881211519241333,-0.062081318348646164,-0.0006618104525841773,0.9992104768753052,-0.03492031618952751,-0.01893705688416958
354.0,-2.7968881130218506,-2.4584219455718994,-1.83583664894104,-0.6037533283233643,1.420121431350708,-0.674344003200531,1.1043070554733276,0.15831761062145233,-0.06481146067380905,0.9572288990020752,-0.26373448967933655,-0.03160441294312477,0.11470877379179001
355.0,-2.791753053665161,-2.4624531269073486,-1.8054835796356201,-0.7018706798553467,1.3796284198760986,-0.6251702308654785,1.1118719577789307,0.16049450635910034,-0.06721454113721848,0.9473176598548889,-0.2780400812625885,-0.04477998614311218,0.15257103741168976
356.0,-2.8021085262298584,-2.463240146636963,-1.808607816696167,-0.6655076146125793,1.4069057703018188,-0.6193826794624329,1.115576982498169,0.15410803258419037,-0.06584193557500839,0.9471186399459839,-0.28954437375068665,-0.040436308830976486,0.13226979970932007
357.0,-2.769320011138916,-2.469364643096924,-1.770061731338501,-0.8449695110321045,1.2994487285614014,-0.60191410779953,1.113525629043579,0.17463111877441406,-0.07200077921152115,0.9380684494972229,-0.26226767897605896,-0.06095181778073311,0.21800997853279114
358.0,-2.717744827270508,-2.532404661178589,-1.6220436096191406,-1.3448212146759033,1.0889642238616943,-0.4328143000602722,1.122382640838623,0.20745736360549927,-0.09800275415182114,0.8723204135894775,-0.22779983282089233,-0.10931093245744705,0.41858750581741333
359.0,-2.729605197906494,-2.528216600418091,-1.623830795288086,-1.3062472343444824,1.124825119972229,-0.43675580620765686,1.1285498142242432,0.20118573307991028,-0.09512000530958176,0.8781143426895142,-0.24542495608329773,-0.11055266857147217,0.3955501317977905
360.0,-2.7425131797790527,-2.5138869285583496,-1.649731993675232,-1.209094524383545,1.164476990699768,-0.4707489013671875,1.1307268142700195,0.19251039624214172,-0.0888126939535141,0.8926665782928467,-0.25669288635253906,-0.10238517820835114,0.3560512363910675
361.0,-2.756457567214966,-2.501573085784912,-1.6740046739578247,-1.1157406568527222,1.2094115018844604,-0.4958491921424866,1.1325064897537231,0.1833392232656479,-0.08307947963476181,0.9046136736869812,-0.27049076557159424,-0.09436838328838348,0.31560018658638
362.0,-2.752089262008667,-2.542034864425659,-1.5793315172195435,-1.3625974655151367,1.1697829961776733,-0.38162246346473694,1.1471750736236572,0.18850380182266235,-0.09528844058513641,0.8655001521110535,-0.28439828753471375,-0.1287224143743515,0.391736775636673
363.0,-2.7743749618530273,-2.5043551921844482,-1.657678484916687,-1.1193503141403198,1.2541464567184448,-0.45309630036354065,1.1432621479034424,0.17293711006641388,-0.08128386735916138,0.8980682492256165,-0.3061918020248413,-0.10190513730049133,0.29889029264450073
364.0,-2.769461154937744,-2.5337018966674805,-1.5877656936645508,-1.3021950721740723,1.2174324989318848,-0.3818635642528534,1.154215693473816,0.1774223893880844,-0.090168297290802,0.8712397813796997,-0.3103293776512146,-0.12761074304580688,0.3582630157470703
365.0,-2.7753360271453857,-2.533750295639038,-1.5852859020233154,-1.2951644659042358,1.2268366813659668,-0.3795488476753235,1.1577322483062744,0.17305561900138855,-0.08933499455451965,0.8711886405944824,-0.3170205354690552,-0.12818990647792816,0.3522724211215973
366.0,-2.7551801204681396,-2.5581934452056885,-1.5420337915420532,-1.4487158060073853,1.1669245958328247,-0.3408556580543518,1.1541460752487183,0.18712039291858673,-0.09855048358440399,0.8501225709915161,-0.29214945435523987,-0.1423858106136322,0.4143269956111908
367.0,-2.765134811401367,-2.5633833408355713,-1.523598551750183,-1.4739679098129272,1.1865639686584473,-0.3189750015735626,1.1613234281539917,0.1807546615600586,-0.09746285527944565,0.8435584902763367,-0.30796217918395996,-0.15087969601154327,0.4132840931415558
368.0,-2.774104356765747,-2.5675370693206787,-1.5083003044128418,-1.4949196577072144,1.2039568424224854,-0.3004252016544342,1.1672863960266113,0.17469555139541626,-0.09628758579492569,0.837597668170929,-0.32174670696258545,-0.15830981731414795,0.41212520003318787
369.0,-2.783766746520996,-2.5735363960266113,-1.490648865699768,-1.5168073177337646,1.2237606048583984,-0.2801802158355713,1.174081563949585,0.168395534157753,-0.09618010371923447,0.8307739496231079,-0.33691081404685974,-0.16650836169719696,0.41058585047721863
370.0,-2.793886423110962,-2.5817511081695557,-1.470633625984192,-1.5389814376831055,1.24601149559021,-0.25843462347984314,1.1816761493682861,0.16211038827896118,-0.09756142646074295,0.8230883479118347,-0.35329753160476685,-0.17538170516490936,0.4085922837257385
371.0,-2.803715467453003,-2.588360071182251,-1.4539951086044312,-1.5572566986083984,1.2673053741455078,-0.23879757523536682,1.1880195140838623,0.1554887741804123,-0.09843184053897858,0.815723180770874,-0.3687111437320709,-0.18357624113559723,0.4061373770236969
372.0,-2.7998523712158203,-2.5789215564727783,-1.4773359298706055,-1.5036213397979736,1.2633428573608398,-0.2611047327518463,1.184267520904541,0.15834054350852966,-0.09801144897937775,0.8266457319259644,-0.36341726779937744,-0.17290768027305603,0.3933038115501404
373.0,-2.787299633026123,-2.526019334793091,-1.5979361534118652,-1.2401118278503418,1.26008939743042,-0.3811722993850708,1.1607292890548706,0.16474643349647522,-0.08552248775959015,0.8756058812141418,-0.33438485860824585,-0.12435592710971832,0.32563310861587524
374.0,-2.7957167625427246,-2.527733087539673,-1.5901087522506714,-1.243149995803833,1.2799478769302368,-0.36167553067207336,1.1654646396636963,0.15930312871932983,-0.08485238999128342,0.8711721301078796,-0.3504115343093872,-0.1283363699913025,0.31906217336654663
375.0,-2.827648878097534,-2.4864461421966553,-1.7051165103912354,-0.8911431431770325,1.3981000185012817,-0.41670358180999756,1.154176950454712,0.1355334222316742,-0.0699383094906807,0.9005832672119141,-0.38486725091934204,-0.0794028490781784,0.1858014017343521
376.0,-2.8455586433410645,-2.4739229679107666,-1.787980079650879,-0.6118012070655823,1.4857845306396484,-0.48092225193977356,1.140164852142334,0.12390755861997604,-0.06332053244113922,0.9197509288787842,-0.3818173408508301,-0.034874774515628815,0.08400903642177582
