Sungjin-Park-dev/vision_inspection/data/trajectory/593/joint_trajectory_dp.csv
time,ur20-shoulder_pan_joint,ur20-shoulder_lift_joint,ur20-elbow_joint,ur20-wrist_1_joint,ur20-wrist_2_joint,ur20-wrist_3_joint,target-POS_X,target-POS_Y,target-POS_Z,target-ROT_X,target-ROT_Y,target-ROT_Z,target-ROT_W
0.0,0.032023586332798004,-1.345242977142334,1.6791061162948608,-1.1013901233673096,-2.0912582874298096,-0.4473712742328644,0.8910832405090332,0.1528787463903427,0.6300842761993408,0.8124610781669617,-0.3756537139415741,-0.18711711466312408,0.4046955108642578
1.0,-0.011969895102083683,-1.3143421411514282,1.6303762197494507,-1.029863715171814,-2.0211472511291504,-0.36056238412857056,0.9120949506759644,0.12292744219303131,0.6322680115699768,0.7793964743614197,-0.4327442944049835,-0.2199324071407318,0.396110475063324
2.0,-0.0380575992166996,-1.2986763715744019,1.6052383184432983,-0.991873562335968,-1.9794222116470337,-0.314074844121933,0.9222557544708252,0.10467451810836792,0.6337203979492188,0.7581837177276611,-0.46428433060646057,-0.2390853464603424,0.39043018221855164
3.0,-0.02168291062116623,-1.3165743350982666,1.6180793046951294,-1.0030205249786377,-2.0165438652038574,-0.3493185043334961,0.9117779731750488,0.11473476886749268,0.642666757106781,0.7733323574066162,-0.43944859504699707,-0.22578009963035583,0.39732304215431213
4.0,-0.04814660921692848,-1.3021137714385986,1.594220519065857,-0.9661783576011658,-1.9733740091323853,-0.30334317684173584,0.9208790063858032,0.0963381826877594,0.6444595456123352,0.7517110109329224,-0.47123953700065613,-0.2450573444366455,0.39091014862060547
5.0,-0.07539369910955429,-1.282026767730713,1.5770822763442993,-0.9475120902061462,-1.9212836027145386,-0.25657159090042114,0.9327731132507324,0.07798316329717636,0.6361427903175354,0.7275345325469971,-0.5057749152183533,-0.26460257172584534,0.3806188702583313
6.0,-0.10808887332677841,-1.2698642015457153,1.55841863155365,-0.9166524410247803,-1.8682341575622559,-0.2097013145685196,0.9397029280662537,0.05472465604543686,0.6366148591041565,0.6989830136299133,-0.5406712293624878,-0.28638705611228943,0.3702428936958313
7.0,-0.133633553981781,-1.2557659149169922,1.5487916469573975,-0.9050310254096985,-1.820556879043579,-0.17178206145763397,0.947242259979248,0.03698418289422989,0.6291101574897766,0.6741130352020264,-0.5691340565681458,-0.3037184178829193,0.3597404658794403
8.0,-0.10679017752408981,-1.3383800983428955,1.6401257514953613,-1.157206416130066,-1.843489408493042,-0.30058765411376953,0.9288807511329651,0.060782354325056076,0.6419095396995544,0.7468542456626892,-0.5529002547264099,-0.21983680129051208,0.2969541847705841
9.0,-0.10394825786352158,-1.498164176940918,1.8413097858428955,-1.6644375324249268,-1.7345995903015137,-0.5692873597145081,0.8791214227676392,0.08507859706878662,0.6639998555183411,0.8469945192337036,-0.510521411895752,-0.076512910425663,0.12694083154201508
10.0,-0.12832163274288177,-1.5360052585601807,1.9065934419631958,-1.8587132692337036,-1.6257127523422241,1.4427913427352905,0.8728554844856262,0.08150165528059006,0.6671738624572754,-0.0009764003334566951,0.9987693428993225,-0.02192660979926586,-0.044475581496953964
11.0,-0.14202789962291718,-1.530364751815796,1.8979666233062744,-1.8432316780090332,-1.6270840167999268,1.4292881488800049,0.8773754835128784,0.06881905347108841,0.6672207713127136,-0.0010790338274091482,0.9984728693962097,-0.02110827900469303,-0.05104092136025429
12.0,-0.15953420102596283,-1.5220319032669067,1.8857884407043457,-1.8230295181274414,-1.625544786453247,1.4121557474136353,0.8838159441947937,0.05282581225037575,0.667172372341156,-0.001079500070773065,0.9980722665786743,-0.01815742626786232,-0.05933764949440956
13.0,-0.17970198392868042,-1.5153011083602905,1.8767225742340088,-1.810636281967163,-1.6186002492904663,1.3923771381378174,0.8894831538200378,0.035210687667131424,0.6669953465461731,-0.0008119328413158655,0.9978684186935425,-0.01265670731663704,-0.06401365995407104
14.0,-0.19307881593704224,-1.5083487033843994,1.8597527742385864,-1.7529053688049316,-1.630876898765564,-0.3378134071826935,0.8896782994270325,0.02142046019434929,0.6671295166015625,0.7549956440925598,-0.6495723724365234,-0.05847044661641121,0.0679599940776825
15.0,-0.17906391620635986,-1.3617514371871948,1.6593557596206665,-1.229844093322754,-1.7259818315505981,-0.20528823137283325,0.9295628070831299,0.011776097118854523,0.6485006213188171,0.6950471997261047,-0.6430888772010803,-0.2183261215686798,0.2359657734632492
16.0,-0.21420177817344666,-1.5076948404312134,1.8631525039672852,-1.7772358655929565,-1.6080851554870605,-0.2433948814868927,0.8937180042266846,0.005395561922341585,0.6668479442596436,0.7162047028541565,-0.6936612129211426,-0.053370893001556396,0.055105410516262054
17.0,-0.23015329241752625,-1.5076476335525513,1.8659487962722778,-1.7931653261184692,-1.596304178237915,1.3427995443344116,0.8956648707389832,-0.007457204163074493,0.6666242480278015,0.00020955069339834154,0.9976104497909546,0.0030286728870123625,-0.06902360916137695
18.0,-0.2439962774515152,-1.4920094013214111,1.8308767080307007,-1.6712061166763306,-1.5996183156967163,-0.1180015504360199,0.8950775265693665,-0.020282400771975517,0.6658933162689209,-0.6577115058898926,0.7436837553977966,0.08973332494497299,-0.07935985177755356
19.0,-0.2572494447231293,-1.5093214511871338,1.8680940866470337,-1.7951419353485107,-1.584358811378479,1.3158621788024902,0.8943427801132202,-0.029606886208057404,0.6665630340576172,0.000699577503837645,0.9977190494537354,0.010466866195201874,-0.06668490171432495
20.0,-0.27098891139030457,-1.5118048191070557,1.8614462614059448,-1.7432608604431152,-1.5776358842849731,-0.03817962482571602,0.8869966268539429,-0.038910459727048874,0.6672186255455017,-0.6179984211921692,0.7811779975891113,0.06943633407354355,-0.054931849241256714
21.0,-0.304995059967041,-1.4907656908035278,1.8234459161758423,-1.617814540863037,-1.5527613162994385,0.06132687255740166,0.8882082104682922,-0.0659811720252037,0.6646513938903809,-0.5596383810043335,0.8163729310035706,0.11763332039117813,-0.08063977211713791
22.0,-0.32026407122612,-1.5234752893447876,1.8780498504638672,-1.766638994216919,-1.5543373823165894,0.1024528443813324,0.8775556087493896,-0.07662640511989594,0.6668170690536499,-0.5407531261444092,0.8373968601226807,0.0669563040137291,-0.043237365782260895
23.0,-0.3361116945743561,-1.5353775024414062,1.892560362815857,-1.783569097518921,-1.5484004020690918,0.15279309451580048,0.8686203956604004,-0.0868942067027092,0.6673991680145264,-0.5128805637359619,0.855350911617279,0.06260526925325394,-0.037539009004831314
24.0,-0.35195398330688477,-1.5361992120742798,1.897868037223816,-1.8035669326782227,-1.543900489807129,1.2210042476654053,0.8681735992431641,-0.10028570145368576,0.6665028929710388,0.001944708521477878,0.9978322386741638,0.034736935049295425,-0.05586252361536026
25.0,-0.3650401532649994,-1.4908450841903687,1.8175785541534424,-1.5438634157180786,-1.4959075450897217,0.19994930922985077,0.8746733665466309,-0.10673514008522034,0.6621530055999756,-0.4683528542518616,0.8650928139686584,0.15794871747493744,-0.08551190793514252
26.0,-0.39526331424713135,-1.5194565057754517,1.854453444480896,-1.6058435440063477,-1.4755078554153442,0.2984424829483032,0.8575703501701355,-0.12409614771604538,0.6637815833091736,-0.41293737292289734,0.8972131609916687,0.14216281473636627,-0.06542964279651642
27.0,-0.3792094588279724,-1.5494043827056885,1.9130330085754395,-1.8120981454849243,-1.5341373682022095,1.1933181285858154,0.8556963801383972,-0.11853265017271042,0.6664453744888306,0.0019841997418552637,0.9979611039161682,0.03957514092326164,-0.05003529414534569
28.0,-0.39654701948165894,-1.5583064556121826,1.920859932899475,-1.8050488233566284,-1.5245057344436646,1.175919771194458,0.846320390701294,-0.12872830033302307,0.6665397882461548,0.002316913567483425,0.9976741671562195,0.04601505026221275,-0.050234105437994
29.0,-0.43200060725212097,-1.5808868408203125,1.9443953037261963,-1.8097344636917114,-1.509089469909668,1.1396803855895996,0.8249205946922302,-0.1485133171081543,0.6665570139884949,0.0023614102974534035,0.9975849390029907,0.05398968234658241,-0.04363254830241203
30.0,-0.4537133574485779,-1.5618376731872559,1.9044444561004639,-1.6505601406097412,-1.4368876218795776,0.46059492230415344,0.8235312700271606,-0.1550450176000595,0.6644062399864197,-0.31058594584465027,0.9391706585884094,0.13919712603092194,-0.04603281244635582
31.0,-0.4085148274898529,-1.574611783027649,1.935385823249817,-1.8015308380126953,-1.5170186758041382,1.1637400388717651,0.8324305415153503,-0.13227079808712006,0.667630672454834,0.002474315697327256,0.9975247383117676,0.05038674920797348,-0.04898492619395256
32.0,3.1076767444610596,-1.7290529012680054,-1.75032639503479,-1.8328214883804321,2.0440425872802734,0.5878721475601196,0.8723997473716736,-0.16034826636314392,0.6427469849586487,-0.3627365827560425,0.8577775955200195,0.33543771505355835,-0.14184974133968353
33.0,3.109198570251465,-1.82463538646698,-1.644431471824646,-2.1385762691497803,2.097109794616699,0.38269394636154175,0.8974681496620178,-0.1526351273059845,0.6285479664802551,-0.381149023771286,0.790614902973175,0.4316767752170563,-0.2081078737974167
34.0,3.0090866088867188,-1.735573410987854,-1.7768315076828003,-1.9782716035842896,2.2873053550720215,0.5876539349555969,0.8316795825958252,-0.21139594912528992,0.627864420413971,-0.2363441437482834,0.8441838026046753,0.46332404017448425,-0.12971574068069458
35.0,3.084667682647705,-1.8028613328933716,-1.6697347164154053,-2.1136057376861572,2.145925760269165,0.4273017942905426,0.8822659850120544,-0.16753670573234558,0.6331107020378113,-0.3464275300502777,0.8057960867881775,0.4412425756454468,-0.18969880044460297
36.0,-0.37455353140830994,-1.2867307662963867,1.584118127822876,-0.8747884035110474,-1.4403364658355713,0.0845465436577797,0.9157537817955017,-0.12245151400566101,0.6332449316978455,-0.43652960658073425,0.7616081833839417,0.41553518176078796,-0.23817157745361328
37.0,-0.3377200663089752,-1.270775318145752,1.5658891201019287,-0.8699116706848145,-1.4960862398147583,0.0483115017414093,0.9284601807594299,-0.10081051290035248,0.6304988861083984,-0.47538140416145325,0.7382999658584595,0.40228331089019775,-0.25902479887008667
38.0,-0.30230966210365295,-1.260568618774414,1.5518290996551514,-0.8654745221138,-1.5491361618041992,0.0140105951577425,0.937362015247345,-0.07828518748283386,0.630354642868042,-0.5113219022750854,0.7141945362091064,0.3886532783508301,-0.2782531976699829
39.0,-0.2679528594017029,-1.2554774284362793,1.541212797164917,-0.8605687022209167,-1.6020731925964355,-0.020255383104085922,0.9426286220550537,-0.055369481444358826,0.6328586935997009,-0.5455552935600281,0.6885374784469604,0.3744884729385376,-0.2967219352722168
40.0,-0.2494373321533203,-1.2618528604507446,1.5547593832015991,-0.9171838760375977,-1.629412055015564,-0.04217672720551491,0.9465579986572266,-0.0430372878909111,0.6277979612350464,-0.5710331797599792,0.6824036836624146,0.3499734401702881,-0.2928566336631775
41.0,-0.21332010626792908,-1.246134877204895,1.5359915494918823,-0.8717544078826904,-1.6884316205978394,-0.07705916464328766,0.9503835439682007,-0.018735786899924278,0.6276934146881104,-0.5986217856407166,0.6438617706298828,0.34900540113449097,-0.3244830369949341
42.0,-0.15990768373012543,-1.2535881996154785,1.5398447513580322,-0.8840016722679138,-1.7808157205581665,-0.14099714159965515,0.9478079080581665,0.018146546557545662,0.6329294443130493,0.650687575340271,-0.5931380391120911,-0.3194025158882141,0.35039275884628296
43.0,-0.13041311502456665,-1.2683796882629395,1.5434154272079468,-0.8837400078773499,-1.8373572826385498,-0.1815762221813202,0.9399942755699158,0.03844105079770088,0.6454792022705078,0.6793394088745117,-0.5606274604797363,-0.3013775944709778,0.36519375443458557
44.0,-0.20800983905792236,-1.2544760704040527,1.5312100648880005,-0.8567565679550171,-1.6977676153182983,-0.08277870714664459,0.9458580017089844,-0.014176676981151104,0.6393123269081116,-0.6034008264541626,0.6385319232940674,0.34719130396842957,-0.3280893862247467
45.0,-0.24737206101417542,-1.259920597076416,1.5320262908935547,-0.8449510931968689,-1.6344168186187744,-0.04098397120833397,0.9412397742271423,-0.04051227867603302,0.6438003778457642,-0.5651629567146301,0.6716064810752869,0.3665756285190582,-0.3084767460823059
46.0,-0.29104456305503845,-1.2663859128952026,1.5425418615341187,-0.8468694090843201,-1.5670942068099976,0.0023766634985804558,0.9350045323371887,-0.0696607381105423,0.642570972442627,-0.5224387645721436,0.7051044702529907,0.3852402865886688,-0.2854391932487488
47.0,-0.2766546607017517,-1.2717928886413574,1.5343950986862183,-0.831893801689148,-1.5886365175247192,-0.011416111141443253,0.9329714179039001,-0.058820199221372604,0.6535513997077942,-0.5362018346786499,0.6942351460456848,0.37998682260513306,-0.29348793625831604
48.0,-0.20202474296092987,-1.2627874612808228,1.5264092683792114,-0.8424115777015686,-1.7092803716659546,-0.08995861560106277,0.9413220286369324,-0.009369796141982079,0.6508997678756714,-0.6092358827590942,0.632233202457428,0.34467247128486633,-0.33213508129119873
49.0,-0.07532045990228653,-1.2949695587158203,1.5701302289962769,-0.9217844605445862,-1.9358394145965576,-0.2632346451282501,0.9253687262535095,0.07650010287761688,0.6537474989891052,0.7296839356422424,-0.49895820021629333,-0.26390957832336426,0.3859453499317169
50.0,-0.10681168735027313,-1.284952163696289,1.5513458251953125,-0.889680802822113,-1.8869388103485107,-0.21988876163959503,0.9310309886932373,0.05407993122935295,0.6565418243408203,0.703334391117096,-0.5317054986953735,-0.28452736139297485,0.37636980414390564
51.0,-0.15101158618927002,-1.273356556892395,1.5321582555770874,-0.8540262579917908,-1.8133150339126587,-0.16120518743991852,0.9365218877792358,0.023321766406297684,0.6580715775489807,0.6630866527557373,-0.5765930414199829,-0.3132213354110718,0.3602069914340973
52.0,-0.2334659844636917,-1.269216537475586,1.5238604545593262,-0.8256060481071472,-1.6588537693023682,-0.056428615003824234,0.9364677667617798,-0.030037233605980873,0.6587373614311218,-0.5789158940315247,0.6588097810745239,0.36090272665023804,-0.3171360492706299
53.0,-0.2708471119403839,-1.2794148921966553,1.5274451971054077,-0.8147084712982178,-1.597146987915039,-0.016763223335146904,0.9289495944976807,-0.053556255996227264,0.6658685803413391,-0.5412837862968445,0.689445436000824,0.37859025597572327,-0.2972313165664673
54.0,-0.33043333888053894,-1.2926092147827148,1.548349142074585,-0.8226974010467529,-1.5037410259246826,0.042635250836610794,0.9174273014068604,-0.09126010537147522,0.6637682914733887,-0.4805789887905121,0.7327854633331299,0.40283286571502686,-0.2641878128051758
55.0,-0.36991173028945923,-1.3080655336380005,1.567391276359558,-0.8291162252426147,-1.4411014318466187,0.0826704129576683,0.905315101146698,-0.11406069248914719,0.6651883721351624,-0.4380283057689667,0.7586789131164551,0.4176149368286133,-0.24111273884773254
56.0,-0.40739890933036804,-1.3184776306152344,1.5938141345977783,-0.8513738512992859,-1.3862693309783936,0.11861538887023926,0.8951789140701294,-0.1365552395582199,0.6566790342330933,-0.39853745698928833,0.7803183794021606,0.4292057454586029,-0.21921128034591675
57.0,-0.3598395586013794,-1.2955433130264282,1.5673032999038696,-0.843227744102478,-1.4585069417953491,0.07193075120449066,0.9130781888961792,-0.11029068380594254,0.6533295512199402,-0.4499099552631378,0.7525367140769958,0.41276219487190247,-0.24677309393882751
58.0,3.1376230716705322,-1.8312175273895264,-1.613169550895691,-2.185896635055542,2.0541536808013916,0.3415136933326721,0.90523362159729,-0.1328827291727066,0.6424109935760498,-0.4138123691082001,0.7731162905693054,0.42378872632980347,-0.22683392465114594
59.0,3.113569974899292,-1.8137059211730957,-1.6365885734558105,-2.1602559089660645,2.1004221439361572,0.38259628415107727,0.8928847908973694,-0.14812186360359192,0.6440313458442688,-0.38150230050086975,0.7894938588142395,0.4328940212726593,-0.20918473601341248
60.0,3.07753324508667,-1.7851060628890991,-1.6765186786651611,-2.1151840686798096,2.1694748401641846,0.44820961356163025,0.87235027551651,-0.17023731768131256,0.645416259765625,-0.33145907521247864,0.8113148808479309,0.4457944631576538,-0.18212731182575226
61.0,3.064026117324829,-1.7647373676300049,-1.6914931535720825,-2.1051228046417236,2.202300548553467,0.4792845547199249,0.8597017526626587,-0.17705711722373962,0.6547647714614868,-0.30876424908638,0.8193460702896118,0.45201876759529114,-0.17033979296684265
62.0,3.038450241088867,-1.739351511001587,-1.7293270826339722,-2.056281328201294,2.2544381618499756,0.539091169834137,0.8421421051025391,-0.1912640631198883,0.6540442109107971,-0.2690824866294861,0.8331555724143982,0.4597782492637634,-0.14849360287189484
63.0,3.088134527206421,-1.7767609357833862,-1.6598131656646729,-2.149256944656372,2.163550615310669,0.4377390146255493,0.8703275918960571,-0.16153539717197418,0.6639353036880493,-0.3394531011581421,0.8069016337394714,0.4455823302268982,-0.18745073676109314
64.0,3.04880952835083,-1.7393475770950317,-1.712406873703003,-2.0851035118103027,2.2430789470672607,0.5225222110748291,0.8446451425552368,-0.18395373225212097,0.6647542715072632,-0.2803269028663635,0.8288676738739014,0.45862454175949097,-0.15510892868041992
65.0,3.020395040512085,-1.7058948278427124,-1.757859468460083,-2.0265510082244873,2.303434133529663,0.596435546875,0.8223033547401428,-0.1986737698316574,0.6662141680717468,-0.23379497230052948,0.8426951766014099,0.46732714772224426,-0.1296539157629013
66.0,3.005882501602173,-1.7174391746520996,-1.7838228940963745,-1.9753388166427612,2.307175397872925,0.6111873984336853,0.8229894042015076,-0.21065306663513184,0.6398090124130249,-0.22364088892936707,0.8470093607902527,0.46626564860343933,-0.12311088293790817
67.0,3.0150961875915527,-1.595770001411438,-1.9357507228851318,-1.5285850763320923,2.168745994567871,0.9987712502479553,0.7810311913490295,-0.21438422799110413,0.6468591094017029,-0.15825140476226807,0.9292313456535339,0.32915541529655457,-0.056056346744298935
68.0,-0.5093170404434204,-1.5849491357803345,1.9268748760223389,-1.6117980480194092,-1.37137770652771,0.5681147575378418,0.7953310608863831,-0.17893211543560028,0.6622164249420166,-0.22576050460338593,0.9576533436775208,0.17392830550670624,-0.041002463549375534
69.0,-0.46305233240127563,-1.5891562700271606,1.940024971961975,-1.7246849536895752,-1.4562863111495972,0.5199808478355408,0.8086686134338379,-0.1593693345785141,0.6661889553070068,-0.28240782022476196,0.9525575041770935,0.10880971699953079,-0.03225916996598244
70.0,-0.4693756699562073,-1.6101083755493164,1.9757306575775146,-1.825149416923523,-1.4971939325332642,1.1011507511138916,0.7987253069877625,-0.16700153052806854,0.6664822697639465,0.0019112143199890852,0.9977770447731018,0.057902611792087555,-0.03293401747941971
71.0,-0.4883230924606323,-1.6265900135040283,1.992816686630249,-1.832696795463562,-1.4922866821289062,1.0816463232040405,0.7841489911079407,-0.17526310682296753,0.6664375066757202,0.0016335988184437156,0.9978713393211365,0.059064269065856934,-0.027599114924669266
72.0,-0.5129271745681763,-1.6511049270629883,2.015845775604248,-1.8335217237472534,-1.4784761667251587,1.0559945106506348,0.7629668116569519,-0.18269670009613037,0.666522204875946,0.0014175635296851397,0.9976373314857483,0.0651671290397644,-0.02170134335756302
73.0,-0.5669604539871216,-1.6266870498657227,1.971420407295227,-1.6120080947875977,-1.3113666772842407,0.6862563490867615,0.7577452063560486,-0.19724100828170776,0.6607614159584045,-0.1356835961341858,0.9709624648094177,0.19513703882694244,-0.027268709614872932
74.0,-0.5303783416748047,-1.6710515022277832,2.0360238552093506,-1.8448972702026367,-1.4764821529388428,1.0380733013153076,0.7466143369674683,-0.1879759430885315,0.6664450764656067,0.0009712263708934188,0.9978592395782471,0.06358996033668518,-0.015240573324263096
75.0,-0.5444806814193726,-1.6823420524597168,2.0390071868896484,-1.8017276525497437,-1.4290287494659424,0.8409739136695862,0.7362298965454102,-0.18534840643405914,0.6669934988021851,-0.08769306540489197,0.9916583895683289,0.0940973237156868,-0.008321094326674938
76.0,-0.5554674863815308,-1.7023437023162842,2.064901828765869,-1.851636290550232,-1.466417908668518,1.0119915008544922,0.7215542793273926,-0.19234712421894073,0.666455090045929,0.0004658489488065243,0.9978071451187134,0.06580881774425507,-0.0070632994174957275
77.0,-0.6190453171730042,-1.7326335906982422,2.0798208713531494,-1.742150068283081,-1.319883108139038,0.9496955871582031,0.6902517080307007,-0.19794517755508423,0.6640629768371582,0.00997094064950943,0.9883195757865906,0.1520613580942154,0.0015341138932853937
78.0,-0.5781272053718567,-1.7345296144485474,2.0927555561065674,-1.853971242904663,-1.4540890455245972,0.9881940484046936,0.696931779384613,-0.1932874321937561,0.6665159463882446,-4.415498915477656e-05,0.9975975155830383,0.06927342712879181,0.0006358702084980905
79.0,-0.5933507084846497,-1.7601271867752075,2.1136527061462402,-1.852766990661621,-1.4399487972259521,1.0684462785720825,0.6785926818847656,-0.1909334361553192,0.66663658618927,0.04769438877701759,0.9960836172103882,0.07436414808034897,0.0035606976598501205
80.0,-0.6171804070472717,-1.8107237815856934,2.15588641166687,-1.8672453165054321,-1.4358794689178467,1.2230746746063232,0.6441895961761475,-0.18523600697517395,0.6665793061256409,0.135603666305542,0.9881701469421387,0.07096929848194122,0.00973890908062458
81.0,-0.6307682394981384,-1.8370914459228516,2.1737558841705322,-1.853135108947754,-1.3896188735961914,1.2776964902877808,0.6289923191070557,-0.17602694034576416,0.6669970154762268,0.16970454156398773,0.9809643030166626,0.0930083841085434,0.016090234741568565
82.0,-0.631719708442688,-1.8581355810165405,2.192669153213501,-1.8780653476715088,-1.4361217021942139,0.9336196780204773,0.6144000887870789,-0.17485003173351288,0.6665173768997192,-0.0018048163037747145,0.9976397752761841,0.06224915757775307,0.02892499789595604
83.0,-0.6362412571907043,-1.8861497640609741,2.2129135131835938,-1.8818604946136475,-1.4361982345581055,0.9295128583908081,0.5979811549186707,-0.16610050201416016,0.6665076613426208,-0.0019874388817697763,0.9977037906646729,0.05865700542926788,0.03380458056926727
84.0,-0.7586843371391296,-1.8697923421859741,2.2106049060821533,-1.7459499835968018,-1.0821706056594849,1.2286348342895508,0.59999018907547,-0.19200104475021362,0.6558377742767334,0.21951168775558472,0.9419447779655457,0.2474457174539566,0.05766497179865837
85.0,-0.8111498951911926,-1.9068962335586548,2.250174045562744,-1.7316187620162964,-0.9740475416183472,1.2535550594329834,0.5773158669471741,-0.1900634914636612,0.6503894329071045,0.25864747166633606,0.9164169430732727,0.29393723607063293,0.08296019583940506
86.0,-0.6409125328063965,-1.9277058839797974,2.2423155307769775,-1.8891254663467407,-1.4094305038452148,1.5939425230026245,0.5771681070327759,-0.14885357022285461,0.6667829751968384,0.3247595727443695,0.9423546195030212,0.07621748000383377,0.02626650221645832
87.0,-0.6358882784843445,-1.9564131498336792,2.2609190940856934,-1.8928773403167725,-1.4274632930755615,1.693231225013733,0.5612126588821411,-0.13704563677310944,0.6666256189346313,0.36859285831451416,0.926787793636322,0.06703020632266998,0.026658589020371437
88.0,-0.8159345388412476,-1.9737566709518433,2.304985523223877,-1.8264482021331787,-0.9848209023475647,1.4347175359725952,0.551284909248352,-0.1681399941444397,0.6520606875419617,0.32926952838897705,0.8983200788497925,0.27309784293174744,0.1001010611653328
89.0,-0.9411802887916565,-1.9238678216934204,2.301227569580078,-1.5056195259094238,-0.6387137174606323,1.0375832319259644,0.5475401282310486,-0.19983461499214172,0.6252812743186951,0.2731301188468933,0.8335267901420593,0.45636633038520813,0.14954213798046112
90.0,2.9162938594818115,-1.3746167421340942,-2.3779196739196777,-0.5481749773025513,2.519800901412964,2.063732147216797,0.5784932971000671,-0.21012382209300995,0.6451276540756226,0.21859371662139893,0.8480151295661926,0.4675087630748749,0.12051021307706833
91.0,-0.926909327507019,-1.9199154376983643,2.2764546871185303,-1.4755752086639404,-0.6377711296081543,1.0274778604507446,0.5547834038734436,-0.1977812498807907,0.6397618055343628,0.26481375098228455,0.8352912068367004,0.45930296182632446,0.14561356604099274
92.0,-0.9407324194908142,-1.9832239151000977,2.322301149368286,-1.5683127641677856,-0.6030516028404236,1.1633236408233643,0.537575900554657,-0.1803695261478424,0.6478275656700134,0.306110680103302,0.8206667900085449,0.4520711898803711,0.1686236411333084
93.0,-0.9599189162254333,-2.0888431072235107,2.420072078704834,-1.7998769283294678,-0.5696485042572021,1.4496653079986572,0.5075302124023438,-0.14785268902778625,0.6491883397102356,0.37915778160095215,0.7902544140815735,0.43402060866355896,0.20823965966701508
94.0,-0.9651072025299072,-2.140449285507202,2.4787511825561523,-1.9614732265472412,-0.5685917139053345,1.6329272985458374,0.49185052514076233,-0.12880565226078033,0.645706057548523,0.41982147097587585,0.7698075771331787,0.42208871245384216,0.23018983006477356
95.0,-0.9444328546524048,-2.204585313796997,2.570155143737793,-2.2801883220672607,-0.6119161248207092,1.9831329584121704,0.47029492259025574,-0.09163083136081696,0.6406437754631042,0.48713845014572144,0.7301401495933533,0.3985874354839325,0.26593151688575745
96.0,-0.9022136330604553,-2.2243242263793945,2.625469446182251,-2.5177841186523438,-0.6876834630966187,2.2369766235351562,0.4581749737262726,-0.0633997768163681,0.6351309418678284,0.5333358645439148,0.6977174878120422,0.37997427582740784,0.2904526889324188
97.0,-0.9725701212882996,-2.1661128997802734,2.519944429397583,-2.05365252494812,-0.5771334171295166,1.7243986129760742,0.48074793815612793,-0.11888118088245392,0.6345271468162537,0.4423006772994995,0.7582311034202576,0.41376355290412903,0.24136163294315338
98.0,-0.9586969614028931,-2.029045581817627,2.3743250370025635,-1.664017677307129,-0.5881031155586243,1.2706106901168823,0.5208314061164856,-0.16863302886486053,0.6401033401489258,0.3389454185962677,0.8085435628890991,0.4436110258102417,0.18596391379833221
99.0,-0.9547288417816162,-1.9804246425628662,2.3428072929382324,-1.5847707986831665,-0.6091892719268799,1.1538645029067993,0.5317726135253906,-0.1842525601387024,0.6312878131866455,0.30926433205604553,0.8205286264419556,0.4498259723186493,0.1695433109998703
100.0,-0.9788065552711487,-2.062157392501831,2.4234306812286377,-1.7475976943969727,-0.5817219614982605,1.3510754108428955,0.5059075951576233,-0.16110359132289886,0.6261839866638184,0.36532431840896606,0.7978776693344116,0.4359819293022156,0.19962309300899506
101.0,-0.9849934577941895,-2.1130404472351074,2.4723267555236816,-1.8728225231170654,-0.5732120275497437,1.502673625946045,0.4920005202293396,-0.14349035918712616,0.6257714629173279,0.40074682235717773,0.7811045050621033,0.4260309040546417,0.21857577562332153
102.0,-0.618014395236969,-1.9760897159576416,2.2736709117889404,-1.9029595851898193,-1.4271905422210693,1.8079835176467896,0.5541176199913025,-0.12022052705287933,0.6676928400993347,0.41242966055870056,0.9079973101615906,0.06717006862163544,0.030509930104017258
103.0,-0.6100056171417236,-2.002147674560547,2.290731906890869,-1.9095873832702637,-1.431535005569458,1.9181169271469116,0.5412834882736206,-0.10695800185203552,0.6673385500907898,0.45778197050094604,0.8859859704971313,0.0656740739941597,0.03393327817320824
104.0,-0.5960729718208313,-2.0199661254882812,2.3019819259643555,-1.9156736135482788,-1.4379993677139282,2.014559268951416,0.5332930088043213,-0.0942046195268631,0.6673725843429565,0.4936597943305969,0.8665557503700256,0.0637391060590744,0.036310914903879166
105.0,-0.5861846804618835,-2.042966842651367,2.313991069793701,-1.9083077907562256,-1.4576237201690674,0.984978437423706,0.5200135707855225,-0.08311469852924347,0.6665056943893433,-0.0016967917326837778,0.9978481531143188,0.028742143884301186,0.05890793353319168
106.0,-0.8699283599853516,-2.177072763442993,2.503033399581909,-2.151642322540283,-0.8334476351737976,1.9405136108398438,0.4793194830417633,-0.09551440179347992,0.6409610509872437,0.5001809000968933,0.779735803604126,0.3169909715652466,0.2033417522907257
107.0,-0.6836442351341248,-2.133612632751465,2.4243826866149902,-2.113840341567993,-1.1788822412490845,2.1644446849823,0.4960198402404785,-0.06882858276367188,0.6581054329872131,0.5603887438774109,0.795881986618042,0.1874123364686966,0.1319589763879776
108.0,-0.5669093728065491,-2.0575666427612305,2.3264529705047607,-1.9317039251327515,-1.445629596710205,2.2073493003845215,0.5164403319358826,-0.06766500324010849,0.6667853593826294,0.5619931221008301,0.8235007524490356,0.06403663754463196,0.0437014140188694
109.0,-0.545894205570221,-2.0682642459869385,2.329848289489746,-1.9210035800933838,-1.470771312713623,1.0268094539642334,0.5096250772476196,-0.05637344345450401,0.6665433645248413,-0.0012629462871700525,0.9977710247039795,0.019775360822677612,0.06372229009866714
110.0,-0.5162405371665955,-2.078080415725708,2.3391191959381104,-1.9428428411483765,-1.471753478050232,2.415952682495117,0.5073039531707764,-0.039273083209991455,0.6667283177375793,0.6254624724388123,0.7767135500907898,0.05782925710082054,0.04656803980469704
111.0,-0.4839998781681061,-2.084576368331909,2.3408217430114746,-1.9350926876068115,-1.4953404664993286,1.0897871255874634,0.5027621388435364,-0.02408108487725258,0.6665357351303101,-0.0005446960567496717,0.9978323578834534,0.008326377719640732,0.06527633219957352
112.0,-0.4534071981906891,-2.086810827255249,2.3422365188598633,-1.9369453191757202,-1.5094767808914185,1.1203596591949463,0.5012796521186829,-0.010145443491637707,0.6664851903915405,-0.0002139544958481565,0.9980000853538513,0.003382791532203555,0.06312142312526703
113.0,-0.5186861753463745,-1.7122808694839478,2.0490939617156982,1.0054562091827393,1.399298906326294,-0.6330054402351379,0.49959084391593933,-0.023414023220539093,0.6646932363510132,0.6514986753463745,0.7452555894851685,0.1068544089794159,0.09341158717870712
114.0,-0.7267513871192932,-1.9895275831222534,2.2615041732788086,0.45931872725486755,0.958412230014801,-0.4761751592159271,0.44584447145462036,-0.008757187984883785,0.6251832246780396,0.6124731302261353,0.6309630870819092,0.34169045090675354,0.3316774368286133
115.0,-0.8748902678489685,-1.9172728061676025,2.255586624145508,0.6021338701248169,0.7397858500480652,-0.7915033102035522,0.4515528976917267,-0.049271080642938614,0.6272985935211182,0.5554646849632263,0.6809900403022766,0.36978012323379517,0.30161938071250916
116.0,-0.7683147192001343,-1.9712404012680054,2.2444331645965576,0.5048589110374451,0.8867806792259216,-0.5569389462471008,0.4512167274951935,-0.020940179005265236,0.6360917091369629,0.5945132970809937,0.6469560861587524,0.35158953070640564,0.3230893909931183
117.0,-0.6283174753189087,-2.000762462615967,2.246570110321045,0.416008859872818,1.098407506942749,-0.3406473994255066,0.4490203857421875,0.009000544436275959,0.6324105262756348,0.6383678317070007,0.6050705909729004,0.32730793952941895,0.3453197777271271
118.0,-0.4926888644695282,-1.9946882724761963,2.2313945293426514,0.37690210342407227,1.2934199571609497,-0.1905224323272705,0.45288604497909546,0.032958872616291046,0.6354342699050903,0.670382022857666,0.5722707509994507,0.30666306614875793,0.3592379689216614
119.0,-0.3756796717643738,-1.9732131958007812,2.211555242538452,0.3599044680595398,1.465357780456543,-0.07160752266645432,0.4588613510131836,0.052545130252838135,0.639349102973938,0.6970404386520386,0.5423725843429565,0.28801801800727844,0.3701518177986145
120.0,-0.23241762816905975,-1.9303505420684814,2.196211338043213,0.34707966446876526,1.6755998134613037,0.07344162464141846,0.46459317207336426,0.07999926805496216,0.6331409215927124,0.7291088700294495,0.5044400095939636,0.26316526532173157,0.380374550819397
121.0,-0.35321277379989624,-1.9688618183135986,2.2244653701782227,0.3481328785419464,1.4944390058517456,-0.05255916714668274,0.45556631684303284,0.05881454795598984,0.6281824111938477,0.7016937732696533,0.539128839969635,0.28379061818122864,0.3693627715110779
122.0,-0.4291357100009918,-1.8505982160568237,2.1263275146484375,0.6955264210700989,1.4158967733383179,-0.22201305627822876,0.4732966721057892,0.030653338879346848,0.6506381034851074,0.7251685857772827,0.6180498600006104,0.19690239429473877,0.23102900385856628
123.0,-0.45573556423187256,-1.7645751237869263,2.0733273029327393,0.8881075978279114,1.4201672077178955,-0.36525779962539673,0.48987022042274475,0.009523124434053898,0.6605358719825745,0.7140041589736938,0.6711006164550781,0.1366700828075409,0.14540740847587585
124.0,-0.39022719860076904,-1.669521450996399,2.024799108505249,1.0836390256881714,1.5315171480178833,-1.957492470741272,0.504726767539978,0.016286257654428482,0.6668341159820557,0.0004673508810810745,0.9976350665092468,-0.006817150861024857,0.0683930367231369
125.0,-0.34964340925216675,-1.660710096359253,2.0214579105377197,1.099388837814331,1.550707221031189,-1.9182754755020142,0.5050021409988403,0.03310777246952057,0.6666883230209351,0.0005249652313068509,0.9984193444252014,-0.009461138397455215,0.05539877340197563
126.0,-0.32950907945632935,-1.6714298725128174,2.015841245651245,1.0416805744171143,1.5605279207229614,-0.054903823882341385,0.5112630128860474,0.03926292806863785,0.6669748425483704,0.7935412526130676,0.6014662981033325,0.0557907409965992,0.07360721379518509
127.0,-0.2874639630317688,-1.639913558959961,2.000147819519043,1.0944892168045044,1.5756735801696777,-1.856478214263916,0.5190321803092957,0.05536257103085518,0.6676709651947021,0.0010310045909136534,0.9983128905296326,-0.01873093657195568,0.05495000258088112
128.0,-0.2636415660381317,-1.6359660625457764,2.0012214183807373,1.1067179441452026,1.5804721117019653,-1.8332862854003906,0.5165578126907349,0.06721558421850204,0.6669305562973022,0.0008140565478242934,0.998767614364624,-0.017509417608380318,0.04643519967794418
129.0,-0.24466054141521454,-1.6226086616516113,1.9849648475646973,1.0979865789413452,1.5943926572799683,-1.8142412900924683,0.5284655690193176,0.07147948443889618,0.6679583191871643,0.001258058357052505,0.9984053373336792,-0.024767952039837837,0.05071280151605606
130.0,-0.21939478814601898,-1.6171433925628662,1.9840149879455566,1.1082643270492554,1.5962669849395752,-1.7894032001495361,0.5274229049682617,0.0843033418059349,0.6672317385673523,0.0010023447684943676,0.9987751245498657,-0.02280310168862343,0.04390266537666321
131.0,-0.1673724353313446,-1.6814574003219604,2.008037805557251,0.9018589854240417,1.698930025100708,0.34426987171173096,0.5195740461349487,0.09606856852769852,0.6616239547729492,0.8541721701622009,0.4873518645763397,0.08985766768455505,0.1574917882680893
132.0,-0.19049571454524994,-1.6024378538131714,1.972433090209961,1.1162652969360352,1.602826714515686,-1.760819911956787,0.5343704223632812,0.09662573784589767,0.6672419309616089,0.000912530638743192,0.9989785552024841,-0.023701539263129234,0.03846157342195511
133.0,-0.16615836322307587,-1.588422417640686,1.9611525535583496,1.1239421367645264,1.6068111658096313,-1.7366851568222046,0.5412473678588867,0.10740381479263306,0.667229413986206,0.0008018358494155109,0.9991511702537537,-0.02386920526623726,0.03356438875198364
134.0,-0.14164043962955475,-1.5679000616073608,1.9405648708343506,1.1254284381866455,1.6179227828979492,-1.712290644645691,0.5555014610290527,0.11647887527942657,0.66768479347229,0.0009292586473748088,0.9990618824958801,-0.02843639627099037,0.032647840678691864
135.0,-0.06106237322092056,-1.6754580736160278,2.0067856311798096,0.8132548332214355,1.8575106859207153,0.5570505857467651,0.5237950682640076,0.12563346326351166,0.655918538570404,0.8735201358795166,0.4167090058326721,0.10834117978811264,0.22710859775543213
136.0,-0.074576236307621,-1.8526229858398438,2.1521756649017334,0.3720214366912842,1.9212677478790283,0.2664070129394531,0.48056888580322266,0.11252951622009277,0.6343801021575928,0.7680927515029907,0.4497010111808777,0.2303204983472824,0.39338916540145874
137.0,0.04877059534192085,-1.7553691864013672,2.088343381881714,0.4465067684650421,2.1343185901641846,0.4857041835784912,0.5048938989639282,0.14336270093917847,0.6404834985733032,0.8052409291267395,0.3856161832809448,0.1945461630821228,0.40624991059303284
138.0,0.10420192778110504,-1.6934311389923096,2.0504117012023926,0.509307861328125,2.2342920303344727,0.627005398273468,0.5207477807998657,0.16100864112377167,0.6413886547088623,0.8245753645896912,0.3467228412628174,0.17328491806983948,0.4121057391166687
139.0,0.0006035558762960136,-1.8002431392669678,2.1249427795410156,0.4021710157394409,2.0423972606658936,0.3839668333530426,0.49134689569473267,0.131196066737175,0.6328530311584473,0.7887675762176514,0.41694530844688416,0.21107691526412964,0.39931046962738037
140.0,0.10240618139505386,-1.6998035907745361,2.070629358291626,0.4891670346260071,2.21370792388916,0.6082892417907715,0.5142649412155151,0.1619129478931427,0.6295437812805176,0.8221573829650879,0.3568282127380371,0.17658951878547668,0.40687471628189087
141.0,0.15353572368621826,-1.6228480339050293,2.022247552871704,0.5833301544189453,2.3081655502319336,0.789567768573761,0.5358926057815552,0.18134655058383942,0.6303622722625732,0.8440783619880676,0.30899345874786377,0.15065057575702667,0.4115326702594757
142.0,-0.11929722130298615,-1.5511085987091064,1.9266364574432373,1.1360238790512085,1.6175471544265747,-1.6900544166564941,0.5641854405403137,0.12754930555820465,0.6675791144371033,0.0007117901113815606,0.9992882013320923,-0.026720480993390083,0.026619412004947662
143.0,-0.0957757905125618,-1.5349880456924438,1.9127386808395386,1.1451107263565063,1.616249680519104,-1.6665810346603394,0.572454035282135,0.13988660275936127,0.6673838496208191,0.0005401571979746222,0.99945467710495,-0.02490536868572235,0.021676555275917053
144.0,-0.08650027215480804,-1.514918327331543,1.8920423984527588,1.1507514715194702,1.6201777458190918,-1.6573381423950195,0.5876576900482178,0.14314956963062286,0.6678069829940796,0.0005090289050713181,0.9994650483131409,-0.026443930342793465,0.019239068031311035
145.0,-0.06801734119653702,-1.5007679462432861,1.8749641180038452,1.1436102390289307,1.6494113206863403,-1.638947606086731,0.5991397500038147,0.1485051065683365,0.6677846908569336,0.000974176567979157,0.9988770484924316,-0.04099345952272415,0.023737508803606033
146.0,-0.05815247446298599,-1.4894342422485352,1.867628812789917,1.1624568700790405,1.615917444229126,-1.628986120223999,0.6029555201530457,0.15926578640937805,0.6675066351890564,0.00032134406501427293,0.9996320605278015,-0.023393988609313965,0.01373112853616476
147.0,-0.037339840084314346,-1.4714818000793457,1.8442262411117554,1.147409200668335,1.679063320159912,-1.6083154678344727,0.6192529797554016,0.16132204234600067,0.6674158573150635,0.0012804224388673902,0.9982151985168457,-0.05499786138534546,0.023239759728312492
148.0,-0.04213438555598259,-1.4542866945266724,1.8303066492080688,1.1757255792617798,1.6133263111114502,-1.6129626035690308,0.629296600818634,0.168081596493721,0.667694628238678,0.00018660030036699027,0.9997285604476929,-0.021644828841090202,0.00861867144703865
149.0,0.023274313658475876,-1.4375795125961304,1.8118551969528198,1.1344598531723022,1.8103599548339844,1.3146605491638184,0.6390509605407715,0.17930857837200165,0.6647660136222839,0.9832046031951904,0.13451547920703888,0.016719648614525795,0.12220776081085205
150.0,-0.0295516736805439,-1.4347457885742188,1.8088785409927368,1.1824592351913452,1.612644910812378,-1.6003713607788086,0.6435816884040833,0.1756051778793335,0.6676079630851746,0.00013688944454770535,0.9997559189796448,-0.021122964099049568,0.006479015573859215
151.0,-0.021582894027233124,-1.4065582752227783,1.776710033416748,1.1926246881484985,1.609599232673645,-1.5923949480056763,0.6662805676460266,0.1806771457195282,0.6676315665245056,6.994329305598512e-05,0.9998037815093994,-0.019482115283608437,0.0035894233733415604
152.0,-0.019977904856204987,-1.3911535739898682,1.7586067914962769,1.1983157396316528,1.6088727712631226,-1.59078848361969,0.6793166399002075,0.18159204721450806,0.6676632761955261,4.0699193050386384e-05,0.9998156428337097,-0.019083412364125252,0.0021323065739125013
153.0,-0.008455250412225723,-1.382946252822876,1.751166582107544,1.2009716033935547,1.6871302127838135,-1.579309105873108,0.6833006739616394,0.17731906473636627,0.667323648929596,1.7917634977493435e-05,0.9983084797859192,-0.058138854801654816,0.00030766561394557357
154.0,-0.030734479427337646,-1.4130052328109741,1.783732533454895,1.1889386177062988,1.6365067958831787,-1.6015959978103638,0.6626258492469788,0.1705864816904068,0.6678575277328491,0.00015022294246591628,0.9994449615478516,-0.03300436586141586,0.004549081902951002
155.0,0.2267211377620697,-1.34568452835083,1.8378255367279053,1.0710166692733765,2.4505555629730225,1.560883641242981,0.6403312087059021,0.23197118937969208,0.6326751708984375,0.8986626267433167,0.10518807917833328,0.04950658977031708,0.4229539632797241
156.0,0.22447709739208221,-1.3079559803009033,1.8087352514266968,1.1563223600387573,2.4468650817871094,1.682946801185608,0.6601516604423523,0.2353137880563736,0.6341595649719238,0.9022904634475708,0.06905580312013626,0.03247496858239174,0.42432138323783875
157.0,0.21647198498249054,-1.282667636871338,1.7811901569366455,1.2330622673034668,2.4453158378601074,1.7791227102279663,0.6775071024894714,0.23358573019504547,0.6421710252761841,0.9028434753417969,0.037684377282857895,0.017862161621451378,0.4279421865940094
158.0,0.21994373202323914,-1.3291975259780884,1.8130533695220947,1.1342172622680664,2.4595117568969727,1.631669521331787,0.6532854437828064,0.2292763888835907,0.6446413397789001,0.8989740014076233,0.08184418082237244,0.039012786000967026,0.42851522564888
159.0,0.2219485193490982,-1.3712348937988281,1.8448786735534668,1.0380512475967407,2.460519790649414,1.4947808980941772,0.6318812966346741,0.22575898468494415,0.6424179077148438,0.8941685557365417,0.12135224789381027,0.057958025485277176,0.42705631256103516
160.0,0.2210601270198822,-1.4181090593338013,1.885570764541626,0.9268642067909241,2.4454996585845947,1.342458963394165,0.608433187007904,0.22139239311218262,0.6345329284667969,0.8879845142364502,0.16467100381851196,0.0782908946275711,0.4221818447113037
161.0,0.21188557147979736,-1.468368411064148,1.9185172319412231,0.832088828086853,2.428457260131836,1.1967830657958984,0.5886591076850891,0.2128582000732422,0.6346221566200256,0.8789242506027222,0.20266295969486237,0.09701087325811386,0.42072412371635437
162.0,0.189838707447052,-1.5393201112747192,1.9600061178207397,0.7155032157897949,2.3912770748138428,1.0053080320358276,0.5648331642150879,0.19828006625175476,0.6377761960029602,0.8640621900558472,0.2502730190753937,0.12151195108890533,0.4195173680782318
163.0,0.16758126020431519,-1.5883342027664185,1.9853451251983643,0.6464353799819946,2.3557167053222656,0.8816038966178894,0.5508009791374207,0.18642975389957428,0.6419100165367126,0.8528381586074829,0.2798819839954376,0.1374581754207611,0.41885364055633545
164.0,0.2086951583623886,-1.459104299545288,1.8974255323410034,0.8708620071411133,2.444868326187134,1.2349143028259277,0.5968769788742065,0.21089904010295868,0.6468061804771423,0.880023181438446,0.18840457499027252,0.0912671610713005,0.4263017773628235
165.0,0.21234863996505737,-1.3846876621246338,1.833968997001648,1.0457252264022827,2.4759514331817627,1.4745488166809082,0.6325522661209106,0.21784739196300507,0.6598487496376038,0.8905468583106995,0.12174450606107712,0.05936639755964279,0.43425825238227844
166.0,0.19817660748958588,-1.4829920530319214,1.8993252515792847,0.8451533317565918,2.444702386856079,1.175950527191162,0.5920278429985046,0.20321336388587952,0.6574594378471375,0.8752115368843079,0.1992318332195282,0.097841776907444,0.42981207370758057
167.0,0.1802174299955368,-1.5505917072296143,1.9499366283416748,0.7171517610549927,2.395894765853882,0.9840897917747498,0.5662863850593567,0.19226589798927307,0.6508172154426575,0.8615280389785767,0.2502037286758423,0.12320967763662338,0.4242486357688904
168.0,0.13987009227275848,-1.6365619897842407,2.0065224170684814,0.5871264934539795,2.3118176460266113,0.7640799880027771,0.5391270518302917,0.1736994981765747,0.6481471061706543,0.8407734036445618,0.30769121646881104,0.15308859944343567,0.4183181822299957
169.0,0.0014434335753321648,-1.7967067956924438,2.100325345993042,0.4207640588283539,2.0613179206848145,0.3949398696422577,0.49846869707107544,0.12903107702732086,0.6490388512611389,0.7909905910491943,0.4081685543060303,0.20900438725948334,0.4050300419330597
170.0,0.060353633016347885,-1.739067554473877,2.056981325149536,0.47811824083328247,2.1752209663391113,0.5259618759155273,0.5150145292282104,0.14464052021503448,0.656180202960968,0.8113964200019836,0.368275910615921,0.18758951127529144,0.4133026897907257
171.0,-0.05006919801235199,-1.8331249952316284,2.109527111053467,0.40405333042144775,1.9828745126724243,0.3134922683238983,0.49352705478668213,0.1146441102027893,0.6571776270866394,0.7773372530937195,0.428937703371048,0.22232380509376526,0.40290361642837524
172.0,-0.16747799515724182,-1.9012463092803955,2.162757396697998,0.3633553087711334,1.782981514930725,0.15074701607227325,0.47512638568878174,0.09057043492794037,0.6458258628845215,0.7454851865768433,0.47977763414382935,0.2503916621208191,0.3890620768070221
173.0,-0.28140023350715637,-1.946481704711914,2.1843340396881104,0.3595499098300934,1.6080862283706665,0.025358153507113457,0.46710434556007385,0.06821518391370773,0.648045539855957,0.7181761860847473,0.5150493383407593,0.27269572019577026,0.38024234771728516
174.0,-0.40633538365364075,-1.9790232181549072,2.1996006965637207,0.3725707232952118,1.421543836593628,-0.09990793466567993,0.4617502689361572,0.04511269927024841,0.6506516337394714,0.6895872354507446,0.5484973788261414,0.29436951875686646,0.370090126991272
175.0,-0.26821890473365784,-1.9407219886779785,2.165013074874878,0.36886274814605713,1.6330598592758179,0.04192223772406578,0.4725267291069031,0.0686262920498848,0.6597433686256409,0.7214961647987366,0.5083218812942505,0.27078959345817566,0.3843502700328827
176.0,-0.16650249063968658,-1.8983334302902222,2.1333212852478027,0.38088199496269226,1.7974973917007446,0.15774235129356384,0.4832374155521393,0.0874391496181488,0.6659242510795593,0.7468733191490173,0.4728892743587494,0.2500874400138855,0.39498379826545715
177.0,-0.0595342181622982,-1.837484359741211,2.0916459560394287,0.4134252071380615,1.978871464729309,0.30319902300834656,0.49816998839378357,0.11032189428806305,0.6718243956565857,0.7754022479057312,0.42764464020729065,0.22438164055347443,0.40684714913368225
178.0,0.08529341220855713,-1.7070099115371704,2.0208170413970947,0.523557186126709,2.2372610569000244,0.6013018488883972,0.5279524922370911,0.15113574266433716,0.6686418056488037,0.8213173747062683,0.342629075050354,0.17561034858226776,0.42095619440078735
179.0,0.12443708628416061,-1.6536636352539062,1.9981762170791626,0.5817211270332336,2.304011821746826,0.7274742722511292,0.5396500825881958,0.16599565744400024,0.661871075630188,0.8366459012031555,0.3114440143108368,0.1571933627128601,0.42227548360824585
180.0,0.17368674278259277,-1.5540478229522705,1.9353265762329102,0.7299723029136658,2.4058661460876465,0.982183575630188,0.570061445236206,0.1879536509513855,0.6635568141937256,0.8605496287345886,0.24536506831645966,0.12239503115415573,0.4292665123939514
181.0,0.12814050912857056,-1.6416752338409424,1.976042628288269,0.6097301244735718,2.327970266342163,0.7590386867523193,0.5472708344459534,0.16631528735160828,0.6727400422096252,0.8397077322006226,0.2987058758735657,0.15199284255504608,0.4272749722003937
182.0,0.02626080811023712,-1.7677932977676392,2.041949510574341,0.47216832637786865,2.138869047164917,0.4616663455963135,0.5168301463127136,0.131601482629776,0.6790797114372253,0.8019278645515442,0.37824124097824097,0.1972716599702835,0.4182453751564026
183.0,0.08801652491092682,-1.6984606981277466,1.997401475906372,0.5462346076965332,2.260863780975342,0.6224654912948608,0.5352798700332642,0.15040919184684753,0.6819455027580261,0.8237619400024414,0.33148154616355896,0.17169630527496338,0.4266810119152069
184.0,0.07390078157186508,-1.5387742519378662,1.8434861898422241,0.9801009893417358,2.1698200702667236,1.0900927782058716,0.5957782864570618,0.1584208607673645,0.7120374441146851,0.9211106300354004,0.21846428513526917,0.0743606686592102,0.31352677941322327
185.0,0.042596012353897095,-1.5792516469955444,1.8641159534454346,0.938085675239563,2.1230826377868652,0.9660496711730957,0.5814180374145508,0.1449388861656189,0.7156909108161926,0.9134001135826111,0.2566523551940918,0.08546986430883408,0.30417877435684204
186.0,-0.02977801486849785,-1.6641080379486084,1.91015625,0.8407753705978394,2.0225722789764404,0.6930574178695679,0.5537580847740173,0.1172027587890625,0.7200594544410706,0.884501576423645,0.3403400480747223,0.11459382623434067,0.29781511425971985
187.0,-0.035877227783203125,-1.8180396556854248,2.062321186065674,0.4369940459728241,2.0320563316345215,0.3463134467601776,0.5075346827507019,0.11419311910867691,0.6850848197937012,0.7831992506980896,0.4105882942676544,0.21679654717445374,0.41354048252105713
188.0,-0.12619952857494354,-1.8761001825332642,2.1010212898254395,0.40023326873779297,1.8727200031280518,0.21140196919441223,0.4932016134262085,0.09378687292337418,0.6805285811424255,0.7576843500137329,0.4530893564224243,0.24106688797473907,0.40312710404396057
189.0,-0.22180308401584625,-1.9216811656951904,2.1307249069213867,0.38351166248321533,1.7131037712097168,0.09519867599010468,0.48255085945129395,0.07479240000247955,0.6771095395088196,0.7326802015304565,0.48948776721954346,0.26267075538635254,0.3931736648082733
190.0,-0.36750391125679016,-1.9668755531311035,2.1589255332946777,0.3867708742618561,1.4831346273422241,-0.057149890810251236,0.4730072617530823,0.04775198921561241,0.6750413179397583,0.6975736618041992,0.5346583127975464,0.29017287492752075,0.37859126925468445
191.0,-0.489053338766098,-1.9827320575714111,2.1584839820861816,0.42130258679389954,1.2916237115859985,-0.1851855367422104,0.4723241329193115,0.02449723146855831,0.6836488246917725,0.666866660118103,0.570534884929657,0.3116229474544525,0.36423882842063904
192.0,-0.7566015720367432,-1.9456554651260376,2.1630685329437256,0.5700240135192871,0.85028475522995,-0.5850881934165955,0.47319290041923523,-0.030285589396953583,0.6866889595985413,0.5750854015350342,0.6599258184432983,0.36451515555381775,0.3176529109477997
193.0,-0.8738402724266052,-1.8518012762069702,2.1597647666931152,0.7432836294174194,0.6604154706001282,-0.9439831376075745,0.48126521706581116,-0.07194027304649353,0.6823525428771973,0.5092971324920654,0.7119443416595459,0.39322274923324585,0.28129616379737854
194.0,-0.684440016746521,-1.9729290008544922,2.1753199100494385,0.5046342611312866,0.9778103828430176,-0.44544994831085205,0.46846768260002136,-0.011557846330106258,0.678826093673706,0.607442319393158,0.632733941078186,0.34645766019821167,0.33260899782180786
195.0,-0.8261377811431885,-1.9072496891021729,2.1718451976776123,0.641933023929596,0.7456051707267761,-0.7535907626152039,0.47368714213371277,-0.050095245242118835,0.6787729859352112,0.5451340079307556,0.68550044298172,0.3777361214160919,0.30038899183273315
196.0,-0.7719250321388245,-1.9478161334991455,2.1851446628570557,0.5633149147033691,0.8414859175682068,-0.6019405126571655,0.4675082266330719,-0.031086720526218414,0.672939658164978,0.5756572484970093,0.6604759693145752,0.363409161567688,0.31673991680145264
197.0,-0.5640541315078735,-1.9887690544128418,2.1794850826263428,0.43670541048049927,1.1767438650131226,-0.2715412676334381,0.466531902551651,0.012809422798454762,0.6733583807945251,0.6480746269226074,0.592480480670929,0.3228665590286255,0.35316208004951477
198.0,-0.4769613444805145,-1.9875825643539429,2.1877381801605225,0.3966462314128876,1.3164515495300293,-0.1693209558725357,0.4647352695465088,0.029797740280628204,0.6639369130134583,0.6724622249603271,0.5654682517051697,0.30733823776245117,0.3654906451702118
199.0,-0.6822852492332458,-1.9796438217163086,2.1949381828308105,0.4872553050518036,0.990841805934906,-0.4343987703323364,0.46316295862197876,-0.0083770165219903,0.6665998101234436,0.6121375560760498,0.6289217472076416,0.3434808552265167,0.33431434631347656
200.0,-0.8273634314537048,-1.9237371683120728,2.203188896179199,0.6058404445648193,0.7681841254234314,-0.7213131785392761,0.4645329713821411,-0.04432089626789093,0.6603301763534546,0.5569183230400085,0.6773301959037781,0.37129899859428406,0.30529162287712097
201.0,-0.5829641222953796,-1.9946097135543823,2.2070672512054443,0.42402976751327515,1.1560299396514893,-0.2894729673862457,0.4593696892261505,0.012332734651863575,0.6563378572463989,0.6462357640266418,0.5952882170677185,0.32351911067962646,0.3512073755264282
202.0,-0.720237672328949,-1.9766443967819214,2.21498966217041,0.49581629037857056,0.9389073252677917,-0.4897322952747345,0.4583863615989685,-0.013562796637415886,0.6545572280883789,0.6023110151290894,0.638375461101532,0.3485977351665497,0.32890403270721436
203.0,-0.6686505675315857,-1.9929969310760498,2.230762243270874,0.4495900273323059,1.0299324989318848,-0.3998887538909912,0.45330673456192017,-0.0007289049099199474,0.6439198851585388,0.6237735152244568,0.6187662482261658,0.3363012671470642,0.3390227258205414
204.0,-0.8031355738639832,-1.950125813484192,2.2264373302459717,0.5522706508636475,0.8230140805244446,-0.6379978656768799,0.456886351108551,-0.03286103904247284,0.6471772193908691,0.5763341188430786,0.6618255972862244,0.361533522605896,0.31483232975006104
205.0,-0.872520923614502,-1.8983874320983887,2.222066879272461,0.6445589065551758,0.7155178189277649,-0.8317068219184875,0.461500346660614,-0.056041061878204346,0.6470115184783936,0.541631817817688,0.6905605792999268,0.3771614730358124,0.2958214581012726
206.0,-0.9462925791740417,-2.1896262168884277,2.5386979579925537,-2.197112798690796,-0.5933356285095215,1.90143620967865,0.4782407879829407,-0.10098840296268463,0.6498369574546814,0.4690513014793396,0.7408643960952759,0.4061785936355591,0.25715717673301697
207.0,-0.8836703300476074,-2.2104036808013916,2.582397222518921,-2.4844248294830322,-0.6761296987533569,2.22782301902771,0.47083917260169983,-0.06721960008144379,0.6624337434768677,0.5219319462776184,0.7040537595748901,0.38684922456741333,0.28678059577941895
208.0,-0.920499324798584,-2.1985843181610107,2.5485007762908936,-2.300828695297241,-0.6164124011993408,2.0261428356170654,0.47769129276275635,-0.08802799880504608,0.6603981256484985,0.48681554198265076,0.7289953231811523,0.40019503235816956,0.2672460973262787
209.0,-0.9508660435676575,-2.140584707260132,2.4647376537323,-1.9705528020858765,-0.5663076639175415,1.6603171825408936,0.496648371219635,-0.12568393349647522,0.6595054864883423,0.419566810131073,0.7690625786781311,0.42329370975494385,0.23093046247959137
210.0,-0.9024365544319153,-2.197333574295044,2.5421576499938965,-2.3418772220611572,-0.6277375817298889,2.0820908546447754,0.48065075278282166,-0.0828620195388794,0.6716020703315735,0.4924297034740448,0.7244957089424133,0.3988897502422333,0.2711198329925537
211.0,-0.9307783246040344,-2.1750800609588623,2.5028772354125977,-2.151540994644165,-0.5846232771873474,1.8713676929473877,0.48878419399261475,-0.10444002598524094,0.6684568524360657,0.45590782165527344,0.7478702664375305,0.412011981010437,0.25116583704948425
212.0,-0.9385624527931213,-2.135852336883545,2.4462406635284424,-1.9613350629806519,-0.5631087422370911,1.6655008792877197,0.5024210214614868,-0.12493773549795151,0.6723945140838623,0.41540780663490295,0.7703819274902344,0.4257323741912842,0.22956478595733643
213.0,-0.9410726428031921,-2.08951735496521,2.396721839904785,-1.7955012321472168,-0.5636945962905884,1.4732850790023804,0.5147295594215393,-0.1436043530702591,0.6692606210708618,0.37642067670822144,0.7902882695198059,0.4364944100379944,0.2079058438539505
214.0,-0.9386795163154602,-2.043768882751465,2.3554670810699463,-1.6766011714935303,-0.5749131441116333,1.3268909454345703,0.5264335870742798,-0.1594652533531189,0.6654956340789795,0.3436683714389801,0.8050034046173096,0.44475775957107544,0.18987391889095306
215.0,-0.9233354926109314,-1.9975789785385132,2.303168296813965,-1.5684014558792114,-0.5898070931434631,1.205224633216858,0.5424123406410217,-0.17144134640693665,0.6716737747192383,0.3094137907028198,0.8180940747261047,0.4534074068069458,0.1714845448732376
216.0,-0.8860267400741577,-1.8888466358184814,2.198436737060547,-1.3737837076187134,-0.648430347442627,0.9626144766807556,0.5789392590522766,-0.19675083458423615,0.6742795705795288,0.23049704730510712,0.8431556224822998,0.46856364607810974,0.12809324264526367
217.0,2.9178805351257324,-1.3759028911590576,-2.320772647857666,-0.6951147317886353,2.551213026046753,1.9510560035705566,0.598736584186554,-0.21090425550937653,0.6666284203529358,0.18728044629096985,0.8538630604743958,0.4743616282939911,0.10404321551322937
218.0,2.9550232887268066,-1.33713698387146,-2.4086976051330566,-0.38532334566116333,2.4540963172912598,2.275303602218628,0.5616382360458374,-0.1892123520374298,0.6664975881576538,0.2627362310886383,0.8343660831451416,0.46219122409820557,0.14554090797901154
219.0,2.98598575592041,-1.316067099571228,-2.4583001136779785,-0.23610050976276398,2.370774269104004,2.438060998916626,0.5406818389892578,-0.17623838782310486,0.6603099703788757,0.3065697252750397,0.8197711706161499,0.4530794024467468,0.16943807899951935
220.0,2.9279322624206543,-1.3619778156280518,-2.3652148246765137,-0.5508083701133728,2.5168817043304443,2.0903499126434326,0.5810969471931458,-0.20368888974189758,0.662001371383667,0.21993780136108398,0.8466994762420654,0.4689246416091919,0.12180738896131516
221.0,2.9761297702789307,-1.3431950807571411,-2.208157777786255,-0.9577720165252686,2.401873826980591,1.8429087400436401,0.6276660561561584,-0.19304382801055908,0.7160511612892151,0.15757064521312714,0.8973700404167175,0.40597638487815857,0.07128604501485825
222.0,3.0167226791381836,-1.3914926052093506,-2.0749316215515137,-1.2546855211257935,2.2651004791259766,1.5571672916412354,0.6769694685935974,-0.18804888427257538,0.7319523692131042,0.053756263107061386,0.9387998580932617,0.3396862745285034,0.01945064403116703
223.0,3.1072161197662354,-1.3764519691467285,-2.031891107559204,-1.2983253002166748,2.016967296600342,1.584052562713623,0.6915177702903748,-0.15827813744544983,0.7517070174217224,0.022591285407543182,0.9749540090560913,0.22119693458080292,0.005125497002154589
224.0,3.093557596206665,-1.339254379272461,-2.0856456756591797,-1.2053605318069458,2.0562796592712402,1.745397686958313,0.6648302674293518,-0.16110678017139435,0.7486586570739746,0.09793422371149063,0.9649575352668762,0.24220161139965057,0.02458121068775654
225.0,-0.5152155160903931,-1.429746150970459,1.6901485919952393,1.3876701593399048,1.3823798894882202,-1.962796926498413,0.6830666065216064,-0.12257290631532669,0.7633023858070374,0.06487661600112915,0.99271160364151,0.10134521871805191,0.006623207591474056
226.0,-0.5162501335144043,-1.4608824253082275,1.7162096500396729,1.357377052307129,1.395279884338379,-1.806473970413208,0.6639847755432129,-0.11477193236351013,0.763934314250946,0.1410762369632721,0.9858922362327576,0.08916953206062317,0.012759712524712086
227.0,-0.5891309380531311,-1.4989118576049805,1.7730613946914673,1.3383469581604004,1.257839560508728,-1.7055002450942993,0.6353674530982971,-0.1257239580154419,0.7587573528289795,0.22562848031520844,0.9614530801773071,0.15300515294075012,0.03590640053153038
228.0,-0.47669970989227295,-1.4776558876037598,1.7218217849731445,1.3327747583389282,1.476129174232483,-2.049443483352661,0.6560341119766235,-0.09615545719861984,0.765775203704834,-0.0008272537379525602,0.9988750219345093,0.04343026131391525,0.019026435911655426
229.0,-0.4275646507740021,-1.472476840019226,1.7111088037490845,1.32484769821167,1.541698694229126,-1.9984740018844604,0.6625866293907166,-0.0761076882481575,0.7664955258369446,-0.00010974489123327658,0.9998875856399536,0.011721228249371052,0.009361864998936653
230.0,-0.396313339471817,-1.4690206050872803,1.7064186334609985,1.3228769302368164,1.5537066459655762,-1.9671151638031006,0.6673168540000916,-0.05849480256438255,0.7665228843688965,-4.770013765664771e-05,0.9999497532844543,0.005851650610566139,0.008151160553097725
231.0,-0.38902270793914795,-1.4868525266647339,1.7249754667282104,1.3161985874176025,1.5505768060684204,-1.9597952365875244,0.6544939875602722,-0.04768247902393341,0.7665079236030579,-7.137347711250186e-05,0.9999150633811951,0.00622987374663353,0.011455677449703217
232.0,-0.36334192752838135,-1.473298192024231,1.710437536239624,1.3197435140609741,1.5590955018997192,-1.9341082572937012,0.6656944155693054,-0.036141932010650635,0.7665269374847412,-2.5711869966471568e-05,0.9999586939811707,0.0029960782267153263,0.008581486530601978
233.0,-0.3543848991394043,-1.4518661499023438,1.6876626014709473,1.3278440237045288,1.5650962591171265,-1.925173282623291,0.6821215748786926,-0.03713336959481239,0.7665404081344604,-6.218685939529678e-06,0.9999896287918091,0.0014313627034425735,0.004344546236097813
234.0,-0.33991798758506775,-1.4690136909484863,1.7056949138641357,1.3205485343933105,1.5635745525360107,-1.9106826782226562,0.6696153283119202,-0.022425105795264244,0.7665320038795471,-8.68377355800476e-06,0.999970555305481,0.0011427347781136632,0.007598892319947481
235.0,-0.3498466908931732,-1.489093542098999,1.7265819311141968,1.3131108283996582,1.5586860179901123,-1.9205721616744995,0.6542742252349854,-0.022765416651964188,0.7665145397186279,-2.5752404326340184e-05,0.9999306797981262,0.002227227669209242,0.011561737395823002
236.0,-0.35039612650871277,-1.5142680406570435,1.7519495487213135,1.3039079904556274,1.554856777191162,-1.9210410118103027,0.6354390382766724,-0.015616635791957378,0.7664841413497925,-4.069221540703438e-05,0.9998616576194763,0.0024732949677854776,0.01645035669207573
237.0,-0.3730790615081787,-1.5073167085647583,1.7454352378845215,1.3077479600906372,1.5509860515594482,-1.9437708854675293,0.6400072574615479,-0.03137441352009773,0.7664892673492432,-7.123260729713365e-05,0.9998732805252075,0.004680747166275978,0.015216284431517124
238.0,-0.39555925130844116,-1.5048247575759888,1.7434844970703125,1.3103954792022705,1.5452303886413574,-1.9663052558898926,0.6409093737602234,-0.045529287308454514,0.7664836049079895,-0.00011377938790246844,0.9998593330383301,0.00760698365047574,0.014955123886466026
239.0,-0.3970366418361664,-1.5261659622192383,1.7648710012435913,1.3036571741104126,1.5402424335479736,-1.967725396156311,0.6251688003540039,-0.03907027840614319,0.7664499282836914,-0.00016339391004294157,0.999782383441925,0.008590888231992722,0.019015304744243622
240.0,-0.42930200695991516,-1.5054651498794556,1.7454169988632202,1.3140997886657715,1.5324814319610596,-2.0002119541168213,0.6384076476097107,-0.06468787044286728,0.7664488554000854,-0.00021718419156968594,0.9997814893722534,0.013932228088378906,0.015585211105644703
241.0,-0.4560913145542145,-1.5322250127792358,1.7720240354537964,1.3010176420211792,1.4964549541473389,-2.0273709297180176,0.620100736618042,-0.0675647109746933,0.7660075426101685,-0.0007984850672073662,0.9991968274116516,0.02675514481961727,0.02982020005583763
242.0,-0.424798846244812,-1.537248969078064,1.776737093925476,1.3033217191696167,1.5285321474075317,-1.9955825805664062,0.6157002449035645,-0.050743766129016876,0.7664039134979248,-0.000289402058115229,0.9996788501739502,0.013485068455338478,0.021454032510519028
243.0,-0.39743170142173767,-1.5447511672973633,1.7828490734100342,1.2975401878356934,1.5380967855453491,-1.968026041984558,0.6116021275520325,-0.03327000141143799,0.7664185762405396,-0.00018643825023900717,0.9997118711471558,0.008271980099380016,0.022532032802700996
244.0,-0.3680335581302643,-1.5361626148223877,1.7736854553222656,1.2974001169204712,1.5485645532608032,-1.9385936260223389,0.6188395023345947,-0.01952425390481949,0.7664470672607422,-8.127710316330194e-05,0.9997773766517639,0.00391954742372036,0.020731735974550247
245.0,-0.35933730006217957,-1.555031418800354,1.7904655933380127,1.2870867252349854,1.561322569847107,-1.9297083616256714,0.6052750945091248,-0.011094200424849987,0.7664119005203247,9.825835149968043e-05,0.9996975064277649,-0.004049043171107769,0.02425971068441868
246.0,-0.2816242277622223,-1.5623316764831543,1.7932326793670654,1.2522963285446167,1.6885350942611694,0.9288033843040466,0.5996885299682617,0.016876498237252235,0.7649218440055847,0.9816262125968933,0.17619448900222778,0.012940932996571064,0.07209736108779907
247.0,-0.24595291912555695,-1.542380452156067,1.777114748954773,1.2481456995010376,1.7386153936386108,1.0852327346801758,0.612852931022644,0.02681604214012623,0.7629358768463135,0.9888232946395874,0.11532681435346603,0.010946139693260193,0.09385326504707336
248.0,-0.29285943508148193,-1.5320184230804443,1.764278769493103,1.2719955444335938,1.6548373699188232,-1.864488959312439,0.622831404209137,0.008608361706137657,0.7659142017364502,0.0009813852375373244,0.9985648393630981,-0.04980006068944931,0.019678227603435516
249.0,-0.251131534576416,-1.512116551399231,1.7463667392730713,1.2660768032073975,1.7157814502716064,1.116341471672058,0.6364336013793945,0.021218841895461082,0.7641565203666687,0.9918671250343323,0.09861895442008972,0.007960759103298187,0.08006589859724045
250.0,-0.1910582035779953,-1.4928621053695679,1.7354768514633179,1.2540358304977417,1.8094336986541748,1.2663183212280273,0.6465533971786499,0.042521312832832336,0.7593035101890564,0.9908627867698669,0.051832932978868484,0.0065046739764511585,0.12434641271829605
251.0,-0.18815813958644867,-1.5144448280334473,1.7590019702911377,1.2438966035842896,1.811166763305664,1.237090826034546,0.6291077136993408,0.04742956906557083,0.7580356001853943,0.9896784424781799,0.06720199435949326,0.008574857376515865,0.1262812316417694
252.0,-0.1934928447008133,-1.5328752994537354,1.7766144275665283,1.2364375591278076,1.8107106685638428,1.2055429220199585,0.6152592897415161,0.046903811395168304,0.7581394910812378,0.9886045455932617,0.07967059314250946,0.010259952396154404,0.12731215357780457
253.0,-0.19535982608795166,-1.5702941417694092,1.806244969367981,1.1899473667144775,1.8079339265823364,1.01497220993042,0.594050407409668,0.05039345845580101,0.7565417289733887,0.9758670926094055,0.16910859942436218,0.02358880639076233,0.13612282276153564
254.0,-0.16560164093971252,-1.5138053894042969,1.7644587755203247,1.242632269859314,1.8178317546844482,1.2632595300674438,0.6263908743858337,0.06084343418478966,0.7546543478965759,0.989478588104248,0.06555337458848953,0.008526034653186798,0.12869404256343842
255.0,-0.1373312771320343,-1.5043854713439941,1.762434959411621,1.2453911304473877,1.8258763551712036,1.3095593452453613,0.6293033361434937,0.07663648575544357,0.7507486939430237,0.9896788001060486,0.05710095912218094,0.00757082412019372,0.13121819496154785
256.0,-0.11687814444303513,-1.5256004333496094,1.7843443155288696,1.2124627828598022,1.8469313383102417,1.2195048332214355,0.6140806078910828,0.08792233467102051,0.7474125027656555,0.9832700490951538,0.10887875407934189,0.0160721093416214,0.14514516294002533
257.0,-0.09256457537412643,-1.6026667356491089,1.8439843654632568,1.0453792810440063,1.9120196104049683,0.8533425331115723,0.5793335437774658,0.09622776508331299,0.7394897937774658,0.9357123374938965,0.2769986689090729,0.06200374662876129,0.2094510793685913
258.0,-0.16597296297550201,-1.6104859113693237,1.8374181985855103,1.092712640762329,1.8333051204681396,0.7910860180854797,0.5774609446525574,0.06646841764450073,0.7497432231903076,0.9425941705703735,0.2814925014972687,0.05140981450676918,0.17214880883693695
259.0,-0.2124832719564438,-1.6923466920852661,1.890305757522583,0.9500784873962402,1.7759695053100586,0.4252326786518097,0.5505672097206116,0.05468527600169182,0.7455061674118042,0.8783242702484131,0.4182857275009155,0.09952857345342636,0.20899197459220886
260.0,-0.263541579246521,-1.8529132604599,2.027320623397827,0.6151198148727417,1.6705456972122192,0.10007443279027939,0.504720151424408,0.05609042942523956,0.7165886759757996,0.7711100578308105,0.5085614919662476,0.21091243624687195,0.31979742646217346
261.0,-0.15197306871414185,-1.7277488708496094,1.9316993951797485,0.8221902847290039,1.8476780652999878,0.42389461398124695,0.5375659465789795,0.07834244519472122,0.7306297421455383,0.8560241460800171,0.4225960075855255,0.13179007172584534,0.26695823669433594
262.0,-0.09313936531543732,-1.6969075202941895,1.9195927381515503,0.8366643786430359,1.9302394390106201,0.55983567237854,0.5453968644142151,0.09641791135072708,0.7265975475311279,0.8734394311904907,0.38112667202949524,0.12120480835437775,0.27776873111724854
263.0,-0.18948562443256378,-1.905704379081726,2.104255199432373,0.3969443440437317,1.7720280885696411,0.13460606336593628,0.4905616044998169,0.079177126288414,0.689989447593689,0.7411313652992249,0.4748940169811249,0.2560271918773651,0.39956238865852356
264.0,-0.313555508852005,-1.9503326416015625,2.131270408630371,0.3929221034049988,1.5700147151947021,-0.000505229108966887,0.481099009513855,0.0554317943751812,0.6882778406143188,0.7101762294769287,0.5168061256408691,0.2813054621219635,0.38655972480773926
265.0,-0.48289692401885986,-1.9784324169158936,2.1405820846557617,0.43224427103996277,1.2969017028808594,-0.18083259463310242,0.4769573211669922,0.02400703728199005,0.6948604583740234,0.6667433381080627,0.5701048970222473,0.3119642436504364,0.36484524607658386
266.0,-0.6303794980049133,-1.975245475769043,2.1493098735809326,0.4927820563316345,1.0566773414611816,-0.3693253993988037,0.4746345579624176,-0.0035828021354973316,0.6942790746688843,0.6224141716957092,0.6179624199867249,0.33842796087265015,0.34086599946022034
267.0,-0.8074278235435486,-1.9082826375961304,2.1480414867401123,0.6438982486724854,0.7575355768203735,-0.724708616733551,0.47963106632232666,-0.04836130142211914,0.6936190724372864,0.5460225939750671,0.6837091445922852,0.37831243872642517,0.3021272122859955
268.0,-0.6773107051849365,-1.911198616027832,2.0998170375823975,0.6552729606628418,0.985041081905365,-0.5561532974243164,0.4867624342441559,-0.024064283818006516,0.7102641463279724,0.6018714308738708,0.6701374650001526,0.32315561175346375,0.29023614525794983
269.0,-0.4654618501663208,-1.8590985536575317,2.0183749198913574,0.7263060212135315,1.3515821695327759,-0.26004287600517273,0.5041456818580627,0.009261241182684898,0.7297248840332031,0.7032178044319153,0.6191621422767639,0.23093315958976746,0.26228395104408264
270.0,-0.29208093881607056,-1.6653807163238525,1.861126184463501,1.05681312084198,1.6628321409225464,0.27206337451934814,0.5614877939224243,0.026252834126353264,0.7569405436515808,0.8675171732902527,0.4693593382835388,0.07835842669010162,0.14482994377613068
271.0,-0.41591376066207886,-1.7251147031784058,1.9067038297653198,0.9929951429367065,1.4547996520996094,-0.269909143447876,0.5425168871879578,-0.0003637443296611309,0.7535905838012695,0.7332912087440491,0.648420512676239,0.13548973202705383,0.15322376787662506
272.0,-0.42465439438819885,-1.6296759843826294,1.8441776037216187,1.1830639839172363,1.4587115049362183,-0.5687463879585266,0.5735682845115662,-0.019814960658550262,0.763200044631958,0.6472316980361938,0.7553259134292603,0.07808396220207214,0.06690941005945206
273.0,-0.4925663471221924,-1.658362865447998,1.870776891708374,1.1394973993301392,1.363118052482605,-0.7474815845489502,0.5631881356239319,-0.038031529635190964,0.759399950504303,0.5955981016159058,0.7892056107521057,0.11951055377721786,0.0901922807097435
274.0,-0.6583189368247986,-1.8012640476226807,2.0109078884124756,0.8942052125930786,1.05036461353302,-0.7785311937332153,0.5130972266197205,-0.04573870822787285,0.7326066493988037,0.5790864825248718,0.7429813146591187,0.26470935344696045,0.20631688833236694
275.0,-0.6088515520095825,-2.052885055541992,2.2453997135162354,-1.9662564992904663,-1.1881721019744873,2.074528932571411,0.5584434270858765,-0.0740935355424881,0.752539336681366,0.4993831515312195,0.8396077156066895,0.18368320167064667,0.10925137996673584
276.0,-0.7532020807266235,-2.0863122940063477,2.306960105895996,-1.9681079387664795,-0.9200950264930725,1.8574018478393555,0.5402465462684631,-0.10287900269031525,0.7339255809783936,0.44442689418792725,0.8331400752067566,0.2904445230960846,0.15493355691432953
277.0,-0.7826353311538696,-2.142460584640503,2.387216329574585,-2.126328945159912,-0.8451377749443054,2.021547794342041,0.5171187520027161,-0.08638042211532593,0.7234823107719421,0.48936352133750916,0.7852624654769897,0.321927934885025,0.20062054693698883
278.0,-0.916354775428772,-2.096135139465332,2.3749196529388428,-1.8250058889389038,-0.5556336045265198,1.5418719053268433,0.5224950313568115,-0.1354542374610901,0.6962534785270691,0.38053885102272034,0.7866711020469666,0.4376332759857178,0.21169769763946533
279.0,-0.8849002122879028,-2.185863733291626,2.5109567642211914,-2.327019214630127,-0.6233447790145874,2.086247682571411,0.49032872915267944,-0.08393384516239166,0.6923205852508545,0.48549821972846985,0.7276401519775391,0.4031030833721161,0.2689596116542816
280.0,-0.9218358993530273,-2.137604236602783,2.432995319366455,-1.9837219715118408,-0.5619314312934875,1.7094367742538452,0.5072029829025269,-0.11999838799238205,0.6883980631828308,0.4174955189228058,0.7682905197143555,0.42632848024368286,0.23167048394680023
281.0,-0.931259036064148,-2.100632667541504,2.3968164920806885,-1.8341648578643799,-0.5596501231193542,1.5320788621902466,0.5155774354934692,-0.1372678577899933,0.6803247928619385,0.3847265839576721,0.7856764793395996,0.43509289622306824,0.2130543738603592
282.0,-0.9266648292541504,-2.054169178009033,2.3467600345611572,-1.6951955556869507,-0.5665328502655029,1.3722132444381714,0.5292246341705322,-0.15318164229393005,0.6810484528541565,0.34877637028694153,0.8018249273300171,0.4449426531791687,0.19354034960269928
283.0,-0.9002009034156799,-1.942968726158142,2.2405426502227783,-1.453918218612671,-0.6147887706756592,1.0767905712127686,0.5627204179763794,-0.18314728140830994,0.6800195574760437,0.2679639756679535,0.8319688439369202,0.46242818236351013,0.1489407867193222
284.0,-0.8635701537132263,-1.863635778427124,2.1536290645599365,-1.312389850616455,-0.6625959277153015,0.9115676879882812,0.5934534072875977,-0.1977349817752838,0.6891866326332092,0.20639050006866455,0.848458468914032,0.47355225682258606,0.11519324779510498
285.0,-0.8889910578727722,-1.9357072114944458,2.219011068344116,-1.4275181293487549,-0.6153575778007507,1.0629099607467651,0.569118320941925,-0.18230494856834412,0.6908490061759949,0.2599438428878784,0.8337802290916443,0.4649982452392578,0.1449703723192215
286.0,-0.9119049906730652,-2.033679962158203,2.3108391761779785,-1.6363122463226318,-0.5689738988876343,1.3210781812667847,0.5398235321044922,-0.15652737021446228,0.6934598088264465,0.3315134346485138,0.8083761930465698,0.45006680488586426,0.1845715045928955
287.0,-0.8163856863975525,-2.011759042739868,2.2491092681884766,-1.7340377569198608,-0.791847825050354,1.4655052423477173,0.5617818832397461,-0.1459510624408722,0.7232028841972351,0.3349991738796234,0.8617570400238037,0.3550986349582672,0.1380409449338913
288.0,-0.8139047622680664,-1.9402127265930176,2.1845128536224365,-1.574763536453247,-0.785942554473877,1.2370022535324097,0.5855907201766968,-0.16844028234481812,0.719946026802063,0.2626291811466217,0.8801162838935852,0.37898772954940796,0.11309101432561874
289.0,-0.7910061478614807,-1.8837976455688477,2.129138231277466,-1.488250732421875,-0.8231433033943176,1.1069074869155884,0.6083434820175171,-0.18013419210910797,0.7210073471069336,0.2083578109741211,0.8964917659759521,0.3808598220348358,0.08851739764213562
290.0,-0.6905384659767151,-1.9626621007919312,2.168510913848877,-1.7604873180389404,-1.057944416999817,1.537874698638916,0.5934736728668213,-0.13141074776649475,0.7470083832740784,0.3142860531806946,0.914790689945221,0.23996973037719727,0.08244414627552032
291.0,-0.6263133883476257,-1.9790310859680176,2.172778606414795,-1.8285870552062988,-1.1834778785705566,1.7389824390411377,0.5902769565582275,-0.10703321546316147,0.7547789812088013,0.3737752139568329,0.9068107008934021,0.18019413948059082,0.07427360117435455
292.0,-0.5360669493675232,-1.9188050031661987,2.1069538593292236,-1.7827622890472412,-1.3640257120132446,1.6863124370574951,0.6215455532073975,-0.09861523658037186,0.7631528973579407,0.31716296076774597,0.9426655769348145,0.09844856709241867,0.03312334418296814
293.0,-0.45320072770118713,-1.8731518983840942,2.065673828125,-1.7678658962249756,-1.5196385383605957,1.117128849029541,0.6475769877433777,-0.08303028345108032,0.7663999795913696,-0.00029147692839615047,0.9996702671051025,0.02199578285217285,0.013247122056782246
294.0,-0.43232041597366333,-1.8339974880218506,2.0385005474090576,-1.7760016918182373,-1.5428225994110107,1.1383305788040161,0.6749988198280334,-0.08534668385982513,0.7665019631385803,-7.757553248666227e-05,0.9999021291732788,0.012552027590572834,0.006179714575409889
295.0,-0.39876633882522583,-1.8281337022781372,2.035355806350708,-1.783255934715271,-1.5597392320632935,1.172021746635437,0.6812395453453064,-0.06706899404525757,0.7665367722511292,-1.859531221271027e-05,0.9999812841415405,0.00407791743054986,0.004559916909784079
296.0,-0.3741878271102905,-1.8212777376174927,2.0303146839141846,-1.7839553356170654,-1.5648608207702637,1.1966086626052856,0.6873040199279785,-0.05297054722905159,0.7665421366691589,-6.033576937625185e-06,0.9999935626983643,0.0020090476609766483,0.0030031835194677114
297.0,-0.3784141540527344,-1.8061472177505493,2.0187551975250244,-1.7838493585586548,-1.569904088973999,1.1923820972442627,0.6975183486938477,-0.06086467206478119,0.7665449380874634,-1.2348610312074015e-07,0.9999998807907104,0.0003323210112284869,0.0003715867642313242
298.0,-0.36014658212661743,-1.7934489250183105,2.008316993713379,-1.7805930376052856,-1.569606065750122,1.2106530666351318,0.7073807716369629,-0.051403164863586426,0.7665435075759888,3.137942712783115e-06,0.9999966025352478,0.0014505429426208138,-0.002163281198590994
299.0,-0.3752581477165222,-1.786950707435608,2.0029098987579346,-1.7788705825805664,-1.5678786039352417,1.1955442428588867,0.7111429572105408,-0.06361985951662064,0.7665411233901978,8.780858479440212e-06,0.9999911785125732,0.0028022804763168097,-0.003133441088721156
300.0,-0.3504665791988373,-1.7613625526428223,1.981137990951538,-1.77150559425354,-1.5661265850067139,1.220374345779419,0.7306757569313049,-0.052327677607536316,0.7665238380432129,4.4557458750205114e-05,0.9999518394470215,0.0054656160064041615,-0.008151929825544357
301.0,-0.3699074387550354,-1.7639821767807007,1.983260989189148,-1.7714877128601074,-1.5638054609298706,1.200921893119812,0.7277268767356873,-0.06544224172830582,0.7665233016014099,4.89892227051314e-05,0.9999507069587708,0.006618613842874765,-0.007401369512081146
302.0,-0.38889241218566895,-1.7569149732589722,1.9764018058776855,-1.764951229095459,-1.5531929731369019,1.1818979978561401,0.7314956188201904,-0.079583078622818,0.7664926648139954,0.00010853049752768129,0.9998811483383179,0.012945900671184063,-0.008382391184568405
303.0,-0.41738972067832947,-1.760434627532959,1.977023959159851,-1.750434160232544,-1.5259511470794678,1.1530141830444336,0.7266407608985901,-0.09478221833705902,0.7663242816925049,0.00021811200713273138,0.999578058719635,0.027981219813227654,-0.0077916537411510944
304.0,-0.4035007655620575,-1.7784414291381836,1.9951701164245605,-1.7731542587280273,-1.5584442615509033,1.1672779321670532,0.7151879072189331,-0.08470852673053741,0.7665252685546875,3.556336014298722e-05,0.9999551177024841,0.008501114323735237,-0.004183188546448946
305.0,-0.4099782407283783,-1.80086350440979,2.014838933944702,-1.78473699092865,-1.5707650184631348,1.160818099975586,0.6990004181861877,-0.08462195098400116,0.7665449976921082,2.050565550693051e-10,1.0,2.1275252947816625e-05,-9.638266419642605e-06
306.0,-0.4726979434490204,-1.7650163173675537,1.9726605415344238,-1.6808924674987793,-1.433151125907898,0.951266884803772,0.7157893180847168,-0.11649449914693832,0.7642389535903931,-0.06974540650844574,0.9940080642700195,0.08395782858133316,-0.005890971515327692
307.0,-0.522078812122345,-1.7104092836380005,1.9157943725585938,-1.5120238065719604,-1.3060802221298218,0.7687808871269226,0.7343273758888245,-0.14401081204414368,0.7559464573860168,-0.11987694352865219,0.9754350185394287,0.18343354761600494,-0.022543227300047874
308.0,-0.584445059299469,-1.73599374294281,1.9463105201721191,-1.4830905199050903,-1.2004079818725586,0.867120623588562,0.7096257209777832,-0.1614753007888794,0.7501628994941711,-0.030623724684119225,0.9719103574752808,0.2332347184419632,-0.007348945364356041
309.0,-0.6223437190055847,-1.6495615243911743,1.879206657409668,-1.2451632022857666,-1.0875972509384155,0.6428002715110779,0.731848955154419,-0.18945491313934326,0.729666531085968,-0.0773378536105156,0.9328734874725342,0.35060104727745056,-0.029065823182463646
310.0,-0.5510787963867188,-1.637408971786499,1.84984290599823,-1.3154922723770142,-1.2146549224853516,0.6041509509086609,0.7569873929023743,-0.16616424918174744,0.7418417930603027,-0.15733638405799866,0.9452699422836304,0.2819707691669464,-0.046932902187108994
311.0,-0.5322118401527405,-1.5959526300430298,1.808468222618103,-1.2464396953582764,-1.2297362089157104,0.5119991898536682,0.7771572470664978,-0.16450271010398865,0.7379013895988464,-0.20384185016155243,0.9291700720787048,0.3012063503265381,-0.06607881188392639
312.0,-0.4445871412754059,-1.6621730327606201,1.8659172058105469,-1.5139025449752808,-1.405936598777771,0.5516223907470703,0.774128258228302,-0.11809892952442169,0.7591421604156494,-0.2697397768497467,0.9506855607032776,0.14727939665317535,-0.041787855327129364
313.0,-0.4648890793323517,-1.7012243270874023,1.9071208238601685,-1.574357032775879,-1.399266004562378,0.6939840316772461,0.7514930367469788,-0.12258429080247879,0.7610529065132141,-0.1942465901374817,0.9720495343208313,0.1293071210384369,-0.025839703157544136
314.0,-0.3996964991092682,-1.7365938425064087,1.9556645154953003,-1.7402013540267944,-1.5290508270263672,1.1709154844284058,0.7444050312042236,-0.08927406370639801,0.766232430934906,0.00042612329707480967,0.9994739890098572,0.028881927952170372,-0.014746216125786304
315.0,-0.3773995041847229,-1.7266440391540527,1.9491522312164307,-1.7524114847183228,-1.5445759296417236,1.1934199333190918,0.7540000677108765,-0.07831843942403793,0.7664152383804321,0.00027958236751146615,0.9997050762176514,0.019718002527952194,-0.014174859039485455
316.0,-0.35135942697525024,-1.7392957210540771,1.9616838693618774,-1.7640068531036377,-1.5622590780258179,1.2195332050323486,0.7465134263038635,-0.058167293667793274,0.7664941549301147,0.00011040656681871042,0.9998844861984253,0.009027689695358276,-0.012228356674313545
317.0,-0.34829527139663696,-1.7180873155593872,1.942337155342102,-1.7554261684417725,-1.5568599700927734,1.2226574420928955,0.7620929479598999,-0.060586802661418915,0.7664480209350586,0.000216193133383058,0.9997795224189758,0.013307643122971058,-0.01624220423400402
318.0,-0.32269665598869324,-1.7086695432662964,1.9342739582061768,-1.755631446838379,-1.5646482706069946,1.2483187913894653,0.770249605178833,-0.04462001472711563,0.7664515376091003,0.00017216973355971277,0.9997875094413757,0.009376762434840202,-0.018357418477535248
319.0,-0.3199392855167389,-1.6834198236465454,1.9088605642318726,-1.7354670763015747,-1.5595296621322632,1.2513216733932495,0.788063108921051,-0.04752620309591293,0.766268253326416,0.00040336785605177283,0.9995225071907043,0.014893420971930027,-0.02707069367170334
320.0,-0.3425063192844391,-1.601108193397522,1.8012107610702515,-1.477701187133789,-1.5162614583969116,0.17862583696842194,0.8201028108596802,-0.07009124755859375,0.7595248222351074,-0.4920622408390045,0.85780268907547,0.12880311906337738,-0.0738854631781578
321.0,-0.3137034773826599,-1.5924073457717896,1.792476773262024,-1.4797639846801758,-1.54719877243042,0.07859061658382416,0.8277803063392639,-0.05340486019849777,0.7597912549972534,-0.548401415348053,0.8234602212905884,0.12109921872615814,-0.08064868301153183
322.0,-0.2920474410057068,-1.6373037099838257,1.8508890867233276,-1.6262056827545166,-1.5692901611328125,0.009442503564059734,0.812437891960144,-0.034124452620744705,0.7644692659378052,-0.5909969806671143,0.8027953505516052,0.06362703442573547,-0.04684055596590042
323.0,-0.28961917757987976,-1.5324314832687378,1.7235852479934692,-1.3328179121017456,-1.5707509517669678,9.923466859618202e-05,0.8520174026489258,-0.04415736719965935,0.7526276707649231,-0.5839195847511292,0.7833911776542664,0.17071713507175446,-0.127248153090477
324.0,-0.22309774160385132,-1.5465500354766846,1.7438076734542847,-1.4074422121047974,-1.6821236610412598,-0.2865036427974701,0.8505123853683472,-0.004429382272064686,0.7555450797080994,0.7230610847473145,-0.6649264097213745,-0.12673628330230713,0.1378168910741806
325.0,-0.15700827538967133,-1.6066069602966309,1.835210919380188,-1.6269030570983887,-1.819158911705017,-0.9542061686515808,0.8256768584251404,0.03438727185130119,0.7579222321510315,0.9195984601974487,-0.36304837465286255,-0.05512373149394989,0.13962796330451965
326.0,-0.15150563418865204,-1.6702510118484497,1.9259520769119263,-1.8183358907699585,-1.8266783952713013,-1.538560390472412,0.7930307984352112,0.04274701327085495,0.7591636776924133,0.9876836538314819,-0.09047255665063858,-0.0116445766761899,0.1271231770515442
327.0,-0.20504343509674072,-1.6732276678085327,1.9127955436706543,-1.7895240783691406,-1.7159347534179688,-1.4276679754257202,0.7959608435630798,0.01697390154004097,0.7649096846580505,0.9823706150054932,-0.17199859023094177,-0.012631559744477272,0.07214520126581192
328.0,-0.2530350685119629,-1.68781316280365,1.9185938835144043,-1.7678265571594238,-1.6219831705093384,1.3176900148391724,0.7868061065673828,-0.003993680234998465,0.7663383483886719,-0.00046745012514293194,0.9995301365852356,-0.020548397675156593,-0.022738050669431686
329.0,-0.2620982527732849,-1.6525932550430298,1.8742337226867676,-1.6905215978622437,-1.597141146659851,1.3100897073745728,0.8075039982795715,-0.012729787267744541,0.7655745148658752,2.3933984266477637e-05,0.9986156225204468,0.00045438329107128084,-0.052600640803575516
330.0,-0.28610941767692566,-1.6846102476119995,1.9123693704605103,-1.7505369186401367,-1.5729914903640747,1.2850067615509033,0.7892813682556152,-0.023027334362268448,0.7664179801940918,0.00013352643873076886,0.9997112154960632,0.005718875210732222,-0.023341627791523933
331.0,-0.3030724823474884,-1.699770212173462,1.9263668060302734,-1.7545231580734253,-1.5695406198501587,1.2679805755615234,0.7775309085845947,-0.03233730420470238,0.7664438486099243,0.00014178655692376196,0.9997701048851013,0.0069933063350617886,-0.02026994898915291
332.0,-0.28926050662994385,-1.7131468057632446,1.9389973878860474,-1.7606842517852783,-1.5750550031661987,1.2817225456237793,0.7678898572921753,-0.01950298249721527,0.7664728760719299,5.5075634008971974e-05,0.9998360872268677,0.0030865375883877277,-0.017840899527072906
333.0,-0.23866333067417145,-1.7159030437469482,1.9479643106460571,-1.7904553413391113,-1.6640734672546387,1.331213116645813,0.7649959921836853,0.00594866368919611,0.7660583853721619,-0.0007485300884582102,0.9988932013511658,-0.04382709413766861,-0.017060261219739914
334.0,-0.2880231440067291,-1.7360587120056152,1.9596664905548096,-1.7679201364517212,-1.5761791467666626,1.2828762531280518,0.7509475946426392,-0.013707408681511879,0.7665048241615295,1.5890000213403255e-05,0.9999088048934937,0.0011803716188296676,-0.013460635207593441
335.0,-0.25404900312423706,-1.7602615356445312,1.9865893125534058,-1.8008253574371338,-1.6533297300338745,1.3158988952636719,0.732246458530426,0.004388531669974327,0.7661698460578918,-0.00034749804763123393,0.9991468787193298,-0.040391795337200165,-0.008595844730734825
336.0,-0.16767670214176178,-1.7444261312484741,1.9935797452926636,-1.8430176973342896,-1.8177449703216553,-1.6649017333984375,0.7371422648429871,0.040831372141838074,0.7597487568855286,0.9915971755981445,-0.0379144586622715,-0.004725673235952854,0.12359306216239929
337.0,-0.17886501550674438,-1.7290904521942139,1.9757351875305176,-1.8315753936767578,-1.7909042835235596,-1.6354470252990723,0.7502651214599609,0.03437758609652519,0.7612988948822021,0.9922608137130737,-0.0575043149292469,-0.006367235444486141,0.10986927896738052
338.0,-0.1842638999223709,-1.7128283977508545,1.9584441184997559,-1.8218289613723755,-1.7744947671890259,-1.5975677967071533,0.7634240388870239,0.030424486845731735,0.7621892094612122,0.9917097091674805,-0.07853144407272339,-0.008028954267501831,0.10139113664627075
339.0,-0.19835752248764038,-1.6937425136566162,1.9354220628738403,-1.8042007684707642,-1.7379494905471802,-1.5210984945297241,0.7794954180717468,0.02215580828487873,0.7639284133911133,0.9888890981674194,-0.12293431907892227,-0.010310971178114414,0.0829419195652008
340.0,-0.1395113468170166,-1.6827536821365356,1.9418197870254517,-1.8264610767364502,-1.831115484237671,-1.5575822591781616,0.7818464636802673,0.05307760834693909,0.7565842270851135,0.9886670708656311,-0.0754229798913002,-0.00987367331981659,0.12942706048488617
341.0,-0.14744974672794342,-1.7036926746368408,1.9602407217025757,-1.8329752683639526,-1.827271819114685,-1.5929902791976929,0.7664019465446472,0.049801941961050034,0.7574430108070374,0.9898179769515991,-0.06243212893605232,-0.008052250370383263,0.12766282260417938
342.0,-0.1498241424560547,-1.7268102169036865,1.981606125831604,-1.8402053117752075,-1.8242723941802979,-1.6290076971054077,0.7487186789512634,0.051121897995471954,0.7571374773979187,0.9908702373504639,-0.04634445905685425,-0.0059149544686079025,0.12646500766277313
343.0,-0.1274159997701645,-1.7223297357559204,1.9826693534851074,-1.8405959606170654,-1.8253709077835083,-1.6083444356918335,0.7493753433227539,0.06746469438076019,0.7530350685119629,0.9908706545829773,-0.04515479505062103,-0.005782819353044033,0.12689737975597382
344.0,-0.13300901651382446,-1.741878867149353,1.9993293285369873,-1.8454055786132812,-1.8213764429092407,-1.6398911476135254,0.7349947094917297,0.06584753096103668,0.7534513473510742,0.9915842413902283,-0.032771557569503784,-0.004137133713811636,0.12517917156219482
345.0,-0.11038121581077576,-1.738582730293274,2.001725912094116,-1.8476378917694092,-1.8267993927001953,-1.6248445510864258,0.7344414591789246,0.08152088522911072,0.7495723962783813,0.9913777112960815,-0.028805648908019066,-0.0037126827519387007,0.12777599692344666
346.0,-0.09943597763776779,-1.712576985359192,1.9806641340255737,-1.8428606986999512,-1.8352241516113281,-1.586012601852417,0.7530467510223389,0.08634251356124878,0.7483250498771667,0.9903808236122131,-0.04199185594916344,-0.005585108883678913,0.13172517716884613
347.0,-0.12472285330295563,-1.69868803024292,1.9610353708267212,-1.8338720798492432,-1.8299144506454468,-1.5736390352249146,0.7674680352210999,0.06650777161121368,0.7532401084899902,0.9897753000259399,-0.06043890863656998,-0.007874549366533756,0.12895722687244415
348.0,-0.11824966222047806,-1.6785279512405396,1.943120002746582,-1.8280566930770874,-1.8343465328216553,-1.542660117149353,0.7824605107307434,0.06897479295730591,0.7526001930236816,0.9887046217918396,-0.07201271504163742,-0.009548445232212543,0.13109618425369263
349.0,-0.10696438699960709,-1.612327218055725,1.858890175819397,-1.6640784740447998,-1.885986089706421,-1.108454942703247,0.8176530599594116,0.06625305861234665,0.7504002451896667,0.9484575986862183,-0.2649972438812256,-0.04676688462495804,0.16738438606262207
350.0,-0.1282203495502472,-1.5013762712478638,1.712809681892395,-1.3302650451660156,-1.8837809562683105,-0.5651992559432983,0.8640925288200378,0.04335608333349228,0.7416624426841736,0.8308244943618774,-0.48751869797706604,-0.13585202395915985,0.23151764273643494
351.0,-0.18524394929409027,-1.4146335124969482,1.6071497201919556,-1.077228307723999,-1.762853980064392,-0.22903713583946228,0.8932048678398132,0.007153616286814213,0.7302786707878113,0.6994931101799011,-0.6248700618743896,-0.23101812601089478,0.2586067020893097
352.0,-0.13974174857139587,-1.3680167198181152,1.5745093822479248,-0.9747797846794128,-1.8552014827728271,-0.26477864384651184,0.9042989611625671,0.03206058591604233,0.7137645483016968,0.7199910283088684,-0.5613445043563843,-0.25089505314826965,0.3218027949333191
353.0,-0.10137258470058441,-1.5238313674926758,1.7477867603302002,-1.4032212495803833,-1.9208378791809082,-0.6931625604629517,0.8535639047622681,0.062023408710956573,0.7407499551773071,0.8684089779853821,-0.4242671728134155,-0.1126563623547554,0.2305900752544403
354.0,-0.07915705442428589,-1.5913499593734741,1.8392819166183472,-1.6018102169036865,-1.9245449304580688,-1.0041931867599487,0.8222375512123108,0.08278918266296387,0.7436566352844238,0.9340882301330566,-0.29245132207870483,-0.0611974336206913,0.1954643279314041
355.0,-0.09730954468250275,-1.407896876335144,1.624376654624939,-1.0877543687820435,-1.9316885471343994,-0.39731600880622864,0.8905024528503418,0.060282763093709946,0.717345654964447,0.7803312540054321,-0.4990125894546509,-0.203065425157547,0.3175436854362488
356.0,-0.06111453101038933,-1.400536298751831,1.6303695440292358,-1.0719562768936157,-1.988932728767395,-0.426963746547699,0.8873538374900818,0.08430616557598114,0.7085532546043396,0.7949991226196289,-0.45702099800109863,-0.19879820942878723,0.3458143174648285
357.0,-0.04649074003100395,-1.4802989959716797,1.7181658744812012,-1.289660096168518,-2.0034072399139404,-0.6331291198730469,0.8603335022926331,0.0964319258928299,0.7224160432815552,0.8580118417739868,-0.39746153354644775,-0.13674527406692505,0.2951960563659668
358.0,-0.027714034542441368,-1.3575695753097534,1.603981614112854,-0.9557355642318726,-2.0489182472229004,-0.3761358857154846,0.8921635746955872,0.10532279312610626,0.6909233927726746,0.7797334790229797,-0.4256249964237213,-0.22001180052757263,0.40305569767951965
359.0,-0.009035833179950714,-1.500872254371643,1.7561123371124268,-1.3450747728347778,-2.056610345840454,-0.7299258708953857,0.844551146030426,0.12132677435874939,0.7175488471984863,0.8824823498725891,-0.33646848797798157,-0.11708604544401169,0.30709075927734375
360.0,-0.007829294539988041,-1.578562617301941,1.8464702367782593,-1.555827260017395,-2.0275447368621826,-0.9880709052085876,0.8113422393798828,0.126600444316864,0.727933943271637,0.9318625926971436,-0.25008609890937805,-0.06813028454780579,0.2538648545742035
361.0,-0.04629029706120491,-1.5706615447998047,1.8235952854156494,-1.5421231985092163,-1.9766854047775269,-0.9384617805480957,0.8248642086982727,0.10201654583215714,0.7354974746704102,0.9239051938056946,-0.2961086630821228,-0.0739571824669838,0.230757936835289
362.0,-0.09352242201566696,-1.6782673597335815,1.9482804536819458,-1.8257386684417725,-1.8465718030929565,-1.5155010223388672,0.7783756852149963,0.08667442202568054,0.7480968236923218,0.9878166913986206,-0.07259968668222427,-0.010089374147355556,0.13727955520153046
363.0,-0.06129972264170647,-1.6630315780639648,1.9343382120132446,-1.7745660543441772,-1.893844723701477,-1.3608694076538086,0.77957683801651,0.10445438325405121,0.7426160573959351,0.9780979752540588,-0.12798228859901428,-0.021297037601470947,0.16276150941848755
364.0,-0.07163860648870468,-1.7054904699325562,1.9812300205230713,-1.8460146188735962,-1.8470149040222168,-1.5688849687576294,0.754104733467102,0.10521242022514343,0.7435634732246399,0.9898096919059753,-0.036380767822265625,-0.005056723486632109,0.13757802546024323
365.0,-0.019174765795469284,-1.6417362689971924,1.9186800718307495,-1.7117712497711182,-1.9693015813827515,-1.2318305969238281,0.7809503078460693,0.12617482244968414,0.7344027161598206,0.9647077322006226,-0.16095615923404694,-0.03429693728685379,0.2055623084306717
366.0,-0.04417090490460396,-1.7039945125579834,1.983189344406128,-1.8249210119247437,-1.8849191665649414,-1.4898186922073364,0.74762362241745,0.12042900919914246,0.7391512393951416,0.9858034253120422,-0.0598021037876606,-0.009500212967395782,0.1566055566072464
367.0,-0.0770769789814949,-1.73363196849823,2.005200147628784,-1.8503551483154297,-1.835801601409912,-1.6012957096099854,0.732953667640686,0.10445881634950638,0.7437928318977356,0.9909453988075256,-0.023610087111592293,-0.0031482495833188295,0.1321360319852829
368.0,-0.04212183877825737,-1.7228925228118896,2.0020854473114014,-1.8380355834960938,-1.8764036893844604,-1.5310853719711304,0.7332749366760254,0.12380744516849518,0.7384896874427795,0.9875407218933105,-0.03951865807175636,-0.006090617273002863,0.15219978988170624
369.0,0.026142142713069916,-1.6772682666778564,1.9729516506195068,-1.7607977390289307,-2.025806427001953,-1.3339520692825317,0.7455246448516846,0.15272915363311768,0.7264485955238342,0.968731164932251,-0.09045709669589996,-0.02147994004189968,0.23003491759300232
370.0,0.05135687440633774,-1.6269649267196655,1.9263906478881836,-1.6558893918991089,-2.101677179336548,-1.164748191833496,0.7679085731506348,0.16251327097415924,0.7180948257446289,0.9493429660797119,-0.14164261519908905,-0.0413939543068409,0.27743804454803467
371.0,0.07218995690345764,-1.5513792037963867,1.849885106086731,-1.4587593078613281,-2.1837916374206543,-0.9230960011482239,0.798702597618103,0.170279860496521,0.7045354247093201,0.912456750869751,-0.20592166483402252,-0.07783781737089157,0.34490615129470825
372.0,0.02876816876232624,-1.569566011428833,1.850372076034546,-1.5218867063522339,-2.0908408164978027,-0.9677229523658752,0.8046739101409912,0.14753228425979614,0.7180889248847961,0.9261990189552307,-0.22952501475811005,-0.07195008546113968,0.2903391420841217
373.0,0.03620608523488045,-1.5047167539596558,1.7802999019622803,-1.3426213264465332,-2.1324877738952637,-0.768262505531311,0.8297461271286011,0.14894986152648926,0.7068665027618408,0.8888542652130127,-0.28380700945854187,-0.10941199958324432,0.3426671028137207
374.0,0.030137717723846436,-1.4306174516677856,1.6997097730636597,-1.136998176574707,-2.145341634750366,-0.5703328251838684,0.8568075895309448,0.14302843809127808,0.6943143606185913,0.8419822454452515,-0.3336201012134552,-0.1561829000711441,0.3941705524921417
375.0,0.002736195456236601,-1.3664350509643555,1.6281648874282837,-0.9801691174507141,-2.1014511585235596,-0.41658851504325867,0.8831452131271362,0.1253259778022766,0.6842889189720154,0.7960571050643921,-0.3874770402908325,-0.2034759372472763,0.4180336892604828
376.0,0.09657762199640274,-1.4574376344680786,1.7682294845581055,-1.192413568496704,-2.2663865089416504,-0.661034882068634,0.8251581788063049,0.18253721296787262,0.6772047877311707,0.85825514793396,-0.2441987544298172,-0.12353432923555374,0.4341708719730377
377.0,0.06584367901086807,-1.420098066329956,1.7155084609985352,-1.1130683422088623,-2.2085518836975098,-0.5658315420150757,0.8489357233047485,0.1653457134962082,0.676990270614624,0.8396422863006592,-0.2967692017555237,-0.1515909731388092,0.4288928508758545
378.0,0.029027670621871948,-1.3832865953445435,1.6628875732421875,-1.036065936088562,-2.14154052734375,-0.47150954604148865,0.8722115159034729,0.1430130898952484,0.6771172881126404,0.8147838711738586,-0.3534272015094757,-0.18288791179656982,0.4216260612010956
379.0,-0.016472620889544487,-1.3445717096328735,1.612227201461792,-0.9666305780410767,-2.056447744369507,-0.37389424443244934,0.8961430191993713,0.11422950029373169,0.6738698482513428,0.7807518839836121,-0.4182625412940979,-0.21920694410800934,0.4091838002204895
380.0,-0.03989489749073982,-1.3237862586975098,1.5922516584396362,-0.9433403611183167,-2.0086193084716797,-0.32708248496055603,0.9084689021110535,0.09942705929279327,0.6671549081802368,0.7610608339309692,-0.45135319232940674,-0.2376570701599121,0.40073162317276
