Sungjin-Park-dev/vision_inspection/data/trajectory/2446/collision_free_trajectory.csv
time,ur20-shoulder_pan_joint,ur20-shoulder_lift_joint,ur20-elbow_joint,ur20-wrist_1_joint,ur20-wrist_2_joint,ur20-wrist_3_joint
0.0,0.008561229333281517,-0.6188786625862122,1.591507077217102,-0.2335735410451889,2.0885138511657715,0.423709511756897
1.0,0.034369759261608124,-0.589117705821991,1.5232092142105103,-0.13097837567329407,2.175259828567505,0.5321595668792725
2.0,0.02103276364505291,-0.6037502884864807,1.5615872144699097,-0.18860536813735962,2.127976655960083,0.47317615151405334
3.0,0.03781591355800629,-0.5820457339286804,1.5178143978118896,-0.12347059696912766,2.179621696472168,0.5430118441581726
4.0,0.04858340695500374,-0.5652215480804443,1.4824295043945312,-0.06888372451066971,2.2159423828125,0.5986711382865906
5.0,0.04708649218082428,-0.5648629069328308,1.494408130645752,-0.08816929161548615,2.2012276649475098,0.5830115079879761
6.0,0.033821579068899155,-0.5843941569328308,1.5336185693740845,-0.14786399900913239,2.1593222618103027,0.5204405188560486
7.0,0.023557335138320923,-0.5976619720458984,1.559538722038269,-0.18637783825397491,2.1286282539367676,0.47870832681655884
8.0,0.008438078686594963,-0.6128828525543213,1.5983608961105347,-0.24494554102420807,2.0770511627197266,0.4172145128250122
9.0,-0.00407973350957036,-0.6225540637969971,1.6247097253799438,-0.28394028544425964,2.0356104373931885,0.3733641505241394
10.0,-0.023393604904413223,-0.6382075548171997,1.6579949855804443,-0.3319644033908844,1.978376865386963,0.3148704767227173
11.0,-0.03810488432645798,-0.6501011848449707,1.681060552597046,-0.3656690716743469,1.9346284866333008,0.2722780704498291
12.0,-0.0565158985555172,-0.6589258313179016,1.7050096988677979,-0.39951130747795105,1.878920555114746,0.22503535449504852
13.0,-0.08617443591356277,-0.6685566306114197,1.7402762174606323,-0.4505404829978943,1.7877906560897827,0.15288250148296356
14.0,-0.0995069220662117,-0.6690945625305176,1.7539756298065186,-0.4708116948604584,1.7454694509506226,0.12191055715084076
15.0,-0.059533942490816116,-0.6553167700767517,1.711643934249878,-0.4103010594844818,1.8645399808883667,0.21492594480514526
16.0,-0.040407489985227585,-0.647071897983551,1.6869741678237915,-0.3751218914985657,1.9227118492126465,0.2638710141181946
17.0,-0.02699708193540573,-0.6350334882736206,1.6682631969451904,-0.34854885935783386,1.959328532218933,0.29995739459991455
18.0,-0.013020607642829418,-0.6263695359230042,1.6436476707458496,-0.3123570680618286,2.003302812576294,0.34252825379371643
19.0,0.026268161833286285,-0.5896967053413391,1.559151530265808,-0.18717873096466064,2.1260697841644287,0.4825797379016876
20.0,0.015230143442749977,-0.6010172963142395,1.5874541997909546,-0.22972585260868073,2.08964204788208,0.43789657950401306
21.0,-0.0031147291883826256,-0.6161661148071289,1.6279109716415405,-0.29015517234802246,2.0295002460479736,0.3715096116065979
22.0,-0.018512289971113205,-0.6261951327323914,1.656430959701538,-0.3322320580482483,1.9804450273513794,0.3224546015262604
23.0,-0.040723901242017746,-0.639528751373291,1.6922478675842285,-0.38476577401161194,1.9129358530044556,0.25875425338745117
24.0,-0.06063247472047806,-0.6436918377876282,1.6830332279205322,-0.3160402178764343,1.8492727279663086,0.2381041944026947
25.0,-0.07025229185819626,-0.6555773615837097,1.7264295816421509,-0.43262410163879395,1.8284704685211182,0.18682833015918732
26.0,-0.10314338654279709,-0.6656776070594788,1.7588573694229126,-0.47895535826683044,1.7316358089447021,0.11246312409639359
27.0,-0.08601459860801697,-0.6589446067810059,1.7446274757385254,-0.4595315158367157,1.7800153493881226,0.14909859001636505
28.0,-0.10824961215257645,-0.5612331628799438,1.4390617609024048,0.3652596175670624,1.6611710786819458,0.2594875991344452
29.0,-0.104653000831604,-0.5244864821434021,1.3668707609176636,0.5242162346839905,1.6447255611419678,0.3426128625869751
30.0,-0.08940934389829636,-0.5609624981880188,1.4375159740447998,0.3424142599105835,1.7010033130645752,0.33995598554611206
31.0,-0.07551046460866928,-0.5631140470504761,1.4421629905700684,0.31281548738479614,1.7374927997589111,0.3948325514793396
32.0,-0.0988713726401329,-0.49975329637527466,1.3200018405914307,0.6160874366760254,1.630486011505127,0.41532739996910095
33.0,-0.08779449015855789,-0.5047388076782227,1.3263814449310303,0.5841425061225891,1.6586750745773315,0.4850454330444336
34.0,-0.09254232048988342,-0.4744310975074768,1.2722976207733154,0.7006063461303711,1.6088416576385498,-1.6631879806518555
35.0,-0.07533849030733109,-0.5009118318557739,1.3155800104141235,0.5823798179626465,1.6738080978393555,0.5299605131149292
36.0,-0.08110545575618744,-0.4686761498451233,1.257203221321106,0.7063944935798645,1.6223342418670654,-1.6518021821975708
37.0,-0.07393430918455124,-0.46717485785484314,1.2542803287506104,0.7076225876808167,1.6208035945892334,-1.6446303129196167
38.0,-0.07069101929664612,-0.46551498770713806,1.2535552978515625,0.7165873646736145,1.6148219108581543,-1.6414158344268799
39.0,-0.07596588879823685,-0.4712828993797302,1.2671170234680176,0.7053928971290588,1.6127004623413086,-1.6466622352600098
40.0,-0.08243142813444138,-0.477144718170166,1.2779451608657837,0.6884219646453857,1.6161636114120483,-1.6530641317367554
41.0,-0.08860920369625092,-0.4827674329280853,1.293743371963501,0.6819746494293213,1.607578158378601,-1.6592204570770264
42.0,-0.09521164745092392,-0.4874533712863922,1.3024908304214478,0.6683975458145142,1.6087522506713867,-1.6657449007034302
43.0,-0.10174146294593811,-0.4926997125148773,1.3158409595489502,0.6595561504364014,1.603346586227417,-1.6722286939620972
44.0,-0.10768181830644608,-0.4968812167644501,1.3243099451065063,0.6482973694801331,1.601683259010315,-1.6780800819396973
45.0,-0.10930712521076202,-0.49819061160087585,1.3228627443313599,0.6371573209762573,1.606344223022461,-1.6795742511749268
46.0,-0.11447682976722717,-0.5006112456321716,1.333061695098877,0.6404863595962524,1.5975722074508667,-1.6848046779632568
47.0,-0.12134973704814911,-0.5046576857566833,1.3412832021713257,0.62947016954422,1.5949530601501465,-1.6915596723556519
48.0,-0.1219000294804573,-0.5172492861747742,1.3572748899459839,0.5699632167816162,1.6140464544296265,0.260494202375412
49.0,-0.13171683251857758,-0.5097542405128479,1.3484833240509033,0.6106664538383484,1.591510534286499,-1.7016254663467407
50.0,-0.1298915147781372,-0.5094459652900696,1.3524962663650513,0.6190705299377441,1.5888816118240356,-1.6999837160110474
51.0,-0.13855479657649994,-0.5118733644485474,1.3596731424331665,0.6165710687637329,1.5818485021591187,-1.7086076736450195
52.0,-0.13852667808532715,-0.515699028968811,1.3610423803329468,0.5929475426673889,1.5863137245178223,-1.708178997039795
53.0,-0.1165095865726471,-0.621367871761322,1.5772675275802612,0.048231206834316254,1.6722909212112427,0.15791435539722443
54.0,-0.13350951671600342,-0.5732126832008362,1.4655381441116333,0.33185428380966187,1.6192868947982788,0.13339924812316895
55.0,-0.14226263761520386,-0.5275596976280212,1.3792864084243774,0.5422663688659668,1.5944087505340576,0.1313842535018921
56.0,-0.14677391946315765,-0.5186077356338501,1.3682984113693237,0.5872571468353271,1.5794578790664673,-1.7163058519363403
57.0,-0.15614214539527893,-0.5185297131538391,1.373934030532837,0.5989699363708496,1.5705939531326294,-1.7258979082107544
58.0,-0.1696632206439972,-0.521600604057312,1.3802926540374756,0.5899536609649658,1.560811161994934,-1.7391929626464844
59.0,-0.17220166325569153,-0.5269606709480286,1.3854788541793823,0.5624558925628662,1.5568816661834717,-0.0919157862663269
60.0,-0.1663602739572525,-0.5416870713233948,1.4076358079910278,0.4945890009403229,1.5656112432479858,-0.02429131418466568
61.0,-0.16381338238716125,-0.5242100358009338,1.3805696964263916,0.5723621249198914,1.5657349824905396,-0.03536975011229515
62.0,-0.1546781212091446,-0.5207644701004028,1.3720364570617676,0.5807394981384277,1.5736476182937622,-1.7240203619003296
63.0,-0.15730078518390656,-0.546371579170227,1.4155455827713013,0.47170618176460266,1.5747642517089844,0.016951432451605797
64.0,-0.17715413868427277,-0.6518572568893433,1.6628681421279907,-0.1256921887397766,1.532730221748352,-0.0465044304728508
65.0,-0.15525582432746887,-0.6444639563560486,1.6395318508148193,-0.07561370730400085,1.5804888010025024,0.012713414616882801
66.0,-0.11871760338544846,-0.6659837961196899,1.7515867948532104,-0.43329519033432007,1.6851316690444946,0.08692555874586105
67.0,-0.14439624547958374,-0.6753457188606262,1.7862646579742432,-0.5166233777999878,1.6139007806777954,0.02911253459751606
68.0,-0.16451670229434967,-0.6809528470039368,1.7937893867492676,-0.5250521898269653,1.556842565536499,-0.00929751992225647
69.0,-0.17880985140800476,-0.6781085729598999,1.7997196912765503,-0.5336362719535828,1.5138835906982422,-0.03790086880326271
70.0,-0.20035475492477417,-0.6785370111465454,1.8049254417419434,-0.5397135615348816,1.4514962434768677,-0.07895232737064362
71.0,-0.23228777945041656,-0.6759157776832581,1.8059439659118652,-0.5366982817649841,1.3574172258377075,-0.14185188710689545
72.0,-0.21181228756904602,-0.6704632043838501,1.745283603668213,-0.34362471103668213,1.4251492023468018,-0.12946638464927673
73.0,-0.23460255563259125,-0.636143147945404,1.6235474348068237,-0.007935775443911552,1.380893349647522,-0.2740428149700165
74.0,-0.20917774736881256,-0.605851948261261,1.541900634765625,0.1895601749420166,1.4636870622634888,-0.2204156368970871
75.0,-0.20368710160255432,-0.5437203049659729,1.4139378070831299,0.49085092544555664,1.507080078125,-0.29066231846809387
76.0,-0.1919691562652588,-0.5459049940109253,1.4175047874450684,0.4825042188167572,1.5257306098937988,-0.20184947550296783
77.0,-0.187271848320961,-0.593397319316864,1.5118600130081177,0.2562310993671417,1.5162746906280518,-0.1295754313468933
78.0,-0.17692673206329346,-0.535376250743866,1.397094488143921,0.5239711403846741,1.555343508720398,-0.08233490586280823
79.0,-0.18044579029083252,-0.5258379578590393,1.3865840435028076,0.5724638104438782,1.5513041019439697,-1.749521017074585
80.0,-0.18795108795166016,-0.5299280285835266,1.3921117782592773,0.5539857149124146,1.5414961576461792,-0.18578298389911652
81.0,-0.19536277651786804,-0.5293558239936829,1.390889286994934,0.5553545355796814,1.534143090248108,-0.23196156322956085
82.0,-0.20129604637622833,-0.5233557224273682,1.384596347808838,0.5852028131484985,1.535465121269226,-1.770526647567749
83.0,-0.20988819003105164,-0.5224514007568359,1.382831335067749,0.5876626968383789,1.5288830995559692,-1.7791072130203247
84.0,-0.21399888396263123,-0.5528547763824463,1.4314963817596436,0.450126051902771,1.4867054224014282,-0.32794442772865295
85.0,-0.21950073540210724,-0.5384506583213806,1.4041708707809448,0.5102309584617615,1.4947792291641235,-0.36735233664512634
86.0,-0.23855474591255188,-0.5659388899803162,1.4586641788482666,0.38250574469566345,1.4322590827941895,-0.42579108476638794
87.0,-0.24487817287445068,-0.5500308871269226,1.4269992113113403,0.4502297639846802,1.4344310760498047,-0.5005216598510742
88.0,-0.2249435931444168,-0.5189651250839233,1.369321346282959,0.5869189500808716,1.5097630023956299,-0.4262620210647583
89.0,-0.23759159445762634,-0.5144845843315125,1.366609811782837,0.6087953448295593,1.50918710231781,-1.8070677518844604
90.0,-0.23239122331142426,-0.5181998014450073,1.3721832036972046,0.5943939685821533,1.507171392440796,-1.8015509843826294
91.0,-0.22307075560092926,-0.5217580795288086,1.3789793252944946,0.583871603012085,1.5134352445602417,-0.4141078293323517
92.0,-0.21442796289920807,-0.527003824710846,1.3865796327590942,0.562441885471344,1.515749216079712,-0.3518037497997284
93.0,-0.21442796289920807,-0.527003824710846,1.3865796327590942,0.562441885471344,1.515749216079712,-0.3518037497997284
94.0,-0.21485662460327148,-0.5279514789581299,1.3889875411987305,0.5560077428817749,1.5138330459594727,-0.3512120246887207
95.0,-0.2157445102930069,-0.5299102663993835,1.3939764499664307,0.5426813364028931,1.5098646879196167,-0.34998664259910583
96.0,-0.21706321835517883,-0.532812774181366,1.40138840675354,0.5228894948959351,1.503972053527832,-0.3481670022010803
97.0,-0.21877750754356384,-0.5365767478942871,1.4110277891159058,0.4971603751182556,1.4963128566741943,-0.34580186009407043
98.0,-0.22085143625736237,-0.5411180853843689,1.4226948022842407,0.4660329222679138,1.487047791481018,-0.3429411053657532
99.0,-0.2232489287853241,-0.5463526844978333,1.4361886978149414,0.4300469756126404,1.4763374328613281,-0.33963480591773987
100.0,-0.2259339839220047,-0.5521963834762573,1.4513089656829834,0.3897424638271332,1.4643430709838867,-0.33593273162841797
101.0,-0.22887052595615387,-0.558565080165863,1.4678553342819214,0.3456600308418274,1.451225996017456,-0.3318847417831421
102.0,-0.2320224791765213,-0.5653741955757141,1.4856269359588623,0.2983400523662567,1.437147855758667,-0.32754066586494446
103.0,-0.23535391688346863,-0.572539210319519,1.5044231414794922,0.2483227699995041,1.4222700595855713,-0.3229503333568573
104.0,-0.23882894217967987,-0.5799750685691833,1.524043321609497,0.19614829123020172,1.4067538976669312,-0.31816354393959045
105.0,-0.24241161346435547,-0.5875970125198364,1.5442864894866943,0.14235632121562958,1.3907605409622192,-0.3132297396659851
106.0,-0.24606598913669586,-0.5953204035758972,1.5649516582489014,0.08748707920312881,1.37445068359375,-0.30819860100746155
107.0,-0.24975623190402985,-0.6030606627464294,1.5858380794525146,0.03208025172352791,1.357985019683838,-0.30311957001686096
108.0,-0.25344645977020264,-0.6107335090637207,1.6067445278167725,-0.023324988782405853,1.3415238857269287,-0.2980421483516693
109.0,-0.25710082054138184,-0.6182548999786377,1.6274704933166504,-0.07818920165300369,1.3252272605895996,-0.2930156886577606
110.0,-0.2606833875179291,-0.6255415081977844,1.6478153467178345,-0.131972998380661,1.3092550039291382,-0.28808948397636414
111.0,-0.2641582787036896,-0.6325100660324097,1.6675779819488525,-0.18413685262203217,1.2937674522399902,-0.28331267833709717
112.0,-0.2674895226955414,-0.639077365398407,1.6865572929382324,-0.23414096236228943,1.2789249420166016,-0.27873456478118896
113.0,-0.2706410884857178,-0.645160973072052,1.704552412033081,-0.28144600987434387,1.2648873329162598,-0.27440452575683594
114.0,-0.2735770046710968,-0.6506789922714233,1.7213623523712158,-0.3255128264427185,1.2518142461776733,-0.27037206292152405
115.0,-0.27626127004623413,-0.6555494070053101,1.7367854118347168,-0.3658023178577423,1.2398658990859985,-0.26668664813041687
116.0,-0.2786579430103302,-0.6596907377243042,1.7506202459335327,-0.4017753303050995,1.2292026281356812,-0.2633979618549347
117.0,-0.2807310223579407,-0.6630211472511292,1.7626657485961914,-0.43289270997047424,1.2199848890304565,-0.26055559515953064
118.0,-0.282444566488266,-0.665459156036377,1.772720217704773,-0.45861560106277466,1.2123736143112183,-0.2582091689109802
119.0,-0.28376275300979614,-0.6669256687164307,1.7805818319320679,-0.47840625047683716,1.2065298557281494,-0.25640809535980225
120.0,-0.28465038537979126,-0.6673648357391357,1.786045789718628,-0.491737425327301,1.2026108503341675,-0.25520059466362
121.0,-0.2850789427757263,-0.666919469833374,1.7888888120651245,-0.4981813430786133,1.2007381916046143,-0.25462377071380615
122.0,-0.2850789427757263,-0.666919469833374,1.7888888120651245,-0.4981813430786133,1.2007381916046143,-0.25462377071380615
123.0,-0.30365702509880066,-0.660908043384552,1.7761363983154297,-0.4733758866786957,1.1449315547943115,-0.2994817793369293
124.0,-0.267273485660553,-0.6716755032539368,1.7961643934249878,-0.5130718350410461,1.2535988092422485,-0.21526694297790527
125.0,-0.23701491951942444,-0.680054247379303,1.8026405572891235,-0.5280530452728271,1.3413656949996948,-0.1525750756263733
126.0,-0.21468685567378998,-0.6836187839508057,1.8047888278961182,-0.5356460213661194,1.4095978736877441,-0.1060280054807663
127.0,-0.2575823664665222,-0.6784697771072388,1.7966086864471436,-0.513329267501831,1.2798460721969604,-0.19574646651744843
128.0,-0.30108538269996643,-0.666533350944519,1.7748967409133911,-0.46954652667045593,1.149052381515503,-0.2951486110687256
129.0,-0.27831998467445374,-0.6769338846206665,1.7878104448318481,-0.49411341547966003,1.216546654701233,-0.24116741120815277
130.0,-0.2615453004837036,-0.6822371482849121,1.7928942441940308,-0.5045379996299744,1.2657668590545654,-0.205238938331604
131.0,-0.23812022805213928,-0.6848690509796143,1.799808382987976,-0.5209363102912903,1.335777997970581,-0.15598928928375244
132.0,-0.24452319741249084,-0.6882899403572083,1.7959742546081543,-0.5114448666572571,1.3147642612457275,-0.17019638419151306
133.0,-0.2621740400791168,-0.6872797012329102,1.7897343635559082,-0.49705374240875244,1.2612075805664062,-0.2078143060207367
134.0,-0.2855139970779419,-0.683085560798645,1.7780894041061401,-0.4728401303291321,1.1887338161468506,-0.2612776756286621
135.0,-0.30677375197410583,-0.6759859323501587,1.7623292207717896,-0.44249027967453003,1.1224769353866577,-0.3145277500152588
136.0,-0.3231755495071411,-0.668581485748291,1.7487196922302246,-0.4174301326274872,1.0722497701644897,-0.3571682870388031
137.0,-0.3365909457206726,-0.6592503190040588,1.7359256744384766,-0.394210547208786,1.030550241470337,-0.39595526456832886
138.0,-0.309052973985672,-0.6694743037223816,1.7646561861038208,-0.44841837882995605,1.1200979948043823,-0.31777477264404297
139.0,-0.3335115909576416,-0.6568857431411743,1.7437896728515625,-0.410177618265152,1.045468807220459,-0.38294586539268494
140.0,-0.3501897156238556,-0.6487219333648682,1.7195099592208862,-0.36485642194747925,0.9880688190460205,-0.43864166736602783
141.0,-0.3633633255958557,-0.6380129456520081,1.7012922763824463,-0.3323616087436676,0.9464411735534668,-0.4827510416507721
142.0,-0.3944475054740906,-0.6086153388023376,1.6332989931106567,-0.2073344886302948,0.8336440920829773,-0.6217599511146545
143.0,-0.37371644377708435,-0.6330069899559021,1.679624319076538,-0.2919323146343231,0.9066816568374634,-0.5252981781959534
144.0,-0.3528158962726593,-0.6506490707397461,1.7116148471832275,-0.3492608964443207,0.9746587872505188,-0.45096802711486816
145.0,-0.3397064805030823,-0.6611995100975037,1.7279345989227295,-0.3782505691051483,1.0155816078186035,-0.4092288017272949
146.0,-0.3059625029563904,-0.6810988783836365,1.759331226348877,-0.43564343452453613,1.1210089921951294,-0.3146490752696991
147.0,-0.322417289018631,-0.673874020576477,1.7453874349594116,-0.40999916195869446,1.0702306032180786,-0.357573926448822
148.0,-0.3506884276866913,-0.6571677327156067,1.7089601755142212,-0.34279483556747437,0.9750425219535828,-0.44860249757766724
149.0,-0.3604276776313782,-0.6478435397148132,1.696739912033081,-0.32153844833374023,0.9456851482391357,-0.48024052381515503
150.0,-0.37639594078063965,-0.6338036060333252,1.6674834489822388,-0.26812639832496643,0.8898953199386597,-0.5440821051597595
151.0,-0.3915455639362335,-0.6153086423873901,1.6334905624389648,-0.20619754493236542,0.8365746736526489,-0.6151534914970398
152.0,-0.4016416072845459,-0.6025040149688721,1.6048047542572021,-0.15354546904563904,0.798018217086792,-0.6702790856361389
153.0,-0.41336992383003235,-0.5815826654434204,1.562569499015808,-0.07338429242372513,0.7498552799224854,-0.7527284026145935
154.0,-0.42461907863616943,-0.556685745716095,1.5204671621322632,0.004711494781076908,0.7097318172454834,-0.8344666361808777
155.0,-0.4190281927585602,-0.5689782500267029,1.5494129657745361,-0.05033257231116295,0.735977828502655,-0.7824060320854187
156.0,-0.4109649658203125,-0.5848237872123718,1.5832587480545044,-0.11421474069356918,0.7701002955436707,-0.7193095088005066
157.0,-0.42676711082458496,-0.5513125658035278,1.5213650465011597,0.001661961548961699,0.7098140120506287,-0.8378682136535645
158.0,-0.4315606355667114,-0.5393185615539551,1.4931737184524536,0.0559350848197937,0.6861974596977234,-0.8886724710464478
159.0,-0.44135814905166626,-0.504619836807251,1.4329116344451904,0.17331522703170776,0.6463335156440735,-1.0050135850906372
160.0,-0.44930508732795715,-0.46805253624916077,1.3670703172683716,0.30327415466308594,0.6116832494735718,-1.1300729513168335
161.0,-0.43566909432411194,-0.5239298343658447,1.4603168964385986,0.12176453322172165,0.6629822850227356,-0.9506607055664062
162.0,-0.44370126724243164,-0.4903844892978668,1.396487832069397,0.24640531837940216,0.6256222724914551,-1.0691938400268555
163.0,-0.449627161026001,-0.45272696018218994,1.3291985988616943,0.3834924101829529,0.5961838364601135,-1.2004867792129517
164.0,-0.4453222453594208,-0.4779786169528961,1.3671793937683105,0.30597710609436035,0.6107308268547058,-1.1221747398376465
165.0,-0.4490521550178528,-0.4412018358707428,1.2974389791488647,0.4502943456172943,0.5846834182739258,-1.2570198774337769
166.0,-0.44355037808418274,-0.4811980426311493,1.3639594316482544,0.3139570653438568,0.6088929772377014,-1.1244394779205322
167.0,-0.4391097128391266,-0.503137469291687,1.4019079208374023,0.23848120868206024,0.6279200315475464,-1.0511947870254517
168.0,-0.4381399154663086,-0.5103545188903809,1.422438621520996,0.19722028076648712,0.6396893858909607,-1.0158960819244385
169.0,-0.43217185139656067,-0.5335215926170349,1.4642301797866821,0.11517799645662308,0.6661108732223511,-0.9359579682350159
170.0,-0.42532646656036377,-0.5550717115402222,1.5044585466384888,0.03641755133867264,0.6966710090637207,-0.8584890365600586
171.0,-0.4167545437812805,-0.575471043586731,1.536190152168274,-0.02256614901125431,0.7256630063056946,-0.7954493165016174
172.0,-0.4042585790157318,-0.6004106402397156,1.589834213256836,-0.12485256046056747,0.7812761664390564,-0.6941800117492676
173.0,-0.3943125307559967,-0.6145638227462769,1.6192958354949951,-0.17909935116767883,0.8192889094352722,-0.6370805501937866
174.0,-0.4078439772129059,-0.5947427749633789,1.5682858228683472,-0.08307419717311859,0.7589213848114014,-0.7309657335281372
175.0,-0.39753180742263794,-0.6123709082603455,1.6042709350585938,-0.15078827738761902,0.8011881709098816,-0.6612163782119751
176.0,-0.3863528072834015,-0.6268256902694702,1.6344596147537231,-0.20566844940185547,0.8427920341491699,-0.6024922728538513
177.0,-0.3683259189128876,-0.6470465064048767,1.676286220550537,-0.2831161618232727,0.910891056060791,-0.5155627727508545
178.0,-0.33872371912002563,-0.6682983636856079,1.7224994897842407,-0.3666529357433319,1.0117727518081665,-0.41076621413230896
179.0,-0.349209189414978,-0.663299024105072,1.7050966024398804,-0.33427634835243225,0.9731335639953613,-0.4485328495502472
180.0,-0.35657089948654175,-0.6603471636772156,1.6906596422195435,-0.3077602684497833,0.9450659155845642,-0.47663405537605286
181.0,-0.3400152921676636,-0.6751128435134888,1.7121577262878418,-0.3460388481616974,0.9983834624290466,-0.42116448283195496
182.0,-0.3532620370388031,-0.6678802371025085,1.6892454624176025,-0.30391156673431396,0.949006974697113,-0.4702380299568176
183.0,-0.36505088210105896,-0.6565423011779785,1.6722873449325562,-0.274198055267334,0.9116750359535217,-0.5112008452415466
184.0,-0.3801703453063965,-0.6403672695159912,1.6361031532287598,-0.20715829730033875,0.8523373603820801,-0.5850598216056824
185.0,-0.3912896513938904,-0.6258993744850159,1.6069926023483276,-0.15387389063835144,0.8099884390830994,-0.643329918384552
186.0,-0.4117707312107086,-0.5877629518508911,1.5356627702713013,-0.019644416868686676,0.7278577089309692,-0.7841276526451111
187.0,-0.4217601716518402,-0.5637195110321045,1.4936436414718628,0.05930746719241142,0.6894341707229614,-0.8651431798934937
188.0,-0.40191370248794556,-0.6076189875602722,1.5809608697891235,-0.10650985687971115,0.7751437425613403,-0.6994096636772156
189.0,-0.3914012312889099,-0.6232910752296448,1.613829255104065,-0.16716040670871735,0.8166425824165344,-0.6362682580947876
190.0,-0.3791983127593994,-0.638387143611908,1.6455825567245483,-0.2253626137971878,0.8632370233535767,-0.5731081962585449
191.0,-0.4149155914783478,-0.5800732970237732,1.5340535640716553,-0.01745021902024746,0.7246869206428528,-0.7941811084747314
192.0,-0.4232751429080963,-0.5601359605789185,1.5020288228988647,0.04217299446463585,0.6954283118247986,-0.8571357727050781
193.0,-0.4311129152774811,-0.5342664122581482,1.4532783031463623,0.13799084722995758,0.6590604782104492,-0.9508329629898071
194.0,-0.43636906147003174,-0.5111015439033508,1.4067184925079346,0.23040109872817993,0.6303432583808899,-1.037749171257019
195.0,-0.42995041608810425,-0.5360338687896729,1.4470175504684448,0.15110838413238525,0.6552056670188904,-0.957862138748169
196.0,-0.42724165320396423,-0.5436064004898071,1.4506515264511108,0.14438432455062866,0.6581401824951172,-0.9450214505195618
197.0,-0.4371490478515625,-0.502730667591095,1.3815536499023438,0.2811398506164551,0.6164184212684631,-1.080412745475769
198.0,-0.4414753019809723,-0.47871026396751404,1.343760371208191,0.35787761211395264,0.5996729135513306,-1.1569126844406128
199.0,-0.4453108608722687,-0.4511670768260956,1.2997413873672485,0.449453204870224,0.58371901512146,-1.247319221496582
200.0,-0.4490875005722046,-0.426396906375885,1.2634005546569824,0.5214189291000366,0.5740628242492676,-1.3194392919540405
201.0,-0.45125511288642883,-0.38847780227661133,1.1994868516921997,0.6558085680007935,0.5628662109375,-1.448026180267334
202.0,-0.45219510793685913,-0.3636917173862457,1.1588523387908936,0.7403334975242615,0.5596925020217896,-1.5291446447372437
203.0,-0.4506188929080963,-0.3533693552017212,1.134253978729248,0.7937503457069397,0.5574023723602295,-1.5753196477890015
204.0,-0.45008227229118347,-0.3230370581150055,1.0826592445373535,0.901103138923645,0.5596371293067932,-1.6768019199371338
205.0,-0.44780638813972473,-0.2757541537284851,1.0018433332443237,1.0641485452651978,0.5718101859092712,-1.8300514221191406
206.0,-0.44595587253570557,-0.24676218628883362,0.9526577591896057,1.15673828125,0.5844385623931885,-1.9165292978286743
207.0,-0.4505399763584137,-0.29061904549598694,1.0339442491531372,0.9976063370704651,0.5674697756767273,-1.7717734575271606
208.0,-0.4432322680950165,-0.20943301916122437,0.8899080157279968,1.2665129899978638,0.6054519414901733,-2.0186383724212646
209.0,-0.4527571201324463,-0.30476075410842896,1.063248634338379,0.9351363778114319,0.5641567707061768,-1.7158571481704712
210.0,-0.4515496492385864,-0.27370116114616394,1.0105323791503906,1.0376030206680298,0.5724533796310425,-1.8116912841796875
211.0,-0.4497355818748474,-0.2471441775560379,0.9638491868972778,1.1259067058563232,0.5824765563011169,-1.892919659614563
212.0,-0.44229423999786377,-0.1896032840013504,0.8571098446846008,1.315975546836853,0.6164844632148743,-2.063300609588623
213.0,-0.44700655341148376,-0.21808959543704987,0.913422703742981,1.2185505628585815,0.5987244844436646,-1.9789466857910156
214.0,-0.4417802393436432,-0.17214469611644745,0.8289275765419006,1.3556994199752808,0.6263483762741089,-2.099092483520508
215.0,-0.4465501308441162,-0.1983170360326767,0.8820663094520569,1.2655055522918701,0.608988344669342,-2.022190570831299
216.0,-0.44989803433418274,-0.22025370597839355,0.9246866106987,1.191314458847046,0.5959681272506714,-1.9573824405670166
217.0,-0.45240503549575806,-0.25517457723617554,0.9840790033340454,1.0823817253112793,0.5785024762153625,-1.8557223081588745
218.0,-0.4542493224143982,-0.2800211012363434,1.0291560888290405,0.9958527684211731,0.5706844329833984,-1.7769384384155273
219.0,-0.455798476934433,-0.32863500714302063,1.1111916303634644,0.8307322859764099,0.5607908964157104,-1.6209625005722046
220.0,-0.45386365056037903,-0.33946242928504944,1.1225930452346802,0.811427652835846,0.5594630837440491,-1.5988305807113647
221.0,-0.4541066586971283,-0.36042195558547974,1.1607067584991455,0.732981264591217,0.5611366033554077,-1.5264767408370972
222.0,-0.4528091251850128,-0.4181317687034607,1.2648483514785767,0.514176607131958,0.5764743089675903,-1.3219554424285889
223.0,-0.4546356499195099,-0.39124149084091187,1.2190940380096436,0.6093279719352722,0.5675696730613708,-1.4127157926559448
224.0,-0.45567813515663147,-0.3644290268421173,1.1743485927581787,0.7020241618156433,0.5631921291351318,-1.5012259483337402
225.0,-0.45779791474342346,-0.34946492314338684,1.1558786630630493,0.735733151435852,0.5634254813194275,-1.5369126796722412
226.0,-0.45743995904922485,-0.3766636252403259,1.2042629718780518,0.6372659206390381,0.5672852993011475,-1.4453805685043335
227.0,-0.45374131202697754,-0.4230929911136627,1.2812964916229248,0.4785892963409424,0.5818694829940796,-1.2928574085235596
228.0,-0.4526890218257904,-0.44006434082984924,1.3159013986587524,0.40754684805870056,0.5927636623382568,-1.228432536125183
229.0,-0.45750096440315247,-0.3982275724411011,1.2454500198364258,0.5490818619728088,0.5738641619682312,-1.3638899326324463
230.0,-0.45586156845092773,-0.41975972056388855,1.2853436470031738,0.46746593713760376,0.5842459797859192,-1.2880609035491943
231.0,-0.45946869254112244,-0.3726195693016052,1.205276370048523,0.6313140392303467,0.5687361359596252,-1.4442089796066284
232.0,-0.4601568877696991,-0.38729190826416016,1.2359163761138916,0.5657472610473633,0.5734111070632935,-1.3852152824401855
233.0,-0.4557191729545593,-0.43603676557540894,1.324022650718689,0.3867619037628174,0.5971179604530334,-1.217441201210022
234.0,-0.45252877473831177,-0.4581131935119629,1.361794114112854,0.31186485290527344,0.6103178858757019,-1.1456811428070068
235.0,-0.45191463828086853,-0.4672423005104065,1.386048674583435,0.26129817962646484,0.621878981590271,-1.1017780303955078
236.0,-0.44727805256843567,-0.48679932951927185,1.4186524152755737,0.19767257571220398,0.6388746500015259,-1.0389633178710938
237.0,-0.4388960897922516,-0.5185424089431763,1.4768224954605103,0.08507777005434036,0.6740288138389587,-0.930171549320221
238.0,-0.4314125180244446,-0.5397716164588928,1.5168815851211548,0.007854175753891468,0.7049828171730042,-0.8541147708892822
239.0,-0.441501259803772,-0.5074608325958252,1.4491366147994995,0.13979656994342804,0.656343400478363,-0.9789866805076599
240.0,-0.44716888666152954,-0.48315778374671936,1.4020782709121704,0.23211954534053802,0.629425585269928,-1.0663597583770752
241.0,-0.43358591198921204,-0.5342870354652405,1.495935320854187,0.049204085022211075,0.6879115104675293,-0.8891386985778809
242.0,-0.42403653264045715,-0.5570778250694275,1.5427616834640503,-0.04006880521774292,0.7285068035125732,-0.8020249605178833
243.0,-0.4165200889110565,-0.5726375579833984,1.572487473487854,-0.09556647390127182,0.7573338747024536,-0.7458198070526123
244.0,-0.40675073862075806,-0.5904362797737122,1.6042506694793701,-0.1548873633146286,0.7932437062263489,-0.6826831698417664
245.0,-0.38864991068840027,-0.6130634546279907,1.652982234954834,-0.2444637417793274,0.8601706624031067,-0.5872375965118408
246.0,-0.3754894435405731,-0.62665855884552,1.683228611946106,-0.30021750926971436,0.9082184433937073,-0.5258947610855103
247.0,-0.4001349210739136,-0.5968234539031982,1.6292957067489624,-0.2023770809173584,0.8244383335113525,-0.6387156844139099
248.0,-0.4117136597633362,-0.5805302262306213,1.5967490673065186,-0.14220809936523438,0.7821202278137207,-0.7031978368759155
249.0,-0.42437729239463806,-0.5556516647338867,1.5500303506851196,-0.05517986789345741,0.7346494197845459,-0.7925243377685547
250.0,-0.4295567274093628,-0.532141923904419,1.5031020641326904,0.05644422024488449,0.7314798831939697,-0.8889670968055725
251.0,-0.43555060029029846,-0.5077977776527405,1.4526400566101074,0.16127394139766693,0.7154313325881958,-0.9845528602600098
252.0,-0.4330402612686157,-0.4876096546649933,1.4016258716583252,0.2867218255996704,0.7468773722648621,-1.084492802619934
253.0,-0.36883559823036194,-0.5100300908088684,1.3741002082824707,0.4376370310783386,1.0844876766204834,-1.037711262702942
254.0,-0.41153815388679504,-0.5589510798454285,1.5441768169403076,0.0036842525005340576,0.8119606375694275,-0.8078390955924988
255.0,-0.4089571535587311,-0.5788384675979614,1.5988469123840332,-0.1346435397863388,0.8032233715057373,-0.7040388584136963
256.0,-0.39245346188545227,-0.5910416841506958,1.6096165180206299,-0.12184281647205353,0.8741759061813354,-0.6766586303710938
257.0,-0.3077508807182312,-0.5488144159317017,1.431835412979126,0.38968855142593384,1.2769970893859863,-0.755833089351654
258.0,-0.383407860994339,-0.6127914786338806,1.6718016862869263,-0.27813848853111267,0.8905500769615173,-0.5573873519897461
259.0,-0.35773247480392456,-0.6326355338096619,1.7100908756256104,-0.3402799069881439,0.9780592322349548,-0.4693880081176758
260.0,-0.36806604266166687,-0.6287490129470825,1.700455904006958,-0.3329565227031708,0.9386242032051086,-0.49373146891593933
261.0,-0.3517344295978546,-0.6417017579078674,1.723624587059021,-0.3745856285095215,0.9905597567558289,-0.43827903270721436
262.0,-0.33645471930503845,-0.6510648131370544,1.7438589334487915,-0.41151124238967896,1.039748191833496,-0.3896210491657257
263.0,-0.322445809841156,-0.6585952043533325,1.757315993309021,-0.4363364577293396,1.0834308862686157,-0.3501885235309601
264.0,-0.3425355851650238,-0.6397536396980286,1.716098427772522,-0.33219876885414124,1.032116413116455,-0.44126999378204346
265.0,-0.294627845287323,-0.6275780200958252,1.62226402759552,-0.023900162428617477,1.2214876413345337,-0.46384894847869873
266.0,-0.25852710008621216,-0.5606281757354736,1.4491654634475708,0.39438769221305847,1.3974390029907227,-0.527488648891449
267.0,-0.24034032225608826,-0.5185350179672241,1.369601845741272,0.5855277180671692,1.4926739931106567,-0.5241144895553589
268.0,-0.24861635267734528,-0.5183549523353577,1.3649853467941284,0.5756285786628723,1.4684909582138062,-0.5988755226135254
269.0,-0.2723112106323242,-0.5493456125259399,1.4270267486572266,0.4320971965789795,1.375953197479248,-0.6272016763687134
270.0,-0.29852864146232605,-0.5738744139671326,1.4859676361083984,0.28738933801651,1.2735931873321533,-0.6448403596878052
271.0,-0.2527325749397278,-0.5028127431869507,1.334118127822876,0.6281287670135498,1.4868725538253784,-1.8222970962524414
272.0,-0.24933432042598724,-0.5116053819656372,1.357475757598877,0.6089340448379517,1.4918521642684937,-1.8187111616134644
273.0,-0.25525739789009094,-0.5061548948287964,1.3479926586151123,0.6272501349449158,1.4953614473342896,-1.8249969482421875
274.0,-0.26199468970298767,-0.5025259852409363,1.3398244380950928,0.635051965713501,1.489967703819275,-1.8318628072738647
275.0,-0.2619001567363739,-0.5061575770378113,1.3418606519699097,0.6137112975120544,1.4716790914535522,-0.6815503835678101
276.0,-0.2619001567363739,-0.5061575770378113,1.3418606519699097,0.6137112975120544,1.4716790914535522,-0.6815503835678101
277.0,-0.2619796097278595,-0.5062854886054993,1.3420989513397217,0.6131399273872375,1.4712650775909424,-0.6816344261169434
278.0,-0.2621442973613739,-0.5065506100654602,1.3425929546356201,0.6119556427001953,1.4704062938690186,-0.6818089485168457
279.0,-0.2623889446258545,-0.5069445371627808,1.3433271646499634,0.6101959943771362,1.469129204750061,-0.6820687055587769
280.0,-0.26270732283592224,-0.5074575543403625,1.3442829847335815,0.6079063415527344,1.4674665927886963,-0.6824069023132324
281.0,-0.26309284567832947,-0.5080791115760803,1.3454413414001465,0.6051327586174011,1.4654518365859985,-0.6828168034553528
282.0,-0.2635391354560852,-0.5087989568710327,1.3467825651168823,0.601921021938324,1.4631186723709106,-0.6832917928695679
283.0,-0.26403963565826416,-0.5096063017845154,1.348287582397461,0.5983175039291382,1.460500955581665,-0.6838250756263733
284.0,-0.26458796858787537,-0.5104907751083374,1.349937081336975,0.5943692326545715,1.457633137702942,-0.684410035610199
285.0,-0.26517772674560547,-0.5114421248435974,1.3517111539840698,0.5901234745979309,1.4545501470565796,-0.6850399971008301
286.0,-0.2658025324344635,-0.5124505162239075,1.353590726852417,0.5856286883354187,1.4512866735458374,-0.6857082843780518
287.0,-0.2664560377597809,-0.5135055184364319,1.3555564880371094,0.5809338688850403,1.4478778839111328,-0.6864080429077148
288.0,-0.26713162660598755,-0.5145968794822693,1.3575888872146606,0.5760875344276428,1.4443587064743042,-0.6871324777603149
289.0,-0.26782265305519104,-0.5157139897346497,1.3596677780151367,0.5711385011672974,1.44076406955719,-0.687874436378479
290.0,-0.2685222327709198,-0.5168460607528687,1.3617730140686035,0.5661360025405884,1.4371289014816284,-0.6886262893676758
291.0,-0.26922351121902466,-0.5179818868637085,1.3638840913772583,0.561129093170166,1.4334882497787476,-0.689380407333374
292.0,-0.2699194550514221,-0.5191099643707275,1.3659799098968506,0.5561671257019043,1.4298778772354126,-0.6901295781135559
293.0,-0.2706030011177063,-0.5202189087867737,1.3680393695831299,0.5512999892234802,1.4263337850570679,-0.6908659338951111
294.0,-0.2712668180465698,-0.5212969779968262,1.3700406551361084,0.5465783476829529,1.4228919744491577,-0.6915819048881531
295.0,-0.2719035744667053,-0.5223322510719299,1.3719618320465088,0.5420522689819336,1.419588565826416,-0.6922696828842163
296.0,-0.27250632643699646,-0.5233131647109985,1.373781442642212,0.5377709269523621,1.416460633277893,-0.6929214000701904
297.0,-0.27306807041168213,-0.524228036403656,1.3754783868789673,0.5337828397750854,1.4135444164276123,-0.6935292482376099
298.0,-0.27358201146125793,-0.5250650644302368,1.3770312070846558,0.5301358103752136,1.4108766317367554,-0.694085419178009
299.0,-0.27404141426086426,-0.5258126258850098,1.3784185647964478,0.5268777012825012,1.4084937572479248,-0.6945821642875671
300.0,-0.2744393050670624,-0.526459276676178,1.3796194791793823,0.5240569114685059,1.4064322710037231,-0.6950119733810425
301.0,-0.2747683823108673,-0.5269937515258789,1.3806127309799194,0.5217228531837463,1.4047281742095947,-0.6953672170639038
302.0,-0.27502167224884033,-0.5274046659469604,1.3813772201538086,0.5199251770973206,1.4034174680709839,-0.6956403851509094
303.0,-0.27519240975379944,-0.5276811718940735,1.381892204284668,0.5187129378318787,1.40253484249115,-0.6958242654800415
304.0,-0.2752749025821686,-0.5278146266937256,1.3821407556533813,0.5181268453598022,1.4021087884902954,-0.6959129571914673
305.0,-0.2752749025821686,-0.5278146266937256,1.3821407556533813,0.5181268453598022,1.4021087884902954,-0.6959129571914673
306.0,-0.2752749025821686,-0.5278146266937256,1.3821407556533813,0.5181268453598022,1.4021087884902954,-0.6959130167961121
307.0,-0.2752290368080139,-0.5276302695274353,1.3817741870880127,0.5188415050506592,1.4024899005889893,-0.6962777972221375
308.0,-0.27513375878334045,-0.5272492170333862,1.3810136318206787,0.5203216671943665,1.403280258178711,-0.6970340013504028
309.0,-0.2749921381473541,-0.5266836881637573,1.3798823356628418,0.5225205421447754,1.4044556617736816,-0.6981582045555115
310.0,-0.27480804920196533,-0.5259485244750977,1.3784093856811523,0.5253797173500061,1.4059854745864868,-0.6996204257011414
311.0,-0.2745857834815979,-0.525059163570404,1.3766255378723145,0.528839647769928,1.4078385829925537,-0.701390266418457
312.0,-0.2743295431137085,-0.5240306854248047,1.3745607137680054,0.5328406691551208,1.4099832773208618,-0.7034369111061096
313.0,-0.2740434408187866,-0.5228782296180725,1.3722448348999023,0.5373232960700989,1.4123878479003906,-0.7057299017906189
314.0,-0.2737312614917755,-0.5216172933578491,1.36970853805542,0.5422275066375732,1.415021538734436,-0.7082393765449524
315.0,-0.27339640259742737,-0.5202627778053284,1.3669819831848145,0.547493577003479,1.4178528785705566,-0.7109351754188538
316.0,-0.2730422019958496,-0.5188296437263489,1.3640952110290527,0.5530615448951721,1.420849323272705,-0.7137869000434875
317.0,-0.2726719081401825,-0.5173324942588806,1.3610793352127075,0.5588709712028503,1.4239778518676758,-0.7167637944221497
318.0,-0.27228912711143494,-0.5157867670059204,1.3579654693603516,0.5648614168167114,1.4272056818008423,-0.7198348641395569
319.0,-0.2718978524208069,-0.5142080783843994,1.354785442352295,0.5709730386734009,1.4305006265640259,-0.7229687571525574
320.0,-0.271502286195755,-0.5126118063926697,1.3515714406967163,0.5771456360816956,1.4338293075561523,-0.7261343002319336
321.0,-0.27110639214515686,-0.5110134482383728,1.3483549356460571,0.583318829536438,1.4371585845947266,-0.7293006181716919
322.0,-0.2707139551639557,-0.5094281435012817,1.3451672792434692,0.5894328951835632,1.4404546022415161,-0.7324366569519043
323.0,-0.27032849192619324,-0.5078708529472351,1.3420400619506836,0.595428466796875,1.4436845779418945,-0.7355116605758667
324.0,-0.26995331048965454,-0.5063568353652954,1.3390045166015625,0.6012458801269531,1.446816086769104,-0.7384940981864929
325.0,-0.26959192752838135,-0.5049015283584595,1.3360927104949951,0.6068251729011536,1.4498162269592285,-0.7413529753684998
326.0,-0.2692478895187378,-0.5035209655761719,1.3333368301391602,0.6121059060096741,1.452651858329773,-0.7440572381019592
327.0,-0.26892516016960144,-0.502230703830719,1.3307687044143677,0.6170269250869751,1.4552905559539795,-0.7465760707855225
328.0,-0.2686273753643036,-0.5010461211204529,1.328420639038086,0.6215271353721619,1.457700252532959,-0.748878538608551
329.0,-0.2683582901954651,-0.49998265504837036,1.3263250589370728,0.6255457997322083,1.459849238395691,-0.7509339451789856
330.0,-0.2681216597557068,-0.4990561902523041,1.3245139122009277,0.6290218830108643,1.4617050886154175,-0.7527117729187012
331.0,-0.26792144775390625,-0.49828270077705383,1.3230185508728027,0.6318948268890381,1.4632362127304077,-0.7541809678077698
332.0,-0.2677631676197052,-0.49768051505088806,1.32187020778656,0.634104311466217,1.4644120931625366,-0.7553102970123291
333.0,-0.26765331625938416,-0.4972696304321289,1.3210985660552979,0.6355916857719421,1.465202808380127,-0.756070077419281
334.0,-0.26759853959083557,-0.49706849455833435,1.320726990699768,0.6363096833229065,1.4655842781066895,-0.7564365267753601
335.0,-0.26759853959083557,-0.49706849455833435,1.320726990699768,0.6363096833229065,1.4655842781066895,-0.7564365267753601
336.0,-0.2682285010814667,-0.5021089315414429,1.3346389532089233,0.6255621910095215,1.469664454460144,-0.7283763289451599
337.0,-0.27077463269233704,-0.49600690603256226,1.3252222537994385,0.6492629051208496,1.4833108186721802,-1.840881586074829
338.0,-0.2757369577884674,-0.4917132258415222,1.315683126449585,0.6587457656860352,1.480238437652588,-1.8460004329681396
339.0,-0.2845339775085449,-0.48439693450927734,1.2988178730010986,0.6732268333435059,1.4716359376907349,-1.855074405670166
340.0,-0.28891319036483765,-0.4786851704120636,1.2861056327819824,0.6856673359870911,1.4694234132766724,-1.8596495389938354
341.0,-0.28420060873031616,-0.48762696981430054,1.3012460470199585,0.6552713513374329,1.4506592750549316,-0.8644205331802368
342.0,-0.2803456783294678,-0.4918990135192871,1.3119454383850098,0.6477528810501099,1.4570658206939697,-0.8320455551147461
343.0,-0.27979883551597595,-0.4997195303440094,1.324634313583374,0.6159633994102478,1.4313560724258423,-0.8162983059883118
344.0,-0.29483020305633545,-0.5071540474891663,1.3395475149154663,0.5742670893669128,1.3789570331573486,-0.8555595278739929
345.0,-0.31856176257133484,-0.5223079919815063,1.3758611679077148,0.48533686995506287,1.2782268524169922,-0.8846921324729919
346.0,-0.29430943727493286,-0.4796610176563263,1.2816134691238403,0.6653612852096558,1.4215532541275024,-0.9611053466796875
347.0,-0.2943650186061859,-0.4672049582004547,1.2546731233596802,0.7013774514198303,1.4430623054504395,-0.9981096386909485
348.0,-0.2937977612018585,-0.47497811913490295,1.2756913900375366,0.687917172908783,1.4521845579147339,-0.9628118276596069
349.0,-0.29756736755371094,-0.46958115696907043,1.2638397216796875,0.6999176144599915,1.4517854452133179,-1.8687443733215332
350.0,-0.3023577928543091,-0.46103179454803467,1.2453113794326782,0.7194352746009827,1.4525609016418457,-1.8738011121749878
351.0,-0.30572864413261414,-0.4572659730911255,1.235084056854248,0.721969723701477,1.4356931447982788,-1.08493971824646
352.0,-0.3090224862098694,-0.44758424162864685,1.2149279117584229,0.7464773654937744,1.4478907585144043,-1.8808938264846802
353.0,-0.2999287247657776,-0.45855751633644104,1.2357357740402222,0.7196707129478455,1.4358954429626465,-1.0673153400421143
354.0,-0.3345634639263153,-0.47894635796546936,1.2855342626571655,0.6151837110519409,1.2698177099227905,-1.1020069122314453
355.0,-0.3008613884449005,-0.4481734335422516,1.212699294090271,0.7450276017189026,1.449028491973877,-1.8725743293762207
356.0,-0.3360893130302429,-0.461137056350708,1.24654221534729,0.6681159138679504,1.284361720085144,-1.1757235527038574
357.0,-0.42512303590774536,-0.4686640501022339,1.3449116945266724,0.4189176857471466,0.815178632736206,-1.1796070337295532
358.0,-0.4554862082004547,-0.43781372904777527,1.3342700004577637,0.3699420988559723,0.6171815395355225,-1.2030854225158691
359.0,-0.4554862082004547,-0.43781372904777527,1.3342700004577637,0.3699420988559723,0.6171815395355225,-1.2030854225158691
360.0,-0.455916166305542,-0.4410051107406616,1.336265206336975,0.3510752022266388,0.6054524183273315,-1.1845273971557617
361.0,-0.45658183097839355,-0.4464215934276581,1.340828776359558,0.3117392659187317,0.5812158584594727,-1.146017074584961
362.0,-0.4572182595729828,-0.453628808259964,1.347974419593811,0.2530745565891266,0.5452246069908142,-1.0887185335159302
363.0,-0.4575984477996826,-0.46232813596725464,1.357627272605896,0.1765618920326233,0.49841544032096863,-1.014100193977356
364.0,-0.45756223797798157,-0.4722188115119934,1.3696460723876953,0.08380316942930222,0.4417474567890167,-0.9237334132194519
365.0,-0.4570213258266449,-0.4830716848373413,1.3838592767715454,-0.023603983223438263,0.37618234753608704,-0.8191558718681335
366.0,-0.4559677541255951,-0.4946123957633972,1.4000171422958374,-0.1440104842185974,0.3026687502861023,-0.701980471611023
367.0,-0.45438170433044434,-0.5066189169883728,1.417881965637207,-0.27582526206970215,0.2221386432647705,-0.5737155079841614
368.0,-0.45227083563804626,-0.5187875628471375,1.4371832609176636,-0.4174398183822632,0.1355155110359192,-0.4359367787837982
369.0,-0.44956356287002563,-0.5308743119239807,1.4577243328094482,-0.5672825574874878,0.04372633993625641,-0.29013365507125854
370.0,-0.4461907148361206,-0.5425734519958496,1.4793107509613037,-0.7237353324890137,-0.0522845983505249,-0.13787947595119476
371.0,-0.4420490860939026,-0.5537017583847046,1.5018213987350464,-0.8851674795150757,-0.15152834355831146,0.019276734441518784
372.0,-0.43710604310035706,-0.5640877485275269,1.5250859260559082,-1.0499147176742554,-0.25298750400543213,0.17970535159111023
373.0,-0.4313507676124573,-0.5737135410308838,1.548922061920166,-1.2162894010543823,-0.35559284687042236,0.34178268909454346
374.0,-0.42485469579696655,-0.5825669765472412,1.5730458498001099,-1.3826185464859009,-0.45826175808906555,0.503833532333374
375.0,-0.4177071750164032,-0.5907402634620667,1.5971359014511108,-1.547239065170288,-0.5599002242088318,0.6642253994941711
376.0,-0.40999171137809753,-0.598231315612793,1.6208133697509766,-1.7084972858428955,-0.6594347953796387,0.8212893009185791
377.0,-0.4018048942089081,-0.6050677299499512,1.6437504291534424,-1.8647571802139282,-0.7558206915855408,0.9734529256820679
378.0,-0.3931960165500641,-0.6111579537391663,1.6656492948532104,-2.0143942832946777,-0.8480689525604248,1.119091510772705
379.0,-0.38427960872650146,-0.6164348721504211,1.6863220930099487,-2.155768394470215,-0.9351993799209595,1.256711721420288
380.0,-0.37511613965034485,-0.6207720041275024,1.7055970430374146,-2.2872934341430664,-1.016286015510559,1.384728193283081
381.0,-0.36590415239334106,-0.624151349067688,1.7233539819717407,-2.407372236251831,-1.0903637409210205,1.5016807317733765
382.0,-0.3569037914276123,-0.6265894174575806,1.7394015789031982,-2.5144543647766113,-1.156490445137024,1.6059900522232056
383.0,-0.34857428073883057,-0.628253698348999,1.7535170316696167,-2.606985330581665,-1.2136847972869873,1.6961718797683716
384.0,-0.3413439989089966,-0.6293002367019653,1.7653982639312744,-2.6834182739257812,-1.2609634399414062,1.7706408500671387
385.0,-0.3356211483478546,-0.6299146413803101,1.774705171585083,-2.7421951293945312,-1.29733145236969,1.8278926610946655
386.0,-0.33168959617614746,-0.6302173137664795,1.7810754776000977,-2.781761407852173,-1.3218131065368652,1.8664004802703857
387.0,-0.32977089285850525,-0.6303236484527588,1.784197211265564,-2.8008675575256348,-1.3336312770843506,1.8849797248840332
388.0,-0.32977089285850525,-0.6303236484527588,1.784197211265564,-2.8008675575256348,-1.3336312770843506,1.8849797248840332
389.0,-0.3109738826751709,-0.6374830007553101,1.7831001281738281,-2.7741434574127197,-1.429782509803772,1.9609293937683105
390.0,-0.31504395604133606,-0.6364524364471436,1.774376392364502,-2.7543113231658936,-1.4423657655715942,1.2541834115982056
391.0,-0.3155358135700226,-0.6333531141281128,1.7663718461990356,-2.7539987564086914,-1.4231973886489868,1.8999017477035522
392.0,-0.3552834987640381,-0.6176044344902039,1.7891762256622314,-2.843975782394409,-1.209511637687683,1.8516199588775635
393.0,-0.3281790018081665,-0.6278653740882874,1.7610352039337158,-2.761723518371582,-1.3562471866607666,1.8359822034835815
394.0,-0.3153613209724426,-0.6287218928337097,1.7418408393859863,-2.7201144695281982,-1.4329122304916382,1.8284237384796143
395.0,-0.3184109330177307,-0.6321429014205933,1.7568910121917725,-2.7341668605804443,-1.438965916633606,1.250512719154358
396.0,-0.32058197259902954,-0.6288064122200012,1.7421464920043945,-2.714887857437134,-1.4441242218017578,1.2483338117599487
397.0,-0.32214710116386414,-0.6251514554023743,1.728293538093567,-2.6996681690216064,-1.438469409942627,1.246448278427124
398.0,-0.32248207926750183,-0.6229382753372192,1.723159670829773,-2.700056791305542,-1.4151984453201294,1.7560839653015137
399.0,-0.31874847412109375,-0.619621992111206,1.705976128578186,-2.6780357360839844,-1.430543303489685,1.7191214561462402
400.0,-0.3241446316242218,-0.6190674901008606,1.7050268650054932,-2.6733362674713135,-1.4403270483016968,1.244329810142517
401.0,-0.3263036906719208,-0.6160397529602051,1.696562647819519,-2.667288064956665,-1.4103424549102783,1.6704246997833252
402.0,-0.3251187205314636,-0.614031970500946,1.6862833499908447,-2.6521942615509033,-1.438585638999939,1.2431528568267822
403.0,-0.32620856165885925,-0.6097885966300964,1.6716375350952148,-2.6363883018493652,-1.4203346967697144,1.5957626104354858
404.0,-0.32575535774230957,-0.605065107345581,1.6544748544692993,-2.617936372756958,-1.435197114944458,1.2422034740447998
405.0,-0.32306355237960815,-0.6033573150634766,1.6470723152160645,-2.609926700592041,-1.4208523035049438,1.5401149988174438
406.0,-0.32564473152160645,-0.6012232303619385,1.6410025358200073,-2.6033146381378174,-1.435876488685608,1.2422808408737183
407.0,-0.3246835768222809,-0.5973535776138306,1.6280107498168945,-2.5905628204345703,-1.4428532123565674,1.2434977293014526
408.0,-0.3250928521156311,-0.5963195562362671,1.6237090826034546,-2.5829169750213623,-1.4113980531692505,1.4748868942260742
409.0,-0.3317807912826538,-0.5929612517356873,1.6119537353515625,-2.5571372509002686,-1.3589975833892822,1.416651964187622
410.0,-0.39391788840293884,-0.5714522004127502,1.5975300073623657,-2.4615838527679443,-1.0136926174163818,1.3188180923461914
411.0,-0.38275161385536194,-0.5827633142471313,1.6280083656311035,-2.5357630252838135,-1.082648754119873,1.4009085893630981
412.0,-0.3453734815120697,-0.5977359414100647,1.6400429010391235,-2.5878584384918213,-1.2917708158493042,1.4793732166290283
413.0,-0.38844984769821167,-0.5854099988937378,1.6546152830123901,-2.5851964950561523,-1.0573678016662598,1.4595638513565063
414.0,-0.32721227407455444,-0.6061533093452454,1.6588540077209473,-2.621032476425171,-1.3898975849151611,1.5570987462997437
415.0,-0.3724813759326935,-0.5960373878479004,1.6770944595336914,-2.637803554534912,-1.1439341306686401,1.5368714332580566
416.0,-0.35478919744491577,-0.6060796976089478,1.689327597618103,-2.6590864658355713,-1.242211937904358,1.5864204168319702
417.0,-0.3678731918334961,-0.6040114164352417,1.7116652727127075,-2.7018792629241943,-1.170709252357483,1.6308866739273071
418.0,-0.452403724193573,-0.5427981615066528,1.6996723413467407,-2.6404635906219482,-0.6641733050346375,1.4602185487747192
419.0,-0.46176615357398987,-0.5314520001411438,1.6652510166168213,-2.5107786655426025,-0.5787750482559204,1.3404890298843384
420.0,-0.46465742588043213,-0.5256109237670898,1.7191704511642456,-2.703416347503662,-0.567404568195343,1.4985694885253906
421.0,-0.40011391043663025,-0.5895177721977234,1.735323190689087,-2.750584363937378,-0.9947344660758972,1.633124589920044
422.0,-0.39184051752090454,-0.5957111716270447,1.7520368099212646,-2.785686492919922,-1.0363320112228394,1.6853960752487183
423.0,-0.3890298306941986,-0.5981909036636353,1.7673921585083008,-2.818351984024048,-1.0481871366500854,1.7268177270889282
424.0,-0.3931216895580292,-0.5939979553222656,1.7915998697280884,-2.8872151374816895,-1.0201442241668701,1.7951092720031738
425.0,-0.4604494571685791,-0.5051745176315308,1.7989617586135864,-3.070071220397949,-0.5815064311027527,1.8152347803115845
426.0,-0.46324777603149414,-0.5144354701042175,1.771111011505127,-2.928236961364746,-0.5708832740783691,1.6903852224349976
427.0,-0.4639013707637787,-0.5196704268455505,1.7524465322494507,-2.8422443866729736,-0.5680755376815796,1.6166646480560303
428.0,-0.4618774652481079,-0.522736668586731,1.7614426612854004,-2.8757686614990234,-0.5678829550743103,1.6493536233901978
429.0,-0.4619498550891876,-0.5338072180747986,1.701870322227478,-2.629830837249756,-0.5693213939666748,1.441558837890625
430.0,-0.4596155881881714,-0.5376221537590027,1.664605736732483,-2.5001299381256104,-0.5776936411857605,1.3361423015594482
431.0,-0.46178197860717773,-0.5321204662322998,1.73018217086792,-2.7374651432037354,-0.5651698708534241,1.5336277484893799
432.0,-0.45937487483024597,-0.541100263595581,1.6939553022384644,-2.5922908782958984,-0.5696431398391724,1.4151688814163208
433.0,-0.4601016044616699,-0.532374918460846,1.7490969896316528,-2.8123056888580322,-0.5649301409721375,1.600140929222107
434.0,-0.45983070135116577,-0.5382692813873291,1.7286070585250854,-2.723947525024414,-0.5637401342391968,1.5268102884292603
435.0,-0.4573918282985687,-0.5473837852478027,1.7037086486816406,-2.617201805114746,-0.5662120580673218,1.4407614469528198
436.0,-0.4568255841732025,-0.547286331653595,1.6779189109802246,-2.5301742553710938,-0.5722237825393677,1.3679068088531494
437.0,-0.4536186158657074,-0.5485138893127441,1.630054235458374,-2.377962350845337,-0.5859315395355225,1.245010495185852
438.0,-0.45058873295783997,-0.5454243421554565,1.5939000844955444,-2.277324676513672,-0.601336658000946,1.1633070707321167
439.0,-0.4470994174480438,-0.5418010950088501,1.5591974258422852,-2.189483165740967,-0.6160163283348083,1.0943142175674438
440.0,-0.4573381245136261,-0.5425556898117065,1.6531678438186646,-2.4571521282196045,-0.5797995328903198,1.3046149015426636
441.0,-0.45434826612472534,-0.5417088866233826,1.6137275695800781,-2.338200569152832,-0.5940148830413818,1.2081835269927979
442.0,-0.45054900646209717,-0.5373775362968445,1.572253704071045,-2.2304553985595703,-0.6113752126693726,1.1224581003189087
443.0,-0.44990843534469604,-0.5291300415992737,1.5473371744155884,-2.1769862174987793,-0.6230083703994751,1.0771101713180542
444.0,-0.45653754472732544,-0.5344690084457397,1.6107099056243896,-2.3405869007110596,-0.5962316989898682,1.2055556774139404
445.0,-0.4591929018497467,-0.5349469184875488,1.6398009061813354,-2.42602276802063,-0.5852543711662292,1.2739840745925903
446.0,-0.45376789569854736,-0.5278496146202087,1.5708844661712646,-2.2409145832061768,-0.6133853793144226,1.1245449781417847
447.0,-0.45109570026397705,-0.5221806168556213,1.5385831594467163,-2.164632558822632,-0.6277823448181152,1.0636740922927856
448.0,-0.44717836380004883,-0.5197272300720215,1.5108472108840942,-2.0989151000976562,-0.6410897970199585,1.0137332677841187
449.0,-0.44202879071235657,-0.5144198536872864,1.4757331609725952,-2.023956060409546,-0.6593899130821228,0.9569516181945801
450.0,-0.44503313302993774,-0.525073766708374,1.509894609451294,-2.0880846977233887,-0.6412538886070251,1.008594036102295
451.0,-0.4405645430088043,-0.5219371914863586,1.4820839166641235,-2.0269742012023926,-0.6556171774864197,0.962957501411438
452.0,-0.4421002268791199,-0.5301352739334106,1.5044584274291992,-2.0670535564422607,-0.643660843372345,0.9959893226623535
453.0,-0.43535855412483215,-0.5145093202590942,1.4445542097091675,-1.9522221088409424,-0.6752851009368896,0.9064655900001526
454.0,-0.4325637221336365,-0.505018949508667,1.4158296585083008,-1.9027425050735474,-0.6906779408454895,0.8675429224967957
455.0,-0.4353872239589691,-0.5017260909080505,1.4228978157043457,-1.9235130548477173,-0.6873582601547241,0.8801285624504089
456.0,-0.4282309412956238,-0.48870131373405457,1.374060034751892,-1.8393462896347046,-0.7154495120048523,0.8166033625602722
457.0,-0.42282572388648987,-0.4777427315711975,1.337925672531128,-1.7821872234344482,-0.7369921803474426,0.773517906665802
458.0,-0.4169555902481079,-0.4708695113658905,1.3067132234573364,-1.7303218841552734,-0.7552393078804016,0.7367774248123169
459.0,-0.41538721323013306,-0.46054354310035706,1.2862417697906494,-1.7056275606155396,-0.7675275206565857,0.7162101864814758
460.0,-0.42009100317955017,-0.5058525204658508,1.417319416999817,-2.0018913745880127,-0.7891665697097778,0.9339093565940857
461.0,-0.36598077416419983,-0.5554082989692688,1.5044556856155396,-2.33880877494812,-1.1298491954803467,1.1656545400619507
462.0,-0.3939315378665924,-0.5494391322135925,1.5120868682861328,-2.286076784133911,-0.9841268658638,1.1428110599517822
463.0,-0.3656007647514343,-0.5702340602874756,1.5568971633911133,-2.432986259460449,-1.152123212814331,1.2722338438034058
464.0,-0.39413562417030334,-0.5635668635368347,1.5656166076660156,-2.398437976837158,-1.0033625364303589,1.2540074586868286
465.0,-0.3245807886123657,-0.5827223062515259,1.573935866355896,-2.514951467514038,-1.385904312133789,1.3200252056121826
466.0,-0.3204054534435272,-0.5898595452308655,1.6002275943756104,-2.5588157176971436,-1.4243489503860474,1.418799877166748
467.0,-0.3234657645225525,-0.5880336761474609,1.5965979099273682,-2.556938648223877,-1.4370172023773193,1.244385004043579
468.0,-0.32232946157455444,-0.583565354347229,1.5816054344177246,-2.5405139923095703,-1.435246467590332,1.2454184293746948
469.0,-0.31962504982948303,-0.5759376287460327,1.5573270320892334,-2.5167269706726074,-1.4393384456634521,1.2482998371124268
470.0,-0.3162534236907959,-0.5794881582260132,1.5658388137817383,-2.523481607437134,-1.4303025007247925,1.334776759147644
471.0,-0.3234691321849823,-0.5739611983299255,1.5459340810775757,-2.4830849170684814,-1.3781489133834839,1.2682701349258423
472.0,-0.32365599274635315,-0.5693777799606323,1.5315605401992798,-2.465454578399658,-1.3702685832977295,1.2434903383255005
473.0,-0.33431458473205566,-0.5602326393127441,1.5051552057266235,-2.4107367992401123,-1.2955589294433594,1.2009310722351074
474.0,-0.31671395897865295,-0.5659248232841492,1.523361325263977,-2.4741897583007812,-1.4176729917526245,1.2299706935882568
475.0,-0.31716030836105347,-0.5679966807365417,1.5322318077087402,-2.491224527359009,-1.4381862878799438,1.2507271766662598
476.0,-0.31417468190193176,-0.5623492002487183,1.5156559944152832,-2.4778521060943604,-1.4463680982589722,1.2540935277938843
477.0,-0.3118915557861328,-0.5575931072235107,1.5011928081512451,-2.4640681743621826,-1.4476128816604614,1.256458044052124
478.0,-0.30754637718200684,-0.5483539700508118,1.4734857082366943,-2.4379336833953857,-1.4519001245498657,1.2610492706298828
479.0,-0.310580849647522,-0.5536444783210754,1.485675573348999,-2.43739652633667,-1.4264562129974365,1.1433460712432861
480.0,-0.3070371448993683,-0.5595775246620178,1.5028722286224365,-2.460252285003662,-1.4403833150863647,1.2610642910003662
481.0,-0.32984963059425354,-0.5523499250411987,1.478092074394226,-2.3759169578552246,-1.3026366233825684,1.1417478322982788
482.0,-0.392336368560791,-0.5116982460021973,1.3950798511505127,-2.0544979572296143,-0.9384915828704834,0.9502454400062561
483.0,-0.32735997438430786,-0.5397120714187622,1.4374675750732422,-2.3141210079193115,-1.288266897201538,1.0615367889404297
484.0,-0.34179210662841797,-0.5228726267814636,1.3882739543914795,-2.1815547943115234,-1.1881232261657715,0.9620277285575867
485.0,-0.3940180242061615,-0.48282262682914734,1.3186311721801758,-1.8840057849884033,-0.8963451385498047,0.8257354497909546
486.0,-0.40143024921417236,-0.4332508146762848,1.2059032917022705,-1.5969963073730469,-0.8194851875305176,0.6357440948486328
487.0,-0.3856680989265442,-0.4433591365814209,1.211408019065857,-1.6841163635253906,-0.9037358164787292,0.6783245801925659
488.0,-0.38008832931518555,-0.39513206481933594,1.0959047079086304,-1.4614590406417847,-0.8924486041069031,0.5383843779563904
489.0,-0.3719393014907837,-0.3812711834907532,1.056517243385315,-1.4160127639770508,-0.918887734413147,0.5065433382987976
490.0,-0.3624477684497833,-0.37396982312202454,1.0357109308242798,-1.4249922037124634,-0.95932936668396,0.5022198557853699
491.0,-0.3476351499557495,-0.45594456791877747,1.209613561630249,-1.8190661668777466,-1.0765966176986694,0.708669126033783
492.0,-0.3539314270019531,-0.483256459236145,1.283057451248169,-1.9443671703338623,-1.0805079936981201,0.8035746216773987
493.0,-0.3102709949016571,-0.5331645011901855,1.4169307947158813,-2.322901964187622,-1.3573567867279053,1.012069821357727
494.0,-0.3055822551250458,-0.5408213138580322,1.4429864883422852,-2.37808895111084,-1.3991243839263916,1.0625685453414917
495.0,-0.30144867300987244,-0.5477586984634399,1.4670573472976685,-2.4244840145111084,-1.4439252614974976,1.0918426513671875
496.0,-0.303679883480072,-0.5416518449783325,1.4503819942474365,-2.405414342880249,-1.4360030889511108,1.0660353899002075
497.0,-0.3002761900424957,-0.5364721417427063,1.4387614727020264,-2.406468629837036,-1.457870602607727,1.2686759233474731
498.0,-0.2995946407318115,-0.5348454713821411,1.4289885759353638,-2.3804359436035156,-1.4349335432052612,1.0119215250015259
499.0,-0.296821266412735,-0.5304718017578125,1.4203861951828003,-2.3863437175750732,-1.4562689065933228,1.2721740007400513
500.0,-0.2924243211746216,-0.5242211818695068,1.399882197380066,-2.3588483333587646,-1.4477431774139404,0.9496814012527466
501.0,-0.29242709279060364,-0.5319152474403381,1.4204041957855225,-2.3792991638183594,-1.4501912593841553,0.9830908179283142
502.0,-0.3033146858215332,-0.5247839689254761,1.3911842107772827,-2.296052932739258,-1.3707776069641113,0.9499852061271667
503.0,-0.3054271936416626,-0.5167408585548401,1.3664627075195312,-2.248586416244507,-1.3395464420318604,0.9224250316619873
504.0,-0.2878885269165039,-0.5180358290672302,1.3796966075897217,-2.331418037414551,-1.443711280822754,0.8961052298545837
505.0,-0.28888875246047974,-0.51932692527771,1.3889418840408325,-2.359194755554199,-1.4636030197143555,1.2805249691009521
506.0,-0.28437936305999756,-0.5128381252288818,1.3711978197097778,-2.345149040222168,-1.4690613746643066,1.2852952480316162
507.0,-0.27847498655319214,-0.5055841207504272,1.3487803936004639,-2.3178868293762207,-1.466213345527649,0.825167715549469
508.0,-0.27524158358573914,-0.511282742023468,1.3619182109832764,-2.32892107963562,-1.468410611152649,1.2945988178253174
509.0,-0.29391738772392273,-0.5116631388664246,1.3520058393478394,-2.2524898052215576,-1.3821855783462524,0.864375114440918
510.0,-0.30994361639022827,-0.48948830366134644,1.2832192182540894,-2.0703775882720947,-1.269071102142334,0.7757842540740967
511.0,-0.29729965329170227,-0.4900135397911072,1.2847692966461182,-2.1126205921173096,-1.319034218788147,0.7669674754142761
512.0,-0.27069148421287537,-0.5023764967918396,1.3362473249435425,-2.2995471954345703,-1.4671612977981567,0.7755439877510071
513.0,-0.26542428135871887,-0.4977024793624878,1.3238506317138672,-2.2920448780059814,-1.473993182182312,0.742668628692627
514.0,-0.26853618025779724,-0.49334344267845154,1.3167058229446411,-2.2956764698028564,-1.479560136795044,1.301802158355713
515.0,-0.26386189460754395,-0.48819494247436523,1.3039361238479614,-2.28916335105896,-1.4867914915084839,1.3066829442977905
516.0,-0.2595576345920563,-0.48374107480049133,1.2920618057250977,-2.2797610759735107,-1.4903383255004883,1.311133861541748
517.0,-0.26022836565971375,-0.4854343831539154,1.2885124683380127,-2.247046709060669,-1.4688735008239746,0.6734811067581177
518.0,-0.26860299706459045,-0.48859691619873047,1.2887969017028809,-2.207984447479248,-1.4300756454467773,0.7061020731925964
519.0,-0.284566730260849,-0.461153119802475,1.2019304037094116,-1.9825667142868042,-1.3200445175170898,0.6284706592559814
520.0,-0.2920779287815094,-0.46730536222457886,1.2193386554718018,-1.9965734481811523,-1.3028606176376343,0.6639508008956909
521.0,-0.293548047542572,-0.4798535704612732,1.2546718120574951,-2.0623703002929688,-1.3173274993896484,0.7111454606056213
522.0,-0.3548465669155121,-0.3485043942928314,0.9735816121101379,-1.3314095735549927,-0.9760809540748596,0.44590049982070923
523.0,-0.34248703718185425,-0.32763901352882385,0.9179843664169312,-1.2751857042312622,-1.0143961906433105,0.40721595287323
524.0,-0.35819634795188904,-0.36481186747550964,1.0013853311538696,-1.3500404357910156,-0.959156334400177,0.46126294136047363
525.0,-0.3509967625141144,-0.3508601188659668,0.9670682549476624,-1.3167378902435303,-0.9829016923904419,0.4374296963214874
526.0,-0.33464908599853516,-0.3181714117527008,0.8887472152709961,-1.2441622018814087,-1.0371538400650024,0.38564735651016235
527.0,-0.3216075897216797,-0.2952844798564911,0.8325484991073608,-1.194419503211975,-1.0773279666900635,0.35039278864860535
528.0,-0.31061139702796936,-0.26971396803855896,0.7770047783851624,-1.1508663892745972,-1.1139206886291504,0.3195689916610718
529.0,-0.2930280268192291,-0.24176841974258423,0.7078675627708435,-1.093736171722412,-1.1656116247177124,0.2785493731498718
530.0,-0.25670599937438965,-0.17984001338481903,0.5620487928390503,-0.9836507439613342,-1.2727302312850952,0.19887028634548187
531.0,-0.26951560378074646,-0.19972291588783264,0.610622227191925,-1.0207973718643188,-1.2359888553619385,0.22569413483142853
532.0,-0.28392356634140015,-0.2226744443178177,0.6654375791549683,-1.0621256828308105,-1.193595051765442,0.2567950189113617
533.0,-0.30223146080970764,-0.254789263010025,0.7422491312026978,-1.1236344575881958,-1.1393245458602905,0.299596905708313
534.0,-0.32168877124786377,-0.28586626052856445,0.82115638256073,-1.192600131034851,-1.0817266702651978,0.34785276651382446
535.0,-0.33049172163009644,-0.3030833601951599,0.8614842295646667,-1.2267308235168457,-1.0538759231567383,0.37202492356300354
536.0,-0.2892228960990906,-0.39259830117225647,1.029759407043457,-1.646242618560791,-1.241025686264038,0.47521817684173584
537.0,-0.279513955116272,-0.4500245749950409,1.1711986064910889,-1.9347740411758423,-1.3230619430541992,0.5813032984733582
538.0,-0.2559807002544403,-0.48130926489830017,1.2731302976608276,-2.217850685119629,-1.4574007987976074,0.6600301861763
539.0,-0.24752387404441833,-0.4761987030506134,1.260897159576416,-2.2168357372283936,-1.4762927293777466,0.5945550203323364
540.0,-0.248602956533432,-0.47334083914756775,1.2582498788833618,-2.2296578884124756,-1.4847331047058105,0.5960302948951721
541.0,-0.25211960077285767,-0.4759170711040497,1.2702884674072266,-2.2587637901306152,-1.4936414957046509,1.3188155889511108
542.0,-0.24117036163806915,-0.4720212519168854,1.2537188529968262,-2.2274773120880127,-1.4930769205093384,0.5534109473228455
543.0,-0.23980645835399628,-0.4647637903690338,1.240676760673523,-2.234445571899414,-1.5030087232589722,1.3314863443374634
544.0,-0.23399607837200165,-0.4592624306678772,1.2272486686706543,-2.2273688316345215,-1.5097013711929321,1.337415099143982
545.0,-0.23489490151405334,-0.4612896740436554,1.2249294519424438,-2.1966071128845215,-1.4949264526367188,0.5001126527786255
546.0,-0.23235571384429932,-0.45984312891960144,1.2143656015396118,-2.1613407135009766,-1.4846707582473755,0.4794143736362457
547.0,-0.2429065704345703,-0.4643838703632355,1.2237584590911865,-2.1524713039398193,-1.4594178199768066,0.5541911125183105
548.0,-0.2633461058139801,-0.4446680545806885,1.1570338010787964,-1.952488899230957,-1.3665878772735596,0.5335925221443176
549.0,-0.2647082805633545,-0.4153984785079956,1.0795466899871826,-1.7977110147476196,-1.3320989608764648,0.468316912651062
550.0,-0.24225176870822906,-0.4129082262516022,1.0719496011734009,-1.833132028579712,-1.395662784576416,0.3941635489463806
551.0,-0.27313554286956787,-0.26569175720214844,0.7493909597396851,-1.2205723524093628,-1.2360411882400513,0.2897184193134308
552.0,-0.25792187452316284,-0.23093238472938538,0.6709837913513184,-1.140365481376648,-1.2792991399765015,0.23763984441757202
553.0,-0.2414814829826355,-0.14771059155464172,0.49558961391448975,-0.9457123279571533,-1.319515347480774,0.16772669553756714
554.0,-0.2361707091331482,-0.3559311032295227,0.931370198726654,-1.591300129890442,-1.379489779472351,0.29761195182800293
555.0,-0.2324841171503067,-0.42408403754234314,1.103001356124878,-1.9200665950775146,-1.430232048034668,0.3886674642562866
556.0,-0.22419607639312744,-0.4574786126613617,1.2119297981262207,-2.178997755050659,-1.5001381635665894,0.4469388425350189
557.0,-0.22645290195941925,-0.4535536468029022,1.2120747566223145,-2.2143516540527344,-1.5148460865020752,1.3451244831085205
558.0,-0.22067204117774963,-0.45010697841644287,1.1979342699050903,-2.1834096908569336,-1.51094651222229,0.41422778367996216
559.0,-0.21914082765579224,-0.4438181519508362,1.167341709136963,-2.0922250747680664,-1.4877393245697021,0.384726881980896
560.0,-0.21148593723773956,-0.4441283643245697,1.1793498992919922,-2.1563048362731934,-1.5154999494552612,0.3512081503868103
561.0,-0.21075676381587982,-0.4422719180583954,1.182474970817566,-2.1896533966064453,-1.5262500047683716,1.361107587814331
562.0,-0.20505139231681824,-0.4388068616390228,1.1740520000457764,-2.1850128173828125,-1.5311939716339111,1.3668509721755981
563.0,-0.20110510289669037,-0.43730059266090393,1.1654901504516602,-2.1601758003234863,-1.5288221836090088,0.29178011417388916
564.0,-0.21674160659313202,-0.41947320103645325,1.0930019617080688,-1.935743808746338,-1.4601390361785889,0.33349713683128357
565.0,-0.20401358604431152,-0.4428883492946625,1.176888346672058,-2.1609599590301514,-1.525001049041748,0.3061385452747345
566.0,-0.22443926334381104,-0.3205251395702362,0.8493054509162903,-1.4750831127166748,-1.3912642002105713,0.24287578463554382
567.0,-0.20611771941184998,-0.4029081165790558,1.0477524995803833,-1.8617209196090698,-1.476365327835083,0.24986708164215088
568.0,-0.19290979206562042,-0.43839243054389954,1.1662800312042236,-2.158637762069702,-1.5360891819000244,0.2413567304611206
569.0,-0.1935223788022995,-0.432645320892334,1.1548714637756348,-2.1569995880126953,-1.5371732711791992,1.3787444829940796
570.0,-0.18814793229103088,-0.4303383231163025,1.1488896608352661,-2.152043104171753,-1.5410916805267334,1.3841567039489746
571.0,-0.18715393543243408,-0.4378786087036133,1.1659013032913208,-2.1643242835998535,-1.5425121784210205,1.385090947151184
572.0,-0.18847794830799103,-0.4118947982788086,1.0766921043395996,-1.9537663459777832,-1.511854648590088,0.20071713626384735
573.0,-0.19878032803535461,-0.36257824301719666,0.9441738724708557,-1.674914002418518,-1.474754810333252,0.18325534462928772
574.0,-0.2151940017938614,-0.21404439210891724,0.620238721370697,-1.1510611772537231,-1.403874397277832,0.15201544761657715
575.0,-0.2049403041601181,-0.08573416620492935,0.3545924425125122,-0.8513017892837524,-1.425174593925476,0.09528804570436478
576.0,-0.18609511852264404,-0.3621659576892853,0.9432017207145691,-1.6902954578399658,-1.5026322603225708,0.1360979676246643
577.0,-0.176052525639534,-0.37266257405281067,0.9700419902801514,-1.7517741918563843,-1.5276483297348022,0.09722404927015305
578.0,-0.17693960666656494,-0.42839598655700684,1.139593243598938,-2.129794120788574,-1.549764633178711,0.13625703752040863
579.0,-0.18355228006839752,-0.42920631170272827,1.1411641836166382,-2.126638889312744,-1.542533040046692,0.17765164375305176
580.0,-0.18078377842903137,-0.4262482225894928,1.1426236629486084,-2.163409471511841,-1.5504659414291382,1.3912488222122192
581.0,-0.17042464017868042,-0.4223400354385376,1.132597804069519,-2.1553566455841064,-1.5583935976028442,1.4016335010528564
582.0,-0.16238553822040558,-0.42012324929237366,1.1271398067474365,-2.151838541030884,-1.5646147727966309,1.4096521139144897
583.0,-0.15798324346542358,-0.4203048348426819,1.1202737092971802,-2.1173102855682373,-1.567435622215271,0.02172429859638214
584.0,-0.16738037765026093,-0.4291642904281616,1.1411008834838867,-2.133450508117676,-1.5579285621643066,0.08534608036279678
585.0,-0.16292841732501984,-0.3784961700439453,0.9859769344329834,-1.7962969541549683,-1.5537755489349365,0.04234331101179123
586.0,-0.15175123512744904,-0.41489800810813904,1.0944098234176636,-2.0388848781585693,-1.573470950126648,-0.012460721656680107
587.0,-0.14393436908721924,-0.42478492856025696,1.1329994201660156,-2.1396889686584473,-1.5809626579284668,1.428259253501892
588.0,-0.14970386028289795,-0.418412983417511,1.117735743522644,-2.12449049949646,-1.5745595693588257,-0.02565242163836956
589.0,-0.15307167172431946,-0.4175938367843628,1.1210699081420898,-2.1484534740448,-1.5719753503799438,1.418919324874878
590.0,-0.14466916024684906,-0.4170565605163574,1.1191065311431885,-2.1446969509124756,-1.5784045457839966,1.4273130893707275
591.0,-0.13871727883815765,-0.41667211055755615,1.1174150705337524,-2.1405956745147705,-1.582924485206604,1.4332716464996338
592.0,-0.13197310268878937,-0.4159994423389435,1.117211103439331,-2.146373748779297,-1.5887268781661987,1.4398692846298218
593.0,-0.12929947674274445,-0.42231208086013794,1.1268446445465088,-2.1333394050598145,-1.5944827795028687,-0.16418860852718353
594.0,-0.12809017300605774,-0.3676031529903412,0.9598579406738281,-1.7661871910095215,-1.6247986555099487,-0.12808488309383392
595.0,-0.1381717473268509,-0.3880939483642578,1.0140511989593506,-1.8697853088378906,-1.5968393087387085,-0.07663211971521378
596.0,-0.14379936456680298,-0.35500645637512207,0.9267489910125732,-1.6969408988952637,-1.5936658382415771,-0.047839850187301636
597.0,-0.15617027878761292,-0.2808989882469177,0.7538963556289673,-1.4062163829803467,-1.5657052993774414,0.006872264202684164
598.0,-0.1376049816608429,-0.016761966049671173,0.19959691166877747,-0.773766040802002,-1.6212056875228882,-0.03379271924495697
599.0,-0.12618392705917358,-0.012469550594687462,0.18349140882492065,-0.7501777410507202,-1.6558505296707153,-0.05549817904829979
600.0,-0.13734164834022522,-0.0168034415692091,0.19281086325645447,-0.7535017728805542,-1.6224490404129028,-0.03362889960408211
601.0,-0.14755800366401672,-0.027691125869750977,0.21385431289672852,-0.7612202167510986,-1.591942310333252,-0.013703403063118458
602.0,-0.1546904295682907,-0.012168589979410172,0.1885683387517929,-0.7517333626747131,-1.570418357849121,0.0002450931933708489
603.0,-0.1636524647474289,-0.02055228501558304,0.2097999006509781,-0.7660226225852966,-1.5447258949279785,0.016957053914666176
604.0,-0.1803683638572693,-0.04400818422436714,0.26219722628593445,-0.796014130115509,-1.4964059591293335,0.048424720764160156
605.0,-0.19541271030902863,-0.07395339757204056,0.32533809542655945,-0.8310369253158569,-1.4522989988327026,0.0772414430975914
606.0,-0.1843549609184265,-0.0662502571940422,0.3015437424182892,-0.8114760518074036,-1.4841487407684326,0.05616764724254608
607.0,-0.20257095992565155,-0.09333080053329468,0.36356309056282043,-0.8508802056312561,-1.4307754039764404,0.09131249040365219
608.0,-0.21261392533779144,-0.10597547143697739,0.3940485715866089,-0.8712202310562134,-1.4020507335662842,0.11033987998962402
609.0,-0.22683890163898468,-0.12549224495887756,0.4413297176361084,-0.9040979146957397,-1.3609570264816284,0.13806213438510895
610.0,-0.22081470489501953,-0.12489400058984756,0.431610643863678,-0.89101642370224,-1.3771837949752808,0.1265634149312973
611.0,-0.2363871932029724,-0.15349844098091125,0.4950450658798218,-0.9326116442680359,-1.3310391902923584,0.1580348014831543
612.0,-0.24606475234031677,-0.1666834056377411,0.5271939039230347,-0.9556626081466675,-1.3034249544143677,0.1770009845495224
613.0,-0.25427165627479553,-0.1860857456922531,0.5662214756011963,-0.9788737297058105,-1.2772712707519531,0.19489875435829163
614.0,-0.24517689645290375,-0.17760616540908813,0.5406771302223206,-0.9563637971878052,-1.3035244941711426,0.17624486982822418
615.0,-0.23618772625923157,-0.16270743310451508,0.5074867010116577,-0.9346426725387573,-1.3297194242477417,0.15846823155879974
616.0,-0.21737803518772125,-0.13007481396198273,0.4347383975982666,-0.886593222618103,-1.3862998485565186,0.12011726200580597
617.0,-0.2042386680841446,-0.10912754386663437,0.38928163051605225,-0.8596882224082947,-1.424444317817688,0.0951579362154007
618.0,-0.1954624205827713,-0.09141659736633301,0.35260528326034546,-0.8390426635742188,-1.4502458572387695,0.07826119661331177
619.0,-0.17267222702503204,-0.056227561086416245,0.2766815423965454,-0.7958298325538635,-1.5176266431808472,0.034454863518476486
620.0,-0.1625615358352661,-0.05089683458209038,0.26067766547203064,-0.7836959362030029,-1.5464242696762085,0.015753813087940216
621.0,-0.1505703181028366,-0.04792051762342453,0.24902038276195526,-0.7738890647888184,-1.5830045938491821,-0.00787287950515747
622.0,-0.1749066710472107,-0.07391425222158432,0.3068309426307678,-0.8068589568138123,-1.5104498863220215,0.03897324949502945
623.0,-0.16441462934017181,-0.06752695888280869,0.2891693413257599,-0.7943094968795776,-1.540345311164856,0.01962738297879696
624.0,-0.1866108924150467,-0.08570428192615509,0.33393141627311707,-0.8225709795951843,-1.476871132850647,0.060616619884967804
625.0,-0.19695523381233215,-0.1064700111746788,0.3771475553512573,-0.847509503364563,-1.4444665908813477,0.08179503679275513
626.0,-0.23001138865947723,-0.16097001731395721,0.49617189168930054,-0.9215148091316223,-1.3459161520004272,0.14704695343971252
627.0,-0.20859600603580475,-0.12795206904411316,0.42181113362312317,-0.872835099697113,-1.4103893041610718,0.1040329784154892
628.0,-0.18885663151741028,-0.10312546044588089,0.3630802035331726,-0.8333600759506226,-1.4690066576004028,0.06552671641111374
629.0,-0.17845506966114044,-0.08933286368846893,0.3335811495780945,-0.8170507550239563,-1.4996590614318848,0.04580773040652275
630.0,-0.16376885771751404,-0.0799475610256195,0.3085472583770752,-0.7998303771018982,-1.541502833366394,0.018822209909558296
631.0,-0.18227392435073853,-0.10518079996109009,0.36056479811668396,-0.8268719911575317,-1.488083004951477,0.053079914301633835
632.0,-0.17041786015033722,-0.09690728783607483,0.33955517411231995,-0.8132497668266296,-1.5218374729156494,0.03139977902173996
633.0,-0.16103869676589966,-0.09424586594104767,0.329081267118454,-0.8039212822914124,-1.5503933429718018,0.013049748726189137
634.0,-0.1502416431903839,-0.08680600672960281,0.3120482861995697,-0.7942051887512207,-1.584055781364441,-0.008479065261781216
635.0,-0.14037853479385376,-0.08866280317306519,0.3130752146244049,-0.7948037981987,-1.6132146120071411,-0.02719735912978649
636.0,-0.1567368358373642,-0.10115902125835419,0.33694055676460266,-0.8031395077705383,-1.564220666885376,0.0041903043165802956
637.0,-0.17288798093795776,-0.11077826470136642,0.36231565475463867,-0.8209150433540344,-1.5141022205352783,0.03625408560037613
638.0,-0.18315944075584412,-0.12252962589263916,0.3870207667350769,-0.8339352607727051,-1.4846493005752563,0.05502619221806526
639.0,-0.19324658811092377,-0.1286507546901703,0.40577784180641174,-0.8495529294013977,-1.4538832902908325,0.0750257670879364
640.0,-0.2104807198047638,-0.15237624943256378,0.4586060643196106,-0.8827841281890869,-1.402239441871643,0.10865698754787445
641.0,-0.19941113889217377,-0.125299870967865,0.4077357053756714,-0.8580919504165649,-1.4355497360229492,0.08728234469890594
642.0,-0.20874355733394623,-0.13891342282295227,0.43770700693130493,-0.8764474987983704,-1.4086391925811768,0.10484883934259415
643.0,-0.22258920967578888,-0.1621224284172058,0.4869633913040161,-0.9059297442436218,-1.3670682907104492,0.13209612667560577
644.0,-0.24354052543640137,-0.19512848556041718,0.561564564704895,-0.956574022769928,-1.3041164875030518,0.17470143735408783
645.0,-0.23287320137023926,-0.17610132694244385,0.520949125289917,-0.9311143159866333,-1.3354883193969727,0.15362435579299927
646.0,-0.24097879230976105,-0.18325065076351166,0.5421890020370483,-0.9491174221038818,-1.3131941556930542,0.1690157800912857
647.0,-0.2555549740791321,-0.2096589356660843,0.59952712059021,-0.987171471118927,-1.268395185470581,0.1998637169599533
648.0,-0.26511865854263306,-0.22391590476036072,0.6343839764595032,-1.014433741569519,-1.2396228313446045,0.22069305181503296
649.0,-0.27645426988601685,-0.24031713604927063,0.6743792295455933,-1.0451126098632812,-1.2070666551589966,0.24423101544380188
650.0,-0.28531402349472046,-0.2586052417755127,0.7137218713760376,-1.073358178138733,-1.1781907081604004,0.26569148898124695
651.0,-0.3160816729068756,-0.31260308623313904,0.8413674235343933,-1.1787118911743164,-1.0816770792007446,0.3430232107639313
652.0,-0.3055242598056793,-0.2889832854270935,0.7904282212257385,-1.138648509979248,-1.1181995868682861,0.31305012106895447
653.0,-0.2943204641342163,-0.2698002755641937,0.7453258037567139,-1.1027370691299438,-1.151748538017273,0.28680434823036194
654.0,-0.28152966499328613,-0.2394232600927353,0.6821131706237793,-1.057990312576294,-1.1946849822998047,0.25401777029037476
655.0,-0.2629602253437042,-0.21028228104114532,0.6131539940834045,-1.0064916610717773,-1.2488877773284912,0.2147669494152069
656.0,-0.2724241614341736,-0.22121931612491608,0.6434335112571716,-1.0321983098983765,-1.222627878189087,0.23407582938671112
657.0,-0.28014248609542847,-0.22506996989250183,0.6614970564842224,-1.051936149597168,-1.2025398015975952,0.2492721676826477
658.0,-0.2894313931465149,-0.24638044834136963,0.7066253423690796,-1.0839158296585083,-1.1720807552337646,0.2723795473575592
659.0,-0.3018586039543152,-0.26574623584747314,0.7550874948501587,-1.1244285106658936,-1.1359316110610962,0.30102699995040894
660.0,-0.30709347128868103,-0.28082942962646484,0.7836781740188599,-1.1421691179275513,-1.1177903413772583,0.3145959675312042
661.0,-0.2980407476425171,-0.2675076127052307,0.7497941255569458,-1.113410234451294,-1.1440852880477905,0.2937288284301758
662.0,-0.3250536322593689,-0.3183668553829193,0.8680299520492554,-1.2112183570861816,-1.0584101676940918,0.364644855260849
663.0,-0.3328775465488434,-0.33159583806991577,0.9008371233940125,-1.2406471967697144,-1.0344346761703491,0.3856869637966156
664.0,-0.31744199991226196,-0.2965092360973358,0.8249134421348572,-1.1803370714187622,-1.0858302116394043,0.3418455719947815
665.0,-0.32682138681411743,-0.3116711974143982,0.8638609647750854,-1.2159383296966553,-1.057818055152893,0.36650586128234863
666.0,-0.33777761459350586,-0.33307963609695435,0.9132701754570007,-1.2577433586120605,-1.022692084312439,0.39700254797935486
667.0,-0.3538215160369873,-0.36433660984039307,0.9901586174964905,-1.3322956562042236,-0.9688460230827332,0.45015597343444824
668.0,-0.3618621826171875,-0.3787156045436859,1.0268667936325073,-1.3691058158874512,-0.9428192377090454,0.476585328578949
669.0,-0.37029069662094116,-0.3908423185348511,1.0639305114746094,-1.413111925125122,-0.9156380295753479,0.5077114701271057
670.0,-0.3807515799999237,-0.4144691526889801,1.1215531826019287,-1.4745874404907227,-0.8774717450141907,0.5525537729263306
671.0,-0.3769790828227997,-0.42007094621658325,1.118059754371643,-1.459397792816162,-0.8813931941986084,0.5450157523155212
672.0,-0.3698093593120575,-0.4045877754688263,1.0795127153396606,-1.4174820184707642,-0.907288134098053,0.5144777894020081
673.0,-0.3561897575855255,-0.3762979209423065,1.0101672410964966,-1.345471978187561,-0.9565600752830505,0.46123218536376953
674.0,-0.3428747057914734,-0.35552263259887695,0.9527990818023682,-1.2852319478988647,-0.9979298114776611,0.419111967086792
675.0,-0.35009047389030457,-0.37315547466278076,0.9915533065795898,-1.319983959197998,-0.971481442451477,0.44479113817214966
676.0,-0.33736392855644226,-0.35282036662101746,0.935840904712677,-1.2608951330184937,-1.0132771730422974,0.40271058678627014
677.0,-0.32580482959747314,-0.33487755060195923,0.88924241065979,-1.2169256210327148,-1.0484874248504639,0.371192991733551
678.0,-0.3463403284549713,-0.37410229444503784,0.9835016131401062,-1.3051780462265015,-0.9788627624511719,0.4360440671443939
679.0,-0.3615245223045349,-0.3951941132545471,1.045401692390442,-1.372624397277832,-0.9335011839866638,0.4829968512058258
680.0,-0.37182456254959106,-0.41588306427001953,1.0988473892211914,-1.4327884912490845,-0.8949952721595764,0.5274742841720581
681.0,-0.3848528265953064,-0.43797537684440613,1.1614359617233276,-1.5065665245056152,-0.8520046472549438,0.5802066922187805
682.0,-0.38914576172828674,-0.4530966579914093,1.1933839321136475,-1.5411440134048462,-0.8306486010551453,0.6077509522438049
683.0,-0.39660486578941345,-0.46636322140693665,1.2340861558914185,-1.597331166267395,-0.8027077317237854,0.6492857933044434
684.0,-0.40895283222198486,-0.48495757579803467,1.2976438999176025,-1.6889021396636963,-0.7612646222114563,0.7154420614242554
685.0,-0.4019066095352173,-0.4714926481246948,1.257362723350525,-1.6328686475753784,-0.7875465154647827,0.673731803894043
686.0,-0.39363208413124084,-0.4536736011505127,1.208370327949524,-1.5692719221115112,-0.8192691206932068,0.626525342464447
687.0,-0.39080336689949036,-0.4404749870300293,1.1823698282241821,-1.5414577722549438,-0.8364498019218445,0.6035491824150085
688.0,-0.397838294506073,-0.4542973041534424,1.2222890853881836,-1.5941908359527588,-0.8099678158760071,0.6423577666282654
689.0,-0.4057253301143646,-0.4600493609905243,1.2544456720352173,-1.6452745199203491,-0.788872241973877,0.6768980026245117
690.0,-0.3993203938007355,-0.4484480619430542,1.219276785850525,-1.5977623462677002,-0.8116449117660522,0.6422185897827148
691.0,-0.39043521881103516,-0.4298124313354492,1.1674083471298218,-1.5310022830963135,-0.8455542922019958,0.5930805802345276
692.0,-0.3764302432537079,-0.39741960167884827,1.088773488998413,-1.4453039169311523,-0.8984732031822205,0.5291794538497925
693.0,-0.38492798805236816,-0.4108392596244812,1.1285306215286255,-1.4927548170089722,-0.8712025880813599,0.5627115964889526
694.0,-0.39345964789390564,-0.4240204095840454,1.1692986488342285,-1.5444707870483398,-0.8429661989212036,0.5998131036758423
695.0,-0.3966262936592102,-0.43595579266548157,1.1946310997009277,-1.5719367265701294,-0.8271518349647522,0.6212460994720459
696.0,-0.4040140211582184,-0.44946300983428955,1.2352124452590942,-1.6258444786071777,-0.801081120967865,0.6602784991264343
697.0,-0.4122879207134247,-0.46860599517822266,1.2865469455718994,-1.6929595470428467,-0.7677100896835327,0.7111790776252747
698.0,-0.421125590801239,-0.4881204664707184,1.3468918800354004,-1.7847729921340942,-0.731148362159729,0.7803093791007996
699.0,-0.4258778691291809,-0.500289797782898,1.382470965385437,-1.8393820524215698,-0.7098707556724548,0.8224092721939087
700.0,-0.43039894104003906,-0.5093176364898682,1.4134113788604736,-1.8908134698867798,-0.6915009617805481,0.8615999221801758
701.0,-0.418332040309906,-0.49285513162612915,1.3435564041137695,-1.7710647583007812,-0.7326603531837463,0.7737719416618347
702.0,-0.4097107946872711,-0.47737568616867065,1.2897567749023438,-1.6851638555526733,-0.7661015391349792,0.7096995711326599
703.0,-0.41696202754974365,-0.4984607994556427,1.346679925918579,-1.7691270112991333,-0.7303950786590576,0.7753532528877258
704.0,-0.42458289861679077,-0.5090996623039246,1.3906739950180054,-1.8433425426483154,-0.7045131921768188,0.8295339345932007
705.0,-0.43520811200141907,-0.5254270434379578,1.4627162218093872,-1.9767087697982788,-0.6651384830474854,0.9292140603065491
706.0,-0.4431726038455963,-0.5396539568901062,1.5288784503936768,-2.11460280418396,-0.6292402744293213,1.0373804569244385
707.0,-0.4375474750995636,-0.5359092950820923,1.4924110174179077,-2.0295193195343018,-0.649259626865387,0.972092866897583
708.0,-0.4278862774372101,-0.5198590755462646,1.4198288917541504,-1.8889143466949463,-0.6872023344039917,0.8657407164573669
709.0,-0.432345986366272,-0.5322911739349365,1.4612131118774414,-1.9627946615219116,-0.6652321815490723,0.923098623752594
710.0,-0.4231385588645935,-0.5173710584640503,1.3974807262420654,-1.8453621864318848,-0.699944257736206,0.8351596593856812
711.0,-0.417667031288147,-0.5098824501037598,1.3659045696258545,-1.7913445234298706,-0.7184950113296509,0.7956404685974121
712.0,-0.4085707664489746,-0.4943106770515442,1.309511423110962,-1.6982706785202026,-0.7538710236549377,0.7258284687995911
713.0,-0.39278140664100647,-0.4680255949497223,1.2240978479385376,-1.5755144357681274,-0.8100537061691284,0.635826826095581
714.0,-0.3989972770214081,-0.4811919927597046,1.2607520818710327,-1.6242479085922241,-0.7856377363204956,0.6723951101303101
715.0,-0.4136165678501129,-0.5114585161209106,1.3529831171035767,-1.7621479034423828,-0.726115345954895,0.7769659757614136
716.0,-0.4212384521961212,-0.526483416557312,1.4037606716156006,-1.8452203273773193,-0.6955385208129883,0.8398584723472595
717.0,-0.4275902509689331,-0.5297717452049255,1.4350866079330444,-1.9077664613723755,-0.6785116195678711,0.8837794661521912
718.0,-0.43226468563079834,-0.5400532484054565,1.4743057489395142,-1.9810585975646973,-0.6579018831253052,0.9400205612182617
719.0,-0.4359888732433319,-0.5498856902122498,1.5110310316085815,-2.0554654598236084,-0.637268602848053,0.9999338984489441
720.0,-0.4387643337249756,-0.5583558082580566,1.543483853340149,-2.1256654262542725,-0.6193990111351013,1.0575381517410278
721.0,-0.4407165050506592,-0.5652661323547363,1.5732680559158325,-2.1935129165649414,-0.6061424612998962,1.1123912334442139
722.0,-0.44515886902809143,-0.5747190117835999,1.6402114629745483,-2.3760318756103516,-0.5765048265457153,1.263240098953247
723.0,-0.44624319672584534,-0.577100932598114,1.6715710163116455,-2.4712929725646973,-0.5671884417533875,1.3419618606567383
724.0,-0.4404893219470978,-0.5753918290138245,1.5993658304214478,-2.2530887126922607,-0.5931435823440552,1.1656358242034912
725.0,-0.42406147718429565,-0.5467024445533752,1.4475436210632324,-1.9104602336883545,-0.6702974438667297,0.8947485685348511
726.0,-0.4293636083602905,-0.5561155676841736,1.4892818927764893,-1.9940249919891357,-0.6476266384124756,0.9592172503471375
727.0,-0.4367007315158844,-0.5641669034957886,1.5437055826187134,-2.1183340549468994,-0.6181468367576599,1.055955410003662
728.0,-0.4335898756980896,-0.5550045371055603,1.5085060596466064,-2.0422523021698,-0.6377449631690979,0.9935664534568787
729.0,-0.42698460817337036,-0.5411027669906616,1.4514646530151367,-1.927503228187561,-0.6690855622291565,0.9033786654472351
730.0,-0.42093825340270996,-0.5351439714431763,1.4154701232910156,-1.8572661876678467,-0.6880637407302856,0.8525254130363464
731.0,-0.40896037220954895,-0.5123489499092102,1.3366098403930664,-1.72585928440094,-0.736735463142395,0.7525794506072998
732.0,-0.40421050786972046,-0.49578964710235596,1.2961817979812622,-1.668885350227356,-0.7625866532325745,0.7070634365081787
733.0,-0.39692220091819763,-0.48575976490974426,1.2600864171981812,-1.6160035133361816,-0.7861635088920593,0.6691869497299194
734.0,-0.4024941325187683,-0.5014753937721252,1.2980350255966187,-1.6637229919433594,-0.7614787220954895,0.7062540650367737
735.0,-0.3881005346775055,-0.4749611020088196,1.2179560661315918,-1.5518182516098022,-0.8159799575805664,0.6227248907089233
736.0,-0.3811090290546417,-0.4564456641674042,1.173255443572998,-1.4978280067443848,-0.8465763926506042,0.5811216831207275
737.0,-0.3721570372581482,-0.4370751976966858,1.1253106594085693,-1.4445240497589111,-0.8795784115791321,0.5414502024650574
738.0,-0.3878810703754425,-0.46542277932167053,1.2051286697387695,-1.5429794788360596,-0.8240416646003723,0.6133984327316284
739.0,-0.37841129302978516,-0.4428291320800781,1.149507999420166,-1.4777846336364746,-0.8621185421943665,0.5639654994010925
740.0,-0.37397560477256775,-0.42882758378982544,1.1204395294189453,-1.4494463205337524,-0.8813838362693787,0.5418523550033569
741.0,-0.3612760901451111,-0.40407219529151917,1.0551482439041138,-1.3742823600769043,-0.9285405874252319,0.4864010512828827
742.0,-0.35259559750556946,-0.3905911147594452,1.0181868076324463,-1.3351726531982422,-0.9555493593215942,0.45856210589408875
743.0,-0.3666205406188965,-0.42028510570526123,1.0896224975585938,-1.408461093902588,-0.9046940207481384,0.5129436254501343
744.0,-0.3582012355327606,-0.4072321355342865,1.0512182712554932,-1.3625553846359253,-0.9332742691040039,0.47993749380111694
745.0,-0.35101622343063354,-0.4008994698524475,1.026290774345398,-1.3317002058029175,-0.9525671601295471,0.4592128396034241
746.0,-0.34094589948654175,-0.3839300572872162,0.9814926385879517,-1.2844035625457764,-0.9870651960372925,0.42448028922080994
747.0,-0.32602691650390625,-0.3549976646900177,0.9131110310554504,-1.2210454940795898,-1.0377519130706787,0.37772446870803833
748.0,-0.3337570130825043,-0.3645544648170471,0.9409708976745605,-1.2490607500076294,-1.0157010555267334,0.3974666893482208
749.0,-0.34419989585876465,-0.38029947876930237,0.9854065775871277,-1.2975239753723145,-0.9808616042137146,0.4322977066040039
750.0,-0.32794031500816345,-0.3491596281528473,0.910569429397583,-1.226705551147461,-1.0365214347839355,0.3801139295101166
751.0,-0.33635276556015015,-0.35961535573005676,0.9414344429969788,-1.2584340572357178,-1.0120819807052612,0.4024708867073059
752.0,-0.320451945066452,-0.33369991183280945,0.8761216402053833,-1.1982654333114624,-1.0608594417572021,0.3592909872531891
753.0,-0.3101736903190613,-0.316249281167984,0.8324872255325317,-1.1575582027435303,-1.0954978466033936,0.32921332120895386
754.0,-0.3070298731327057,-0.30266138911247253,0.8095938563346863,-1.1446874141693115,-1.1091753244400024,0.31880900263786316
755.0,-0.2968626618385315,-0.2836002707481384,0.767067015171051,-1.1123586893081665,-1.1404097080230713,0.2946604788303375
756.0,-0.28586870431900024,-0.2687397301197052,0.7272999286651611,-1.0766284465789795,-1.1733512878417969,0.2685531675815582
757.0,-0.2690959572792053,-0.2407345175743103,0.6623674631118774,-1.026967167854309,-1.2248953580856323,0.23044948279857635
758.0,-0.2541084885597229,-0.2161019742488861,0.6053256988525391,-0.9844304323196411,-1.2710686922073364,0.19732566177845
759.0,-0.2296328991651535,-0.18020838499069214,0.5217961072921753,-0.9252839684486389,-1.3435038328170776,0.14774483442306519
760.0,-0.23885893821716309,-0.19717957079410553,0.5575481653213501,-0.9475571513175964,-1.3157094717025757,0.16637086868286133
761.0,-0.26919642090797424,-0.25034356117248535,0.6744348406791687,-1.0284725427627563,-1.221706748008728,0.23195868730545044
762.0,-0.25758999586105347,-0.23563343286514282,0.6361678242683411,-0.9966723322868347,-1.2566279172897339,0.20667454600334167
763.0,-0.2782062292098999,-0.26863572001457214,0.7119675874710083,-1.0525507926940918,-1.1940959692001343,0.2512490153312683
764.0,-0.2899610102176666,-0.2872423231601715,0.7578295469284058,-1.0918724536895752,-1.1559981107711792,0.2808655798435211
765.0,-0.3004656732082367,-0.302701860666275,0.7968543767929077,-1.1253843307495117,-1.124374508857727,0.3057100772857666
766.0,-0.2973981201648712,-0.30485212802886963,0.7933939695358276,-1.116564393043518,-1.130554437637329,0.30008506774902344
767.0,-0.3160504102706909,-0.3402642607688904,0.8738824129104614,-1.1829358339309692,-1.0695042610168457,0.3498036563396454
768.0,-0.3325008153915405,-0.3722200393676758,0.9469170570373535,-1.2458107471466064,-1.0145280361175537,0.39701980352401733
769.0,-0.3201987147331238,-0.3538069725036621,0.8987899422645569,-1.200022578239441,-1.052488923072815,0.36364319920539856
770.0,-0.3094257712364197,-0.33834928274154663,0.8568077683448792,-1.1582540273666382,-1.0876039266586304,0.3329048156738281
771.0,-0.2942427098751068,-0.31018343567848206,0.7933847308158875,-1.1074298620224,-1.1364576816558838,0.29431211948394775
772.0,-0.304701030254364,-0.3221812844276428,0.8277752995491028,-1.1396815776824951,-1.106564998626709,0.31808197498321533
773.0,-0.28672102093696594,-0.2893902361392975,0.7539268732070923,-1.0818816423416138,-1.1641244888305664,0.2737574577331543
774.0,-0.27002355456352234,-0.26200592517852783,0.6900805234909058,-1.0318220853805542,-1.216077208518982,0.23510512709617615
775.0,-0.2599112093448639,-0.24935100972652435,0.6572089195251465,-1.0044482946395874,-1.2467724084854126,0.21294961869716644
776.0,-0.24860410392284393,-0.23062002658843994,0.6142773628234863,-0.9720147252082825,-1.2833377122879028,0.18694721162319183
777.0,-0.2771408259868622,-0.27805593609809875,0.7213954925537109,-1.0506823062896729,-1.1937365531921387,0.25050532817840576
778.0,-0.26850005984306335,-0.2678259611129761,0.6945145726203918,-1.0286201238632202,-1.2179356813430786,0.23309241235256195
779.0,-0.25396332144737244,-0.24662676453590393,0.6435426473617554,-0.9883741736412048,-1.2643616199493408,0.19991044700145721
780.0,-0.27592581510543823,-0.2839568257331848,0.7263034582138062,-1.048099398612976,-1.194818377494812,0.24903684854507446
781.0,-0.26444002985954285,-0.2697649896144867,0.6897864937782288,-1.0181212425231934,-1.2289420366287231,0.22456005215644836
782.0,-0.24718575179576874,-0.2442922443151474,0.6290202736854553,-0.9702504873275757,-1.284018874168396,0.185409277677536
783.0,-0.21966639161109924,-0.20479260385036469,0.539873480796814,-0.9084568619728088,-1.3697764873504639,0.12822706997394562
784.0,-0.20987853407859802,-0.19348347187042236,0.5135731101036072,-0.8907307386398315,-1.3984084129333496,0.10966229438781738
785.0,-0.2417643964290619,-0.2285165637731552,0.6018004417419434,-0.9579984545707703,-1.3014215230941772,0.17436909675598145
786.0,-0.22860009968280792,-0.21226029098033905,0.5622898936271667,-0.9285902380943298,-1.3421101570129395,0.1469915807247162
787.0,-0.21952581405639648,-0.1911241114139557,0.5217475295066833,-0.905746340751648,-1.3721814155578613,0.12721070647239685
788.0,-0.23243661224842072,-0.20814922451972961,0.5625508427619934,-0.936150848865509,-1.331223964691162,0.15480832755565643
789.0,-0.24758556485176086,-0.220417320728302,0.5998990535736084,-0.9685271978378296,-1.2882922887802124,0.18415087461471558
790.0,-0.23369023203849792,-0.20109012722969055,0.5552458167076111,-0.9377491474151611,-1.328451156616211,0.15715599060058594
791.0,-0.21900662779808044,-0.18029260635375977,0.5065425634384155,-0.9024275541305542,-1.3752654790878296,0.1255679577589035
792.0,-0.20982253551483154,-0.16551771759986877,0.47603294253349304,-0.8850640058517456,-1.4023023843765259,0.10814478248357773
793.0,-0.19966141879558563,-0.14780688285827637,0.44024842977523804,-0.8653191328048706,-1.4327796697616577,0.08851142972707748
794.0,-0.1910020411014557,-0.14337073266506195,0.42448195815086365,-0.850549042224884,-1.4600305557250977,0.07064690440893173
795.0,-0.16562122106552124,-0.11684726923704147,0.3664185106754303,-0.8169026970863342,-1.5359324216842651,0.0222074706107378
796.0,-0.1760583370923996,-0.13156893849372864,0.3951842784881592,-0.8308777213096619,-1.5039820671081543,0.04251096397638321
797.0,-0.20306101441383362,-0.1672033816576004,0.4708889126777649,-0.875359296798706,-1.4210926294326782,0.0956571027636528
798.0,-0.19231060147285461,-0.15569938719272614,0.4432593286037445,-0.855964720249176,-1.4552230834960938,0.07352200895547867
