Sungjin-Park-dev/vision_inspection/data/trajectory/2446/joint_trajectory_dp.csv
time,ur20-shoulder_pan_joint,ur20-shoulder_lift_joint,ur20-elbow_joint,ur20-wrist_1_joint,ur20-wrist_2_joint,ur20-wrist_3_joint,target-POS_X,target-POS_Y,target-POS_Z,target-ROT_X,target-ROT_Y,target-ROT_Z,target-ROT_W
0.0,-0.534980833530426,-0.7733026146888733,2.0258452892303467,-0.22657901048660278,0.7446272373199463,-0.8815127015113831,0.8165671825408936,-0.11838368326425552,-0.025687871500849724,0.4184756875038147,0.7840067744255066,0.404476135969162,0.2158953696489334
1.0,-0.5254040360450745,-0.7964684963226318,2.0949063301086426,-0.4260472059249878,0.7619104981422424,-0.7112910747528076,0.801539421081543,-0.10331875830888748,-0.0333084799349308,0.4478696882724762,0.7508355975151062,0.4169105589389801,0.2486850470304489
2.0,-0.46879154443740845,-0.8349269032478333,2.1164939403533936,-0.42361876368522644,0.9374626278877258,-0.6003179550170898,0.7987202405929565,-0.07683811336755753,-0.02144806645810604,0.5052592158317566,0.7413540482521057,0.365000456571579,0.24876081943511963
3.0,-0.47461241483688354,-0.8256003260612488,2.077080488204956,-0.3076838552951813,0.9306183457374573,-0.6894722580909729,0.8072094321250916,-0.08512978255748749,-0.015706634148955345,0.4907608926296234,0.7641176581382751,0.35226550698280334,0.22624541819095612
4.0,-0.40675416588783264,-0.8465892672538757,2.0413224697113037,-0.16950109601020813,1.1284757852554321,-0.614172637462616,0.8173458576202393,-0.061324071139097214,0.0023149801418185234,0.5461370348930359,0.7668229341506958,0.27467647194862366,0.1956266611814499
5.0,-0.44650909304618835,-0.8229989409446716,2.012441635131836,-0.10825479030609131,1.031810998916626,-0.7666462063789368,0.823692798614502,-0.08369526267051697,0.0001741301966831088,0.4950960874557495,0.7959781289100647,0.29573896527290344,0.18394878506660461
6.0,-0.4797763228416443,-0.808147132396698,2.018813371658325,-0.14751079678535461,0.9319079518318176,-0.8201221823692322,0.8212373852729797,-0.09701041877269745,-0.00810531247407198,0.46599137783050537,0.7959995865821838,0.3333854079246521,0.1951693892478943
7.0,-0.4750799536705017,-0.7973251342773438,1.9774259328842163,-0.034044310450553894,0.9590552449226379,-0.9037095308303833,0.831990122795105,-0.10227280110120773,-0.0014747726963832974,0.4504762291908264,0.8185510039329529,0.3122694790363312,0.17185240983963013
8.0,-0.4062633812427521,-0.8155579566955566,1.9479745626449585,0.06380145251750946,1.1600780487060547,-0.7931318879127502,0.8420474529266357,-0.07636910676956177,0.01419153343886137,0.5052061080932617,0.8193889260292053,0.23056410253047943,0.1421576291322708
9.0,-0.40655457973480225,-0.8004395365715027,1.9104430675506592,0.1483457237482071,1.1733242273330688,-0.8753663897514343,0.8530106544494629,-0.0833900198340416,0.017878198996186256,0.4808061420917511,0.8411456346511841,0.2149493396282196,0.1228669062256813
10.0,-0.4066281318664551,-0.7769374847412109,1.8568381071090698,0.2606657147407532,1.192833662033081,-1.0049352645874023,0.8696786165237427,-0.09366732835769653,0.022021019831299782,0.43687477707862854,0.872689962387085,0.19499653577804565,0.09761664271354675
11.0,-0.3694535791873932,-0.7768462300300598,1.8367669582366943,0.30836784839630127,1.294535756111145,-0.9255326390266418,0.8755958080291748,-0.07838501781225204,0.0274787787348032,0.46661290526390076,0.868034303188324,0.14944879710674286,0.08033638447523117
12.0,-0.35121968388557434,-0.7826616764068604,1.8415197134017944,0.30077943205833435,1.3359615802764893,-0.826374351978302,0.87384033203125,-0.06787983328104019,0.028757626190781593,0.5038229823112488,0.8494927883148193,0.13469482958316803,0.07988575100898743
13.0,-0.32701870799064636,-0.7546324133872986,1.7789047956466675,0.42447495460510254,1.4170782566070557,-0.8953871726989746,0.8933552503585815,-0.06582782417535782,0.03349271044135094,0.4740734398365021,0.8750332593917847,0.08601932227611542,0.04660335183143616
14.0,-0.30550646781921387,-0.7528874278068542,1.7729120254516602,0.43880391120910645,1.462027668952942,-0.7678257822990417,0.894459068775177,-0.05377202853560448,0.03452388569712639,0.5221083164215088,0.8493148684501648,0.06635641306638718,0.04079197719693184
15.0,-0.3352758586406708,-0.7993535399436951,1.8722361326217651,0.24157202243804932,1.3556406497955322,-0.6835488080978394,0.8636946678161621,-0.053200408816337585,0.02784452773630619,0.554664134979248,0.8153882622718811,0.13708893954753876,0.09325413405895233
16.0,-0.3278541564941406,-0.7787432670593262,1.827994704246521,0.3349490761756897,1.3900254964828491,-0.7609739303588867,0.8767217397689819,-0.05658796429634094,0.03123306669294834,0.5270369052886963,0.8399685621261597,0.10941623896360397,0.06865304708480835
17.0,-0.28806233406066895,-0.7558544278144836,1.7784098386764526,0.43483224511146545,1.4865288734436035,-1.8573048114776611,0.8912795782089233,-0.04090642184019089,0.03485926613211632,-0.0016121943481266499,0.9975082278251648,0.02428576350212097,0.06621892750263214
18.0,-0.271096795797348,-0.7479274272918701,1.7644516229629517,0.46705102920532227,1.5148438215255737,-1.8409663438796997,0.8945454955101013,-0.031054051592946053,0.03561272844672203,-0.0007567416178062558,0.9986587166786194,0.015278144739568233,0.04946456104516983
19.0,-0.29690948128700256,-0.7744824290275574,1.8148776292800903,0.36596107482910156,1.4529708623886108,-0.6163504123687744,0.8795124292373657,-0.03992416337132454,0.03331619128584862,0.5787361860275269,0.8092586994171143,0.0820080041885376,0.058647509664297104
20.0,-0.32360315322875977,-0.8109643459320068,1.8945671319961548,0.19646798074245453,1.3675733804702759,-0.593439519405365,0.8565549850463867,-0.042431898415088654,0.026846671476960182,0.5843983888626099,0.7922366857528687,0.14132243394851685,0.10424738377332687
21.0,-0.37052422761917114,-0.8284220695495605,1.955405831336975,0.053314533084630966,1.2440571784973145,-0.6622441411018372,0.8401153087615967,-0.05759413540363312,0.01760091818869114,0.5523706078529358,0.7954779267311096,0.20469273626804352,0.14213626086711884
22.0,-0.35833489894866943,-0.8423911929130554,1.9857536554336548,-0.018345065414905548,1.2616888284683228,-0.5669021010398865,0.8319577574729919,-0.046814579516649246,0.015108968131244183,0.5803282856941223,0.7700488567352295,0.21165969967842102,0.15951207280158997
23.0,-0.33523163199424744,-0.8441604375839233,1.9780261516571045,0.0012949737720191479,1.3147587776184082,-0.4982898533344269,0.8340743780136108,-0.036347344517707825,0.017777467146515846,0.6056768894195557,0.7560948133468628,0.19351154565811157,0.1550142616033554
24.0,-0.2948565185070038,-0.8043175935745239,1.8736213445663452,0.24187345802783966,1.4314351081848145,-0.4818616211414337,0.862133264541626,-0.029371820390224457,0.029698336496949196,0.6241551041603088,0.7674564719200134,0.11360161751508713,0.09238964319229126
25.0,-0.2785225808620453,-0.8061748147010803,1.8750373125076294,0.23896758258342743,1.4583287239074707,-0.3949931859970093,0.8612651824951172,-0.019215693697333336,0.03007614053785801,0.6524685621261597,0.7443428039550781,0.10698048770427704,0.09377587586641312
26.0,-0.2633448839187622,-0.7653831243515015,1.7957860231399536,0.40647831559181213,1.5103265047073364,-0.42166996002197266,0.8843187689781189,-0.020583221688866615,0.034732233732938766,0.6456853151321411,0.7600711584091187,0.055912695825099945,0.04749820753931999
27.0,-0.24299480020999908,-0.7329168915748596,1.7375720739364624,0.519085705280304,1.553627610206604,-1.8135203123092651,0.9028111100196838,-0.013987774029374123,0.036407049745321274,-6.65699117234908e-05,0.9996864199638367,0.002672855043783784,0.0248981062322855
28.0,-0.21981416642665863,-0.7314829230308533,1.7304528951644897,0.5147912502288818,1.607375979423523,-1.7905057668685913,0.9068740606307983,-0.0024441094137728214,0.0362926684319973,0.0005737895262427628,0.9994261860847473,-0.024056551977992058,0.02383800782263279
29.0,-0.2189938724040985,-0.7372870445251465,1.7440168857574463,0.5019338726997375,1.6130061149597168,-1.7896933555603027,0.899572491645813,-0.0009640487842261791,0.03623495623469353,0.000703859725035727,0.9992948770523071,-0.027334610000252724,0.025731602683663368
30.0,-0.2015281319618225,-0.7572799921035767,1.7771899700164795,0.42439281940460205,1.653878092765808,0.578164279460907,0.8893047571182251,0.010396367870271206,0.03491590544581413,0.9211559295654297,0.3817932903766632,0.028921792283654213,0.06977985054254532
31.0,-0.23884709179401398,-0.7730522751808167,1.8066818714141846,0.37663063406944275,1.5614781379699707,-0.057480476796627045,0.8808506727218628,-0.006130192894488573,0.03441030904650688,0.7655153274536133,0.6383852958679199,0.0514383390545845,0.061681922525167465
32.0,-0.21967653930187225,-0.7938724756240845,1.8433103561401367,0.2895528972148895,1.606255054473877,0.14907191693782806,0.8698985576629639,0.006113776937127113,0.03240666911005974,0.8202542662620544,0.5599141716957092,0.06593932211399078,0.09659874439239502
33.0,-0.244987353682518,-0.83001309633255,1.9186491966247559,0.12339448928833008,1.537347674369812,-0.0889459028840065,0.8499985337257385,-1.9720755517482758e-06,0.02645140327513218,0.7458291053771973,0.641593873500824,0.1168348640203476,0.13581618666648865
34.0,-0.30533498525619507,-0.8444496393203735,1.9665943384170532,0.028382327407598495,1.381142497062683,-0.3991920053958893,0.8368898630142212,-0.02253350242972374,0.020811358466744423,0.6407862305641174,0.7332785725593567,0.1712070107460022,0.14961175620555878
35.0,-0.2855992913246155,-0.8595788478851318,2.001009225845337,-0.06497099995613098,1.426832675933838,-0.2601538598537445,0.8287808895111084,-0.010794838890433311,0.016765335574746132,0.6802036166191101,0.6876856684684753,0.18043845891952515,0.1784752607345581
36.0,-0.3234542906284332,-0.876939594745636,2.08492112159729,-0.2812163233757019,1.3208599090576172,-0.3182297945022583,0.8082236051559448,-0.018693162128329277,0.002525727264583111,0.6394462585449219,0.691755473613739,0.2463909387588501,0.22775934636592865
37.0,-0.35147950053215027,-0.8702847957611084,2.0782835483551025,-0.26045358180999756,1.251964807510376,-0.41120678186416626,0.8091878890991211,-0.031129764392971992,0.0020876331254839897,0.6089497208595276,0.7174341678619385,0.2579425573348999,0.21893863379955292
38.0,-0.39898553490638733,-0.8635951280593872,2.1144204139709473,-0.37454620003700256,1.1282011270523071,-0.4749227464199066,0.800463080406189,-0.047622885555028915,-0.009225343354046345,0.5688060522079468,0.7236177325248718,0.3073548972606659,0.2415989637374878
39.0,-0.3848095238208771,-0.8704215884208679,2.1466169357299805,-0.4688044786453247,1.155686616897583,-0.3988438844680786,0.7936625480651855,-0.03743720054626465,-0.014069964177906513,0.582954466342926,0.7005193829536438,0.31640082597732544,0.26330071687698364
40.0,-0.4389922618865967,-0.8516424298286438,2.1634254455566406,-0.5494424700737,1.0101546049118042,-0.4698343276977539,0.7892082929611206,-0.057877227663993835,-0.025013750419020653,0.5369133353233337,0.7100495100021362,0.36338669061660767,0.27477967739105225
41.0,-0.420943945646286,-0.8576218485832214,2.188244104385376,-0.6220772862434387,1.053497552871704,-0.40086790919303894,0.7845714092254639,-0.04742684215307236,-0.027790939435362816,0.5524195432662964,0.6911050081253052,0.36404645442962646,0.29099252820014954
42.0,-0.37511661648750305,-0.8711408376693726,2.1977593898773193,-0.634266197681427,1.170966625213623,-0.3122534453868866,0.7832368016242981,-0.027835633605718613,-0.0246481504291296,0.5888398885726929,0.6687811613082886,0.34064850211143494,0.2999298572540283
43.0,-0.3439069986343384,-0.8700621128082275,2.2350289821624756,-0.7635552287101746,1.2483161687850952,-0.21413955092430115,0.7764703035354614,-0.012640275992453098,-0.032284948974847794,0.6069341897964478,0.6324170827865601,0.3472771942615509,0.33328381180763245
44.0,-0.32182934880256653,-0.8840819597244263,2.1563291549682617,-0.4952184557914734,1.3151519298553467,-0.24372772872447968,0.7927131056785583,-0.011299598962068558,-0.01180653739720583,0.6381269097328186,0.6572536826133728,0.28771477937698364,0.2793419361114502
45.0,-0.2865559458732605,-0.8853205442428589,2.192509889602661,-0.6198757886886597,1.4013071060180664,-0.1375819444656372,0.785546064376831,0.0052045416086912155,-0.01956476829946041,0.6589577794075012,0.6151915788650513,0.2953481078147888,0.31635987758636475
46.0,-0.23632387816905975,-0.8858616352081299,2.1602892875671387,-0.5386861562728882,1.5319262742996216,-0.03516606613993645,0.7927123308181763,0.02200992777943611,-0.014618915505707264,0.7028782963752747,0.5841893553733826,0.25939130783081055,0.3120914697647095
47.0,-0.18892863392829895,-0.8797235488891602,2.128594398498535,-0.4717300832271576,1.6540638208389282,0.0816272422671318,0.7993758916854858,0.03872763365507126,-0.01213559228926897,0.743255078792572,0.5449578166007996,0.22946007549762726,0.31295517086982727
48.0,-0.16243456304073334,-0.8731192350387573,2.140887975692749,-0.5342941880226135,1.7117869853973389,0.1259688138961792,0.7968328595161438,0.05112537741661072,-0.019224708899855614,0.7474784851074219,0.5221894979476929,0.23514875769615173,0.3365993797779083
49.0,-0.13202829658985138,-0.8603042364120483,2.0602169036865234,-0.3183561861515045,1.7907260656356812,0.2588024437427521,0.8142130374908447,0.06067871302366257,-0.006939043290913105,0.7979967594146729,0.48966503143310547,0.1837449073791504,0.29944518208503723
50.0,-0.10930540412664413,-0.8353599309921265,1.9798206090927124,-0.11995306611061096,1.8450287580490112,0.4190222918987274,0.8331913948059082,0.06873342394828796,0.002357865683734417,0.8455790281295776,0.44301408529281616,0.13824275135993958,0.26386332511901855
51.0,-0.1519109606742859,-0.8610079288482666,2.036644697189331,-0.23515747487545013,1.7527154684066772,0.24306511878967285,0.8199588656425476,0.04957312345504761,0.0010995370103046298,0.8034635782241821,0.50169837474823,0.16977164149284363,0.2718871831893921
52.0,-0.18109579384326935,-0.8687080144882202,2.045387029647827,-0.23633645474910736,1.683733344078064,0.1532096415758133,0.818229615688324,0.036844007670879364,0.00384549330919981,0.7836503982543945,0.5359095931053162,0.17733651399612427,0.2593158185482025
53.0,-0.26901715993881226,-0.8871909379959106,2.115032434463501,-0.3812425136566162,1.4562939405441284,-0.12845735251903534,0.802064061164856,0.005656754598021507,-0.00201562512665987,0.6916094422340393,0.6274868249893188,0.24034112691879272,0.2649014890193939
54.0,-0.2113731950521469,-0.8705016374588013,2.0353479385375977,-0.18882529437541962,1.6094621419906616,0.05707981437444687,0.8208813667297363,0.02333146706223488,0.00898685585707426,0.7637527585029602,0.574899435043335,0.17654024064540863,0.23453335464000702
55.0,-0.24756397306919098,-0.8677917122840881,2.0183019638061523,-0.12338411808013916,1.520883560180664,-0.08235730975866318,0.824815571308136,0.006790134124457836,0.01434884499758482,0.7304602861404419,0.6275371313095093,0.17561215162277222,0.20441453158855438
56.0,-0.18187139928340912,-0.8319228887557983,1.928915023803711,0.06493173539638519,1.6925722360610962,0.2733372151851654,0.8470417857170105,0.029538769274950027,0.021222421899437904,0.8357564210891724,0.5068516135215759,0.10952679812908173,0.18060065805912018
57.0,-0.2128252536058426,-0.8393580317497253,1.9398493766784668,0.05734927952289581,1.614885926246643,0.10025704652070999,0.8444101810455322,0.01620660535991192,0.023105734959244728,0.7939887642860413,0.5719318985939026,0.1204591616988182,0.1672283262014389
58.0,-0.19100631773471832,-0.8001148104667664,1.857478380203247,0.2416146695613861,1.6754040718078613,0.3584509491920471,0.8658673763275146,0.02088596485555172,0.02939421869814396,0.8666526079177856,0.4774124026298523,0.0699058324098587,0.12690091133117676
59.0,-0.16279013454914093,-0.7633762359619141,1.7934843301773071,0.36736398935317993,1.7480489015579224,0.7889407873153687,0.8838633298873901,0.030952561646699905,0.030422816053032875,0.9475109577178955,0.29498255252838135,0.03665756806731224,0.1177474781870842
60.0,-0.15860122442245483,-0.7964698672294617,1.8576860427856445,0.22057810425758362,1.7555756568908691,0.5535059571266174,0.8653562068939209,0.03643592447042465,0.025635743513703346,0.9014555215835571,0.3981003761291504,0.06866965442895889,0.1554950624704361
61.0,-0.13520430028438568,-0.7362563014030457,1.7526841163635254,0.43923741579055786,1.8128160238265991,1.1212307214736938,0.8953531980514526,0.04373183101415634,0.02847299911081791,0.9799131155014038,0.14827261865139008,0.0199523214250803,0.1318621188402176
62.0,-0.13163913786411285,-0.7636787295341492,1.8028411865234375,0.32776808738708496,1.8134742975234985,0.8603405952453613,0.8803718686103821,0.04878637194633484,0.02539169229567051,0.949942946434021,0.27001190185546875,0.04297148436307907,0.1511802226305008
63.0,-0.1364714503288269,-0.7983709573745728,1.8695074319839478,0.17732344567775726,1.8032970428466797,0.6039066910743713,0.8618083596229553,0.04865233227610588,0.021189654245972633,0.9045857787132263,0.3784349262714386,0.07573817670345306,0.18103951215744019
64.0,-0.15099193155765533,-0.829602062702179,1.934677004814148,0.029977932572364807,1.7696913480758667,0.4013432264328003,0.8448807001113892,0.04392623156309128,0.016711348667740822,0.8587291240692139,0.4548915922641754,0.11043497174978256,0.20847544074058533
65.0,-0.12038478255271912,-0.7744265794754028,1.8273297548294067,0.2653029263019562,1.828513264656067,0.7791031002998352,0.8731549978256226,0.05722631514072418,0.021680006757378578,0.9342405796051025,0.308771550655365,0.05600844696164131,0.16946302354335785
66.0,-0.12874527275562286,-0.8297709226608276,1.947590947151184,-0.019301969558000565,1.8102673292160034,0.4346946179866791,0.8413899540901184,0.05684627965092659,0.011097605340182781,0.8588992953300476,0.4414213299751282,0.11870556324720383,0.23097236454486847
67.0,-0.11216413974761963,-0.802757978439331,1.8903353214263916,0.1088453009724617,1.8424168825149536,0.5991209745407104,0.8560852408409119,0.06418487429618835,0.01444640289992094,0.8954610824584961,0.38269609212875366,0.08935035020112991,0.20906870067119598
68.0,-0.10130363702774048,-0.7757736444473267,1.8373122215270996,0.22495649755001068,1.855189323425293,0.7650756239891052,0.8708057403564453,0.07000119984149933,0.01686021126806736,0.9266942739486694,0.3192004859447479,0.06460203975439072,0.18755093216896057
69.0,-0.09640157222747803,-0.746555507183075,1.782333493232727,0.34565335512161255,1.8546456098556519,0.9706338047981262,0.8868202567100525,0.07276716828346252,0.019362086430191994,0.9577470421791077,0.23266391456127167,0.03991350159049034,0.1643015295267105
70.0,-0.08555275946855545,-0.7724357843399048,1.8372048139572144,0.2103770226240158,1.8808447122573853,0.7862643003463745,0.8710094690322876,0.07978776097297668,0.013515676371753216,0.9259434938430786,0.31325531005859375,0.06760238111019135,0.19982418417930603
71.0,-0.09991370141506195,-0.8083823919296265,1.910132646560669,0.049239564687013626,1.8633778095245361,0.573698878288269,0.8509282469749451,0.07197698205709457,0.009831066243350506,0.8850409388542175,0.3922790288925171,0.10156209766864777,0.22913947701454163
72.0,-0.08778829127550125,-0.8260228633880615,1.9694586992263794,-0.11608786135911942,1.885097861289978,0.47299081087112427,0.8360815644264221,0.08030311018228531,-0.0010575699852779508,0.8529937267303467,0.42355912923812866,0.13562847673892975,0.2731383144855499
73.0,-0.09958949685096741,-0.8487499952316284,2.049870014190674,-0.3234504461288452,1.8603678941726685,0.3311184346675873,0.8165619373321533,0.07613150775432587,-0.011818003840744495,0.8099866509437561,0.46101438999176025,0.17929919064044952,0.3150225877761841
74.0,-0.06900902092456818,-0.8176174163818359,1.961132287979126,-0.1147829219698906,1.9252780675888062,0.5228530764579773,0.8379297256469727,0.08987689018249512,-0.004187976010143757,0.8592361807823181,0.4042345881462097,0.13347432017326355,0.28371143341064453
75.0,-0.07093431800603867,-0.7864729762077332,1.875164270401001,0.10507453978061676,1.9127790927886963,0.7026998996734619,0.8605709075927734,0.08848430216312408,0.0070347292348742485,0.9044588804244995,0.34628698229789734,0.08905906975269318,0.232611283659935
76.0,-0.05369054153561592,-0.7867026329040527,1.88729989528656,0.05467579513788223,1.9484986066818237,0.6962178945541382,0.8575359582901001,0.09821845591068268,0.0014766704989597201,0.8967240452766418,0.3479868769645691,0.09893915057182312,0.25495532155036926
77.0,-0.03580693528056145,-0.773208498954773,1.8675754070281982,0.08121578395366669,1.9832658767700195,0.7654876708984375,0.862933874130249,0.10832232236862183,-0.0009935545967891812,0.9046833515167236,0.3229620158672333,0.09344133734703064,0.2617484927177429
78.0,-0.05314899608492851,-0.7598720192909241,1.8260042667388916,0.20057113468647003,1.937242031097412,0.8514692187309265,0.8748787641525269,0.09937769174575806,0.007067318074405193,0.9275211691856384,0.29170265793800354,0.07011130452156067,0.22293154895305634
79.0,-0.05799597501754761,-0.7347768545150757,1.7721986770629883,0.3254067599773407,1.9106281995773315,1.0064183473587036,0.8914406299591064,0.09806127101182938,0.011490578763186932,0.9534189701080322,0.22856125235557556,0.04589160904288292,0.19143199920654297
80.0,-0.07382896542549133,-0.7579681873321533,1.8122425079345703,0.2545435130596161,1.8940563201904297,0.8697283864021301,0.878757894039154,0.08740440011024475,0.012670899741351604,0.9372670650482178,0.2818799316883087,0.05907532200217247,0.1964288353919983
81.0,-0.07284969836473465,-0.7360889315605164,1.7697151899337769,0.34911784529685974,1.8848507404327393,1.0186768770217896,0.8914716243743896,0.08868326991796494,0.015025819651782513,0.9587195515632629,0.21912942826747894,0.04037832096219063,0.17666038870811462
82.0,-0.07091772556304932,-0.7158201932907104,1.7312002182006836,0.4226788878440857,1.8716144561767578,1.1474182605743408,0.9050236344337463,0.09138192236423492,0.01565558649599552,0.9729955792427063,0.16317474842071533,0.027002090588212013,0.16101092100143433
83.0,-0.07271494716405869,-0.6949914693832397,1.6916780471801758,0.4987165033817291,1.8508577346801758,1.304037094116211,0.9192358255386353,0.09180853515863419,0.01656886376440525,0.9853641986846924,0.09061819314956665,0.01322205550968647,0.14377400279045105
84.0,-0.08578398823738098,-0.6953939199447632,1.6905162334442139,0.5171223282814026,1.8338778018951416,1.3490947484970093,0.9186846017837524,0.08246459066867828,0.01926315762102604,0.9889095425605774,0.06346055865287781,0.008599276654422283,0.13400301337242126
85.0,-0.08725140243768692,-0.6900160908699036,1.676092505455017,0.52945876121521,1.8311177492141724,1.3591006994247437,0.9267704486846924,0.0808325707912445,0.019694799557328224,0.9894675612449646,0.058053601533174515,0.007766741793602705,0.13237661123275757
86.0,-0.09124559909105301,-0.6850036382675171,1.6610912084579468,0.5423163771629333,1.8274873495101929,1.3671060800552368,0.9354478120803833,0.07690893113613129,0.020693937316536903,0.9900566339492798,0.052364155650138855,0.006895691622048616,0.13037782907485962
87.0,-0.10474011301994324,-0.6929842829704285,1.672279953956604,0.5322983264923096,1.8227354288101196,1.3373619318008423,0.9312773942947388,0.06553101539611816,0.023486683145165443,0.9898286461830139,0.060054514557123184,0.007810371462255716,0.1287318617105484
88.0,-0.10137432813644409,-0.6972094178199768,1.6849695444107056,0.5214821696281433,1.8253668546676636,1.3307777643203735,0.9239481091499329,0.06899258494377136,0.02261495031416416,0.9893297553062439,0.06477684527635574,0.008526393212378025,0.13022266328334808
89.0,-0.09623183310031891,-0.7001097202301025,1.6955459117889404,0.5125587582588196,1.828838586807251,1.3291878700256348,0.9174599647521973,0.07381333410739899,0.021416375413537025,0.9888754487037659,0.06795641034841537,0.009071430191397667,0.13200393319129944
90.0,-0.08580999076366425,-0.7123576402664185,1.721684455871582,0.4587589204311371,1.847623348236084,1.2101536989212036,0.9074327349662781,0.08135713636875153,0.018918806686997414,0.9807762503623962,0.12847957015037537,0.0190767552703619,0.1456264704465866
91.0,-0.09654802829027176,-0.71436607837677,1.723307728767395,0.4672812223434448,1.836505651473999,1.2241535186767578,0.9062420129776001,0.07346389442682266,0.021090799942612648,0.9831300973892212,0.11727192252874374,0.01662563532590866,0.13937832415103912
92.0,-0.10341503471136093,-0.7222901582717896,1.7361851930618286,0.44854649901390076,1.8341522216796875,1.1749800443649292,0.9015087485313416,0.06813281774520874,0.022247547283768654,0.9803638458251953,0.13717322051525116,0.01963130012154579,0.14030300080776215
93.0,-0.1089530661702156,-0.7402443885803223,1.766818881034851,0.388723760843277,1.8344372510910034,1.0292341709136963,0.8916667699813843,0.0642128437757492,0.02242440916597843,0.9674898982048035,0.20214596390724182,0.031085006892681122,0.14877581596374512
94.0,-0.11821797490119934,-0.7317976355552673,1.749706506729126,0.4341891407966614,1.8271050453186035,1.1310851573944092,0.8964030742645264,0.05655357986688614,0.025089705362915993,0.9785028696060181,0.15098032355308533,0.02142350748181343,0.13884568214416504
95.0,-0.11255230754613876,-0.7137758135795593,1.7192573547363281,0.4915013313293457,1.8243485689163208,1.284121036529541,0.9066529273986816,0.060849182307720184,0.024608368054032326,0.987950325012207,0.08154734969139099,0.010821225121617317,0.13109968602657318
96.0,-0.10799872130155563,-0.706679105758667,1.7043721675872803,0.5045217275619507,1.8245502710342407,1.3037141561508179,0.9142467975616455,0.06409236043691635,0.02381252683699131,0.9885889887809753,0.074448361992836,0.0098341079428792,0.1305857002735138
97.0,-0.11530957370996475,-0.7073181867599487,1.7012094259262085,0.5071439146995544,1.8217705488204956,1.2965292930603027,0.916887640953064,0.05757046118378639,0.025455886498093605,0.9887498617172241,0.07437196373939514,0.009734244085848331,0.1294134557247162
98.0,-0.11786620318889618,-0.7127896547317505,1.7132904529571533,0.49661335349082947,1.8219845294952393,1.2821125984191895,0.9105818271636963,0.05595770850777626,0.025845998898148537,0.9882299304008484,0.07997865229845047,0.0105193592607975,0.1299789994955063
99.0,-0.12385307252407074,-0.7077630758285522,1.6968300342559814,0.5109948515892029,1.8180657625198364,1.2890173196792603,0.9202511310577393,0.04993165656924248,0.027386808767914772,0.9890000820159912,0.07388290762901306,0.009546125307679176,0.127784863114357
100.0,-0.12538565695285797,-0.7135040760040283,1.7102323770523071,0.4993443489074707,1.8180454969406128,1.273943543434143,0.9131211042404175,0.04943251237273216,0.02749686874449253,0.9884277582168579,0.08032670617103577,0.01042297761887312,0.12825575470924377
101.0,-0.1243731826543808,-0.7185505032539368,1.7235913276672363,0.48765894770622253,1.8195809125900269,1.2630716562271118,0.9056837558746338,0.05104903504252434,0.02707105316221714,0.9877966046333313,0.08594754338264465,0.011258927173912525,0.12939903140068054
102.0,-0.13305321335792542,-0.7220836281776428,1.7269008159637451,0.48487961292266846,1.8145039081573486,1.2459022998809814,0.9048354029655457,0.044120658189058304,0.028815994039177895,0.9876819849014282,0.0900801420211792,0.011620777659118176,0.12741580605506897
103.0,-0.14032632112503052,-0.7205126881599426,1.7189620733261108,0.4934508800506592,1.802300214767456,1.2389613389968872,0.9098252058029175,0.03872397914528847,0.030181491747498512,0.9884243011474609,0.09036046266555786,0.011095056310296059,0.12136527895927429
104.0,-0.13250169157981873,-0.7114865183830261,1.700618863105774,0.5078341960906982,1.8132230043411255,1.2719175815582275,0.9191383123397827,0.04290362820029259,0.029156455770134926,0.9889268279075623,0.07797958701848984,0.009925616905093193,0.1258753538131714
105.0,-0.15433646738529205,-0.7134082913398743,1.6955883502960205,0.5197300910949707,1.7620067596435547,1.2225499153137207,0.9234755635261536,0.03007231093943119,0.03224511072039604,0.9904888868331909,0.0930320993065834,0.009479919448494911,0.10093026608228683
106.0,-0.15096518397331238,-0.7182957530021667,1.7088720798492432,0.5064333081245422,1.7732679843902588,1.2185298204421997,0.9160967469215393,0.03256805241107941,0.031661536544561386,0.9895459413528442,0.0961894616484642,0.010396172292530537,0.10695027559995651
107.0,-0.15674814581871033,-0.7299389243125916,1.735295295715332,0.484443724155426,1.76396906375885,1.1707580089569092,0.9021655321121216,0.03092319332063198,0.032000210136175156,0.9876476526260376,0.11680515855550766,0.012266753241419792,0.10372170805931091
108.0,-0.18052887916564941,-0.7326288223266602,1.7343629598617554,0.49472472071647644,1.704386591911316,1.0609573125839233,0.9039801359176636,0.01843838579952717,0.03463258966803551,0.984001874923706,0.16098688542842865,0.012321174144744873,0.0753108412027359
109.0,-0.17817994952201843,-0.7263990640640259,1.7197507619857788,0.5071427822113037,1.706831932067871,1.0918729305267334,0.9117861390113831,0.01876779831945896,0.03458934649825096,0.9861778020858765,0.1470053344964981,0.01126994751393795,0.07560386508703232
110.0,-0.20656940340995789,-0.7231588959693909,1.7098513841629028,0.5278676152229309,1.6343884468078613,-1.7776050567626953,0.9178374409675598,0.003006630577147007,0.036149125546216965,0.0007742181187495589,0.9990995526313782,-0.036868494004011154,0.02098054066300392
111.0,-0.1827382892370224,-0.7196705937385559,1.7023284435272217,0.5249550342559814,1.691330075263977,-1.7547354698181152,0.9213418960571289,0.015271960757672787,0.035282742232084274,0.0013034563744440675,0.9976873993873596,-0.06493957340717316,0.020025411620736122
112.0,-0.18256637454032898,-0.7146020531654358,1.6901341676712036,0.5359570980072021,1.688907504081726,-1.7545323371887207,0.927851140499115,0.01460553053766489,0.03542160615324974,0.0011664106277748942,0.9978187084197998,-0.06339915841817856,0.01835775561630726
113.0,-0.20615652203559875,-0.7151255011558533,1.691002368927002,0.5448074340820312,1.6307038068771362,-1.7771869897842407,0.927858829498291,0.001869312021881342,0.0362098328769207,0.0006333525525406003,0.9992377758026123,-0.03443412482738495,0.018379146233201027
114.0,-0.23350201547145844,-0.7101100087165833,1.682949185371399,0.5646436810493469,1.5609099864959717,-1.8041667938232422,0.9319705367088318,-0.013485373929142952,0.036478590220212936,-1.657890788919758e-05,0.9998490810394287,0.0009555603028275073,0.017347315326333046
115.0,-0.24185924232006073,-0.7079252004623413,1.678196668624878,0.5695991516113281,1.5564708709716797,-1.8125427961349487,0.9343103766441345,-0.021181102842092514,0.03648112341761589,-5.438850348582491e-05,0.9998549222946167,0.003251069923862815,0.016726991161704063
116.0,-0.24318335950374603,-0.7139631509780884,1.6925474405288696,0.5576472878456116,1.5548927783966064,-1.8138377666473389,0.9267421364784241,-0.020296910777688026,0.03646540269255638,-6.647603731835261e-05,0.9998190999031067,0.003556765615940094,0.01868664287030697
117.0,-0.22904697060585022,-0.7175896167755127,1.6993690729141235,0.5475250482559204,1.5764105319976807,-1.7996684312820435,0.9233832359313965,-0.009775263257324696,0.03644859418272972,0.00014563280274160206,0.9997808933258057,-0.00744151184335351,0.019566034898161888
118.0,-0.24075447022914886,-0.7210932374000549,1.70940101146698,0.5432043671607971,1.5546526908874512,-1.811366319656372,0.9178785085678101,-0.015820173546671867,0.03644580766558647,-6.62922248011455e-05,0.9997745752334595,0.003156420076265931,0.020997609943151474
119.0,-0.24730388820171356,-0.725188136100769,1.7194507122039795,0.5353168249130249,1.5510882139205933,-1.8178960084915161,0.9124053120613098,-0.01991349086165428,0.0364302359521389,-0.00010101036605192348,0.9997392296791077,0.004510174971073866,0.022390266880393028
120.0,-0.25306230783462524,-0.7304461002349854,1.7323294878005981,0.5250191688537598,1.54733145236969,-1.8236273527145386,0.9053995013237,-0.022790370509028435,0.03640880808234215,-0.00014185199688654393,0.9996904134750366,0.005864514037966728,0.024180704727768898
121.0,-0.26232486963272095,-0.727647602558136,1.726132869720459,0.5313491225242615,1.5431705713272095,-1.832930564880371,0.9084244966506958,-0.03139038756489754,0.03641101345419884,-0.0001875931047834456,0.9996949434280396,0.008028947748243809,0.023357465863227844
122.0,-0.2711019515991211,-0.7260655164718628,1.7229021787643433,0.5352281332015991,1.5385291576385498,-1.8417494297027588,0.9098057150840759,-0.0390896201133728,0.03640611097216606,-0.00023802219948265702,0.9996824264526367,0.010357407853007317,0.022973565384745598
123.0,-0.27572306990623474,-0.7215613722801208,1.7123757600784302,0.5446190237998962,1.5371599197387695,-1.846415638923645,0.9151670932769775,-0.0446447916328907,0.0364147387444973,-0.00024547960492782295,0.9997023940086365,0.011368054896593094,0.02158738113939762
124.0,-0.26532164216041565,-0.7200589179992676,1.7081483602523804,0.5468806028366089,1.543109655380249,-1.8359843492507935,0.9178400039672852,-0.036687981337308884,0.03643282875418663,-0.00018117456056643277,0.9997437596321106,0.008661261759698391,0.020912444218993187
125.0,-0.2656862139701843,-0.714008092880249,1.6937395334243774,0.5590100288391113,1.5441958904266357,-1.8363832235336304,0.9254027605056763,-0.03925786539912224,0.03645029291510582,-0.00016350999067071825,0.9997831583023071,0.008624662645161152,0.018954308703541756
126.0,-0.25601884722709656,-0.7176674008369446,1.7018967866897583,0.5509778261184692,1.5487627983093262,-1.8266692161560059,0.9214674234390259,-0.029920009896159172,0.036448653787374496,-0.00012306793360039592,0.99978107213974,0.006151599809527397,0.020001458004117012
127.0,-0.25507473945617676,-0.7116069197654724,1.6874016523361206,0.5629632472991943,1.550771951675415,-1.825753927230835,0.929121196269989,-0.03135882690548897,0.036466535180807114,-0.00010179384116781875,0.9998216032981873,0.00564636429771781,0.018024994060397148
128.0,-0.24833610653877258,-0.7052132487297058,1.6721150875091553,0.5754444003105164,1.5535144805908203,-1.8190418481826782,0.9373166561126709,-0.02756352163851261,0.03648405894637108,-7.764882320770994e-05,0.9998615384101868,0.004879483487457037,0.015911124646663666
129.0,-0.25128430128097534,-0.7005121111869812,1.6609476804733276,0.5846086740493774,1.5550183057785034,-1.8220056295394897,0.9430449604988098,-0.032058749347925186,0.036494847387075424,-6.40811922494322e-05,0.9998860955238342,0.004439656622707844,0.01443217508494854
130.0,-0.2632392942905426,-0.70109623670578,1.6628493070602417,0.5841962099075317,1.5494242906570435,-1.8339794874191284,0.9416067004203796,-0.04217034950852394,0.036486562341451645,-0.00010469115659361705,0.9998658299446106,0.007084890268743038,0.014774697832763195
131.0,-0.25700509548187256,-0.696049690246582,1.650702953338623,0.593743622303009,1.5529613494873047,-1.8277530670166016,0.948138415813446,-0.03851596638560295,0.03650036081671715,-7.568080764031038e-05,0.9998975396156311,0.00577764306217432,0.013097565621137619
132.0,-0.2520049810409546,-0.6911363005638123,1.6388752460479736,0.6029166579246521,1.5568671226501465,-1.8227583169937134,0.9544187188148499,-0.035967450588941574,0.03651219233870506,-4.863986396230757e-05,0.9999251365661621,0.00423356331884861,0.011488247662782669
133.0,-0.24585990607738495,-0.695656955242157,1.649435043334961,0.5940121412277222,1.5568711757659912,-1.8165977001190186,0.9491702914237976,-0.028734518215060234,0.036505233496427536,-5.081030394649133e-05,0.9999096989631653,0.0039534419775009155,0.012851009145379066
134.0,-0.2370152324438095,-0.697463870048523,1.6533288955688477,0.5899339318275452,1.5605148077011108,-1.807738184928894,0.9473835229873657,-0.02043270505964756,0.03650481626391411,-2.7548579964786768e-05,0.9999086856842041,0.0020624948665499687,0.013355700299143791
135.0,-0.234195277094841,-0.6911604404449463,1.6384830474853516,0.6021791696548462,1.5622061491012573,-1.8049389123916626,0.9551205039024353,-0.019862327724695206,0.03651600703597069,-1.938254172273446e-05,0.999934196472168,0.001707154791802168,0.011352966539561749
136.0,-0.24334558844566345,-0.6900444626808167,1.6361716985702515,0.6048272848129272,1.558854103088379,-1.814098834991455,0.9560819268226624,-0.028361862525343895,0.03651551529765129,-3.768210444832221e-05,0.9999330639839172,0.00340472673997283,0.011066844686865807
137.0,-0.24640923738479614,-0.6849417090415955,1.6241451501846313,0.6145964860916138,1.5604952573776245,-1.8171734809875488,0.9621611833572388,-0.03310396894812584,0.036523278802633286,-2.7753678295994177e-05,0.999950647354126,0.0029220418073236942,0.009497573599219322
138.0,-0.23560592532157898,-0.6850296258926392,1.6241497993469238,0.6141083836555481,1.5630429983139038,-1.8063666820526123,0.962459146976471,-0.0231111291795969,0.03652472421526909,-1.6240008335444145e-05,0.9999539852142334,0.0017191861988976598,0.009445900097489357
139.0,-0.23440957069396973,-0.6791572570800781,1.6104069948196411,0.6253786087036133,1.5645036697387695,-1.805182933807373,0.9695081114768982,-0.023868227377533913,0.03653178736567497,-1.0783317520690616e-05,0.9999699592590332,0.0014149188064038754,0.007620927877724171
140.0,-0.2281413972377777,-0.6793275475502014,1.6107662916183472,0.6249901056289673,1.5651010274887085,-1.7989143133163452,0.9694507718086243,-0.017841758206486702,0.03653186187148094,-8.781466931395698e-06,0.9999701380729675,0.001149144140072167,0.007641518022865057
141.0,-0.2206597775220871,-0.6832608580589294,1.6191143989562988,0.6159325242042542,1.5759758949279785,-1.791425108909607,0.9652940630912781,-0.01135169342160225,0.03652365133166313,4.0119586628861725e-05,0.9999514818191528,-0.004607113543897867,0.008707761764526367
142.0,-0.22253946959972382,-0.6897417306900024,1.6342307329177856,0.6033321022987366,1.575117588043213,-1.793285846710205,0.9574992060661316,-0.011271679773926735,0.03651493415236473,4.980299490853213e-05,0.9999316930770874,-0.0046423026360571384,0.010727346874773502
143.0,-0.19721990823745728,-0.6826779842376709,1.615190863609314,0.6088510155677795,1.63469660282135,-1.7683981657028198,0.9673582315444946,0.001630580984055996,0.03627295419573784,0.00027921548462472856,0.9993814826011658,-0.03420557081699371,0.008157817646861076
144.0,-0.17109465599060059,-0.6840012073516846,1.6196255683898926,0.5943189859390259,1.7027597427368164,-1.7433794736862183,0.9644537568092346,0.01673240400850773,0.03507884964346886,0.0006042407476343215,0.9976166486740112,-0.0684342235326767,0.008808467537164688
145.0,-0.18889562785625458,-0.6906744837760925,1.6334794759750366,0.5892031192779541,1.6600440740585327,-1.760412335395813,0.9578008055686951,0.007530945353209972,0.036024805158376694,0.0005053136264905334,0.9988170266151428,-0.04744903743267059,0.010637008585035801
146.0,-0.17316433787345886,-0.6954101324081421,1.6462795734405518,0.5714656114578247,1.7031052112579346,-1.7454488277435303,0.9506533741950989,0.017102234065532684,0.03499084338545799,0.0008594144601374865,0.9975206851959229,-0.06927306950092316,0.012375425547361374
147.0,-0.1951281577348709,-0.6960287094116211,1.6460121870040894,0.5805982351303101,1.6472593545913696,-1.7664437294006348,0.9513832926750183,0.004839228931814432,0.03613492473959923,0.0005091226776130497,0.9990674257278442,-0.041388001292943954,0.01228974387049675
148.0,-0.2188461869955063,-0.6993719339370728,1.6557410955429077,0.5822921395301819,1.5900321006774902,-1.789601445198059,0.9463898539543152,-0.007614025846123695,0.03646787628531456,0.00017506904259789735,0.9998246431350708,-0.012874847277998924,0.013595372438430786
149.0,-0.2226702719926834,-0.7046142816543579,1.6683787107467651,0.5726801156997681,1.5837781429290771,-1.7933794260025024,0.9397605061531067,-0.008750861510634422,0.036470841616392136,0.00015507068019360304,0.9998314380645752,-0.010121792554855347,0.015317893587052822
150.0,-0.192373588681221,-0.7018325924873352,1.659487247467041,0.5674335956573486,1.6573288440704346,-1.7638232707977295,0.9442955851554871,0.007259446196258068,0.0360189788043499,0.0006621224456466734,0.9988035559654236,-0.04681342467665672,0.01412693690508604
151.0,-0.19735433161258698,-0.7091503143310547,1.676666021347046,0.5540499091148376,1.6490590572357178,-1.7686560153961182,0.9353375434875488,0.005649058148264885,0.036075424402952194,0.0007104668766260147,0.9989320635795593,-0.04317682236433029,0.01643724925816059
152.0,-0.156751811504364,-0.703303873538971,1.6701427698135376,0.5435905456542969,1.7506741285324097,1.2450076341629028,0.9372078776359558,0.0274223480373621,0.032857220619916916,0.9921799302101135,0.08133745193481445,0.007735338062047958,0.09435808658599854
153.0,-0.1556035429239273,-0.6973755955696106,1.6562186479568481,0.5556400418281555,1.7508748769760132,1.2658684253692627,0.9445050358772278,0.027317894622683525,0.03289225324988365,0.992969810962677,0.07173686474561691,0.0067844451405107975,0.09390916675329208
154.0,-0.1430409550666809,-0.6901795864105225,1.6435166597366333,0.5620214939117432,1.780853033065796,1.3106842041015625,0.9504224061965942,0.033683888614177704,0.03146415576338768,0.99257493019104,0.05525685101747513,0.006023052614182234,0.10819166153669357
155.0,-0.15546941757202148,-0.6880139112472534,1.6337385177612305,0.5755801796913147,1.7467068433761597,1.2949777841567993,0.9563122987747192,0.026234095916152,0.03314181789755821,0.9941577911376953,0.057717859745025635,0.00528638856485486,0.09105508774518967
156.0,-0.14987468719482422,-0.6810709238052368,1.6189945936203003,0.5863138437271118,1.7583011388778687,1.3258662223815918,0.9636977314949036,0.028664786368608475,0.03261774405837059,0.9943182468414307,0.04511173069477081,0.004369870759546757,0.0963173508644104
157.0,-0.14246998727321625,-0.6744773387908936,1.6059479713439941,0.5948560833930969,1.7752408981323242,1.3550267219543457,0.9700167775154114,0.032269202172756195,0.03181033954024315,0.9939492344856262,0.03417408838868141,0.003586995881050825,0.10432733595371246
158.0,-0.12879592180252075,-0.664152979850769,1.587019443511963,0.6062911748886108,1.8082102537155151,1.3954696655273438,0.9788081645965576,0.03931761533021927,0.03013935126364231,0.9925361275672913,0.020629804581403732,0.0024976772256195545,0.12016762793064117
159.0,-0.12626701593399048,-0.6739627718925476,1.612047791481018,0.5842004418373108,1.8137805461883545,1.3716872930526733,0.9656357765197754,0.04261038452386856,0.029303783550858498,0.9917858839035034,0.0331965871155262,0.004132304806262255,0.12345731258392334
160.0,-0.12884530425071716,-0.6808935403823853,1.6273765563964844,0.5712125897407532,1.8134095668792725,1.3530634641647339,0.9578452706336975,0.04119977355003357,0.029651904478669167,0.9914644956588745,0.040877800434827805,0.005100061651319265,0.12369868159294128
161.0,-0.1219688355922699,-0.6834543347358704,1.6378064155578613,0.5618324875831604,1.815219759941101,1.348629355430603,0.9517273902893066,0.04822465032339096,0.027870798483490944,0.9910932779312134,0.04636183753609657,0.005833396688103676,0.1247025653719902
162.0,-0.12812922894954681,-0.688387930393219,1.646148681640625,0.55498206615448,1.8137106895446777,1.3337148427963257,0.947895348072052,0.04311823844909668,0.029154712334275246,0.9909345507621765,0.050514187663793564,0.006337663624435663,0.12432566285133362
163.0,-0.13175000250339508,-0.6966078877449036,1.664169430732727,0.5396041870117188,1.813118577003479,1.3112528324127197,0.9386430978775024,0.041021257638931274,0.02966989018023014,0.990387499332428,0.05951622501015663,0.0074899583123624325,0.12463762611150742
164.0,-0.14232054352760315,-0.7044232487678528,1.6784582138061523,0.5306598544120789,1.7894182205200195,1.2745556831359863,0.9318221211433411,0.03572574257850647,0.03095437027513981,0.9908251166343689,0.07278919965028763,0.008343080058693886,0.11356813460588455
165.0,-0.1287553310394287,-0.7046093344688416,1.685824990272522,0.5205938220024109,1.8143078088760376,1.2917017936706543,0.9267666339874268,0.045173630118370056,0.02859979309141636,0.9895197153091431,0.07032177597284317,0.008940180763602257,0.12580007314682007
166.0,-0.119501993060112,-0.7013351917266846,1.6835805177688599,0.5224499106407166,1.8198264837265015,1.3084003925323486,0.9269301891326904,0.05284089595079422,0.026666322723031044,0.9894790649414062,0.06670141220092773,0.008634810335934162,0.1280926913022995
167.0,-0.11111309379339218,-0.6974904537200928,1.6793735027313232,0.526081919670105,1.8212275505065918,1.322179913520813,0.9282480478286743,0.060203954577445984,0.024818474426865578,0.9896078705787659,0.06421247869729996,0.00833071954548359,0.12838853895664215
168.0,-0.11350158601999283,-0.6924981474876404,1.6654449701309204,0.5380493998527527,1.8197301626205444,1.3324038982391357,0.9360411167144775,0.05733974650502205,0.02555164135992527,0.9901190400123596,0.05819026753306389,0.007485481910407543,0.12736697494983673
169.0,-0.11847004294395447,-0.6908178329467773,1.6581552028656006,0.5443753004074097,1.8187397718429565,1.334273099899292,0.9404871463775635,0.05234088748693466,0.02681642211973667,0.9903804063796997,0.0548679456114769,0.007026706822216511,0.12683384120464325
170.0,-0.11424525082111359,-0.6837323904037476,1.6433583498001099,0.557038426399231,1.8193413019180298,1.3539892435073853,0.9479011297225952,0.05534615367650986,0.026070469990372658,0.9907927513122559,0.04749445989727974,0.00607052817940712,0.12663866579532623
171.0,-0.1118079423904419,-0.6728459000587463,1.618200421333313,0.5784763693809509,1.818156123161316,1.3811452388763428,0.9609367847442627,0.05635565519332886,0.02583284117281437,0.9914491772651672,0.03570941463112831,0.00451771030202508,0.1254313439130783
172.0,-0.11816903948783875,-0.6731780171394348,1.6150388717651367,0.5812072157859802,1.8160346746444702,1.3765430450439453,0.9633057117462158,0.05032063648104668,0.027355099096894264,0.9916023015975952,0.03482016921043396,0.00437087332829833,0.12447294592857361
173.0,-0.1204807385802269,-0.6687442064285278,1.6028482913970947,0.5916956067085266,1.814811110496521,1.3865405321121216,0.9699018597602844,0.0474933385848999,0.028074586763978004,0.9918980598449707,0.028900617733597755,0.003602854674682021,0.12365357577800751
174.0,-0.12074320763349533,-0.6631406545639038,1.5891287326812744,0.6034126281738281,1.8146191835403442,1.4008811712265015,0.9770276546478271,0.04640462249517441,0.028354549780488014,0.9921273589134216,0.02187972329556942,0.0027186679653823376,0.12327691912651062
175.0,-0.11781983822584152,-0.6559007167816162,1.5734097957611084,0.616576611995697,1.8150012493133545,1.420048475265503,0.9848411083221436,0.0482616126537323,0.027889633551239967,0.9922899603843689,0.014102696441113949,0.0017498360248282552,0.123121477663517
176.0,-0.11674069613218307,-0.6502026319503784,1.560356616973877,0.6275526881217957,1.815055012702942,1.4347655773162842,0.9914085865020752,0.048539899289608,0.027821356430649757,0.992388904094696,0.007556352764368057,0.0009358559036627412,0.12290757149457932
177.0,-0.11130505800247192,-0.6623023748397827,1.5928560495376587,0.5999550819396973,1.8173754215240479,1.407130479812622,0.9741191267967224,0.05547988414764404,0.02606404758989811,0.9919330477714539,0.023497220128774643,0.0029499514494091272,0.12453193962574005
178.0,-0.1095040962100029,-0.6507965922355652,1.5661466121673584,0.6224086284637451,1.8162168264389038,1.4355989694595337,0.9877170324325562,0.05590242147445679,0.025964582338929176,0.9922892451286316,0.010726230219006538,0.0013346776831895113,0.12347172945737839
179.0,-0.10347266495227814,-0.6507169604301453,1.5696237087249756,0.6193634867668152,1.8147944211959839,1.4369176626205444,0.985301673412323,0.06228674203157425,0.024359727278351784,0.9923515915870667,0.013108593411743641,0.0016212939517572522,0.12273579090833664
180.0,-0.1040760949254036,-0.6585976481437683,1.5883020162582397,0.6036552786827087,1.8154956102371216,1.4174103736877441,0.9757249355316162,0.0625908374786377,0.02427881397306919,0.9921054840087891,0.02218022383749485,0.002758784918114543,0.12339846789836884
181.0,-0.10723310708999634,-0.6647729277610779,1.6013532876968384,0.5926911234855652,1.8166306018829346,1.4017013311386108,0.969276487827301,0.06005418673157692,0.024911561980843544,0.9918453693389893,0.02814183011651039,0.003525399137288332,0.12425101548433304
182.0,-0.10590140521526337,-0.6709042191505432,1.617123007774353,0.5793233513832092,1.8173843622207642,1.3873605728149414,0.9608620405197144,0.06211733818054199,0.024385863915085793,0.9915173649787903,0.03567301854491234,0.004493787884712219,0.12490304559469223
183.0,-0.10758961737155914,-0.6799479722976685,1.6382267475128174,0.5613796710968018,1.8187111616134644,1.3651623725891113,0.949896514415741,0.0614909827709198,0.024530434980988503,0.9909659028053284,0.045453429222106934,0.0057813688181340694,0.1260441541671753
184.0,-0.10828877240419388,-0.6862736344337463,1.6533716917037964,0.5484458208084106,1.8198368549346924,1.3500536680221558,0.9418990612030029,0.06153157353401184,0.02450881339609623,0.9905040860176086,0.052315667271614075,0.006705880630761385,0.12696389853954315
185.0,-0.10031614452600479,-0.6860844492912292,1.6580102443695068,0.5446804761886597,1.823287844657898,1.3569837808609009,0.9383692145347595,0.0688234195113182,0.02268480695784092,0.9902746081352234,0.052840057760477066,0.006857650820165873,0.12851911783218384
186.0,-0.09501126408576965,-0.6787508130073547,1.6432898044586182,0.5574761629104614,1.8244082927703857,1.378619909286499,0.9455090165138245,0.07291576266288757,0.02169179357588291,0.9906555414199829,0.04507855325937271,0.005851310212165117,0.12858958542346954
187.0,-0.09519451856613159,-0.6736985445022583,1.630748987197876,0.5681350827217102,1.823129653930664,1.3899776935577393,0.9522139430046082,0.07229545712471008,0.02185397781431675,0.9910076260566711,0.03958098962903023,0.005100976210087538,0.12771549820899963
188.0,-0.08865346014499664,-0.671864926815033,1.6301767826080322,0.568387508392334,1.8244906663894653,1.3967630863189697,0.9516967535018921,0.07832035422325134,0.020372161641716957,0.9909401535987854,0.039537213742733,0.005117060616612434,0.1282513439655304
189.0,-0.10028683394193649,-0.6720770001411438,1.6235493421554565,0.5740200281143188,1.820027232170105,1.389028549194336,0.9567402601242065,0.06749198585748672,0.023039260879158974,0.9912825226783752,0.03759011626243591,0.0047850836999714375,0.12618662416934967
190.0,-0.10080403834581375,-0.663378894329071,1.601981520652771,0.5922137498855591,1.8177490234375,1.408596158027649,0.9681670665740967,0.06618736684322357,0.023371810093522072,0.9917963743209839,0.027992799878120422,0.003518901066854596,0.12467611581087112
191.0,-0.09275087714195251,-0.6608440279960632,1.6007295846939087,0.5933002829551697,1.820345163345337,1.4195975065231323,0.9677819609642029,0.07357528805732727,0.021558323875069618,0.9916951060295105,0.026648351922631264,0.0033797540236264467,0.1257745921611786
192.0,-0.08559887111186981,-0.6613578200340271,1.606325626373291,0.5884060263633728,1.8235520124435425,1.422183871269226,0.9639003276824951,0.08029968291521072,0.019882673397660255,0.991433322429657,0.028887778520584106,0.003709922544658184,0.1273251473903656
193.0,-0.08217906206846237,-0.6555887460708618,1.594363808631897,0.5983326435089111,1.8236397504806519,1.4368822574615479,0.9697117805480957,0.08308067172765732,0.019182095304131508,0.9916018843650818,0.023531557992100716,0.0030169987585395575,0.1271340399980545
194.0,-0.0799909457564354,-0.6630107164382935,1.6138896942138672,0.5819884538650513,1.8271121978759766,1.4222174882888794,0.9591049551963806,0.08551762998104095,0.01855393685400486,0.9911207556724548,0.031577687710523605,0.004113060422241688,0.12909556925296783
195.0,-0.0753612220287323,-0.6570673584938049,1.6021677255630493,0.5916368365287781,1.8262187242507935,1.4367475509643555,0.9646551609039307,0.08964109420776367,0.01752346195280552,0.991348922252655,0.026928473263978958,0.0034881611354649067,0.12841369211673737
196.0,-0.07400478422641754,-0.6512584686279297,1.5888198614120483,0.602767288684845,1.8247309923171997,1.450067162513733,0.9714651703834534,0.09065830707550049,0.017280811443924904,0.9916098713874817,0.021240951493382454,0.0027307297568768263,0.12748104333877563
197.0,-0.0694664940237999,-0.6456289887428284,1.5777935981750488,0.6116960644721985,1.8244647979736328,1.4638479948043823,0.9765844941139221,0.09472047537565231,0.016285860911011696,0.9917351007461548,0.0168843325227499,0.0021650425624102354,0.12716810405254364
198.0,-0.06707027554512024,-0.6524943113327026,1.5960439443588257,0.5966676473617554,1.828583836555481,1.4513846635818481,0.9666248559951782,0.09709758311510086,0.01568915881216526,0.9913007020950317,0.023983072489500046,0.0031300524715334177,0.12937553226947784
199.0,-0.05816882476210594,-0.6522486805915833,1.6010955572128296,0.5923253297805786,1.835912823677063,1.4581820964813232,0.9625056982040405,0.10479103773832321,0.013703580014407635,0.9908043742179871,0.02502065896987915,0.0033567759674042463,0.13292649388313293
200.0,-0.05773044377565384,-0.657092809677124,1.6133826971054077,0.5823405385017395,1.839216709136963,1.4500596523284912,0.9558663964271545,0.10510144382715225,0.01361363660544157,0.9904553890228271,0.029059797525405884,0.0039514400996267796,0.13467834889888763
201.0,-0.07086838036775589,-0.6605268716812134,1.613523006439209,0.5824087858200073,1.8304468393325806,1.4337553977966309,0.9579116106033325,0.0937911793589592,0.016491154208779335,0.990962564945221,0.030507178977131844,0.0040194196626544,0.13056252896785736
202.0,-0.06554902344942093,-0.6615267992019653,1.619240403175354,0.5775438547134399,1.8334276676177979,1.4346987009048462,0.9540597200393677,0.0986592099070549,0.015282864682376385,0.9906994104385376,0.03263270482420921,0.004348815884441137,0.13202610611915588
203.0,-0.06293649971485138,-0.667287290096283,1.6352120637893677,0.5642843842506409,1.8382010459899902,1.4257138967514038,0.945066511631012,0.1009894534945488,0.014666195027530193,0.9901606440544128,0.038117796182632446,0.005179497413337231,0.13454435765743256
204.0,-0.07337956875562668,-0.6678008437156677,1.629839301109314,0.5686533451080322,1.8318480253219604,1.4165620803833008,0.9496269226074219,0.09180202335119247,0.01696794666349888,0.9905897974967957,0.037456873804330826,0.004974078387022018,0.13154517114162445
205.0,-0.08010686188936234,-0.6730072498321533,1.6384689807891846,0.5614157915115356,1.8310749530792236,1.4016598463058472,0.9460036754608154,0.08586592227220535,0.01844766177237034,0.9904496669769287,0.04126652330160141,0.005476417485624552,0.13144108653068542
206.0,-0.08157564699649811,-0.67951500415802,1.6536316871643066,0.5485805869102478,1.8319950103759766,1.3865091800689697,0.9380832314491272,0.08499649912118912,0.018656397238373756,0.99005126953125,0.04775377735495567,0.006376596633344889,0.13220226764678955
207.0,-0.07410230487585068,-0.6740418076515198,1.6448241472244263,0.5560402274131775,1.833977222442627,1.403242588043213,0.9417024254798889,0.0913906916975975,0.017054343596100807,0.9901678562164307,0.04341214522719383,0.005824567284435034,0.13284991681575775
208.0,-0.07200278341770172,-0.6793212294578552,1.6593191623687744,0.543925404548645,1.8375123739242554,1.3946678638458252,0.933527410030365,0.09341544657945633,0.01653706468641758,0.9896684288978577,0.04845143482089043,0.006598412524908781,0.13477908074855804
209.0,-0.06565022468566895,-0.673194408416748,1.6481900215148926,0.5536081194877625,1.8388795852661133,1.4127436876296997,0.9384859800338745,0.09877366572618484,0.015225614421069622,0.9898822903633118,0.042944200336933136,0.005861469078809023,0.13510939478874207
210.0,-0.06024613603949547,-0.6827982068061829,1.6697509288787842,0.5187966823577881,1.8569304943084717,1.3439801931381226,0.9289008975028992,0.1017051711678505,0.014133955352008343,0.98621666431427,0.07767501473426819,0.01147089246660471,0.14564251899719238
211.0,-0.056150440126657486,-0.6960507035255432,1.6965324878692627,0.4683300256729126,1.8784966468811035,1.2449398040771484,0.9186248183250427,0.10287554562091827,0.013131196610629559,0.9789940714836121,0.12494400143623352,0.020397471264004707,0.15982361137866974
212.0,-0.056014589965343475,-0.7099134922027588,1.7243326902389526,0.4202192723751068,1.8943508863449097,1.1639235019683838,0.9077185392379761,0.1012820154428482,0.012768502347171307,0.9714559316635132,0.1610637605190277,0.02848626673221588,0.1718149185180664
213.0,-0.04069376364350319,-0.7399512529373169,1.7898976802825928,0.2647055387496948,1.9492485523223877,0.9541743993759155,0.8865536451339722,0.10801099240779877,0.006370807997882366,0.9408195614814758,0.2536117136478424,0.05851240083575249,0.2170625776052475
214.0,-0.017446642741560936,-0.7392769455909729,1.8018267154693604,0.21012334525585175,2.0048351287841797,0.9397719502449036,0.8826860189437866,0.12073016166687012,-0.00012396753299981356,0.930280864238739,0.2611607015132904,0.06963319331407547,0.24804046750068665
215.0,0.0026568863540887833,-0.7535724639892578,1.852204442024231,0.06277120113372803,2.0677740573883057,0.8324282765388489,0.8675482869148254,0.1297396719455719,-0.010683243162930012,0.9027502536773682,0.29704445600509644,0.09724859893321991,0.29554906487464905
216.0,-0.0066523062996566296,-0.7297454476356506,1.7879948616027832,0.22461244463920593,2.0251195430755615,0.9771435856819153,0.8873371481895447,0.12738479673862457,-0.0022592591121792793,0.9323444962501526,0.24802641570568085,0.06763613969087601,0.25424784421920776
217.0,-0.009185833856463432,-0.7123794555664062,1.7489008903503418,0.31087037920951843,2.00392746925354,1.0746475458145142,0.9003363847732544,0.12797316908836365,0.0007236701203510165,0.9477021098136902,0.21073824167251587,0.05202795937657356,0.23397274315357208
218.0,-0.030760597437620163,-0.715424656867981,1.7439595460891724,0.34811586141586304,1.9516526460647583,1.084251046180725,0.9020352959632874,0.1159563660621643,0.006268898956477642,0.9561767578125,0.20292575657367706,0.04381699487566948,0.20646362006664276
219.0,-0.02741372212767601,-0.6984883546829224,1.711256504058838,0.40868112444877625,1.9445253610610962,1.1798697710037231,0.9134605526924133,0.11967343091964722,0.0067089153453707695,0.9662181735038757,0.1634841114282608,0.03323847055435181,0.19644486904144287
220.0,-0.017752720043063164,-0.6908552646636963,1.6995162963867188,0.41620132327079773,1.9609671831130981,1.2020390033721924,0.9182640910148621,0.12603157758712769,0.004645134322345257,0.9658586382865906,0.15691988170146942,0.033057279884815216,0.20347106456756592
221.0,-0.03778814896941185,-0.6863026022911072,1.6824814081192017,0.4713359475135803,1.907528281211853,1.266811490058899,0.9244714379310608,0.11517508327960968,0.009580369107425213,0.9769856929779053,0.12208164483308792,0.021688180044293404,0.17356452345848083
222.0,-0.04975462704896927,-0.6753459572792053,1.6567349433898926,0.525269091129303,1.869795799255371,1.356117606163025,0.9349101185798645,0.10918694734573364,0.012086625210940838,0.9853721857070923,0.07664854824542999,0.011803884990513325,0.1517474502325058
223.0,-0.03405071794986725,-0.6736617684364319,1.6581376791000366,0.5062599778175354,1.9039160013198853,1.3301866054534912,0.9343374371528625,0.1188051700592041,0.008975679986178875,0.9808043241500854,0.09498829394578934,0.016415730118751526,0.16950109601020813
224.0,-0.04026009514927864,-0.6620392203330994,1.631106972694397,0.5495496988296509,1.8751399517059326,1.3982481956481934,0.9464491605758667,0.11676214635372162,0.010167400352656841,0.9862085580825806,0.06136408820748329,0.009545828215777874,0.15341511368751526
225.0,-0.053979624062776566,-0.6614922285079956,1.6268597841262817,0.5714657306671143,1.846123456954956,1.4464653730392456,0.9479429721832275,0.10806436836719513,0.012830640189349651,0.9898658990859985,0.03250189870595932,0.004536502994596958,0.1381620615720749
226.0,-0.04936791956424713,-0.6515285968780518,1.6048592329025269,0.5889418125152588,1.8433064222335815,1.465184211730957,0.9590342044830322,0.1122807040810585,0.011785830371081829,0.9902936816215515,0.025918522849678993,0.0035727170761674643,0.13650619983673096
227.0,-0.021086910739541054,-0.6510573625564575,1.6138077974319458,0.5513020753860474,1.9115102291107178,1.4024131298065186,0.9540966153144836,0.12935040891170502,0.0063732219859957695,0.9828110933303833,0.067690908908844,0.011801736429333687,0.1713505983352661
228.0,-0.021198023110628128,-0.6583480834960938,1.6301578283309937,0.5316260457038879,1.919037938117981,1.3756179809570312,0.9464467763900757,0.128313347697258,0.006410862319171429,0.9811055660247803,0.079706571996212,0.014275184832513332,0.17571276426315308
229.0,-0.005386469420045614,-0.671587347984314,1.665587067604065,0.4593714773654938,1.976243019104004,1.2801793813705444,0.9313440322875977,0.13512489199638367,0.002378488890826702,0.9695860147476196,0.12728747725486755,0.02721034176647663,0.20726913213729858
230.0,-0.0029148098547011614,-0.6830999851226807,1.6911722421646118,0.41281837224960327,1.9944919347763062,1.2187291383743286,0.9212298393249512,0.13487768173217773,0.001187349553219974,0.9628157615661621,0.15382498502731323,0.03503792732954025,0.21930810809135437
231.0,0.004520493559539318,-0.7008858919143677,1.73288893699646,0.32458406686782837,2.0314958095550537,1.115715503692627,0.9058117866516113,0.13649819791316986,-0.0021816836670041084,0.9481201171875,0.1967305690050125,0.05073720961809158,0.2445221245288849
232.0,0.023905519396066666,-0.6954262256622314,1.7352707386016846,0.29055485129356384,2.0834884643554688,1.1073527336120605,0.9048470258712769,0.14698275923728943,-0.008304272778332233,0.9393082857131958,0.20219776034355164,0.05832545459270477,0.2709504961967468
233.0,0.01750810630619526,-0.7340671420097351,1.8180921077728271,0.11918287724256516,2.0949478149414062,0.9149652123451233,0.877910315990448,0.13916724920272827,-0.012218636460602283,0.911919116973877,0.2689991295337677,0.08768187463283539,0.29724550247192383
234.0,0.03011789359152317,-0.7170770764350891,1.7901383638381958,0.16477106511592865,2.1204090118408203,0.9859787225723267,0.8860479593276978,0.14714890718460083,-0.013906938023865223,0.9182666540145874,0.24440337717533112,0.08012749254703522,0.30105313658714294
235.0,0.04353560507297516,-0.7010310292243958,1.7663296461105347,0.19500130414962769,2.1507771015167236,1.0410845279693604,0.8934206962585449,0.1554730236530304,-0.01683615706861019,0.9205994606018066,0.2252425253391266,0.07581393420696259,0.30986276268959045
236.0,0.03971536457538605,-0.6836397051811218,1.7237985134124756,0.2924250364303589,2.1252338886260986,1.1386406421661377,0.9077515602111816,0.15593159198760986,-0.012807202525436878,0.9361503720283508,0.1916159689426422,0.05911510810256004,0.28881004452705383
237.0,0.037646930664777756,-0.6727640628814697,1.6978799104690552,0.34535759687423706,2.109649658203125,1.1940160989761353,0.9173668622970581,0.15645936131477356,-0.010904011316597462,0.9440514445304871,0.17127089202404022,0.05031028762459755,0.27731212973594666
238.0,0.05786043033003807,-0.6616687774658203,1.6934179067611694,0.32518723607063293,2.1705541610717773,1.2034870386123657,0.9173710346221924,0.16723623871803284,-0.01770416460931301,0.9351837635040283,0.1696023941040039,0.05548116937279701,0.3059219419956207
239.0,0.07028108090162277,-0.6721129417419434,1.7300530672073364,0.22649513185024261,2.226329803466797,1.1208064556121826,0.9040429592132568,0.1708480715751648,-0.024266494438052177,0.9173632860183716,0.196635439991951,0.07253649830818176,0.33840450644493103
240.0,0.06471876055002213,-0.687629222869873,1.7585647106170654,0.17259736359119415,2.2160933017730713,1.056939721107483,0.8952723741531372,0.16644740104675293,-0.0240639578551054,0.9115833640098572,0.21742871403694153,0.08095116913318634,0.3393927812576294
241.0,0.09192346781492233,-0.6993892192840576,1.8272753953933716,-0.06503643840551376,2.3374369144439697,0.8945714235305786,0.8744296431541443,0.17496523261070251,-0.04175727441906929,0.8674882054328918,0.24923807382583618,0.11888236552476883,0.413777232170105
242.0,0.08941709995269775,-0.7141424417495728,1.8653318881988525,-0.162150040268898,2.338033437728882,0.81236732006073,0.8643006086349487,0.17175930738449097,-0.044933829456567764,0.8538796901702881,0.2675790786743164,0.13349303603172302,0.4259936213493347
243.0,0.05722910910844803,-0.7229380011558533,1.8361760377883911,0.0004169864987488836,2.218702793121338,0.8869501352310181,0.8720442652702332,0.15801486372947693,-0.02786078117787838,0.8867828249931335,0.26712170243263245,0.10878691077232361,0.3611476421356201
244.0,0.04139835759997368,-0.7390962839126587,1.858002781867981,-0.02360663004219532,2.1744418144226074,0.8340849876403809,0.8663671016693115,0.1493959128856659,-0.024458011612296104,0.8851473927497864,0.28720271587371826,0.1129889041185379,0.348227322101593
245.0,0.029435429722070694,-0.7508348226547241,1.8751362562179565,-0.04280364140868187,2.145430088043213,0.795657753944397,0.8613266944885254,0.14254534244537354,-0.02205669693648815,0.8830447793006897,0.30113399028778076,0.11617347598075867,0.34066691994667053
246.0,0.038511715829372406,-0.7662997841835022,1.9404678344726562,-0.24145174026489258,2.1891977787017822,0.6635267734527588,0.844567060470581,0.14417172968387604,-0.03393037989735603,0.8487136960029602,0.32699835300445557,0.1494331955909729,0.38784903287887573
247.0,0.060928236693143845,-0.7524495720863342,1.9370250701904297,-0.2890914976596832,2.2571799755096436,0.6693844795227051,0.8461792469024658,0.15502527356147766,-0.04235263541340828,0.839216411113739,0.31240272521972656,0.15528330206871033,0.4171420633792877
248.0,0.07945122569799423,-0.7335548996925354,1.911723017692566,-0.26599177718162537,2.31270432472229,0.717758059501648,0.8523425459861755,0.16490881145000458,-0.047280486673116684,0.8404698967933655,0.29172849655151367,0.14973139762878418,0.4313761591911316
249.0,0.05714760720729828,-0.7575047612190247,1.9717762470245361,-0.3795306086540222,2.2443439960479736,0.6030132174491882,0.8361673355102539,0.15276172757148743,-0.050617363303899765,0.825792133808136,0.3281814754009247,0.16938956081867218,0.4262292981147766
250.0,0.029124367982149124,-0.7801498770713806,2.026251792907715,-0.47727665305137634,2.1672940254211426,0.49778568744659424,0.8224946856498718,0.13833212852478027,-0.05125529691576958,0.8098112344741821,0.36306458711624146,0.1885363757610321,0.4205281138420105
251.0,0.04357292503118515,-0.7711554765701294,1.998108983039856,-0.4263978898525238,2.209635019302368,0.551099419593811,0.8301697969436646,0.1452959179878235,-0.04879210516810417,0.8182373642921448,0.34436270594596863,0.17856383323669434,0.42428404092788696
252.0,0.03108401596546173,-0.7847391963005066,2.0155351161956787,-0.451901376247406,2.180281400680542,0.5143225193023682,0.8271706700325012,0.13844619691371918,-0.04381069913506508,0.8130432963371277,0.3563184440135956,0.184816375374794,0.42171186208724976
253.0,0.015184533782303333,-0.7958455681800842,2.046130895614624,-0.5099164247512817,2.1372389793395996,0.4559040367603302,0.8194730281829834,0.13065531849861145,-0.04485661908984184,0.8023757934570312,0.37522685527801514,0.19660288095474243,0.42041075229644775
254.0,-0.010959514416754246,-0.812767744064331,2.0732412338256836,-0.5406796336174011,2.070059061050415,0.3974125385284424,0.8133288621902466,0.11821809411048889,-0.040702711790800095,0.7936628460884094,0.3993493914604187,0.20628084242343903,0.40996041893959045
255.0,0.00576356565579772,-0.7918711304664612,1.9766476154327393,-0.27649039030075073,2.102872848510742,0.576587975025177,0.8353939056396484,0.1275368630886078,-0.028144365176558495,0.8416769504547119,0.362361341714859,0.1583087295293808,0.3677125573158264
256.0,0.013645037077367306,-0.775658130645752,1.9287183284759521,-0.1564810872077942,2.113725423812866,0.6738907098770142,0.8473368883132935,0.13285544514656067,-0.023629842326045036,0.86322021484375,0.33806920051574707,0.1367189884185791,0.3490959703922272
257.0,-0.01286395639181137,-0.8018697500228882,1.9821888208389282,-0.25608813762664795,2.056285858154297,0.5537180304527283,0.833429217338562,0.1182861179113388,-0.02296086959540844,0.843544065952301,0.3760283291339874,0.1561231166124344,0.3502309024333954
258.0,-0.037290576845407486,-0.8265649676322937,2.0873630046844482,-0.5343135595321655,2.0023598670959473,0.3558712303638458,0.8096989393234253,0.10634441673755646,-0.035745877772569656,0.7897197604179382,0.42191722989082336,0.2098560929298401,0.39279627799987793
259.0,-0.01849343813955784,-0.7797092795372009,1.899973750114441,-0.024670777842402458,2.027235269546509,0.7083237767219543,0.854324221611023,0.11721315234899521,-0.009678897447884083,0.8854662775993347,0.3391678035259247,0.11362957209348679,0.29665303230285645
260.0,-0.0322846882045269,-0.7986093759536743,1.941033124923706,-0.11023703962564468,2.00321364402771,0.6116104125976562,0.8431947231292725,0.10917733609676361,-0.011006352491676807,0.8677136898040771,0.3698347806930542,0.1302156299352646,0.30551454424858093
261.0,-0.04965915530920029,-0.8150542974472046,1.9751993417739868,-0.17718178033828735,1.9676064252853394,0.5255317091941833,0.8344414234161377,0.10006913542747498,-0.011249345727264881,0.8517234325408936,0.3978818356990814,0.1443115919828415,0.3089197874069214
262.0,-0.05794475972652435,-0.8346918821334839,2.0618624687194824,-0.4171241819858551,1.9533441066741943,0.37372592091560364,0.8145133256912231,0.09639349579811096,-0.0244960468262434,0.8057472705841064,0.43214908242225647,0.19141755998134613,0.3569003641605377
263.0,-0.08108601719141006,-0.8459861278533936,2.092087984085083,-0.47724586725234985,1.8972831964492798,0.3008597493171692,0.8078937530517578,0.0863599181175232,-0.02511858008801937,0.7881425619125366,0.4562050998210907,0.20698250830173492,0.35758423805236816
264.0,-0.11311472952365875,-0.8542033433914185,2.1656222343444824,-0.6744614839553833,1.8196882009506226,0.1802629828453064,0.7919734716415405,0.07407167553901672,-0.03504074737429619,0.7446916103363037,0.48337069153785706,0.25055816769599915,0.38601550459861755
265.0,-0.09106255322694778,-0.8428061604499817,2.165100574493408,-0.7062565088272095,1.8699434995651245,0.20568451285362244,0.7919797897338867,0.0838543251156807,-0.041733842343091965,0.7467502951622009,0.46737173199653625,0.25105294585227966,0.40112361311912537
266.0,-0.06155851110816002,-0.8318859338760376,2.1403982639312744,-0.6681444644927979,1.9412990808486938,0.26352041959762573,0.797071099281311,0.09627725183963776,-0.04396175965666771,0.7616804242134094,0.44532790780067444,0.2375583052635193,0.40631523728370667
267.0,-0.18853771686553955,-0.8496053218841553,2.2256720066070557,-0.8018751740455627,1.6341264247894287,0.04091792181134224,0.7754352688789368,0.046728555113077164,-0.04864278808236122,0.697198748588562,0.5338049530982971,0.29089197516441345,0.3799319267272949
268.0,-0.1386461853981018,-0.8439699411392212,2.2002837657928467,-0.7642933130264282,1.7527425289154053,0.12108704447746277,0.7815091609954834,0.06570437550544739,-0.04841523990035057,0.7228142619132996,0.5019494891166687,0.2709129750728607,0.39011847972869873
269.0,-0.11451424658298492,-0.8396217226982117,2.1857049465179443,-0.7426339983940125,1.8090119361877441,0.16122126579284668,0.7847861647605896,0.07541097700595856,-0.048669662326574326,0.7344183325767517,0.48616859316825867,0.26140686869621277,0.39488765597343445
270.0,-0.08444332331418991,-0.8331618905067444,2.162099838256836,-0.7049256563186646,1.8819626569747925,0.21696685254573822,0.7905744314193726,0.08739006519317627,-0.04836348071694374,0.7499287724494934,0.4644620418548584,0.2480209320783615,0.40045905113220215
271.0,-0.02570646069943905,-0.8157742619514465,2.1027815341949463,-0.6070950031280518,2.0292110443115234,0.3435981571674347,0.8053553700447083,0.11205452680587769,-0.046368326991796494,0.7802852988243103,0.4160059690475464,0.21970705687999725,0.41209545731544495
272.0,-0.008921725675463676,-0.8038908243179321,2.0834107398986816,-0.5758188366889954,2.0689802169799805,0.38524213433265686,0.8087912797927856,0.12005975097417831,-0.05017519369721413,0.7890863418579102,0.4019218981266022,0.21084143221378326,0.4139413833618164
273.0,-0.030087755993008614,-0.8119675517082214,2.110358476638794,-0.6220647096633911,2.0134646892547607,0.331138014793396,0.801896333694458,0.11083179712295532,-0.05153309926390648,0.7776046991348267,0.4220554828643799,0.22231778502464294,0.40960338711738586
274.0,-0.05493294447660446,-0.8193272352218628,2.1380951404571533,-0.6690893769264221,1.9504467248916626,0.27443674206733704,0.7946728467941284,0.10033665597438812,-0.05306893214583397,0.7643901109695435,0.44343632459640503,0.2348654866218567,0.404858261346817
275.0,-0.1239451989531517,-0.8314690589904785,2.1948626041412354,-0.7616654634475708,1.7821097373962402,0.14304286241531372,0.7800347805023193,0.07276041060686111,-0.05655420199036598,0.7293075323104858,0.4948219060897827,0.26528874039649963,0.3910035192966461
276.0,-0.07497543841600418,-0.8219692707061768,2.1567060947418213,-0.7000910639762878,1.9004955291748047,0.23400183022022247,0.7894924283027649,0.09216588735580444,-0.05562380328774452,0.7545404434204102,0.4595085680484772,0.2436971664428711,0.40016528964042664
277.0,-0.03846689686179161,-0.8089703321456909,2.122471809387207,-0.6450806856155396,1.9874192476272583,0.3093094825744629,0.7971721887588501,0.10798141360282898,-0.05715535208582878,0.7726870775222778,0.4316503703594208,0.2269923835992813,0.4063337445259094
278.0,-0.017907720059156418,-0.8022425174713135,2.097395658493042,-0.6018412113189697,2.040839433670044,0.3599482476711273,0.8037196397781372,0.11674042046070099,-0.055625367909669876,0.7839418053627014,0.41270357370376587,0.21605554223060608,0.4104034900665283
279.0,0.000644320622086525,-0.7924262881278992,2.0740315914154053,-0.5625878572463989,2.086989641189575,0.4078181982040405,0.8090085983276367,0.12536297738552094,-0.056598883122205734,0.793584406375885,0.3957742750644684,0.2062571495771408,0.41357526183128357
280.0,0.021692778915166855,-0.7805849313735962,2.0420002937316895,-0.5069313049316406,2.141629934310913,0.46996161341667175,0.8170701265335083,0.13538148999214172,-0.05621396377682686,0.8050866723060608,0.37415993213653564,0.19397859275341034,0.4173871874809265
281.0,0.0476144440472126,-0.7630146145820618,1.9939309358596802,-0.42063984274864197,2.214154005050659,0.562545657157898,0.8295236825942993,0.14808791875839233,-0.054227668792009354,0.820111870765686,0.3424014747142792,0.1766299456357956,0.4230598211288452
282.0,0.06914626806974411,-0.7417834997177124,1.9452662467956543,-0.33123713731765747,2.273371934890747,0.6558263301849365,0.8419170379638672,0.15984460711479187,-0.05404573306441307,0.8332064151763916,0.3130169212818146,0.16030865907669067,0.42671871185302734
283.0,0.03837946429848671,-0.764393150806427,2.015596866607666,-0.46177881956100464,2.1809961795806885,0.5238348245620728,0.8221685886383057,0.14423412084579468,-0.06087523326277733,0.814314603805542,0.35749825835227966,0.18381153047084808,0.41868850588798523
284.0,0.05800236761569977,-0.7475170493125916,1.9788695573806763,-0.3966232240200043,2.230788469314575,0.5949815511703491,0.8310037851333618,0.15483057498931885,-0.062105510383844376,0.8249853253364563,0.3348708152770996,0.171226367354393,0.4218320846557617
285.0,0.07955759763717651,-0.7253019213676453,1.9228020906448364,-0.290538489818573,2.2950692176818848,0.7027574777603149,0.8459586501121521,0.1665203720331192,-0.05957382544875145,0.8393829464912415,0.30066320300102234,0.15269476175308228,0.4262888729572296
286.0,0.0916423499584198,-0.7099243402481079,1.888249158859253,-0.2251524031162262,2.3297910690307617,0.7695716619491577,0.8551014065742493,0.17379504442214966,-0.05868098512291908,0.846795380115509,0.28050580620765686,0.14211505651474,0.42901918292045593
287.0,0.10038955509662628,-0.6931735873222351,1.862058401107788,-0.17563024163246155,2.3495535850524902,0.8228493332862854,0.8609350323677063,0.17980948090553284,-0.06251906603574753,0.8527403473854065,0.266465961933136,0.13399441540241241,0.428806871175766
288.0,0.08820302784442902,-0.7116827964782715,1.9033781290054321,-0.255692720413208,2.3124163150787354,0.74222332239151,0.8497723340988159,0.17229804396629333,-0.06375992298126221,0.8441135883331299,0.2904088497161865,0.1466255784034729,0.4261876344680786
289.0,0.0780382826924324,-0.7223511934280396,1.9329967498779297,-0.3121241331100464,2.28072452545166,0.6861329674720764,0.8413419723510742,0.16652753949165344,-0.0665036290884018,0.8376758694648743,0.30820679664611816,0.15569479763507843,0.42316317558288574
290.0,0.0618906132876873,-0.7395890951156616,1.9737136363983154,-0.38889679312705994,2.234578847885132,0.6071018576622009,0.8308358192443848,0.15762558579444885,-0.06714561581611633,0.8269338607788086,0.3328905403614044,0.16923093795776367,0.4203869104385376
291.0,0.04879940673708916,-0.7521740794181824,1.9997022151947021,-0.43553027510643005,2.2018649578094482,0.556627631187439,0.8246877789497375,0.1503690928220749,-0.06572308391332626,0.8194695115089417,0.3484523892402649,0.178057000041008,0.418743759393692
292.0,0.033339522778987885,-0.7612308859825134,2.0289740562438965,-0.4884849190711975,2.1589133739471436,0.5013248920440674,0.8166271448135376,0.14269527792930603,-0.06812180578708649,0.8107476830482483,0.36746227741241455,0.18811926245689392,0.415055513381958
293.0,-0.011932849884033203,-0.7918655872344971,2.093031883239746,-0.597407877445221,2.0497074127197266,0.3728170394897461,0.8024963736534119,0.12032926827669144,-0.06268191337585449,0.7867506742477417,0.41008254885673523,0.21324889361858368,0.4091217517852783
294.0,-0.0513753704726696,-0.804798424243927,2.1396450996398926,-0.6778832674026489,1.9489139318466187,0.27738383412361145,0.7905594110488892,0.10357604920864105,-0.06469278037548065,0.7650964856147766,0.44543784856796265,0.23395287990570068,0.40184396505355835
295.0,-0.06680921465158463,-0.8125229477882385,2.152059316635132,-0.6960590481758118,1.9153392314910889,0.2480936497449875,0.7886005640029907,0.09645120799541473,-0.061746347695589066,0.7581228017807007,0.4556422531604767,0.24032007157802582,0.3998578190803528
296.0,-0.08639497309923172,-0.8117213249206543,2.1698949337005615,-0.7272427082061768,1.8658883571624756,0.2093489021062851,0.782874584197998,0.08890452980995178,-0.06635066121816635,0.7483015060424805,0.4714278280735016,0.24876318871974945,0.39486396312713623
297.0,-0.11160986125469208,-0.8143333196640015,2.1899242401123047,-0.7609035968780518,1.804308533668518,0.16191668808460236,0.7774055004119873,0.0792023241519928,-0.06836621463298798,0.7351266145706177,0.49001479148864746,0.2598409056663513,0.3898167014122009
298.0,-0.15193791687488556,-0.8173224925994873,2.214470386505127,-0.8001094460487366,1.7110182046890259,0.09472612291574478,0.7709486484527588,0.06347974389791489,-0.07040733098983765,0.7155084013938904,0.5161266326904297,0.27543339133262634,0.381834477186203
299.0,-0.22303356230258942,-0.821108877658844,2.2445154190063477,-0.8445711135864258,1.5480624437332153,-0.014854323118925095,0.7633717060089111,0.036563701927661896,-0.07133781164884567,0.6797019243240356,0.5580853819847107,0.3020380139350891,0.3678573966026306
300.0,-0.18533924221992493,-0.8233155608177185,2.2297203540802,-0.821271538734436,1.6355060338974,0.04281602427363396,0.7680452466011047,0.05034919083118439,-0.06822346150875092,0.698980450630188,0.5357272624969482,0.28818055987358093,0.375998318195343
301.0,-0.23588621616363525,-0.8284350037574768,2.2459561824798584,-0.8413165807723999,1.5209877490997314,-0.03233884647488594,0.7648011445999146,0.030797481536865234,-0.06621555238962173,0.6736679077148438,0.5641420483589172,0.3065086305141449,0.3660160303115845
302.0,-0.2079908400774002,-0.8287450075149536,2.238558292388916,-0.8324441909790039,1.5836654901504517,0.008382763713598251,0.7667819857597351,0.04157412052154541,-0.0653027594089508,0.6870518326759338,0.5484960079193115,0.29732754826545715,0.37243565917015076
303.0,-0.16582271456718445,-0.8278205990791321,2.219250440597534,-0.8023249506950378,1.68279230594635,0.0745476558804512,0.7721245288848877,0.057088397443294525,-0.06352463364601135,0.7090892791748047,0.5227432250976562,0.2807997167110443,0.3808983862400055
304.0,-0.13333158195018768,-0.8222293257713318,2.2029929161071777,-0.7792776226997375,1.7558963298797607,0.12564827501773834,0.775423526763916,0.07014204561710358,-0.06488896161317825,0.7244862914085388,0.5032103657722473,0.268725723028183,0.3868921101093292
305.0,-0.10646528750658035,-0.8236449360847473,2.183570623397827,-0.7458018064498901,1.821431040763855,0.173121377825737,0.7816094160079956,0.08012722432613373,-0.06020024046301842,0.7381434440612793,0.4840076267719269,0.257708877325058,0.39302298426628113
306.0,-0.19794435799121857,-0.8367567658424377,2.232717514038086,-0.8192359805107117,1.608943223953247,0.02480333484709263,0.7703631520271301,0.044488921761512756,-0.058887530118227005,0.6923279762268066,0.5414097309112549,0.2938587963581085,0.3757721185684204
307.0,-0.22580303251743317,-0.8374014496803284,2.241471290588379,-0.8305269479751587,1.5455702543258667,-0.01629234105348587,0.7681412696838379,0.03377080708742142,-0.059417929500341415,0.6786904335021973,0.5573137402534485,0.30354318022727966,0.3696514964103699
308.0,-0.2656877636909485,-0.8365660309791565,2.2488925457000732,-0.8342058062553406,1.45057213306427,-0.07809659093618393,0.7656795382499695,0.019130434840917587,-0.060487594455480576,0.6578147411346436,0.5818361043930054,0.3168688118457794,0.3582468628883362
309.0,-0.30194091796875,-0.8394699096679688,2.2506017684936523,-0.8241870999336243,1.3610804080963135,-0.13759519159793854,0.7653304934501648,0.005795363802462816,-0.05777521803975105,0.6366537809371948,0.6045781373977661,0.3296372890472412,0.3471260666847229
310.0,-0.177251398563385,-0.8409076929092407,2.2222061157226562,-0.8006367087364197,1.658866286277771,0.05764537304639816,0.7744020223617554,0.05169206112623215,-0.05445924773812294,0.7031161785125732,0.5280655026435852,0.28597742319107056,0.3807773292064667
311.0,-0.14673027396202087,-0.8378844857215881,2.206559419631958,-0.7771642208099365,1.7313368320465088,0.10696989297866821,0.7782114744186401,0.06323648989200592,-0.054070573300123215,0.7187845706939697,0.5084991455078125,0.273812472820282,0.387045294046402
312.0,-0.23664060235023499,-0.846034824848175,2.2416088581085205,-0.8234798908233643,1.520993709564209,-0.03204502910375595,0.7700756192207336,0.02895314060151577,-0.0532672293484211,0.6731744408607483,0.5632029175758362,0.30749648809432983,0.36753857135772705
313.0,-0.278731107711792,-0.8482345938682556,2.2467546463012695,-0.8185468316078186,1.4170901775360107,-0.0999671071767807,0.7686423659324646,0.013670023530721664,-0.05182536318898201,0.6497451066970825,0.5904250144958496,0.32198646664619446,0.3543364703655243
314.0,-0.31922632455825806,-0.846770167350769,2.247249126434326,-0.8080300092697144,1.3164113759994507,-0.1677950918674469,0.7678512334823608,-0.0012077224673703313,-0.05163243040442467,0.6253567337989807,0.6157442927360535,0.3363247513771057,0.34157511591911316
315.0,-0.3572216033935547,-0.8458551168441772,2.2411069869995117,-0.7856753468513489,1.2189583778381348,-0.23615652322769165,0.7694265842437744,-0.015874046832323074,-0.04949774965643883,0.5998910069465637,0.6394175887107849,0.3507232964038849,0.3290427625179291
316.0,-0.39658984541893005,-0.8390821814537048,2.2310988903045654,-0.7579286098480225,1.1212999820709229,-0.30928361415863037,0.770521879196167,-0.032078035175800323,-0.050099048763513565,0.5733826160430908,0.661837637424469,0.3649880886077881,0.31620723009109497
317.0,-0.38434746861457825,-0.8477373123168945,2.2325494289398193,-0.7599143981933594,1.1471303701400757,-0.28828132152557373,0.7721840143203735,-0.02707553841173649,-0.04500151798129082,0.5798632502555847,0.6560523509979248,0.36194998025894165,0.3199158012866974
318.0,-0.3334560990333557,-0.8551788926124573,2.242457866668701,-0.7895748019218445,1.2784408330917358,-0.19374309480190277,0.771093487739563,-0.0073197754099965096,-0.04445165768265724,0.6153585314750671,0.6251140832901001,0.3421933352947235,0.3368530571460724
319.0,-0.2945897877216339,-0.8559373617172241,2.245314598083496,-0.8059948682785034,1.3768779039382935,-0.12650881707668304,0.7704660296440125,0.007348224520683289,-0.045826446264982224,0.6399738192558289,0.6005797982215881,0.3279949426651001,0.3495092988014221
320.0,-0.2162642478942871,-0.8564901947975159,2.2339060306549072,-0.8088970184326172,1.5704617500305176,-0.00021378662495408207,0.7746890783309937,0.03564736619591713,-0.04484951123595238,0.6833552718162537,0.5497433543205261,0.30113956332206726,0.3743298053741455
321.0,-0.24384017288684845,-0.8621022701263428,2.237915277481079,-0.8041513562202454,1.5016858577728271,-0.044395215809345245,0.7745304703712463,0.025411320850253105,-0.04140408709645271,0.6685166954994202,0.5682911276817322,0.3107059895992279,0.36550307273864746
322.0,-0.17107275128364563,-0.8615832924842834,2.2141311168670654,-0.7781423330307007,1.6788761615753174,0.06970028579235077,0.7816429138183594,0.052048973739147186,-0.03804633393883705,0.7061752080917358,0.5209599733352661,0.2846567630767822,0.3858598470687866
323.0,-0.13595721125602722,-0.8640343546867371,2.1539525985717773,-0.6058419942855835,1.76847505569458,0.15879614651203156,0.7942931056022644,0.06362608075141907,-0.027390113100409508,0.7472824454307556,0.5013920664787292,0.24297326803207397,0.36213111877441406
324.0,-0.20877093076705933,-0.8666998147964478,2.2286438941955566,-0.795179545879364,1.5883313417434692,0.011158494278788567,0.7784554958343506,0.03777381405234337,-0.03677542135119438,0.6867528557777405,0.544776976108551,0.29907527565956116,0.37701818346977234
325.0,-0.2463877648115158,-0.8696255087852478,2.235862970352173,-0.7948805093765259,1.494615912437439,-0.04888884723186493,0.7766997814178467,0.024030014872550964,-0.03576124832034111,0.666743814945221,0.5701363682746887,0.31194934248924255,0.36480796337127686
326.0,-0.2767273485660553,-0.8729067444801331,2.238586664199829,-0.7884644269943237,1.418904185295105,-0.09821459650993347,0.7762463688850403,0.012754709459841251,-0.03338203206658363,0.6494321823120117,0.5898667573928833,0.32265180349349976,0.3552335798740387
327.0,-0.29819440841674805,-0.8659738302230835,2.2421414852142334,-0.7926647067070007,1.3664878606796265,-0.13315273821353912,0.7734378576278687,0.005308183841407299,-0.038218941539525986,0.6371552348136902,0.6031410098075867,0.3298746347427368,0.34847792983055115
328.0,-0.35534799098968506,-0.8575700521469116,2.237273931503296,-0.7718355655670166,1.2212107181549072,-0.23393738269805908,0.7730958461761475,-0.016131678596138954,-0.040801580995321274,0.6000930666923523,0.6388862133026123,0.35086217522621155,0.3295578956604004
329.0,-0.3852475881576538,-0.8563514947891235,2.2288777828216553,-0.7475322484970093,1.1424610614776611,-0.2911538779735565,0.7751282453536987,-0.02826651930809021,-0.03823057934641838,0.5782133936882019,0.6571045517921448,0.36306649446487427,0.3194771409034729
330.0,-0.42399707436561584,-0.847912073135376,2.2103497982025146,-0.7005149126052856,1.0447430610656738,-0.3729409873485565,0.778411865234375,-0.045823849737644196,-0.03789839521050453,0.5503337979316711,0.680367112159729,0.3762871325016022,0.30437028408050537
331.0,-0.4591729938983917,-0.8367577195167542,2.1858224868774414,-0.6411656737327576,0.9531908631324768,-0.4601441025733948,0.7827800512313843,-0.06311865150928497,-0.0373687706887722,0.5217154622077942,0.702048659324646,0.38904401659965515,0.2891114056110382
332.0,-0.4755781292915344,-0.8330628275871277,2.1668453216552734,-0.5951798558235168,0.9056457877159119,-0.511978268623352,0.7876532673835754,-0.07243698090314865,-0.03367829695343971,0.5051121711730957,0.7139526605606079,0.3958527743816376,0.28006061911582947
333.0,-0.5038334131240845,-0.8148179054260254,2.1327762603759766,-0.5155466198921204,0.8270300626754761,-0.6110641956329346,0.7937661409378052,-0.08878028392791748,-0.03439818695187569,0.4758143126964569,0.7336061596870422,0.4070769250392914,0.2640286386013031
334.0,-0.5352883338928223,-0.7814063429832458,2.0807814598083496,-0.39406466484069824,0.7386813759803772,-0.7555072903633118,0.8025076389312744,-0.10959795862436295,-0.038716647773981094,0.43739083409309387,0.7573038935661316,0.41994351148605347,0.24254392087459564
335.0,-0.5206537842750549,-0.7960573434829712,2.111701726913452,-0.46801888942718506,0.7848998308181763,-0.6756412386894226,0.7959315180778503,-0.09887458384037018,-0.03999679163098335,0.45893093943595886,0.7445220947265625,0.412728488445282,0.2544099688529968
336.0,-0.5067285895347595,-0.8038344979286194,2.136805534362793,-0.5280919075012207,0.8284600377082825,-0.6126540303230286,0.7898159027099609,-0.08921566605567932,-0.04360682889819145,0.4772358238697052,0.7333498597145081,0.40582820773124695,0.2640973925590515
337.0,-0.4891259968280792,-0.8147857785224915,2.15946888923645,-0.5816934704780579,0.8782268762588501,-0.5481209754943848,0.7855423092842102,-0.0788082480430603,-0.04388270154595375,0.4962462782859802,0.7208828926086426,0.3985109031200409,0.27432963252067566
338.0,-0.44103726744651794,-0.8373123407363892,2.202146053314209,-0.6822455525398254,1.004104733467102,-0.41151005029678345,0.7782588005065918,-0.053506411612033844,-0.0423906110227108,0.5383656024932861,0.6901167631149292,0.38132619857788086,0.2974756062030792
339.0,-0.4075888693332672,-0.8462404608726501,2.2222211360931396,-0.732007622718811,1.089547872543335,-0.3344513475894928,0.774644136428833,-0.03773441165685654,-0.042666222900152206,0.5638352632522583,0.6694642901420593,0.3699208199977875,0.3115541636943817
340.0,-0.42521217465400696,-0.8369702696800232,2.2145798206329346,-0.7144290804862976,1.04758620262146,-0.3721545338630676,0.7746620178222656,-0.04551386088132858,-0.04652569070458412,0.5519633889198303,0.6796839237213135,0.37500065565109253,0.30453363060951233
341.0,-0.4737599492073059,-0.8189244866371155,2.1793200969696045,-0.6301166415214539,0.9239955544471741,-0.49483340978622437,0.7805300354957581,-0.06980720907449722,-0.04753180220723152,0.5129836201667786,0.7092369794845581,0.39181390404701233,0.28339487314224243
342.0,-0.502748429775238,-0.8012984991073608,2.1465678215026855,-0.5531197190284729,0.8452162742614746,-0.5920926928520203,0.7861882448196411,-0.08607564866542816,-0.048858944326639175,0.48428088426589966,0.7292120456695557,0.40272650122642517,0.26745685935020447
343.0,-0.5248441100120544,-0.7855406999588013,2.1126303672790527,-0.47318699955940247,0.782461941242218,-0.6830179691314697,0.7930588722229004,-0.1004827469587326,-0.04792977496981621,0.4586782157421112,0.7452227473258972,0.4121841788291931,0.25369584560394287
344.0,-0.5393310189247131,-0.7672713994979858,2.0881571769714355,-0.41620415449142456,0.7439029216766357,-0.7524760961532593,0.7965059280395508,-0.11015234887599945,-0.05197231099009514,0.4411464333534241,0.756037712097168,0.4176291227340698,0.2436857372522354
345.0,-0.5203881859779358,-0.784446656703949,2.126695156097412,-0.5088849663734436,0.8028212189674377,-0.6528652310371399,0.7882682681083679,-0.09652914106845856,-0.05377225950360298,0.46814727783203125,0.7396330833435059,0.4085494875907898,0.2585894763469696
346.0,-0.5028890371322632,-0.7957928776741028,2.150743246078491,-0.5651217103004456,0.8503186106681824,-0.5872747302055359,0.7835551500320435,-0.08541823923587799,-0.054159048944711685,0.4867611825466156,0.7279629707336426,0.40137627720832825,0.26838502287864685
347.0,-0.484563946723938,-0.8061866164207458,2.172699451446533,-0.6173218488693237,0.901065468788147,-0.5236170291900635,0.7794677019119263,-0.07493466138839722,-0.05421501025557518,0.5055996179580688,0.71507728099823,0.3941613435745239,0.2786940634250641
348.0,-0.5144385099411011,-0.7831206917762756,2.1399176120758057,-0.5422106981277466,0.8249185085296631,-0.6236506700515747,0.7838064432144165,-0.09184601902961731,-0.05939098820090294,0.47751563787460327,0.7342541217803955,0.4045237600803375,0.2630784511566162
349.0,-0.47588640451431274,-0.8043551445007324,2.185879707336426,-0.6512585878372192,0.929817795753479,-0.4915878176689148,0.775094747543335,-0.06955119967460632,-0.05959232524037361,0.5162765979766846,0.7076649069786072,0.3896775543689728,0.28428906202316284
350.0,-0.4902135729789734,-0.7924066781997681,2.1737406253814697,-0.6243516802787781,0.895397961139679,-0.5335155725479126,0.7758053541183472,-0.07683989405632019,-0.0640738382935524,0.5045807957649231,0.716505765914917,0.39382627606391907,0.2773420214653015
351.0,-0.4696810841560364,-0.7994791269302368,2.1954617500305176,-0.6773093342781067,0.9513278007507324,-0.4699211120605469,0.7711452841758728,-0.06553107500076294,-0.06586022675037384,0.5240917801856995,0.7023907899856567,0.3860217034816742,0.2880316972732544
352.0,-0.4149060845375061,-0.8179197311401367,2.22951340675354,-0.7598826885223389,1.0850731134414673,-0.3421538174152374,0.7660161256790161,-0.03906390815973282,-0.06357830762863159,0.5644860863685608,0.670486330986023,0.3683103024959564,0.31008240580558777
353.0,-0.4584926962852478,-0.8089737296104431,2.201021671295166,-0.688103199005127,0.9746580123901367,-0.4448363780975342,0.7718492746353149,-0.06020410358905792,-0.06113934889435768,0.530984103679657,0.697029709815979,0.38332313299179077,0.29200834035873413
354.0,-0.4410439133644104,-0.8205794095993042,2.2101118564605713,-0.7075853943824768,1.0139533281326294,-0.4053291082382202,0.7720417976379395,-0.051999129354953766,-0.05610862746834755,0.5426459908485413,0.6878061890602112,0.37851858139038086,0.29863297939300537
355.0,-0.4575016498565674,-0.819678544998169,2.1965723037719727,-0.6732109785079956,0.969909131526947,-0.447340190410614,0.7756564021110535,-0.06060957908630371,-0.052494678646326065,0.5285813808441162,0.6981748342514038,0.38497379422187805,0.29145991802215576
356.0,-0.41758543252944946,-0.8311602473258972,2.2223713397979736,-0.7366203665733337,1.0711052417755127,-0.3523891270160675,0.7711104154586792,-0.0413467139005661,-0.05273861810564995,0.5594502687454224,0.6739523410797119,0.37125369906425476,0.3081790506839752
357.0,-0.4080064296722412,-0.8269369006156921,2.2300760746002197,-0.7585812211036682,1.0984086990356445,-0.3295411467552185,0.7679650783538818,-0.03650091588497162,-0.057766642421483994,0.5677449703216553,0.6672235131263733,0.3672124147415161,0.31246352195739746
358.0,-0.3715195059776306,-0.8326448202133179,2.2420332431793213,-0.7912898063659668,1.1847357749938965,-0.26160162687301636,0.7661992907524109,-0.020449336618185043,-0.057955529540777206,0.5909746289253235,0.6474311947822571,0.35542434453964233,0.32443103194236755
359.0,-0.3821825087070465,-0.8241609334945679,2.2415168285369873,-0.7918853163719177,1.162550926208496,-0.27922284603118896,0.7643433809280396,-0.024575095623731613,-0.06320711225271225,0.5856046080589294,0.6524944305419922,0.35793858766555786,0.32124486565589905
360.0,-0.34711068868637085,-0.8299200534820557,2.248664140701294,-0.8131493330001831,1.2485066652297974,-0.21588675677776337,0.7637672424316406,-0.010578062385320663,-0.062225889414548874,0.6083512902259827,0.6323603987693787,0.34563586115837097,0.3325129747390747
361.0,-0.29261553287506104,-0.8291177153587341,2.253244400024414,-0.8389093279838562,1.3854646682739258,-0.12150682508945465,0.7624949812889099,0.009906921535730362,-0.06555675715208054,0.642839789390564,0.5985128283500671,0.32575953006744385,0.34988588094711304
362.0,-0.32672083377838135,-0.8234202265739441,2.2538490295410156,-0.8333698511123657,1.3016653060913086,-0.1788310408592224,0.7608351111412048,-0.002274601487442851,-0.06834420561790466,0.6223688721656799,0.6193901896476746,0.3375752568244934,0.3391987085342407
363.0,-0.3654114603996277,-0.8186578750610352,2.248225450515747,-0.81392502784729,1.204412579536438,-0.24817855656147003,0.7613390684127808,-0.016890525817871094,-0.06893162429332733,0.5969589352607727,0.6428200602531433,0.35174310207366943,0.3266485035419464
364.0,-0.39162150025367737,-0.8151794672012329,2.241212844848633,-0.7935503125190735,1.1439483165740967,-0.2946038842201233,0.7622867226600647,-0.028210442513227463,-0.068887859582901,0.5812046527862549,0.6567004323005676,0.3598684072494507,0.3184971511363983
365.0,-0.4429948329925537,-0.8007048964500427,2.2173290252685547,-0.7331373691558838,1.0204516649246216,-0.40266573429107666,0.7652875781059265,-0.05129363387823105,-0.07154294103384018,0.546100914478302,0.6862227916717529,0.3759686052799225,0.2991984486579895
366.0,-0.4890608489513397,-0.7862181067466736,2.179443359375,-0.6410212516784668,0.9045131206512451,-0.524340808391571,0.7725988030433655,-0.07544021308422089,-0.07011198252439499,0.5084946751594543,0.714137852191925,0.39188873767852783,0.27904045581817627
367.0,-0.5285908579826355,-0.7628634572029114,2.1292123794555664,-0.5224307775497437,0.7993815541267395,-0.6648598909378052,0.7821222543716431,-0.09943884611129761,-0.07011010497808456,0.46846282482147217,0.7405434846878052,0.40717586874961853,0.25757667422294617
368.0,-0.5423092842102051,-0.7469977140426636,2.1075620651245117,-0.4722123146057129,0.764042854309082,-0.7263907194137573,0.785002589225769,-0.1082758754491806,-0.07399169355630875,0.4529116749763489,0.7505457401275635,0.4119972586631775,0.24861693382263184
369.0,-0.5189542174339294,-0.7654502987861633,2.1460556983947754,-0.5639994740486145,0.8292005062103271,-0.6233626008033752,0.7775620222091675,-0.09261935949325562,-0.07401136308908463,0.48079386353492737,0.7331796288490295,0.4021622836589813,0.26372411847114563
370.0,-0.47460228204727173,-0.787284791469574,2.1967551708221436,-0.6851081252098083,0.9467074871063232,-0.477193683385849,0.7678214311599731,-0.0671364963054657,-0.07454027235507965,0.5235186219215393,0.7034205198287964,0.38566848635673523,0.2870326042175293
371.0,-0.49614331126213074,-0.7733727693557739,2.177476167678833,-0.6405808329582214,0.893561601638794,-0.540277361869812,0.7700039744377136,-0.07830125093460083,-0.07837355136871338,0.5054036378860474,0.7169390320777893,0.3924585282802582,0.2766622304916382
372.0,-0.4584844410419464,-0.7865568399429321,2.2113113403320312,-0.723005473613739,0.989707350730896,-0.4344390332698822,0.7635928988456726,-0.05827616527676582,-0.07933040708303452,0.5376120209693909,0.6933770775794983,0.3791711628437042,0.2939915060997009
373.0,-0.4395425617694855,-0.7885883450508118,2.2247562408447266,-0.7574782371520996,1.0367125272750854,-0.3895672857761383,0.7603455781936646,-0.048621293157339096,-0.08171279728412628,0.5520315170288086,0.6822277903556824,0.3726792335510254,0.30155715346336365
374.0,-0.3950740098953247,-0.8032886981964111,2.2437219619750977,-0.804663360118866,1.1409101486206055,-0.2983871102333069,0.758816123008728,-0.028975320979952812,-0.07734572142362595,0.5811786651611328,0.6573554277420044,0.35938507318496704,0.31773823499679565
375.0,-0.41772279143333435,-0.8031302094459534,2.233473539352417,-0.775684654712677,1.0853400230407715,-0.34392815828323364,0.7614338397979736,-0.039277635514736176,-0.07444866746664047,0.5655760765075684,0.6703680157661438,0.3671357035636902,0.30974504351615906
376.0,-0.3368028402328491,-0.8149638175964355,2.255023717880249,-0.8381869792938232,1.2777587175369263,-0.19587214291095734,0.7586331963539124,-0.005440792068839073,-0.07384906709194183,0.6165054440498352,0.6252572536468506,0.34073585271835327,0.335966557264328
377.0,-0.2908324897289276,-0.8216500282287598,2.255192756652832,-0.8481491804122925,1.3908381462097168,-0.1181001216173172,0.760350227355957,0.0110517218708992,-0.07098368555307388,0.6443414688110352,0.5971821546554565,0.324720174074173,0.35036325454711914
378.0,-0.2634482979774475,-0.8157613277435303,2.2540249824523926,-0.8577167987823486,1.4570857286453247,-0.07429085671901703,0.7596380710601807,0.021428659558296204,-0.07554503530263901,0.6598682403564453,0.5805544257164001,0.3150808811187744,0.3581264019012451
