Sungjin-Park-dev/vision_inspection/data/trajectory/2446/joint_trajectory_dp.csv
time,ur20-shoulder_pan_joint,ur20-shoulder_lift_joint,ur20-elbow_joint,ur20-wrist_1_joint,ur20-wrist_2_joint,ur20-wrist_3_joint,target-POS_X,target-POS_Y,target-POS_Z,target-ROT_X,target-ROT_Y,target-ROT_Z,target-ROT_W
0.0,0.007786531932651997,-0.5481320023536682,1.4060746431350708,-0.1191847175359726,2.0879411697387695,0.4231092035770416,1.203165054321289,0.1340864896774292,-0.07386346161365509,0.7972097992897034,0.3963771164417267,0.20272576808929443,0.4077303111553192
1.0,0.03134208172559738,-0.5147854089736938,1.3315988779067993,-0.015200638212263584,2.1731555461883545,0.52951580286026,1.218934178352356,0.151847705245018,-0.07264585793018341,0.8178094625473022,0.356653094291687,0.18054531514644623,0.41399234533309937
2.0,0.019151292741298676,-0.5316656827926636,1.3736196756362915,-0.07353631407022476,2.126624584197998,0.47163549065589905,1.2093486785888672,0.14276942610740662,-0.07589634507894516,0.8072826266288757,0.3787911832332611,0.19223952293395996,0.4097023010253906
3.0,0.034488704055547714,-0.5078670978546143,1.3258506059646606,-0.007363751530647278,2.1773312091827393,0.5400723814964294,1.2186927795410156,0.15516039729118347,-0.0779220387339592,0.8197566270828247,0.35457319021224976,0.17854729294776917,0.41279298067092896
4.0,0.044363997876644135,-0.4891411364078522,1.286850929260254,0.04824179783463478,2.213148593902588,0.5947179794311523,1.2264389991760254,0.1631142497062683,-0.07835312187671661,0.8288863897323608,0.3356279134750366,0.16797193884849548,0.41483330726623535
5.0,0.042974650859832764,-0.4900159537792206,1.3003202676773071,0.028843117877840996,2.198483943939209,0.5792239308357239,1.221872329711914,0.16302740573883057,-0.08530345559120178,0.8266216516494751,0.34324726462364197,0.17102164030075073,0.41186103224754333
6.0,0.030825112015008926,-0.511512041091919,1.3433399200439453,-0.031899791210889816,2.157235860824585,0.5178563594818115,1.2136050462722778,0.1530868411064148,-0.08356377482414246,0.8160451054573059,0.3644150197505951,0.1829315423965454,0.4096439778804779
7.0,0.02144971489906311,-0.5259682536125183,1.3715673685073853,-0.07101897150278091,2.127122640609741,0.4769708216190338,1.2082160711288452,0.145466148853302,-0.08176836371421814,0.8084186315536499,0.37872371077537537,0.19115181267261505,0.4080302119255066
8.0,0.007671083323657513,-0.543340802192688,1.4137811660766602,-0.13019445538520813,2.0764849185943604,0.41662299633026123,1.1987152099609375,0.13545487821102142,-0.08387750387191772,0.7959715723991394,0.4018159806728363,0.20402568578720093,0.4041617810726166
9.0,-0.0037047204095870256,-0.5544657707214355,1.4422430992126465,-0.16943809390068054,2.035892963409424,0.3736402690410614,1.1922383308410645,0.12737901508808136,-0.08579801768064499,0.7864413857460022,0.41907450556755066,0.21338503062725067,0.4004414677619934
10.0,-0.021213389933109283,-0.571572482585907,1.4779149293899536,-0.2179202139377594,1.9800609350204468,0.316379189491272,1.185130000114441,0.11448568850755692,-0.08402153849601746,0.7725123763084412,0.4411918818950653,0.22649216651916504,0.3965802788734436
11.0,-0.03452001139521599,-0.5843572616577148,1.5025371313095093,-0.25204285979270935,1.9374479055404663,0.274648517370224,1.180618166923523,0.10500045120716095,-0.08137314021587372,0.7611560225486755,0.4572544991970062,0.23685932159423828,0.3942813575267792
12.0,-0.05114148184657097,-0.594404399394989,1.5280495882034302,-0.28603395819664,1.8832085132598877,0.2284378856420517,1.1749825477600098,0.09363339841365814,-0.08231812715530396,0.7481240034103394,0.4768134653568268,0.24802668392658234,0.389155775308609
13.0,-0.07784236967563629,-0.6061800122261047,1.565624475479126,-0.33717823028564453,1.7945635318756104,0.15785567462444305,1.1655399799346924,0.07635454833507538,-0.08643995970487595,0.7258591055870056,0.5072489976882935,0.2661142647266388,0.3808020353317261
14.0,-0.0898166224360466,-0.6078721284866333,1.58025324344635,-0.35730281472206116,1.7533866167068481,0.1275884211063385,1.1609737873077393,0.06912664324045181,-0.0911254808306694,0.7156835198402405,0.5210684537887573,0.2737339437007904,0.3759714663028717
15.0,-0.05384853854775429,-0.5917344093322754,1.535275936126709,-0.29647091031074524,1.8690779209136963,0.21850676834583282,1.1714575290679932,0.09273823350667953,-0.08887170255184174,0.745209813117981,0.4824709892272949,0.2501643896102905,0.38639625906944275
16.0,-0.03659192845225334,-0.5821443796157837,1.508995771408081,-0.26120227575302124,1.9257137775421143,0.26638123393058777,1.1775181293487549,0.10437056422233582,-0.08716823160648346,0.7589429020881653,0.4621099829673767,0.23858501017093658,0.39183828234672546
17.0,-0.024466155096888542,-0.5696250796318054,1.4891313314437866,-0.23416806757450104,1.9612884521484375,0.3016883134841919,1.1804089546203613,0.11342345178127289,-0.09198706597089767,0.7686882019042969,0.44918015599250793,0.2297414243221283,0.3931596875190735
18.0,-0.011813146993517876,-0.5596104860305786,1.4627183675765991,-0.19782514870166779,2.0042223930358887,0.3433903753757477,1.1865878105163574,0.12218821048736572,-0.09038863331079483,0.7792950868606567,0.4322648048400879,0.2200743407011032,0.39675411581993103
19.0,0.02391490526497364,-0.5187321901321411,1.371423363685608,-0.07144173979759216,2.1243996620178223,0.48062965273857117,1.2058652639389038,0.148753821849823,-0.0906209796667099,0.8092749714851379,0.3802221119403839,0.19041115045547485,0.4052761495113373
20.0,0.013849939219653606,-0.5316094756126404,1.4022033214569092,-0.11442307382822037,2.0886380672454834,0.4368060231208801,1.1989798545837402,0.14123937487602234,-0.09185567498207092,0.8004411458969116,0.3967168927192688,0.19954152405261993,0.40260764956474304
21.0,-0.0028275959193706512,-0.5489899516105652,1.4459409713745117,-0.1752675622701645,2.0297157764434814,0.37172117829322815,1.1890124082565308,0.12928670644760132,-0.0942891389131546,0.786047101020813,0.42222803831100464,0.2136533260345459,0.3977508842945099
22.0,-0.016784247010946274,-0.5605987310409546,1.4765942096710205,-0.21750850975513458,1.9817687273025513,0.3236660957336426,1.1818982362747192,0.11953750252723694,-0.09631925821304321,0.7743918895721436,0.44167202711105347,0.22444862127304077,0.3935299813747406
23.0,-0.036861781030893326,-0.5758121609687805,1.5149009227752686,-0.27027902007102966,1.9159669876098633,0.2612963318824768,1.1731500625610352,0.10562862455844879,-0.0974142923951149,0.7575965523719788,0.46667739748954773,0.23934702575206757,0.38855206966400146
24.0,-0.05488213151693344,-0.5784528255462646,1.5041388273239136,-0.2012871354818344,1.853581190109253,0.24206754565238953,1.172227382659912,0.09378467500209808,-0.09216572344303131,0.7601106762886047,0.4903205633163452,0.23113884031772614,0.35831886529922485
25.0,-0.06349090486764908,-0.5932703614234924,1.5511304140090942,-0.3185577988624573,1.8338987827301025,0.19100013375282288,1.1662943363189697,0.0870460793375969,-0.09455914795398712,0.7367820739746094,0.49518096446990967,0.25680363178253174,0.38209930062294006
26.0,-0.0930652767419815,-0.6052308082580566,1.5855534076690674,-0.36513057351112366,1.7398689985275269,0.11835534125566483,1.1581737995147705,0.06769891083240509,-0.09645131975412369,0.712602436542511,0.5259667038917542,0.275713711977005,0.3735488951206207
27.0,-0.07766154408454895,-0.5979129672050476,1.5705323219299316,-0.34541043639183044,1.7867810726165771,0.1541101336479187,1.1609079837799072,0.07810015231370926,-0.09806807339191437,0.7247940897941589,0.5111743807792664,0.26622945070266724,0.3774867057800293
28.0,-0.09881274402141571,-0.47819337248802185,1.2318209409713745,0.49028411507606506,1.6642049551010132,0.2684613764286041,1.2077274322509766,0.06779395043849945,-0.062312014400959015,0.8167675733566284,0.5516793727874756,0.09455978125333786,0.13999681174755096
29.0,-0.09576717019081116,-0.4363507330417633,1.1491388082504272,0.6544647812843323,1.6465245485305786,0.35133907198905945,1.220181941986084,0.07298589497804642,-0.058801501989364624,0.8433402180671692,0.5263573527336121,0.057332634925842285,0.09185949712991714
30.0,-0.08162454515695572,-0.47789302468299866,1.2303807735443115,0.4674470126628876,1.703682541847229,0.34732890129089355,1.2110674381256104,0.08208615332841873,-0.06366786360740662,0.832923173904419,0.5211889147758484,0.09867045283317566,0.15768738090991974
31.0,-0.06892839074134827,-0.4804841876029968,1.2359524965286255,0.4374329447746277,1.7399245500564575,0.40103620290756226,1.2121113538742065,0.09176291525363922,-0.06503748893737793,0.8424443602561951,0.498375803232193,0.104233518242836,0.1761942356824875
32.0,-0.09061859548091888,-0.4080249071121216,1.0946553945541382,0.7501987218856812,1.6315903663635254,0.4235208332538605,1.2298462390899658,0.08066175132989883,-0.05752130597829819,0.8623415231704712,0.500970721244812,0.036898043006658554,0.0635141134262085
33.0,-0.08045099675655365,-0.413461297750473,1.102303147315979,0.7175859808921814,1.6598789691925049,0.4923180043697357,1.2310072183609009,0.08863043040037155,-0.058240801095962524,0.8759727478027344,0.47326186299324036,0.04432323947548866,0.08203903585672379
34.0,-0.08494949340820312,-0.37869197130203247,1.038374900817871,0.839080274105072,1.6093891859054565,-1.655609369277954,1.241062879562378,0.09007047861814499,-0.05685985088348389,0.0007629573810845613,0.9991653561592102,-0.022265557199716568,0.034237656742334366
35.0,-0.06906375288963318,-0.40871259570121765,1.0898706912994385,0.716532289981842,1.6748908758163452,0.5361744165420532,1.2364403009414673,0.09987996518611908,-0.05858360975980759,0.8832855224609375,0.45789507031440735,0.04634162038564682,0.08939358592033386
36.0,-0.0744876116514206,-0.37146085500717163,1.0205119848251343,0.8462123870849609,1.6228348016738892,-1.645194411277771,1.2474485635757446,0.10041897743940353,-0.056935206055641174,0.0010270342463627458,0.9989486336708069,-0.028732962906360626,0.0357065312564373
37.0,-0.067906953394413,-0.369759738445282,1.0171774625778198,0.8476125001907349,1.621260643005371,-1.6386126279830933,1.248063564300537,0.10878029465675354,-0.057399943470954895,0.0010007921373471618,0.9989644289016724,-0.027720779180526733,0.03606521338224411
38.0,-0.06492781639099121,-0.36817893385887146,1.016422986984253,0.8566379547119141,1.6152023077011108,-1.6356595754623413,1.2463032007217407,0.11352671682834625,-0.05773726850748062,0.0007637986564077437,0.9992107152938843,-0.024278737604618073,0.031434740871191025
39.0,-0.06974175572395325,-0.37526509165763855,1.032570481300354,0.8441833257675171,1.613132357597351,-1.6404476165771484,1.2412015199661255,0.10823921859264374,-0.05780938267707825,0.0007785495254211128,0.9991757869720459,-0.023514622822403908,0.03308187797665596
40.0,-0.07565231621265411,-0.3820233941078186,1.0453245639801025,0.8262298107147217,1.6167149543762207,-1.6463004350662231,1.2389321327209473,0.10056619346141815,-0.057583652436733246,0.0010065754177048802,0.9989112019538879,-0.025939229875802994,0.038762886077165604
41.0,-0.0812772661447525,-0.38921061158180237,1.064005732536316,0.8184265494346619,1.608147382736206,-1.6519055366516113,1.2314777374267578,0.09557259827852249,-0.05792705714702606,0.0008080752450041473,0.9990735650062561,-0.02174341306090355,0.037129707634449005
42.0,-0.08730939775705338,-0.39457976818084717,1.0742051601409912,0.8041112422943115,1.609440565109253,-1.6578668355941772,1.2296313047409058,0.0881524384021759,-0.05777088552713394,0.0009600573685020208,0.9988661408424377,-0.023017914965748787,0.04166183993220329
43.0,-0.09325367212295532,-0.4010474681854248,1.08984375,0.7941795587539673,1.6040922403335571,-1.6637691259384155,1.2239837646484375,0.0822451114654541,-0.05794978141784668,0.0008710077381692827,0.9988975524902344,-0.020639950409531593,0.04215356707572937
44.0,-0.09867087006568909,-0.4059036076068878,1.0996829271316528,0.7822278738021851,1.6025373935699463,-1.6691052913665771,1.2216622829437256,0.07612648606300354,-0.05791265517473221,0.0009325632709078491,0.9987512230873108,-0.020433228462934494,0.04558255523443222
45.0,-0.1001695916056633,-0.406902939081192,1.0979101657867432,0.7711496949195862,1.607336401939392,-1.6704847812652588,1.2249797582626343,0.07322958111763,-0.057519473135471344,0.0012320401147007942,0.9983582496643066,-0.023566605523228645,0.05219324305653572
46.0,-0.10486578196287155,-0.4103710353374481,1.1098353862762451,0.7737331390380859,1.5985100269317627,-1.6752359867095947,1.2184854745864868,0.06956309080123901,-0.0579778254032135,0.0008887173025868833,0.998713493347168,-0.01885935477912426,0.047062795609235764
47.0,-0.11113140732049942,-0.4150531589984894,1.1193370819091797,0.762062668800354,1.5960196256637573,-1.681394100189209,1.2162327766418457,0.06261105835437775,-0.057951949536800385,0.0009247598354704678,0.9985570907592773,-0.018291765823960304,0.05048312246799469
48.0,-0.1115836650133133,-0.428496390581131,1.1378198862075806,0.7011145353317261,1.6156960725784302,0.2706877291202545,1.2184844017028809,0.05875873193144798,-0.05775576829910278,0.826698362827301,0.5564687252044678,0.046425960958004,0.06897111237049103
49.0,-0.12060218304395676,-0.42054978013038635,1.1275627613067627,0.7426185607910156,1.5928552150726318,-1.6905900239944458,1.216483473777771,0.05161634460091591,-0.05750212073326111,0.0010712703224271536,0.9981043934822083,-0.018189044669270515,0.05878481641411781
50.0,-0.11890733242034912,-0.42076921463012695,1.1323020458221436,0.7507920265197754,1.5900719165802002,-1.689062237739563,1.2120779752731323,0.05462611839175224,-0.058053210377693176,0.0008426436688750982,0.9984830021858215,-0.015969008207321167,0.0526873953640461
51.0,-0.1268058717250824,-0.42382991313934326,1.1405682563781738,0.7477689385414124,1.583095669746399,-1.6969243288040161,1.2087032794952393,0.046616293489933014,-0.05822041630744934,0.0006650967989116907,0.998569130897522,-0.012791772373020649,0.051919709891080856
52.0,-0.12678225338459015,-0.4274887442588806,1.1420865058898926,0.723882794380188,1.5878642797470093,-1.6965359449386597,1.2127755880355835,0.04538395255804062,-0.05779864639043808,0.0010843540076166391,0.997775673866272,-0.01677202619612217,0.06450872868299484
53.0,-0.10581815242767334,-0.547440230846405,1.3866063356399536,0.16590996086597443,1.6780260801315308,0.16698673367500305,1.1835492849349976,0.05981331318616867,-0.07214279472827911,0.7729719877243042,0.5676189661026001,0.16774874925613403,0.22843684256076813
54.0,-0.12175115197896957,-0.49193206429481506,1.2615184783935547,0.455152302980423,1.6232783794403076,0.14447353780269623,1.2001984119415283,0.04749250411987305,-0.06259515881538391,0.7853043675422668,0.5941448211669922,0.1050058975815773,0.13879036903381348
55.0,-0.13012608885765076,-0.4404826760292053,1.1630830764770508,0.6716875433921814,1.5965416431427002,0.14333553612232208,1.2120181322097778,0.0400964580476284,-0.05790465325117111,0.794407844543457,0.6008198261260986,0.053722623735666275,0.07103239744901657
56.0,-0.1342967301607132,-0.43099889159202576,1.150434136390686,0.7176299691200256,1.5811222791671753,-1.70393967628479,1.2099241018295288,0.03774573281407356,-0.05791310966014862,0.0009203841327689588,0.9977517127990723,-0.014013316482305527,0.06553157418966293
57.0,-0.14283515512943268,-0.4315847158432007,1.1569459438323975,0.7290205359458923,1.5721396207809448,-1.7126809358596802,1.2044010162353516,0.029648223891854286,-0.05829840153455734,0.0005135433166287839,0.9983060956001282,-0.00891748908907175,0.05749078840017319
58.0,-0.15517602860927582,-0.4351382851600647,1.1642277240753174,0.7194254398345947,1.5625773668289185,-1.7248133420944214,1.2028453350067139,0.01656261831521988,-0.05836299806833267,0.0003273386100772768,0.998123049736023,-0.005355695262551308,0.061005011200904846
59.0,-0.1574791818857193,-0.4406568706035614,1.1701453924179077,0.6912989020347595,1.5590806007385254,-0.07735724747180939,1.2055586576461792,0.013913219794631004,-0.05806167423725128,0.73248291015625,0.6766238212585449,0.050999440252780914,0.05520972982048988
60.0,-0.15202413499355316,-0.45667797327041626,1.195526361465454,0.6216376423835754,1.568603754043579,-0.010270897299051285,1.2055537700653076,0.01898917742073536,-0.058474138379096985,0.7511583566665649,0.6517231464385986,0.06878949701786041,0.0792848989367485
61.0,-0.14982859790325165,-0.4375581741333008,1.1645177602767944,0.701705813407898,1.5677156448364258,-0.021525811403989792,1.206185221672058,0.02167251519858837,-0.058049023151397705,0.7490143775939941,0.6587361693382263,0.046903345733881,0.053331341594457626
62.0,-0.141514852643013,-0.4334033131599426,1.1546965837478638,0.7107671499252319,1.5754684209823608,-1.7109835147857666,1.2094098329544067,0.0300002321600914,-0.057740166783332825,0.000824146147351712,0.9975919723510742,-0.012037757784128189,0.06829856336116791
63.0,-0.14370180666446686,-0.46186259388923645,1.204598069190979,0.598217785358429,1.5778629779815674,0.030192870646715164,1.2048790454864502,0.02764657512307167,-0.05893349647521973,0.7610434293746948,0.6384761929512024,0.07373391091823578,0.08788849413394928
64.0,-0.1603560596704483,-0.5835001468658447,1.4803893566131592,-0.011996503919363022,1.5433670282363892,-0.033496107906103134,1.1665666103363037,0.019212964922189713,-0.0784369558095932,0.7036874890327454,0.6257810592651367,0.22360444068908691,0.251442015171051
65.0,-0.1406608372926712,-0.5745003819465637,1.4548758268356323,0.039242517203092575,1.5893361568450928,0.024322235956788063,1.1708816289901733,0.03432384133338928,-0.07634768635034561,0.724767804145813,0.6101871728897095,0.20607824623584747,0.24477548897266388
66.0,-0.1071225181221962,-0.6047374606132507,1.577410101890564,-0.31952330470085144,1.6943432092666626,0.09401798993349075,1.1571515798568726,0.058601029217243195,-0.09537015110254288,0.7103919386863708,0.5448601841926575,0.27112749218940735,0.35349759459495544
67.0,-0.13011351227760315,-0.6164063811302185,1.614585518836975,-0.4034910500049591,1.6257331371307373,0.037121694535017014,1.1519349813461304,0.04343489557504654,-0.09610216319561005,0.6825900077819824,0.5601548552513123,0.2977476418018341,0.3628274202346802
68.0,-0.14820384979248047,-0.6221668124198914,1.622521996498108,-0.4126356840133667,1.570418119430542,-0.00025201684911735356,1.1513171195983887,0.03139685094356537,-0.09277293086051941,0.6677014827728271,0.5756796598434448,0.3081992566585541,0.35746461153030396
69.0,-0.16101786494255066,-0.6201950311660767,1.6289641857147217,-0.4212832450866699,1.528690218925476,-0.028023669496178627,1.1484638452529907,0.023676149547100067,-0.09735912084579468,0.656702995300293,0.5879037380218506,0.31505516171455383,0.3519243896007538
70.0,-0.18037909269332886,-0.6211566925048828,1.6346451044082642,-0.42804476618766785,1.4681386947631836,-0.06783588230609894,1.1469212770462036,0.011233951896429062,-0.09805496037006378,0.6400313377380371,0.6043095588684082,0.3257702887058258,0.3450271189212799
71.0,-0.20913104712963104,-0.6191271543502808,1.636112928390503,-0.4263262152671814,1.376633644104004,-0.1286572366952896,1.1457383632659912,-0.007253323681652546,-0.09986571222543716,0.614482045173645,0.6289945244789124,0.3406394422054291,0.3327800929546356
72.0,-0.19111615419387817,-0.6083781123161316,1.5703163146972656,-0.2326590120792389,1.440568447113037,-0.11552885919809341,1.1534123420715332,0.0019771517254412174,-0.08951589465141296,0.6498711109161377,0.6387585997581482,0.2887292504310608,0.2937523126602173
73.0,-0.21271762251853943,-0.5659801959991455,1.4378762245178223,0.1041988730430603,1.3931244611740112,-0.2555837333202362,1.1718295812606812,-0.019563384354114532,-0.07436136901378632,0.640053391456604,0.7056697607040405,0.2251082956790924,0.20417669415473938
74.0,-0.19024421274662018,-0.5299763083457947,1.3471649885177612,0.3066539764404297,1.471855640411377,-0.20324374735355377,1.1849647760391235,-0.007977578788995743,-0.06664922088384628,0.676389217376709,0.7008399367332458,0.16300736367702484,0.15732039511203766
75.0,-0.18611973524093628,-0.4594047963619232,1.202829360961914,0.6165792942047119,1.510746717453003,-0.2734489142894745,1.20394766330719,-0.012747028842568398,-0.058613911271095276,0.669187068939209,0.7350103259086609,0.08082791417837143,0.07358943670988083
76.0,-0.17537952959537506,-0.46173903346061707,1.206837773323059,0.6083036065101624,1.5293031930923462,-0.18563389778137207,1.203050971031189,-0.0025491267442703247,-0.05866231024265289,0.6975703835487366,0.7079595923423767,0.07864154130220413,0.07748749107122421
77.0,-0.17049993574619293,-0.5153549313545227,1.313463807106018,0.3757908344268799,1.522752046585083,-0.11408436298370361,1.1897567510604858,0.006634542718529701,-0.06436505168676376,0.7090466618537903,0.6766485571861267,0.13703687489032745,0.14359824359416962
78.0,-0.16174526512622833,-0.4497052729129791,1.1834403276443481,0.6517446041107178,1.5581393241882324,-0.0674116313457489,1.2065019607543945,0.008771192282438278,-0.057959362864494324,0.7360783219337463,0.6705135703086853,0.062451403588056564,0.06855807453393936
79.0,-0.16501154005527496,-0.43976470828056335,1.1714379787445068,0.7012549042701721,1.5534231662750244,-1.734230399131775,1.2029439210891724,0.006164245307445526,-0.05828520655632019,0.0001885179808596149,0.9975875020027161,-0.0027111342642456293,0.06936696916818619
80.0,-0.17185130715370178,-0.44417428970336914,1.1777795553207397,0.682117760181427,1.543979287147522,-0.1698695868253708,1.2036539316177368,-0.0007058753399178386,-0.05818819999694824,0.7048834562301636,0.7049552798271179,0.055579423904418945,0.05557376518845558
81.0,-0.17864355444908142,-0.443533331155777,1.1763931512832642,0.683443546295166,1.5367110967636108,-0.2154303938150406,1.2043055295944214,-0.00786575861275196,-0.05817230045795441,0.6908649802207947,0.7186539173126221,0.056956805288791656,0.05475439876317978
82.0,-0.18410608172416687,-0.437313973903656,1.169219970703125,0.7139527201652527,1.5376023054122925,-1.7534600496292114,1.2018424272537231,-0.01413663662970066,-0.0584820955991745,-0.00031640802626498044,0.997912585735321,0.004903406370431185,0.06439351290464401
83.0,-0.19198645651340485,-0.436315655708313,1.1672343015670776,0.7163984775543213,1.5310816764831543,-1.7613261938095093,1.2024627923965454,-0.022732308134436607,-0.05848732590675354,-0.0004983407561667264,0.9978985786437988,0.007730265613645315,0.06433071196079254
84.0,-0.19543027877807617,-0.4698154330253601,1.2229353189468384,0.5741690397262573,1.4911693334579468,-0.3098597824573517,1.2016193866729736,-0.020456772297620773,-0.059506990015506744,0.6564565300941467,0.7434893846511841,0.09567096084356308,0.08447171747684479
85.0,-0.20065902173519135,-0.4535538852214813,1.191770076751709,0.6363612413406372,1.4984400272369385,-0.34881871938705444,1.2060633897781372,-0.028809964656829834,-0.0583970844745636,0.6465846300125122,0.7556788325309753,0.07924700528383255,0.06780645251274109
86.0,-0.21767567098140717,-0.48504310846328735,1.254096269607544,0.5034562349319458,1.4383680820465088,-0.40564101934432983,1.1988667249679565,-0.038441259413957596,-0.06158427149057388,0.621594250202179,0.7663919925689697,0.12586648762226105,0.10208598524332047
87.0,-0.22371512651443481,-0.46704909205436707,1.218230128288269,0.5732534527778625,1.4395641088485718,-0.4798053503036499,1.2046313285827637,-0.04723801463842392,-0.06012511998414993,0.5987113118171692,0.7888461947441101,0.11056497693061829,0.0839155986905098
88.0,-0.20589390397071838,-0.43164077401161194,1.151729941368103,0.7160565257072449,1.5123097896575928,-0.407349556684494,1.2112834453582764,-0.03842989727854729,-0.05764169991016388,0.629191517829895,0.773786187171936,0.05687233433127403,0.0462447926402092
89.0,-0.21749582886695862,-0.42727723717689514,1.1487810611724854,0.7382068037986755,1.5114028453826904,-1.787057876586914,1.2076835632324219,-0.05165814235806465,-0.05854709446430206,-0.0010324307950213552,0.9980185031890869,0.01701165921986103,0.06056934595108032
90.0,-0.21268868446350098,-0.4313187301158905,1.155148983001709,0.7233250141143799,1.5095893144607544,-1.7819592952728271,1.2075676918029785,-0.04549067094922066,-0.05839411914348602,-0.0011293650604784489,0.9976235032081604,0.01686784066259861,0.06679462641477585
91.0,-0.2040957510471344,-0.43531644344329834,1.162887692451477,0.7124645113945007,1.5158995389938354,-0.39526382088661194,1.2057416439056396,-0.03565555065870285,-0.058347657322883606,0.6334117650985718,0.7705674767494202,0.054707955569028854,0.0449703224003315
92.0,-0.19612902402877808,-0.44096994400024414,1.1715478897094727,0.6904672980308533,1.5184705257415771,-0.33368217945098877,1.2057100534439087,-0.02639748714864254,-0.05817613750696182,0.653300940990448,0.7529445886611938,0.059820711612701416,0.05190412700176239
93.0,-0.25694143772125244,-0.6101380586624146,1.6190439462661743,-0.3912525177001953,1.2236275672912598,-0.23714691400527954,1.1483705043792725,-0.03963049501180649,-0.10034799575805664,0.5695015788078308,0.6692940592765808,0.3634311258792877,0.3092431128025055
94.0,-0.27388814091682434,-0.603900134563446,1.6060116291046143,-0.36804765462875366,1.1688461303710938,-0.2801179587841034,1.1508586406707764,-0.051848720759153366,-0.10067884624004364,0.5524076819419861,0.6837027072906494,0.3709203898906708,0.2996906042098999
95.0,-0.24078887701034546,-0.6148128509521484,1.6263210773468018,-0.40488359332084656,1.2753221988677979,-0.19937652349472046,1.1475458145141602,-0.0285462848842144,-0.09919492900371552,0.5851427316665649,0.6559755802154541,0.35578441619873047,0.31736648082733154
96.0,-0.213453471660614,-0.6225912570953369,1.632556676864624,-0.41837236285209656,1.3609038591384888,-0.13908249139785767,1.1481527090072632,-0.010305119678378105,-0.09449399262666702,0.6097307801246643,0.6332067251205444,0.34340938925743103,0.3306775689125061
97.0,-0.19331827759742737,-0.6258034706115723,1.6345210075378418,-0.4250035285949707,1.4274178743362427,-0.09409714490175247,1.1485025882720947,0.002446961123496294,-0.09246310591697693,0.6283838748931885,0.6147109866142273,0.33336570858955383,0.34078073501586914
98.0,-0.23207487165927887,-0.620841920375824,1.626466155052185,-0.40497979521751404,1.3008593320846558,-0.18069888651371002,1.149614691734314,-0.022874172776937485,-0.093108169734478,0.5923512578010559,0.6492102742195129,0.3524579107761383,0.3215889632701874
99.0,-0.27161741256713867,-0.6088110208511353,1.6044917106628418,-0.3644593358039856,1.1727765798568726,-0.276090145111084,1.1530609130859375,-0.05039655417203903,-0.09474564343690872,0.5532482266426086,0.6825810074806213,0.37094753980636597,0.3006618320941925
100.0,-0.2509116530418396,-0.6189516186714172,1.6175220012664795,-0.3874472379684448,1.2389503717422485,-0.22440099716186523,1.151922583580017,-0.03586132079362869,-0.09037245064973831,0.5735908150672913,0.6650077104568481,0.36217617988586426,0.31238874793052673
101.0,-0.23572193086147308,-0.6239479780197144,1.6224936246871948,-0.39687299728393555,1.2870231866836548,-0.18991605937480927,1.1520283222198486,-0.025556333363056183,-0.08785807341337204,0.5879393815994263,0.6527017951011658,0.355020135641098,0.31979429721832275
102.0,-0.21450892090797424,-0.6266772747039795,1.62944757938385,-0.4117884039878845,1.3553650379180908,-0.1424625962972641,1.1506175994873047,-0.01120145246386528,-0.08870944380760193,0.6077978610992432,0.6346103549003601,0.34473276138305664,0.3301677405834198
103.0,-0.22034969925880432,-0.6294757127761841,1.6253752708435059,-0.40306028723716736,1.3347901105880737,-0.15623602271080017,1.1529680490493774,-0.015296448022127151,-0.08371986448764801,0.6016222834587097,0.6400513052940369,0.3482155501842499,0.3273085057735443
104.0,-0.2363589107990265,-0.6282140612602234,1.6190292835235596,-0.38992756605148315,1.2824681997299194,-0.19249168038368225,1.1546725034713745,-0.026237420737743378,-0.08167216181755066,0.5862076282501221,0.653742253780365,0.3562662601470947,0.31946223974227905
105.0,-0.2575876712799072,-0.6237432956695557,1.6071703433990479,-0.3675614595413208,1.2114789485931396,-0.24389344453811646,1.157159447669983,-0.04087599739432335,-0.08026981353759766,0.5644687414169312,0.6721324324607849,0.36694303154945374,0.3081652820110321
106.0,-0.27701595425605774,-0.6163339614868164,1.5910072326660156,-0.3391055762767792,1.1463514566421509,-0.2949269711971283,1.1603281497955322,-0.05488353967666626,-0.08010005950927734,0.5437504649162292,0.6890684366226196,0.37609028816223145,0.2967764139175415
107.0,-0.29204192757606506,-0.6088061928749084,1.5770926475524902,-0.31563833355903625,1.0968904495239258,-0.335642546415329,1.1626189947128296,-0.06610973179340363,-0.08105820417404175,0.5274664759635925,0.7013995051383972,0.3831427991390228,0.2881310284137726
108.0,-0.3043527901172638,-0.5995916128158569,1.564042091369629,-0.29375073313713074,1.0556881427764893,-0.3725925385951996,1.1640211343765259,-0.07527590543031693,-0.0843195766210556,0.5133574604988098,0.711973249912262,0.3886334300041199,0.2802182137966156
109.0,-0.2790035605430603,-0.6107085347175598,1.593697190284729,-0.34467363357543945,1.144155740737915,-0.2978854477405548,1.1574846506118774,-0.05608601123094559,-0.08741287142038345,0.5435343384742737,0.68977290391922,0.37569093704223633,0.296040803194046
110.0,-0.3014150559902191,-0.5980607867240906,1.5724172592163086,-0.3088681101799011,1.0706058740615845,-0.3600412607192993,1.160543441772461,-0.07281409204006195,-0.09014956653118134,0.5190381407737732,0.7081667184829712,0.38605424761772156,0.28295156359672546
111.0,-0.3168996572494507,-0.5890161991119385,1.5471620559692383,-0.26594609022140503,1.0135520696640015,-0.41319727897644043,1.166471242904663,-0.08513601124286652,-0.08720764517784119,0.49836334586143494,0.7228227853775024,0.39411285519599915,0.2717282772064209
112.0,-0.32910799980163574,-0.5781468152999878,1.5283622741699219,-0.23519079387187958,0.972129225730896,-0.4550715386867523,1.169473648071289,-0.09512341767549515,-0.08932221680879593,0.4830414950847626,0.7331284284591675,0.39976856112480164,0.2633983790874481
113.0,-0.35839390754699707,-0.5467920303344727,1.4570518732070923,-0.11594132333993912,0.8586146235466003,-0.5870216488838196,1.1843117475509644,-0.1212957501411438,-0.08588407933712006,0.43609777092933655,0.761454701423645,0.4161686599254608,0.23834668099880219
114.0,-0.3388674855232239,-0.5720973014831543,1.5055981874465942,-0.19684112071990967,0.9322850108146667,-0.4955686926841736,1.1754709482192993,-0.10368243604898453,-0.08391278237104416,0.4672369658946991,0.7425758838653564,0.4061543941497803,0.2555568218231201
115.0,-0.3194318413734436,-0.590155303478241,1.53873872756958,-0.2511526644229889,1.0000954866409302,-0.4250597655773163,1.169847011566162,-0.08743025362491608,-0.08163730055093765,0.4930168092250824,0.7260637879371643,0.39655745029449463,0.26927316188812256
116.0,-0.30732375383377075,-0.6007446646690369,1.5555394887924194,-0.2786257565021515,1.0407153367996216,-0.38538309931755066,1.167412281036377,-0.07778238505125046,-0.0787709504365921,0.5076146721839905,0.7157450318336487,0.39122042059898376,0.2774580419063568
117.0,-0.27635738253593445,-0.6206708550453186,1.587674617767334,-0.33267641067504883,1.1447831392288208,-0.29516786336898804,1.1629518270492554,-0.05462414026260376,-0.07381640374660492,0.5428153872489929,0.689336359500885,0.3769243657588959,0.29680773615837097
118.0,-0.2914406955242157,-0.613279402256012,1.5733895301818848,-0.30863985419273376,1.0947693586349487,-0.3361661732196808,1.1654348373413086,-0.06593967974185944,-0.07439801841974258,0.5263218879699707,0.7017527222633362,0.3841050863265991,0.2880828380584717
119.0,-0.31758585572242737,-0.5957682728767395,1.5356593132019043,-0.24499407410621643,1.0003207921981812,-0.4229971170425415,1.1728113889694214,-0.08622343838214874,-0.07392919063568115,0.49256423115730286,0.7258343696594238,0.3973047435283661,0.26961809396743774
120.0,-0.3265843689441681,-0.5865685343742371,1.523112177848816,-0.22485508024692535,0.9711412191390991,-0.4529843032360077,1.1741901636123657,-0.09355640411376953,-0.07738074660301208,0.4818727970123291,0.7330628633499146,0.40111732482910156,0.2636711597442627
121.0,-0.3415212631225586,-0.5718843936920166,1.4925910234451294,-0.1740425080060959,0.9152693152427673,-0.5135989785194397,1.1800228357315063,-0.10629552602767944,-0.07723428308963776,0.45977771282196045,0.7468682527542114,0.4091031849384308,0.25184696912765503
122.0,-0.3557899594306946,-0.5527772903442383,1.4569449424743652,-0.11477809399366379,0.8614711761474609,-0.5809604525566101,1.1863495111465454,-0.11920921504497528,-0.07910916954278946,0.4369303584098816,0.7605507373809814,0.4164360761642456,0.23923927545547485
123.0,-0.3654152750968933,-0.5391119122505188,1.4265761375427246,-0.06429097056388855,0.8223100900650024,-0.6331753730773926,1.192644476890564,-0.1286654770374298,-0.07747330516576767,0.41929569840431213,0.7699645757675171,0.42241165041923523,0.23003056645393372
124.0,-0.37671220302581787,-0.5169863104820251,1.38150954246521,0.013121997937560081,0.7728573679924011,-0.7113507986068726,1.2012083530426025,-0.1402510553598404,-0.07668706774711609,0.39466923475265503,0.7827965021133423,0.429596483707428,0.21659335494041443
125.0,-0.38755762577056885,-0.49113020300865173,1.3363279104232788,0.0889199823141098,0.731255292892456,-0.7887294292449951,1.2089263200759888,-0.15233421325683594,-0.07986530661582947,0.37242642045021057,0.7935875058174133,0.4355819821357727,0.20441633462905884
126.0,-0.3820294439792633,-0.5046128034591675,1.3676823377609253,0.03539545089006424,0.7585647702217102,-0.7392828464508057,1.2021260261535645,-0.14566417038440704,-0.08290155231952667,0.3874655067920685,0.7867398858070374,0.43108704686164856,0.21230825781822205
127.0,-0.37418168783187866,-0.5215978622436523,1.404001235961914,-0.0264972485601902,0.7938213348388672,-0.6794096827507019,1.1947389841079712,-0.13698488473892212,-0.08445746451616287,0.4058578908443451,0.7775024175643921,0.4258557856082916,0.22229760885238647
128.0,-0.38947349786758423,-0.486408531665802,1.3376104831695557,0.08585318177938461,0.7313787937164307,-0.7917490005493164,1.206884741783142,-0.15394660830497742,-0.08616671711206436,0.3727215826511383,0.7938387989997864,0.43496185541152954,0.2042224109172821
129.0,-0.3942616581916809,-0.4731793999671936,1.306864619255066,0.13877879083156586,0.7066330909729004,-0.8400231003761292,1.2135018110275269,-0.16006526350975037,-0.08291712403297424,0.3583899140357971,0.7998735308647156,0.4393300712108612,0.19684547185897827
130.0,-0.4040122628211975,-0.4363122880458832,1.2405753135681152,0.25446343421936035,0.6639358401298523,-0.9509444236755371,1.2250491380691528,-0.17298424243927002,-0.08525672554969788,0.32929354906082153,0.8124997019767761,0.44582751393318176,0.18068699538707733
131.0,-0.41213634610176086,-0.3965302109718323,1.1665762662887573,0.3840108811855316,0.6259099841117859,-1.070865511894226,1.2385152578353882,-0.1856006681919098,-0.08521556109189987,0.29915088415145874,0.8236240148544312,0.4528745710849762,0.16448986530303955
132.0,-0.39846640825271606,-0.45631009340286255,1.2706646919250488,0.20354153215885162,0.6818838119506836,-0.8992100358009338,1.2207305431365967,-0.16584637761116028,-0.08025699853897095,0.34189295768737793,0.8070223331451416,0.44333764910697937,0.18781886994838715
133.0,-0.4066586196422577,-0.4197760820388794,1.1994980573654175,0.327174574136734,0.6414424777030945,-1.012606143951416,1.234392762184143,-0.17815348505973816,-0.07856765389442444,0.3123714327812195,0.8185239434242249,0.45043686032295227,0.17189918458461761
134.0,-0.4129200279712677,-0.37827491760253906,1.1226627826690674,0.46515411138534546,0.6082932353019714,-1.1393072605133057,1.248171091079712,-0.18914812803268433,-0.07784829288721085,0.28146541118621826,0.8294987678527832,0.4568171203136444,0.15500710904598236
135.0,-0.4085305631160736,-0.40543070435523987,1.16608726978302,0.38682079315185547,0.625045657157898,-1.063660979270935,1.241659164428711,-0.1821233332157135,-0.07383371889591217,0.29889151453971863,0.8230471014976501,0.4539601802825928,0.16485674679279327
136.0,-0.4127989411354065,-0.3638902008533478,1.0852251052856445,0.5332898497581482,0.5950621962547302,-1.194564938545227,1.2569711208343506,-0.19157952070236206,-0.06986640393733978,0.26716071367263794,0.8336741328239441,0.46027806401252747,0.14750154316425323
137.0,-0.4069676399230957,-0.4079432487487793,1.162105679512024,0.3949032723903656,0.6230736970901489,-1.0660631656646729,1.243903398513794,-0.18083417415618896,-0.06800872832536697,0.2972835302352905,0.8233015537261963,0.45478543639183044,0.16421714425086975
138.0,-0.4024287164211273,-0.431774765253067,1.2050191164016724,0.31939131021499634,0.6440735459327698,-0.99574214220047,1.236318588256836,-0.17369873821735382,-0.06749628484249115,0.31460854411125183,0.8170542120933533,0.45088958740234375,0.17361602187156677
139.0,-0.40125900506973267,-0.4403787851333618,1.2282439470291138,0.2783118486404419,0.656825602054596,-0.9618000388145447,1.2307875156402588,-0.1711142212152481,-0.07227378338575363,0.3241170346736908,0.8137553930282593,0.4481988251209259,0.17851665616035461
140.0,-0.39525648951530457,-0.46526405215263367,1.2745689153671265,0.19718186557292938,0.6852414011955261,-0.8854700922966003,1.22238290309906,-0.16275151073932648,-0.07210399210453033,0.3441029191017151,0.805582582950592,0.443547785282135,0.18946051597595215
141.0,-0.3884628117084503,-0.48827144503593445,1.318613052368164,0.11992037296295166,0.7175746560096741,-0.8117433190345764,1.2143405675888062,-0.15418939292430878,-0.07240825891494751,0.36444467306137085,0.796658456325531,0.438493549823761,0.2005961537361145
142.0,-0.3802138864994049,-0.5092832446098328,1.3527679443359375,0.06256173551082611,0.7477433681488037,-0.7521079182624817,1.2090027332305908,-0.14489498734474182,-0.06859063357114792,0.38102397322654724,0.7889357209205627,0.4341040849685669,0.20965468883514404
143.0,-0.36804890632629395,-0.5360480546951294,1.4104199409484863,-0.03661379963159561,0.8051458597183228,-0.65596604347229,1.1973881721496582,-0.13170436024665833,-0.07171527296304703,0.41091352701187134,0.773969292640686,0.42553502321243286,0.2259238362312317
144.0,-0.3585549592971802,-0.5510082244873047,1.4416751861572266,-0.08873338252305984,0.8438486456871033,-0.6019085049629211,1.1912271976470947,-0.12225549668073654,-0.07258710265159607,0.428750604391098,0.7646453380584717,0.4196644723415375,0.2353135198354721
145.0,-0.37165069580078125,-0.5292115211486816,1.3871357440948486,0.0038933902978897095,0.7820932269096375,-0.6910421848297119,1.2033791542053223,-0.13581770658493042,-0.06602303683757782,0.39899685978889465,0.779916524887085,0.42929819226264954,0.21962429583072662
146.0,-0.36173680424690247,-0.54787278175354,1.4255294799804688,-0.0614975243806839,0.8253846764564514,-0.6249059438705444,1.1959584951400757,-0.12572762370109558,-0.06698046624660492,0.42012277245521545,0.7688682079315186,0.4229876399040222,0.23112767934799194
147.0,-0.3511127829551697,-0.5631285905838013,1.4574644565582275,-0.11415815353393555,0.8675714731216431,-0.5692875385284424,1.1895767450332642,-0.11540441960096359,-0.06778556108474731,0.4388691782951355,0.7587219476699829,0.4166993200778961,0.24103228747844696
148.0,-0.33411309123039246,-0.5843597054481506,1.5014313459396362,-0.18833808600902557,0.9362174868583679,-0.4867267310619354,1.181128740310669,-0.10040660202503204,-0.06821341812610626,0.4678393006324768,0.7411264777183533,0.4071764051914215,0.2570318877696991
149.0,-0.3065659999847412,-0.6066703796386719,1.5495190620422363,-0.2676238715648651,1.0367510318756104,-0.3870578110218048,1.171566367149353,-0.07764118909835815,-0.0692959800362587,0.5056009888648987,0.7165088057518005,0.39268404245376587,0.27709561586380005
150.0,-0.31634393334388733,-0.6009496450424194,1.5313196182250977,-0.23688475787639618,0.9982612133026123,-0.4231211543083191,1.1760656833648682,-0.0855160653591156,-0.06601272523403168,0.49125462770462036,0.7261620163917542,0.3983944058418274,0.2695171535015106
151.0,-0.3232583999633789,-0.5972644090652466,1.5161375999450684,-0.211687371134758,0.9702245593070984,-0.4499336779117584,1.1802374124526978,-0.0914512574672699,-0.06198812276124954,0.4805060625076294,0.7328833937644958,0.40280354022979736,0.26409322023391724
152.0,-0.3079471290111542,-0.6119892597198486,1.5383220911026,-0.2480422556400299,1.0232261419296265,-0.39722904562950134,1.1773216724395752,-0.0792468786239624,-0.05772313475608826,0.4999724328517914,0.7196451425552368,0.39568597078323364,0.27490225434303284
153.0,-0.32031652331352234,-0.6038759350776672,1.514329433441162,-0.2079874873161316,0.9739941358566284,-0.4440522789955139,1.1830579042434692,-0.08933308720588684,-0.05378462374210358,0.4813832640647888,0.7317633032798767,0.4030870497226715,0.26516684889793396
154.0,-0.33125799894332886,-0.5925276279449463,1.4967695474624634,-0.17976360023021698,0.9367905855178833,-0.48287197947502136,1.185523509979248,-0.09852384030818939,-0.05671367049217224,0.46734869480133057,0.7406478524208069,0.4082477390766144,0.2576042711734772
155.0,-0.34553274512290955,-0.5753361582756042,1.458640694618225,-0.11546610295772552,0.8770079016685486,-0.5531027317047119,1.193271279335022,-0.11105461418628693,-0.05484096705913544,0.442231148481369,0.755935788154602,0.41663554310798645,0.24373659491539001
156.0,-0.35607483983039856,-0.5601614117622375,1.4278573989868164,-0.06429977715015411,0.8341363668441772,-0.6083369851112366,1.1991815567016602,-0.12095825374126434,-0.0544370636343956,0.4233590066432953,0.766368567943573,0.4229217767715454,0.23363138735294342
157.0,-0.37573549151420593,-0.520223081111908,1.3515819311141968,0.06560059636831284,0.7499041557312012,-0.7417969107627869,1.2130167484283447,-0.1410554051399231,-0.05520249903202057,0.38163432478904724,0.7878168821334839,0.4350658357143402,0.2107546329498291
158.0,-0.3854231834411621,-0.49503186345100403,1.306099772453308,0.1425146460533142,0.7099380493164062,-0.8185518383979797,1.2210496664047241,-0.1521991491317749,-0.05673498660326004,0.35961365699768066,0.7977732419967651,0.44122350215911865,0.19889108836650848
159.0,-0.3661011755466461,-0.5417569875717163,1.4003981351852417,-0.018715932965278625,0.7986919283866882,-0.6613047122955322,1.2028827667236328,-0.13061445951461792,-0.05945827066898346,0.4070771038532257,0.7752535939216614,0.4276144206523895,0.22453561425209045
160.0,-0.3560464382171631,-0.558368980884552,1.435369610786438,-0.07713688910007477,0.8409811854362488,-0.6014758944511414,1.195913314819336,-0.1205446720123291,-0.06073715537786484,0.42677611112594604,0.7649500966072083,0.4212745130062103,0.2350347489118576
161.0,-0.3444761037826538,-0.5742982625961304,1.468916893005371,-0.13298249244689941,0.888124942779541,-0.5415782928466797,1.1892658472061157,-0.10972237586975098,-0.061692751944065094,0.44739213585853577,0.7533682584762573,0.4143884479999542,0.246086984872818
162.0,-0.37859398126602173,-0.5132132172584534,1.3501783609390259,0.06762269884347916,0.7466794848442078,-0.7511014938354492,1.2112008333206177,-0.14359788596630096,-0.062459640204906464,0.3801860213279724,0.7889513969421387,0.43485844135284424,0.20955298840999603
163.0,-0.3866546154022217,-0.49258095026016235,1.3156410455703735,0.1256459504365921,0.7162437438964844,-0.8106810450553894,1.216832160949707,-0.1527494490146637,-0.06552132964134216,0.36347445845603943,0.7966589331626892,0.43936052918434143,0.20045757293701172
164.0,-0.3944636285305023,-0.4648682773113251,1.2621161937713623,0.2197909951210022,0.6777124404907227,-0.8999185562133789,1.226703405380249,-0.16273464262485504,-0.06466253101825714,0.3389023542404175,0.8073409795761108,0.44540709257125854,0.18697123229503632
165.0,-0.39988061785697937,-0.4394166171550751,1.210119366645813,0.31140854954719543,0.6467673778533936,-0.9830746054649353,1.2369462251663208,-0.17089927196502686,-0.06152144819498062,0.316726952791214,0.8159176111221313,0.45091474056243896,0.17503833770751953
166.0,-0.3935052454471588,-0.46583572030067444,1.2549091577529907,0.23283274471759796,0.6735973358154297,-0.9068248867988586,1.2296013832092285,-0.1622675061225891,-0.05890151113271713,0.3360331058502197,0.8081865906715393,0.4465844929218292,0.18568380177021027
167.0,-0.3910064995288849,-0.4729684889316559,1.2586441040039062,0.22629012167453766,0.6767470836639404,-0.8947814702987671,1.230646014213562,-0.15978820621967316,-0.052835993468761444,0.33814865350723267,0.8069392442703247,0.4466272294521332,0.18715953826904297
168.0,-0.4009336531162262,-0.4292193651199341,1.1814419031143188,0.36208879947662354,0.6316412687301636,-1.0241657495498657,1.2439048290252686,-0.1737157702445984,-0.05486244708299637,0.30520838499069214,0.8196664452552795,0.4542909264564514,0.16915833950042725
169.0,-0.4053433835506439,-0.40333694219589233,1.1383945941925049,0.4393146336078644,0.6128161549568176,-1.097834825515747,1.250814437866211,-0.18065592646598816,-0.057437703013420105,0.28779202699661255,0.8261110782623291,0.4575080871582031,0.1593819558620453
170.0,-0.40936875343322754,-0.37312716245651245,1.0873498916625977,0.5323761105537415,0.5942931175231934,-1.1854751110076904,1.2590880393981934,-0.1878308653831482,-0.05943665653467178,0.2674683630466461,0.8329694867134094,0.4611859917640686,0.14808785915374756
171.0,-0.4132465720176697,-0.3459819257259369,1.0446687936782837,0.6063777208328247,0.5825532078742981,-1.2557268142700195,1.2657569646835327,-0.19486187398433685,-0.06383165717124939,0.25208938121795654,0.837779700756073,0.46378934383392334,0.13955502212047577
172.0,-0.4159519076347351,-0.30221208930015564,0.967175304889679,0.7466565370559692,0.5675001740455627,-1.3826707601547241,1.2792518138885498,-0.20310047268867493,-0.0639120489358902,0.22349043190479279,0.8458235263824463,0.46831876039505005,0.12374303489923477
173.0,-0.41725656390190125,-0.2730294466018677,0.9165794849395752,0.836412250995636,0.5618956089019775,-1.4635753631591797,1.2879359722137451,-0.20823055505752563,-0.06483105570077896,0.20552459359169006,0.8503276109695435,0.4709014892578125,0.11381712555885315
174.0,-0.4160815477371216,-0.2592460811138153,0.8849807977676392,0.893546998500824,0.5582259893417358,-1.5100829601287842,1.2948206663131714,-0.2093227207660675,-0.059343308210372925,0.1943173110485077,0.8524850606918335,0.4731575548648834,0.10785256326198578
175.0,-0.41612347960472107,-0.22168728709220886,0.8177564144134521,1.0104140043258667,0.5575046539306641,-1.6128443479537964,1.3066151142120361,-0.21452878415584564,-0.059154532849788666,0.17107078433036804,0.8573806285858154,0.4760373830795288,0.09498242288827896
176.0,-0.4148240387439728,-0.16042302548885345,0.7072307467460632,1.1927764415740967,0.5654453635215759,-1.7699440717697144,1.3255068063735962,-0.22174076735973358,-0.0596422478556633,0.13435393571853638,0.8637349009513855,0.47993525862693787,0.07465391606092453
177.0,-0.41357025504112244,-0.1210014596581459,0.6359708309173584,1.3000049591064453,0.5758593678474426,-1.8595514297485352,1.336924433708191,-0.2259160876274109,-0.06156209856271744,0.11240319907665253,0.8669294714927673,0.4815603792667389,0.0624375194311142
178.0,-0.4170234799385071,-0.18171069025993347,0.7524179816246033,1.117897391319275,0.5626589059829712,-1.709821343421936,1.3166041374206543,-0.22067773342132568,-0.0646049976348877,0.1492687612771988,0.8617358803749084,0.4777872860431671,0.08276168256998062
179.0,-0.41159069538116455,-0.06735329329967499,0.5385411977767944,1.4324146509170532,0.5944650769233704,-1.966077446937561,1.3509814739227295,-0.23094138503074646,-0.06610865890979767,0.08478455245494843,0.8703325986862183,0.48282545804977417,0.047035057097673416
180.0,-0.41876646876335144,-0.20116066932678223,0.7925893664360046,1.0485193729400635,0.5608975291252136,-1.652409553527832,1.3087860345840454,-0.21950604021549225,-0.06862762570381165,0.16323864459991455,0.8594712615013123,0.47591203451156616,0.09038956463336945
181.0,-0.4181734323501587,-0.16096210479736328,0.7204456925392151,1.1636345386505127,0.5665419697761536,-1.750764012336731,1.3210422992706299,-0.22462785243988037,-0.06999105215072632,0.1402130126953125,0.8634766340255737,0.4782443344593048,0.07765824347734451
182.0,-0.41694095730781555,-0.12479634582996368,0.6535270810127258,1.2651777267456055,0.574440598487854,-1.8347585201263428,1.332167625427246,-0.22852471470832825,-0.07050392031669617,0.119748055934906,0.866377055644989,0.4802553951740265,0.06637947261333466
183.0,-0.41098135709762573,-0.03717111796140671,0.48353466391563416,1.4957529306411743,0.6045182943344116,-2.012819766998291,1.3580113649368286,-0.23407526314258575,-0.07015784084796906,0.07223771512508392,0.8715488910675049,0.48330095410346985,0.040058061480522156
184.0,-0.41486668586730957,-0.08338510990142822,0.5770346522331238,1.3750274181365967,0.5885962247848511,-1.9244134426116943,1.3437684774398804,-0.23197375237941742,-0.07233460992574692,0.09664970636367798,0.8695002198219299,0.4814193546772003,0.05351239815354347
185.0,-0.41071540117263794,-0.00931269209831953,0.4329061806201935,1.549182653427124,0.6136260032653809,-2.0503106117248535,1.3636664152145386,-0.2370266169309616,-0.07464092969894409,0.06197023764252663,0.8724260330200195,0.48358312249183655,0.034349918365478516
186.0,-0.4146982431411743,-0.05495398864150047,0.5270410776138306,1.433854103088379,0.5978597402572632,-1.9695918560028076,1.3502707481384277,-0.23546576499938965,-0.07735160738229752,0.0849030539393425,0.8709595799446106,0.481680691242218,0.046955302357673645
187.0,-0.41742661595344543,-0.08915288746356964,0.5953317284584045,1.343369960784912,0.586311399936676,-1.901747226715088,1.3395750522613525,-0.23360475897789001,-0.07849914580583572,0.10331843793392181,0.8690758347511292,0.48038631677627563,0.05710982158780098
188.0,-0.4192054569721222,-0.13766178488731384,0.6834656596183777,1.215421438217163,0.5714017152786255,-1.7960760593414307,1.3261501789093018,-0.22881317138671875,-0.07546848058700562,0.12992888689041138,0.8652376532554626,0.4788646996021271,0.07190897315740585
189.0,-0.42046770453453064,-0.1712694615125656,0.7469027042388916,1.1170077323913574,0.5657002329826355,-1.7148395776748657,1.3151243925094604,-0.22516769170761108,-0.07619686424732208,0.14956022799015045,0.8623504638671875,0.47660353779792786,0.08265889436006546
190.0,-0.42106306552886963,-0.23273096978664398,0.8564184904098511,0.9342565536499023,0.5602759122848511,-1.5556247234344482,1.2965091466903687,-0.21718449890613556,-0.07451505959033966,0.18631277978420258,0.8549711108207703,0.47295820713043213,0.10306565463542938
191.0,-0.419173002243042,-0.24461549520492554,0.8707111477851868,0.9130603075027466,0.5595998167991638,-1.5334659814834595,1.2952550649642944,-0.21393227577209473,-0.06885379552841187,0.19047658145427704,0.8538205623626709,0.4728447496891022,0.10548567771911621
192.0,-0.4189823567867279,-0.2704543471336365,0.9193158149719238,0.828769862651825,0.5634313821792603,-1.4607243537902832,1.286160945892334,-0.20996172726154327,-0.07061111927032471,0.2070416361093521,0.8503063321113586,0.4701167643070221,0.1144690290093422
193.0,-0.41661518812179565,-0.3387807309627533,1.047039270401001,0.5990035533905029,0.584966242313385,-1.2578158378601074,1.2626157999038696,-0.19825264811515808,-0.07500867545604706,0.2534859776496887,0.8380326628684998,0.46246933937072754,0.1398865282535553
194.0,-0.4188138246536255,-0.3078642189502716,0.9919310212135315,0.697992205619812,0.5733211040496826,-1.3472315073013306,1.2722691297531128,-0.20444434881210327,-0.07509294152259827,0.23323968052864075,0.8437983393669128,0.46585601568222046,0.12877024710178375
195.0,-0.42026621103286743,-0.2764546871185303,0.9367688298225403,0.7959322929382324,0.5662600994110107,-1.4352983236312866,1.2818421125411987,-0.21005956828594208,-0.07582326233386993,0.21354420483112335,0.849047064781189,0.4686419367790222,0.1178683340549469
196.0,-0.4224052131175995,-0.25983065366744995,0.9140154719352722,0.8321375846862793,0.565427303314209,-1.4708468914031982,1.2846678495407104,-0.2141987383365631,-0.08147701621055603,0.20641982555389404,0.8510722517967224,0.4691675901412964,0.11379232257604599
197.0,-0.4215359091758728,-0.2924416959285736,0.9742454290390015,0.7274940013885498,0.572074294090271,-1.3793988227844238,1.2735248804092407,-0.20860731601715088,-0.0824783593416214,0.2271626740694046,0.845909833908081,0.466017484664917,0.12514548003673553
198.0,-0.41726040840148926,-0.3455042541027069,1.066853404045105,0.5623924732208252,0.5912709832191467,-1.22916579246521,1.2576786279678345,-0.19752591848373413,-0.08059018850326538,0.2610013484954834,0.8361713886260986,0.46047481894493103,0.1437319666147232
199.0,-0.41586893796920776,-0.36526206135749817,1.1075880527496338,0.48967108130455017,0.6041097044944763,-1.1662447452545166,1.2494292259216309,-0.19323033094406128,-0.08401140570640564,0.2762124538421631,0.8316107988357544,0.4572378098964691,0.15186764299869537
200.0,-0.42111721634864807,-0.31817230582237244,1.0245232582092285,0.6352382898330688,0.5811619162559509,-1.2985910177230835,1.263989806175232,-0.20460182428359985,-0.08569955080747604,0.24597343802452087,0.8407233953475952,0.46296262741088867,0.1354506015777588
201.0,-0.4191356599330902,-0.34307074546813965,1.072036862373352,0.5510151982307434,0.5938436985015869,-1.2242435216903687,1.2550251483917236,-0.1991105079650879,-0.08751627057790756,0.26331669092178345,0.8358780145645142,0.4593803882598877,0.1447131186723709
202.0,-0.42337289452552795,-0.2890055179595947,0.9759053587913513,0.7213954329490662,0.5735846757888794,-1.3780361413955688,1.2718491554260254,-0.2105034589767456,-0.0885307639837265,0.2284374237060547,0.8459107875823975,0.4652582108974457,0.1256425380706787
203.0,-0.4236451983451843,-0.3069651126861572,1.0134745836257935,0.6526713371276855,0.5800954103469849,-1.3193811178207397,1.2642349004745483,-0.20804306864738464,-0.09243663400411606,0.2423555701971054,0.8421415090560913,0.4629385471343994,0.133226677775383
204.0,-0.41851165890693665,-0.36268359422683716,1.117621660232544,0.468532919883728,0.6088868975639343,-1.1551921367645264,1.244999885559082,-0.19525030255317688,-0.09441865235567093,0.2806309759616852,0.8307508826255798,0.4554440379142761,0.15385082364082336
205.0,-0.41512152552604675,-0.3870216906070709,1.1610021591186523,0.39260581135749817,0.6241891980171204,-1.0856503248214722,1.2372955083847046,-0.18883627653121948,-0.09326894581317902,0.2969885766506195,0.8249052166938782,0.4525318145751953,0.1629239022731781
206.0,-0.41422879695892334,-0.3979320526123047,1.1888184547424316,0.3418424427509308,0.637057900428772,-1.0431771278381348,1.2309404611587524,-0.18614262342453003,-0.09844230115413666,0.3083210587501526,0.8211397528648376,0.44962799549102783,0.16882605850696564
207.0,-0.40956592559814453,-0.4189053475856781,1.2252991199493408,0.2785021960735321,0.6557437181472778,-0.9830232858657837,1.2247971296310425,-0.17925617098808289,-0.09663332253694534,0.3231423795223236,0.81557697057724,0.446262001991272,0.17681489884853363
208.0,-0.40111812949180603,-0.4530753791332245,1.2896369695663452,0.1672079861164093,0.6936911940574646,-0.8791059255599976,1.2128827571868896,-0.16719916462898254,-0.09610125422477722,0.3501776456832886,0.8043845891952515,0.4400482475757599,0.19156888127326965
209.0,-0.3937242925167084,-0.47570541501045227,1.3332637548446655,0.09171430766582489,0.7263826131820679,-0.806825578212738,1.2048271894454956,-0.1579410433769226,-0.09608390927314758,0.37022796273231506,0.7955586910247803,0.4348228871822357,0.2023528814315796
210.0,-0.4038964509963989,-0.44047752022743225,1.2589184045791626,0.22122077643871307,0.6747143864631653,-0.9258394241333008,1.21981680393219,-0.17171970009803772,-0.09197365492582321,0.3370572030544281,0.8097529411315918,0.443424254655838,0.18457399308681488
211.0,-0.4097115099430084,-0.4139047861099243,1.2064099311828613,0.31282156705856323,0.645474374294281,-1.009482502937317,1.2299546003341675,-0.18063931167125702,-0.0903807058930397,0.3152967691421509,0.8181540369987488,0.44868019223213196,0.17291048169136047
212.0,-0.39603692293167114,-0.4689345955848694,1.3102307319641113,0.13209010660648346,0.7084529995918274,-0.840234637260437,1.210839867591858,-0.16142365336418152,-0.08999674022197723,0.35963699221611023,0.7997766137123108,0.43836358189582825,0.19711977243423462
213.0,-0.38664519786834717,-0.49341410398483276,1.3609739542007446,0.045222993940114975,0.7508893013000488,-0.757583498954773,1.200818419456482,-0.1500818431377411,-0.09196001291275024,0.38373878598213196,0.789088785648346,0.43136683106422424,0.2097763568162918
214.0,-0.37936097383499146,-0.509824812412262,1.392835021018982,-0.008551942184567451,0.7807446122169495,-0.7043197751045227,1.1948024034500122,-0.14194659888744354,-0.09154821932315826,0.39953288435935974,0.7812509536743164,0.42700615525245667,0.21837158501148224
215.0,-0.3700055480003357,-0.5283053517341614,1.4265687465667725,-0.06576148420572281,0.8176166415214539,-0.6445459127426147,1.1889652013778687,-0.13237762451171875,-0.08968207985162735,0.417788565158844,0.7715145945549011,0.42191973328590393,0.2284768521785736
216.0,-0.3527921140193939,-0.5522801280021667,1.4779939651489258,-0.1515166163444519,0.8855432271957397,-0.5541631579399109,1.1786401271820068,-0.11571814119815826,-0.09115898609161377,0.44812700152397156,0.7548779845237732,0.41180068254470825,0.2444619983434677
217.0,-0.34037235379219055,-0.5667127966880798,1.5097228288650513,-0.20479220151901245,0.933980405330658,-0.49592113494873047,1.1721471548080444,-0.10455282777547836,-0.09199930727481842,0.4684346616268158,0.7423617243766785,0.40511786937713623,0.2556317448616028
218.0,-0.3635675311088562,-0.5359651446342468,1.453307867050171,-0.11132004112005234,0.8494405150413513,-0.6027774810791016,1.1819908618927002,-0.1256411224603653,-0.09597796201705933,0.4326402544975281,0.764021098613739,0.41649681329727173,0.2358485907316208
219.0,-0.3745981752872467,-0.5188736319541931,1.4189298152923584,-0.053689464926719666,0.806334376335144,-0.663759171962738,1.1884456872940063,-0.13651898503303528,-0.09603752195835114,0.4127676486968994,0.7745165824890137,0.4229985475540161,0.22543109953403473
220.0,-0.3868198096752167,-0.49276190996170044,1.3690626621246338,0.030485117807984352,0.7573176622390747,-0.7483963370323181,1.1976838111877441,-0.14975859224796295,-0.0974888950586319,0.38746780157089233,0.7876384258270264,0.42985808849334717,0.21146270632743835
221.0,-0.3921383023262024,-0.46707233786582947,1.3173567056655884,0.14250841736793518,0.7513827681541443,-0.8420426845550537,1.2053207159042358,-0.15894237160682678,-0.0984145849943161,0.3711925148963928,0.8050432205200195,0.4202151596546173,0.19375446438789368
222.0,-0.39830172061920166,-0.44013261795043945,1.2613539695739746,0.2475922852754593,0.7327466607093811,-0.9347628355026245,1.2159245014190674,-0.1691437065601349,-0.09695900976657867,0.34965771436691284,0.8191059231758118,0.4182448089122772,0.17853917181491852
223.0,-0.39664167165756226,-0.41563406586647034,1.202450156211853,0.37802115082740784,0.7606521248817444,-1.0352599620819092,1.2265621423721313,-0.17463421821594238,-0.09228448569774628,0.33357974886894226,0.8398845195770264,0.3979206383228302,0.15804345905780792
224.0,-0.3379855453968048,-0.4279240667819977,1.1629568338394165,0.5511446595191956,1.0929207801818848,-1.004218578338623,1.2321096658706665,-0.14478135108947754,-0.07089149206876755,0.39011910557746887,0.8797339797019958,0.2484654039144516,0.1101822704076767
225.0,-0.37504899501800537,-0.4941219091415405,1.3605657815933228,0.09440743923187256,0.8324443697929382,-0.7666184306144714,1.1962050199508667,-0.14329753816127777,-0.09497092664241791,0.4045909345149994,0.7996342778205872,0.39592909812927246,0.20032821595668793
226.0,-0.371986448764801,-0.5173131823539734,1.4208778142929077,-0.04487529397010803,0.8270094394683838,-0.6651463508605957,1.185868740081787,-0.13476760685443878,-0.09987008571624756,0.4189600944519043,0.7765368223190308,0.41416463255882263,0.2234516739845276
227.0,-0.3567104637622833,-0.5284556150436401,1.43083918094635,-0.028275344520807266,0.8968028426170349,-0.6409176588058472,1.182547688484192,-0.12340615689754486,-0.09565375745296478,0.4417882561683655,0.7774665355682373,0.38918137550354004,0.2211487740278244
228.0,-0.2812712788581848,-0.46776700019836426,1.2256097793579102,0.5073254108428955,1.2848697900772095,-0.7294501066207886,1.212355613708496,-0.09576573967933655,-0.06501303613185883,0.5023643970489502,0.8397024273872375,0.1769740730524063,0.1058773621916771
229.0,-0.3476676344871521,-0.5534356236457825,1.4980618953704834,-0.18338575959205627,0.9161846041679382,-0.5256757140159607,1.1714420318603516,-0.11080071330070496,-0.1008378192782402,0.4611886143684387,0.7489438056945801,0.4051488935947418,0.24948474764823914
230.0,-0.3237592875957489,-0.5738534331321716,1.537606954574585,-0.24142129719257355,1.0033825635910034,-0.4423094689846039,1.1634272336959839,-0.09091893583536148,-0.0997980535030365,0.494771808385849,0.730730414390564,0.3894749581813812,0.26371046900749207
231.0,-0.333330899477005,-0.5698378682136536,1.5278916358947754,-0.2358243465423584,0.9644985795021057,-0.46527087688446045,1.1667900085449219,-0.09824801236391068,-0.09813444316387177,0.48070570826530457,0.7352136373519897,0.39998573064804077,0.26152321696281433
232.0,-0.3181833028793335,-0.5830663442611694,1.551803469657898,-0.27518391609191895,1.016213059425354,-0.41263532638549805,1.162819743156433,-0.08583405613899231,-0.09602239727973938,0.49996528029441833,0.7223326563835144,0.39285245537757874,0.2719143033027649
233.0,-0.30404192209243774,-0.5928859114646912,1.5727287530899048,-0.31012243032455444,1.0650441646575928,-0.36628854274749756,1.158645749092102,-0.07454022020101547,-0.09585490822792053,0.5174301266670227,0.7097835540771484,0.386249840259552,0.28157496452331543
234.0,-0.29117706418037415,-0.6005300879478455,1.586490511894226,-0.3334038257598877,1.108182430267334,-0.3287014067173004,1.1565054655075073,-0.06487810611724854,-0.0946081355214119,0.5321418642997742,0.6989436149597168,0.3801669776439667,0.28944075107574463
235.0,-0.3098398447036743,-0.5803547501564026,1.5431078672409058,-0.23139306902885437,1.0563122034072876,-0.4158323109149933,1.1613173484802246,-0.08102200925350189,-0.09741605818271637,0.5134389996528625,0.7260109186172485,0.3735140562057495,0.2641512155532837
236.0,-0.2672834098339081,-0.5591796040534973,1.4381495714187622,0.08381496369838715,1.2370187044143677,-0.4399631917476654,1.1737765073776245,-0.060610003769397736,-0.07823139429092407,0.5673965811729431,0.7522000670433044,0.26748207211494446,0.2017659991979599
237.0,-0.23602035641670227,-0.47941842675209045,1.2437165975570679,0.5149209499359131,1.4038691520690918,-0.5056039094924927,1.202235221862793,-0.05604114755988121,-0.06189965456724167,0.5875210165977478,0.7918701171875,0.1338084191083908,0.09927797317504883
238.0,-0.22000421583652496,-0.43140909075737,1.1522572040557861,0.714196503162384,1.495410680770874,-0.503903865814209,1.2110779285430908,-0.05295342206954956,-0.058216869831085205,0.5961063504219055,0.7991558909416199,0.06212567165493965,0.04634077847003937
239.0,-0.22764259576797485,-0.43082982301712036,1.1470460891723633,0.7039461731910706,1.4716167449951172,-0.5780302882194519,1.2163219451904297,-0.05976497009396553,-0.05783301591873169,0.5676511526107788,0.8183403611183167,0.07391037791967392,0.05126877874135971
240.0,-0.2488366663455963,-0.46686550974845886,1.2188814878463745,0.5533609986305237,1.3820613622665405,-0.6041123270988464,1.2080068588256836,-0.06970145553350449,-0.06154630333185196,0.5532553791999817,0.8172098398208618,0.13372012972831726,0.09052923321723938
241.0,-0.27226778864860535,-0.49640512466430664,1.2865866422653198,0.4019448459148407,1.2832121849060059,-0.6193212866783142,1.1998885869979858,-0.08088409900665283,-0.06725671142339706,0.5362371802330017,0.8111405372619629,0.1947452425956726,0.1287441998720169
242.0,-0.23167024552822113,-0.6099433302879333,1.7191376686096191,-2.793088674545288,-1.4892315864562988,1.3402972221374512,1.223550796508789,-0.06920898705720901,-0.057189010083675385,-0.0017201730515807867,0.9975726008415222,0.026689929887652397,0.06429380923509598
243.0,-0.22834742069244385,-0.6137674450874329,1.7373946905136108,-2.8120388984680176,-1.494297981262207,1.343788504600525,1.2131472826004028,-0.06347337365150452,-0.05837327241897583,-0.0015793697675690055,0.9975425601005554,0.02393212728202343,0.06583153456449509
244.0,-0.23385800421237946,-0.6142734289169312,1.7315235137939453,-2.7913403511047363,-1.4975512027740479,1.3379417657852173,1.214606523513794,-0.0711074247956276,-0.05854165554046631,-0.0013894675066694617,0.9979978799819946,0.023644743487238884,0.05864669010043144
245.0,-0.24011388421058655,-0.6128095388412476,1.7253479957580566,-2.7835206985473633,-1.4921373128890991,1.33157217502594,1.2176164388656616,-0.0786985531449318,-0.058539822697639465,-0.0015248184790834785,0.9979740381240845,0.02627061866223812,0.05792514607310295
246.0,-0.24002249538898468,-0.6087145209312439,1.7240923643112183,-2.8096861839294434,-1.474351406097412,2.481860399246216,1.2214679718017578,-0.07671363651752472,-0.05801314115524292,0.5401257872581482,0.8379434943199158,0.06572643667459488,0.04236627370119095
247.0,-0.2519606351852417,-0.5980930924415588,1.7447493076324463,-2.91963267326355,-1.4067468643188477,2.4688477516174316,1.2174150943756104,-0.0798264741897583,-0.059607118368148804,0.5323055386543274,0.8365945219993591,0.10922734439373016,0.06949880719184875
248.0,-0.24544212222099304,-0.6060961484909058,1.708473801612854,-2.786299705505371,-1.4680603742599487,2.4072933197021484,1.2293872833251953,-0.08442896604537964,-0.05737990140914917,0.5109774470329285,0.8562048077583313,0.06548408418893814,0.03908047080039978
249.0,-0.24589379131793976,-0.608445405960083,1.719416856765747,-2.7966954708099365,-1.4722011089324951,2.4355175495147705,1.222883939743042,-0.08401709049940109,-0.05826732516288757,0.5232901573181152,0.8487972021102905,0.06432696431875229,0.0396580807864666
250.0,-0.2483072578907013,-0.6102526783943176,1.7143516540527344,-2.7691519260406494,-1.4854037761688232,1.3231645822525024,1.2229479551315308,-0.08912952989339828,-0.05854447931051254,-0.0016737966798245907,0.997979998588562,0.02977961115539074,0.05609259009361267
251.0,-0.2529526352882385,-0.6086175441741943,1.7072114944458008,-2.7595086097717285,-1.4822659492492676,1.3183774948120117,1.2263280153274536,-0.09529554098844528,-0.05855850875377655,-0.0017268825322389603,0.9980069398880005,0.031551845371723175,0.05462249740958214
252.0,-0.26119446754455566,-0.6051656007766724,1.6943414211273193,-2.7454113960266113,-1.4736011028289795,1.309887409210205,1.2327353954315186,-0.10595518350601196,-0.05853438377380371,-0.0019321622094139457,0.9979084134101868,0.035880353301763535,0.05373750999569893
253.0,-0.26533839106559753,-0.6029157042503357,1.6848492622375488,-2.732806921005249,-1.4712814092636108,1.3055636882781982,1.2372205257415771,-0.11203451454639435,-0.058553360402584076,-0.0019381148740649223,0.9979620575904846,0.03747681900858879,0.05160963907837868
254.0,-0.26087620854377747,-0.6020498871803284,1.6940534114837646,-2.7674782276153564,-1.4530643224716187,2.300537347793579,1.235815167427063,-0.10311524569988251,-0.05802808701992035,0.47112220525741577,0.878558337688446,0.06927569210529327,0.037148721516132355
255.0,-0.2572322189807892,-0.6044729351997375,1.7024521827697754,-2.7743704319000244,-1.4594721794128418,2.332681179046631,1.231175184249878,-0.09830964356660843,-0.05825510621070862,0.4837948977947235,0.8718255162239075,0.06695131212472916,0.0371527373790741
256.0,-0.2566269338130951,-0.6016639471054077,1.7090740203857422,-2.8113133907318115,-1.4343948364257812,2.3484864234924316,1.2310906648635864,-0.09355700016021729,-0.058022573590278625,0.4882314205169678,0.8675276637077332,0.08279361575841904,0.04659498855471611
257.0,-0.2703135013580322,-0.5949947834014893,1.7158794403076172,-2.860462188720703,-1.3830194473266602,2.3106532096862793,1.2305763959884644,-0.10252413153648376,-0.05940327048301697,0.47312086820602417,0.872002124786377,0.11037563532590866,0.05988634005188942
258.0,-0.29176855087280273,-0.5799115896224976,1.7324578762054443,-2.963007688522339,-1.2844862937927246,2.284083127975464,1.2262687683105469,-0.11292809247970581,-0.0632278323173523,0.45835015177726746,0.8693975806236267,0.16326268017292023,0.08607279509305954
259.0,-0.27036139369010925,-0.5961653590202332,1.6782478094100952,-2.7599117755889893,-1.4240695238113403,2.20456600189209,1.2451367378234863,-0.11310039460659027,-0.05785706639289856,0.4314989149570465,0.8975554704666138,0.08162787556648254,0.039242520928382874
260.0,-0.27064913511276245,-0.5945163369178772,1.6595410108566284,-2.7207834720611572,-1.4450393915176392,2.1673073768615723,1.2526715993881226,-0.11888504773378372,-0.05736526846885681,0.4164922535419464,0.905978262424469,0.06882414221763611,0.031639520078897476
261.0,-0.2699333429336548,-0.5991821885108948,1.6761114597320557,-2.732701539993286,-1.4541767835617065,2.2027273178100586,1.2428823709487915,-0.11670847237110138,-0.05836368352174759,0.4324435591697693,0.8987794518470764,0.06490609794855118,0.03122926689684391
262.0,-0.2735113799571991,-0.5971682667732239,1.6673862934112549,-2.720479726791382,-1.4536609649658203,1.296999216079712,1.2468162775039673,-0.12229571491479874,-0.05840057134628296,-0.002467626240104437,0.9974972605705261,0.045595064759254456,0.05398502200841904
263.0,-0.2780904769897461,-0.5941600203514099,1.653866171836853,-2.700439691543579,-1.4542222023010254,1.2921698093414307,1.2527713775634766,-0.12995687127113342,-0.058468177914619446,-0.0023040713276714087,0.9976909160614014,0.04638715833425522,0.049555763602256775
264.0,-0.2812931537628174,-0.5905288457870483,1.645447850227356,-2.70001482963562,-1.437467098236084,2.081245183944702,1.2582283020019531,-0.13299725949764252,-0.05828887224197388,0.38220706582069397,0.9209305047988892,0.07036963850259781,0.02920500375330448
265.0,-0.2845061719417572,-0.5880307555198669,1.6312288045883179,-2.6739752292633057,-1.4493237733840942,1.285357117652893,1.2636040449142456,-0.1406288743019104,-0.05847705900669098,-0.002285568742081523,0.997706413269043,0.04981030523777008,0.04578021541237831
266.0,-0.2759424149990082,-0.5909570455551147,1.645594835281372,-2.702605724334717,-1.4377062320709229,2.0984115600585938,1.2592741250991821,-0.12640069425106049,-0.057396598160266876,0.387539267539978,0.9186493754386902,0.0707518458366394,0.02984720841050148
267.0,-0.3074083924293518,-0.5778989791870117,1.6745411157608032,-2.824733257293701,-1.2739607095718384,2.0676681995391846,1.2517558336257935,-0.13915982842445374,-0.06190504878759384,0.3751981854438782,0.9118426442146301,0.1541053205728531,0.06341011077165604
268.0,-0.27699971199035645,-0.5878225564956665,1.628987431526184,-2.676100492477417,-1.4505234956741333,1.29300856590271,1.266473412513733,-0.13185666501522064,-0.05720074474811554,-0.0023201676085591316,0.997678279876709,0.04900810122489929,0.04723260924220085
269.0,-0.3091983199119568,-0.5763415694236755,1.6485320329666138,-2.7680776119232178,-1.2876126766204834,1.9936834573745728,1.2628705501556396,-0.14714987576007843,-0.06104689836502075,0.3454121947288513,0.9257563352584839,0.1441313475370407,0.05377735570073128
270.0,-0.39008983969688416,-0.500511884689331,1.68743896484375,-3.064657688140869,-0.8252416849136353,2.007875442504883,1.240218997001648,-0.17942535877227783,-0.08565233647823334,0.3189127743244171,0.8651486039161682,0.3631681799888611,0.13387177884578705
271.0,-0.41813743114471436,-0.45063257217407227,1.6618014574050903,-3.1355485916137695,-0.6292533874511719,1.9990726709365845,1.2410300970077515,-0.19498348236083984,-0.10038702189922333,0.28757309913635254,0.8326873779296875,0.4472929537296295,0.15447504818439484
272.0,-0.3038186728954315,-0.5757421255111694,1.6159803867340088,-2.693457841873169,-1.335687518119812,1.9115887880325317,1.2759287357330322,-0.15171930193901062,-0.05932999402284622,0.3097178339958191,0.9426923394203186,0.11792062222957611,0.03874235600233078
273.0,-0.28649941086769104,-0.582400381565094,1.6143772602081299,-2.6639535427093506,-1.4312368631362915,1.9856029748916626,1.2735729217529297,-0.14328286051750183,-0.057802118360996246,0.3405121862888336,0.9371572732925415,0.0715031623840332,0.025980373844504356
274.0,-0.29037079215049744,-0.5807319283485413,1.6050972938537598,-2.643921136856079,-1.4435293674468994,1.2790319919586182,1.276078701019287,-0.15109160542488098,-0.05847164988517761,-0.0022453321143984795,0.9976781606674194,0.05391617864370346,0.041548170149326324
275.0,-0.29091891646385193,-0.5771108269691467,1.5964938402175903,-2.6440024375915527,-1.4244771003723145,1.924753189086914,1.2821153402328491,-0.15058334171772003,-0.05794452130794525,0.3140522241592407,0.9462093114852905,0.07387733459472656,0.024520302191376686
276.0,-0.32726186513900757,-0.5642570853233337,1.621984839439392,-2.7406132221221924,-1.2125003337860107,1.8813879489898682,1.2756303548812866,-0.16362780332565308,-0.0633629560470581,0.2985670268535614,0.9360380172729492,0.1774459183216095,0.056599732488393784
277.0,-0.30265793204307556,-0.5714570879936218,1.5910391807556152,-2.6536664962768555,-1.3577909469604492,1.86204993724823,1.2868670225143433,-0.15708251297473907,-0.058687783777713776,0.2875909209251404,0.9513217806816101,0.10606712847948074,0.032064806669950485
278.0,-0.2910562753677368,-0.570669949054718,1.57004714012146,-2.609731912612915,-1.4338326454162598,1.8529425859451294,1.2944189310073853,-0.15594322979450226,-0.05742107331752777,0.28067782521247864,0.9571573734283447,0.06832636147737503,0.020036092028021812
279.0,-0.2936963140964508,-0.5752154588699341,1.5863604545593262,-2.623826026916504,-1.4399604797363281,1.2754218578338623,1.2850990295410156,-0.15764610469341278,-0.05846507102251053,-0.0022060340270400047,0.9976407885551453,0.05647645890712738,0.038968976587057114
280.0,-0.29588302969932556,-0.5708580613136292,1.5705218315124512,-2.6043457984924316,-1.4449223279953003,1.273218035697937,1.2921147346496582,-0.16349433362483978,-0.05855654180049896,-0.0019114165334030986,0.9978756308555603,0.055194154381752014,0.03455720841884613
281.0,-0.29749539494514465,-0.5662456750869751,1.5556013584136963,-2.589153528213501,-1.4391440153121948,1.2713069915771484,1.2994827032089233,-0.1669929474592209,-0.05850055068731308,-0.0019485350931063294,0.9977278709411621,0.05860835313796997,0.03317117318511009
282.0,-0.29786285758018494,-0.5636723041534424,1.550047755241394,-2.590061664581299,-1.4159607887268066,1.7809908390045166,1.3038626909255981,-0.1651304066181183,-0.05803077667951584,0.24928779900074005,0.9651978611946106,0.07653731852769852,0.019767779856920242
283.0,-0.2946057915687561,-0.559088945388794,1.531348705291748,-2.567342519760132,-1.4310885667800903,1.7434964179992676,1.312697410583496,-0.1658153384923935,-0.0573897659778595,0.23012655973434448,0.9705792665481567,0.06892445683479309,0.016342144459486008
284.0,-0.2996154725551605,-0.5585793852806091,1.5304806232452393,-2.562490940093994,-1.4407731294631958,1.2690644264221191,1.3112050294876099,-0.17373988032341003,-0.05854657292366028,-0.0016988645074889064,0.9978374242782593,0.059123437851667404,0.028672054409980774
285.0,-0.30171075463294983,-0.5549423694610596,1.5213439464569092,-2.557140827178955,-1.410784125328064,1.6953327655792236,1.316943883895874,-0.17359188199043274,-0.05824697017669678,0.2100478857755661,0.974368691444397,0.07872409373521805,0.016970811411738396
286.0,-0.3007304072380066,-0.5522539019584656,1.5101714134216309,-2.541100263595581,-1.4388482570648193,1.2677539587020874,1.3207794427871704,-0.17792309820652008,-0.05853557586669922,-0.0015617136377841234,0.9978042244911194,0.06110626086592674,0.025501225143671036
287.0,-0.3019028902053833,-0.5469633936882019,1.4942655563354492,-2.525524854660034,-1.4204704761505127,1.6203453540802002,1.3289780616760254,-0.17914961278438568,-0.058340005576610565,0.1740536242723465,0.98186194896698,0.07402876764535904,0.013123000971972942
288.0,-0.3016686737537384,-0.5411001443862915,1.475565791130066,-2.5062789916992188,-1.435181975364685,1.2665133476257324,1.3371384143829346,-0.1837175488471985,-0.05850288271903992,-0.0013385823694989085,0.9977009296417236,0.0645177811384201,0.020699793472886086
289.0,-0.29924923181533813,-0.5387676358222961,1.4673893451690674,-2.498432159423828,-1.4207860231399536,1.5641995668411255,1.3421882390975952,-0.1796029806137085,-0.05768980085849762,0.14543123543262482,0.986526370048523,0.07413525879383087,0.010928831994533539
290.0,-0.30170878767967224,-0.5363284349441528,1.4608529806137085,-2.4913108348846436,-1.4357415437698364,1.2664361000061035,1.3439280986785889,-0.1859760731458664,-0.05851122736930847,-0.0011874178890138865,0.9977182149887085,0.06499837338924408,0.018226739019155502
291.0,-0.3009507358074188,-0.5315832495689392,1.4466191530227661,-2.4779975414276123,-1.4426310062408447,1.267425537109375,1.350434422492981,-0.1880365014076233,-0.05858738720417023,-0.0009566984954290092,0.99793940782547,0.062300488352775574,0.015324553474783897
292.0,-0.3013755679130554,-0.5301234126091003,1.441892385482788,-2.4711129665374756,-1.4110811948776245,1.498907208442688,1.353666067123413,-0.18459463119506836,-0.05809058994054794,0.11457864195108414,0.9901897311210632,0.0794452503323555,0.009192914701998234
293.0,-0.30771151185035706,-0.5258221626281738,1.429180383682251,-2.446685552597046,-1.3582741022109985,1.441262125968933,1.3589444160461426,-0.18682438135147095,-0.05851653218269348,0.0899115800857544,0.9901931881904602,0.10648881644010544,0.009669403545558453
294.0,-0.36561399698257446,-0.5041430592536926,1.416114091873169,-2.3650386333465576,-1.0101211071014404,1.3519350290298462,1.3560913801193237,-0.2160641849040985,-0.07197891175746918,0.08656002581119537,0.9555230736732483,0.28077757358551025,0.025435402989387512
295.0,-0.3548804521560669,-0.5174404382705688,1.4487683773040771,-2.4366438388824463,-1.080619215965271,1.432399034500122,1.3460265398025513,-0.2069699764251709,-0.06828682124614716,0.11264203488826752,0.9630635380744934,0.24292658269405365,0.028413228690624237
296.0,-0.320035845041275,-0.53271484375,1.4603711366653442,-2.480473279953003,-1.291223168373108,1.5057262182235718,1.3449559211730957,-0.18914981186389923,-0.060179561376571655,0.12713497877120972,0.9820111393928528,0.13845476508140564,0.01792488992214203
297.0,-0.35983628034591675,-0.5221997499465942,1.4779685735702515,-2.487903118133545,-1.0560309886932373,1.4923896789550781,1.3344383239746094,-0.20611806213855743,-0.06927703320980072,0.14047740399837494,0.956632137298584,0.2524806261062622,0.0370757170021534
298.0,-0.3029734790325165,-0.5423495173454285,1.4803458452224731,-2.5107617378234863,-1.3898916244506836,1.5817396640777588,1.3365854024887085,-0.17813482880592346,-0.05785227566957474,0.15558777749538422,0.9836829900741577,0.0892251506447792,0.014112618751823902
299.0,-0.3447364568710327,-0.5342077612876892,1.5016840696334839,-2.5368459224700928,-1.1437194347381592,1.567352056503296,1.3266392946243286,-0.19488945603370667,-0.06552527844905853,0.16611097753047943,0.9630663990974426,0.20883671939373016,0.0360204353928566
300.0,-0.32818713784217834,-0.5447688698768616,1.51431405544281,-2.554450035095215,-1.242466688156128,1.6145236492156982,1.3216420412063599,-0.18512605130672455,-0.06169648468494415,0.18126405775547028,0.9697357416152954,0.1607876867055893,0.03005461022257805
301.0,-0.3400106430053711,-0.5447078943252563,1.5389337539672852,-2.6002166271209717,-1.1715258359909058,1.6611202955245972,1.3113939762115479,-0.1870722621679306,-0.0644054263830185,0.20582881569862366,0.9581344723701477,0.19459037482738495,0.041802387684583664
302.0,-0.41835254430770874,-0.484607994556427,1.5299569368362427,-2.572451114654541,-0.6619455218315125,1.515424370765686,1.3037022352218628,-0.22645437717437744,-0.09423410147428513,0.17157045006752014,0.8818143606185913,0.43119436502456665,0.08389544486999512
303.0,-0.42752888798713684,-0.4705987572669983,1.4944257736206055,-2.4528026580810547,-0.5730538368225098,1.4024792909622192,1.313872218132019,-0.23528936505317688,-0.1005759909749031,0.14681963622570038,0.8641889095306396,0.4744719862937927,0.08060944825410843
304.0,-0.42927655577659607,-0.4689509868621826,1.5510112047195435,-2.647487163543701,-0.5662311911582947,1.5644339323043823,1.2925596237182617,-0.2273942232131958,-0.10113649815320969,0.18522410094738007,0.8566888570785522,0.47055861353874207,0.10173913836479187
305.0,-0.3694847524166107,-0.5328930616378784,1.565574049949646,-2.65730881690979,-0.9960790276527405,1.6695975065231323,1.2983481884002686,-0.1973181962966919,-0.07224999368190765,0.2149960994720459,0.9342601299285889,0.27724429965019226,0.06380069255828857
306.0,-0.3615761399269104,-0.5402395725250244,1.5832217931747437,-2.6901769638061523,-1.0383729934692383,1.7204643487930298,1.2915832996368408,-0.1898452788591385,-0.07026445865631104,0.234042227268219,0.9352846741676331,0.2575157582759857,0.0644397959113121
307.0,-0.35873323678970337,-0.5439375042915344,1.5995979309082031,-2.7221455574035645,-1.0508205890655518,1.7616230249404907,1.2847254276275635,-0.1851746141910553,-0.06981442123651505,0.25008299946784973,0.932410478591919,0.25199466943740845,0.06758780777454376
308.0,-0.3620806932449341,-0.5421751737594604,1.6256275177001953,-2.7918860912323,-1.0241141319274902,1.8311920166015625,1.273701548576355,-0.1817416250705719,-0.07148055732250214,0.2764992415904999,0.9201281666755676,0.2655980587005615,0.0798124298453331
309.0,-0.42352500557899475,-0.45731979608535767,1.633711338043213,-3.0068459510803223,-0.5900208950042725,1.8802353143692017,1.2561044692993164,-0.2051423043012619,-0.09791368246078491,0.25651881098747253,0.8384878039360046,0.4597334861755371,0.14064639806747437
310.0,-0.4268511235713959,-0.46294519305229187,1.60482919216156,-2.869375467300415,-0.5755580067634583,1.7569489479064941,1.2698904275894165,-0.21455346047878265,-0.09953434765338898,0.22870060801506042,0.8464710712432861,0.46417132019996643,0.12541039288043976
311.0,-0.42789357900619507,-0.4660990536212921,1.585498332977295,-2.785022258758545,-0.5704784989356995,1.6833264827728271,1.2785989046096802,-0.2194840908050537,-0.09989507496356964,0.21206994354724884,0.8507823944091797,0.46655240654945374,0.11629501730203629
312.0,-0.4258548617362976,-0.46960151195526123,1.5946382284164429,-2.818115472793579,-0.5712755918502808,1.7158634662628174,1.2760564088821411,-0.21559487283229828,-0.09448903053998947,0.2186010777950287,0.8488508462905884,0.4661090075969696,0.12003514915704727
313.0,-0.4271182417869568,-0.47520408034324646,1.532787561416626,-2.573775291442871,-0.5664734244346619,1.5061097145080566,1.3011239767074585,-0.22830188274383545,-0.09551787376403809,0.17084118723869324,0.8595017194747925,0.47249314188957214,0.0939163863658905
314.0,-0.4255717396736145,-0.4761762320995331,1.4935680627822876,-2.442333698272705,-0.5718727111816406,1.39784836769104,1.3156474828720093,-0.23320618271827698,-0.09428119659423828,0.14491286873817444,0.8641359210014343,0.47530636191368103,0.07970736920833588
315.0,-0.4264494776725769,-0.4756436049938202,1.5621812343597412,-2.681675434112549,-0.5650452375411987,1.599615454673767,1.290417194366455,-0.2223682850599289,-0.09261413663625717,0.19200633466243744,0.8548574447631836,0.4703122079372406,0.10563505440950394
316.0,-0.42490100860595703,-0.4813016951084137,1.5243189334869385,-2.536210298538208,-0.5660461783409119,1.478926658630371,1.3058795928955078,-0.22730179131031036,-0.08904725313186646,0.16357868909835815,0.8605722188949585,0.4738612771034241,0.0900721624493599
317.0,-0.4245304763317108,-0.47730639576911926,1.581650733947754,-2.7558672428131104,-0.5668068528175354,1.6664029359817505,1.283495306968689,-0.21673089265823364,-0.08829434216022491,0.20647402107715607,0.851448655128479,0.4685044288635254,0.11361107230186462
318.0,-0.4247080981731415,-0.48109278082847595,1.5603628158569336,-2.668468952178955,-0.5634101629257202,1.5925624370574951,1.2927181720733643,-0.22083911299705505,-0.08670484274625778,0.18955345451831818,0.8550207614898682,0.4712679088115692,0.10447753965854645
319.0,-0.42293238639831543,-0.4876699447631836,1.5343369245529175,-2.561753034591675,-0.5633602738380432,1.5049304962158203,1.3038647174835205,-0.2233801782131195,-0.08181612938642502,0.16869857907295227,0.8591517806053162,0.4740617573261261,0.09308430552482605
320.0,-0.422821968793869,-0.48586249351501465,1.5073295831680298,-2.473540782928467,-0.5673087239265442,1.4302880764007568,1.3132418394088745,-0.22780239582061768,-0.08386054635047913,0.15138037502765656,0.8624817728996277,0.4756464958190918,0.08348412811756134
321.0,-0.4205464720726013,-0.4838016927242279,1.4565502405166626,-2.3178935050964355,-0.5777458548545837,1.3033242225646973,1.3304637670516968,-0.23324108123779297,-0.08274126052856445,0.12027785181999207,0.8669942617416382,0.4789973199367523,0.06645113974809647
322.0,-0.41819289326667786,-0.47850632667541504,1.4176878929138184,-2.2133617401123047,-0.5911647081375122,1.2180864810943604,1.3423274755477905,-0.23638921976089478,-0.0837060734629631,0.09805028140544891,0.869989275932312,0.48018333315849304,0.05411803349852562
323.0,-0.4153592884540558,-0.4726492464542389,1.3799270391464233,-2.121570348739624,-0.6043103933334351,1.1458081007003784,1.3538134098052979,-0.23860463500022888,-0.08312464505434036,0.07819080352783203,0.8718487620353699,0.48156067728996277,0.04318824037909508
324.0,-0.42365044355392456,-0.47990840673446655,1.4813251495361328,-2.3987624645233154,-0.5731419324874878,1.3652077913284302,1.320946455001831,-0.2329830378293991,-0.08936331421136856,0.1363871991634369,0.8651401400566101,0.4767415225505829,0.07515712082386017
325.0,-0.421418696641922,-0.4764955937862396,1.4392318725585938,-2.276236057281494,-0.584881067276001,1.2651022672653198,1.334473967552185,-0.23695307970046997,-0.08933582901954651,0.11113489419221878,0.8686840534210205,0.47883641719818115,0.06125981733202934
326.0,-0.4184007942676544,-0.4695720672607422,1.3943506479263306,-2.1639063358306885,-0.6002442836761475,1.1754292249679565,1.3483291864395142,-0.2402191162109375,-0.08977573364973068,0.08704184740781784,0.8714665174484253,0.4802798330783844,0.04797022417187691
327.0,-0.41807886958122253,-0.4601428508758545,1.3672759532928467,-2.1074020862579346,-0.6108661890029907,1.1279726028442383,1.3553800582885742,-0.24390403926372528,-0.09511370956897736,0.07426374405622482,0.872817873954773,0.4806261956691742,0.04089410603046417
328.0,-0.42346855998039246,-0.469661146402359,1.436178207397461,-2.2781338691711426,-0.5870001316070557,1.2625001668930054,1.3340191841125488,-0.239901602268219,-0.09666205197572708,0.11123812198638916,0.8690854907035828,0.4780919551849365,0.06119311973452568
329.0,-0.4255346357822418,-0.47207435965538025,1.4673429727554321,-2.366365671157837,-0.5777530074119568,1.3337271213531494,1.3238136768341064,-0.2373962104320526,-0.09722504019737244,0.12959469854831696,0.8665159344673157,0.4767303764820099,0.07129901647567749
330.0,-0.42138370871543884,-0.4607476592063904,1.3931399583816528,-2.1739912033081055,-0.6022452712059021,1.1777976751327515,1.3468220233917236,-0.24407966434955597,-0.09983570873737335,0.08866894245147705,0.8718802332878113,0.4791536033153534,0.048729222267866135
331.0,-0.419266939163208,-0.45310014486312866,1.3578470945358276,-2.093876600265503,-0.6153221130371094,1.1139779090881348,1.3569989204406738,-0.24679836630821228,-0.10130009055137634,0.07082271575927734,0.8734002709388733,0.4802495241165161,0.03894271329045296
332.0,-0.41592514514923096,-0.44862744212150574,1.3271404504776,-2.0246713161468506,-0.6276665329933167,1.0613592863082886,1.3662508726119995,-0.24720019102096558,-0.09896820783615112,0.054922010749578476,0.8743767142295837,0.4811812937259674,0.03022431954741478
333.0,-0.41148754954338074,-0.44076499342918396,1.2878985404968262,-1.945057988166809,-0.6449995040893555,1.0013409852981567,1.3777295351028442,-0.24740535020828247,-0.09715849906206131,0.03563767671585083,0.8754099011421204,0.4816669225692749,0.019608518108725548
334.0,-0.41394853591918945,-0.45345455408096313,1.3259023427963257,-2.0137717723846436,-0.62777179479599,1.055848479270935,1.367517352104187,-0.24485249817371368,-0.09292345494031906,0.05273186415433884,0.8741974830627441,0.48182302713394165,0.029063716530799866
335.0,-0.41007134318351746,-0.44821658730506897,1.2948036193847656,-1.9489941596984863,-0.6413660645484924,1.0075960159301758,1.3767757415771484,-0.24452100694179535,-0.09024745225906372,0.03718573600053787,0.87495356798172,0.4823416769504547,0.020499635487794876
336.0,-0.4112844169139862,-0.45764702558517456,1.3196614980697632,-1.9920945167541504,-0.6299937963485718,1.0424408912658691,1.3702932596206665,-0.2423567771911621,-0.0862051323056221,0.04801299795508385,0.8741381168365479,0.482571005821228,0.026505745947360992
337.0,-0.4055754244327545,-0.43802502751350403,1.2525354623794556,-1.8692340850830078,-0.6601656675338745,0.9479101896286011,1.3885765075683594,-0.2448420524597168,-0.08904021978378296,0.01738409884274006,0.875436007976532,0.4829261600971222,0.009589777328073978
338.0,-0.4032215178012848,-0.4265820384025574,1.2200044393539429,-1.8158528804779053,-0.6749993562698364,0.9068529009819031,1.3968877792358398,-0.2464146465063095,-0.09175027161836624,0.0034710532054305077,0.8755709528923035,0.483073353767395,0.00191506277769804
339.0,-0.4057868421077728,-0.42425063252449036,1.2282443046569824,-1.837515950202942,-0.671811580657959,0.9202122092247009,1.3939241170883179,-0.24866370856761932,-0.09766404330730438,0.008441987447440624,0.8759480714797974,0.48230916261672974,0.004648276139050722
340.0,-0.3995243012905121,-0.4073629677295685,1.172208547592163,-1.7464945316314697,-0.6991677284240723,0.8529916405677795,1.4087786674499512,-0.2484559416770935,-0.09783388674259186,-0.01645425334572792,0.8759398460388184,0.48205462098121643,-0.00905524380505085
341.0,-0.3947615623474121,-0.39337342977523804,1.130215048789978,-1.6841418743133545,-0.7203172445297241,0.8074210286140442,1.4195184707641602,-0.24803540110588074,-0.09858224540948868,-0.03450462594628334,0.8755366206169128,0.4815443158149719,-0.018977509811520576
342.0,-0.38951095938682556,-0.38346171379089355,1.0934205055236816,-1.6277782917022705,-0.7383101582527161,0.7685801982879639,1.42910635471344,-0.24598757922649384,-0.09543493390083313,-0.05057287961244583,0.874489963054657,0.4815952777862549,-0.027851274237036705
343.0,-0.3881877064704895,-0.37153324484825134,1.0693343877792358,-1.600035309791565,-0.7504290342330933,0.7469501495361328,1.4343838691711426,-0.24749061465263367,-0.100285604596138,-0.0594702884554863,0.8740893006324768,0.4809992015361786,-0.03272567689418793
344.0,-0.3916946351528168,-0.4270170331001282,1.219505786895752,-1.9083970785140991,-0.7763645648956299,0.9698519110679626,1.4051471948623657,-0.24379906058311462,-0.09271795302629471,-0.0070692263543605804,0.9025899767875671,0.43043002486228943,-0.003371195634827018
345.0,-0.3405965268611908,-0.4807368516921997,1.3118664026260376,-2.2327558994293213,-1.1254267692565918,1.1933234930038452,1.3986071348190308,-0.2119055837392807,-0.06744971871376038,0.0007374853594228625,0.9719999432563782,0.23497986793518066,0.0001782862382242456
346.0,-0.36654239892959595,-0.47598227858543396,1.3222135305404663,-2.1874775886535645,-0.9776567816734314,1.1748383045196533,1.3867777585983276,-0.2246834635734558,-0.07519805431365967,0.019492117688059807,0.9504419565200806,0.31022557616233826,0.006362254731357098
347.0,-0.3397286832332611,-0.4994468688964844,1.3699524402618408,-2.32830810546875,-1.1490583419799805,1.300371766090393,1.3785169124603271,-0.2070358693599701,-0.06590160727500916,0.045635633170604706,0.9752936959266663,0.2159111499786377,0.01010284572839737
348.0,-0.3661779463291168,-0.4939699172973633,1.3811845779418945,-2.3012688159942627,-0.9987540245056152,1.2867560386657715,1.3682360649108887,-0.2199476659297943,-0.07298827916383743,0.06133851781487465,0.9547160267829895,0.2905282974243164,0.01866583526134491
349.0,-0.30139249563217163,-0.5128335356712341,1.387107014656067,-2.4023566246032715,-1.3848638534545898,1.3435940742492676,1.377612829208374,-0.18788957595825195,-0.05803506076335907,0.03889913484454155,0.9946963787078857,0.09514297544956207,0.0037207130808383226
350.0,-0.29725438356399536,-0.5219793319702148,1.4159777164459229,-2.4458658695220947,-1.4238711595535278,1.442197322845459,1.3658236265182495,-0.18454888463020325,-0.05761643499135971,0.08468901365995407,0.9936559200286865,0.07373037934303284,0.006284018978476524
351.0,-0.3001340925693512,-0.5200381278991699,1.4120975732803345,-2.4435791969299316,-1.4365307092666626,1.2679227590560913,1.3665050268173218,-0.19088299572467804,-0.05850979685783386,-0.0007200565887615085,0.9977010488510132,0.06690903753042221,0.010736983269453049
352.0,-0.299222469329834,-0.514488697052002,1.3955436944961548,-2.4266865253448486,-1.4346286058425903,1.2687320709228516,1.3740832805633545,-0.19161708652973175,-0.05847717821598053,-0.0005615288973785937,0.9976044297218323,0.06869202107191086,0.008155005052685738
353.0,-0.29693275690078735,-0.5051283240318298,1.3686290979385376,-2.401845932006836,-1.438568115234375,1.2711775302886963,1.3863753080368042,-0.19272825121879578,-0.05850312113761902,-0.0002679965109564364,0.9976844787597656,0.06789809465408325,0.00393790053203702
354.0,-0.29371780157089233,-0.5091437697410583,1.377927303314209,-2.4091084003448486,-1.4295798540115356,1.357526183128357,1.383273959159851,-0.18571144342422485,-0.057476408779621124,0.04118206724524498,0.9965425133705139,0.0720982775092125,0.002979457611218095
355.0,-0.30061787366867065,-0.5020454525947571,1.3560789823532104,-2.3696115016937256,-1.3768367767333984,1.291516661643982,1.3912583589553833,-0.1897343248128891,-0.05824985355138779,0.01328759454190731,0.9948368072509766,0.10060624033212662,0.0013437527231872082
356.0,-0.30092132091522217,-0.4964054226875305,1.3401178121566772,-2.3516130447387695,-1.3687870502471924,1.2666441202163696,1.3980132341384888,-0.19099564850330353,-0.05845651775598526,0.001564008998684585,0.994415283203125,0.10552629828453064,0.0001659709814703092
357.0,-0.3110860288143158,-0.48529252409935,1.3110861778259277,-2.298163414001465,-1.2932003736495972,1.2249513864517212,1.407706618309021,-0.19706235826015472,-0.06059132516384125,-0.010385583154857159,0.9891528487205505,0.14651434123516083,-0.0015383234713226557
358.0,-0.294525146484375,-0.49249154329299927,1.3307825326919556,-2.3584773540496826,-1.416512370109558,1.2523934841156006,1.403269648551941,-0.19085533916950226,-0.05824687331914902,-0.009949433617293835,0.9966591000556946,0.08106192946434021,-0.0008092238567769527
359.0,-0.2948627769947052,-0.4953445494174957,1.340692400932312,-2.375319719314575,-1.4372429847717285,1.2732034921646118,1.3989760875701904,-0.1933530569076538,-0.058476194739341736,2.6427693455843837e-07,0.9975643157958984,0.06975237280130386,-3.7795598473167047e-06
360.0,-0.29222381114959717,-0.4885002672672272,1.3221337795257568,-2.3609328269958496,-1.4453834295272827,1.2761945724487305,1.4074602127075195,-0.19336152076721191,-0.05854582041501999,0.00017639501311350614,0.9977995753288269,0.06625031679868698,-0.0026566949672997
361.0,-0.2902170717716217,-0.4826519787311554,1.3058956861495972,-2.3464043140411377,-1.4465515613555908,1.2782732248306274,1.4147580862045288,-0.19278785586357117,-0.05853823572397232,0.00032805438968352973,0.9977890849113464,0.06627707183361053,-0.0049387989565730095
362.0,-0.2863885760307312,-0.47128522396087646,1.2746553421020508,-2.3187084197998047,-1.4507005214691162,1.2823247909545898,1.4285014867782593,-0.19186533987522125,-0.05855301022529602,0.0006246334523893893,0.9978151321411133,0.06537343561649323,-0.009533973410725594
363.0,-0.2891228497028351,-0.477363258600235,1.2884342670440674,-2.3195641040802,-1.4250866174697876,1.164987564086914,1.4218757152557373,-0.18987040221691132,-0.05827685445547104,-0.055863671004772186,0.9952994585037231,0.07898494601249695,-0.004433227702975273
364.0,-0.28567951917648315,-0.4845637381076813,1.3075987100601196,-2.3428022861480713,-1.439263939857483,1.2825769186019897,1.4147878885269165,-0.18496005237102509,-0.0573468953371048,0.0004097826895304024,0.9975147247314453,0.070216104388237,-0.005821517668664455
365.0,-0.3071550726890564,-0.4752861261367798,1.280600666999817,-2.2617149353027344,-1.299975872039795,1.1651298999786377,1.4197872877120972,-0.19617266952991486,-0.06057092547416687,-0.040997326374053955,0.9884058833122253,0.1460697054862976,-0.0060587129555642605
366.0,-0.3660779893398285,-0.42964285612106323,1.1911814212799072,-1.9506322145462036,-0.9284907579421997,0.9804555177688599,1.4243004322052002,-0.23176148533821106,-0.08146467804908752,-0.044744592159986496,0.9324930906295776,0.3579939603805542,-0.017177922651171684
367.0,-0.30515822768211365,-0.4593890607357025,1.2346922159194946,-2.19808030128479,-1.2849221229553223,1.0844024419784546,1.4362512826919556,-0.1960592269897461,-0.06144207715988159,-0.07883591949939728,0.9839954972267151,0.15929505228996277,-0.012762428261339664
368.0,-0.31899401545524597,-0.43863222002983093,1.179495930671692,-2.065980911254883,-1.1824791431427002,0.9858656525611877,1.4466965198516846,-0.2045995444059372,-0.06669332087039948,-0.10567301511764526,0.9683547616004944,0.22476790845394135,-0.024528099223971367
369.0,-0.3681733012199402,-0.3948620855808258,1.1039607524871826,-1.7755314111709595,-0.8836488127708435,0.8547057509422302,1.4422399997711182,-0.23601770401000977,-0.08800996840000153,-0.0750301331281662,0.912562370300293,0.4006437361240387,-0.03294060379266739
370.0,-0.3756573498249054,-0.33584827184677124,0.9721289873123169,-1.478757381439209,-0.8021553754806519,0.6620637774467468,1.4573297500610352,-0.24337978661060333,-0.10142123699188232,-0.09934576600790024,0.8708440661430359,0.4783133268356323,-0.0545659102499485
371.0,-0.3609940707683563,-0.345176637172699,0.9765954613685608,-1.5632309913635254,-0.8888643383979797,0.7035344839096069,1.4672982692718506,-0.23515872657299042,-0.09333644807338715,-0.12239602208137512,0.8925305008888245,0.4300358295440674,-0.05897241830825806
372.0,-0.3562745451927185,-0.2833079993724823,0.8327248692512512,-1.3236647844314575,-0.8753097653388977,0.5597683191299438,1.4876935482025146,-0.2336914837360382,-0.09997975826263428,-0.1535077840089798,0.8630352020263672,0.473817378282547,-0.08427772670984268
373.0,-0.3488231599330902,-0.2631881535053253,0.7804286479949951,-1.2702053785324097,-0.9019238948822021,0.5264276266098022,1.498189091682434,-0.22919034957885742,-0.09878331422805786,-0.17268241941928864,0.8593083024024963,0.471989244222641,-0.09484867751598358
374.0,-0.340055912733078,-0.25200068950653076,0.751507580280304,-1.2738616466522217,-0.9432348012924194,0.5213419198989868,1.5081069469451904,-0.22425463795661926,-0.09902530908584595,-0.19226130843162537,0.8637394309043884,0.45469364523887634,-0.1012110784649849
375.0,-0.3255302309989929,-0.35529381036758423,0.9703369736671448,-1.6910252571105957,-1.0659964084625244,0.7307667136192322,1.4898401498794556,-0.2119758278131485,-0.07879702746868134,-0.17971529066562653,0.9234970211982727,0.3326632082462311,-0.06473726034164429
376.0,-0.33101651072502136,-0.39012661576271057,1.0584605932235718,-1.8241918087005615,-1.0711514949798584,0.8273453712463379,1.4704111814498901,-0.2146139144897461,-0.07560034096240997,-0.14430072903633118,0.9385154247283936,0.3099910616874695,-0.04766244813799858
377.0,-0.2893587648868561,-0.4511093497276306,1.210654377937317,-2.203205108642578,-1.3546582460403442,1.033294916152954,1.4498919248580933,-0.1874089390039444,-0.05936744809150696,-0.11598366498947144,0.9853794574737549,0.12394463270902634,-0.014588849619030952
