Sungjin-Park-dev/vision_inspection/data/trajectory/2446/joint_trajectory_dp.csv
time,ur20-shoulder_pan_joint,ur20-shoulder_lift_joint,ur20-elbow_joint,ur20-wrist_1_joint,ur20-wrist_2_joint,ur20-wrist_3_joint,target-POS_X,target-POS_Y,target-POS_Z,target-ROT_X,target-ROT_Y,target-ROT_Z,target-ROT_W
0.0,0.008561229333281517,-0.6188786625862122,1.591507077217102,-0.2335735410451889,2.0885138511657715,0.423709511756897,1.1031651496887207,0.1340864896774292,-0.07386346161365509,0.7972097992897034,0.3963771164417267,0.20272576808929443,0.4077303111553192
1.0,0.034369759261608124,-0.589117705821991,1.5232092142105103,-0.13097837567329407,2.175259828567505,0.5321595668792725,1.118934154510498,0.151847705245018,-0.07264585793018341,0.8178094625473022,0.356653094291687,0.18054531514644623,0.41399234533309937
2.0,0.02103276364505291,-0.6037502884864807,1.5615872144699097,-0.18860536813735962,2.127976655960083,0.47317615151405334,1.1093486547470093,0.14276942610740662,-0.07589634507894516,0.8072826266288757,0.3787911832332611,0.19223952293395996,0.4097023010253906
3.0,0.03781591355800629,-0.5820457339286804,1.5178143978118896,-0.12347059696912766,2.179621696472168,0.5430118441581726,1.1186928749084473,0.15516039729118347,-0.0779220387339592,0.8197566270828247,0.35457319021224976,0.17854729294776917,0.41279298067092896
4.0,0.04858340695500374,-0.5652215480804443,1.4824295043945312,-0.06888372451066971,2.2159423828125,0.5986711382865906,1.1264389753341675,0.1631142497062683,-0.07835312187671661,0.8288863897323608,0.3356279134750366,0.16797193884849548,0.41483330726623535
5.0,0.04708649218082428,-0.5648629069328308,1.494408130645752,-0.08816929161548615,2.2012276649475098,0.5830115079879761,1.1218723058700562,0.16302740573883057,-0.08530345559120178,0.8266216516494751,0.34324726462364197,0.17102164030075073,0.41186103224754333
6.0,0.033821579068899155,-0.5843941569328308,1.5336185693740845,-0.14786399900913239,2.1593222618103027,0.5204405188560486,1.11360502243042,0.1530868411064148,-0.08356377482414246,0.8160451054573059,0.3644150197505951,0.1829315423965454,0.4096439778804779
7.0,0.023557335138320923,-0.5976619720458984,1.559538722038269,-0.18637783825397491,2.1286282539367676,0.47870832681655884,1.1082161664962769,0.145466148853302,-0.08176836371421814,0.8084186315536499,0.37872371077537537,0.19115181267261505,0.4080302119255066
8.0,0.008438078686594963,-0.6128828525543213,1.5983608961105347,-0.24494554102420807,2.0770511627197266,0.4172145128250122,1.0987151861190796,0.13545487821102142,-0.08387750387191772,0.7959715723991394,0.4018159806728363,0.20402568578720093,0.4041617810726166
9.0,-0.00407973350957036,-0.6225540637969971,1.6247097253799438,-0.28394028544425964,2.0356104373931885,0.3733641505241394,1.0922383069992065,0.12737901508808136,-0.08579801768064499,0.7864413857460022,0.41907450556755066,0.21338503062725067,0.4004414677619934
10.0,-0.023393604904413223,-0.6382075548171997,1.6579949855804443,-0.3319644033908844,1.978376865386963,0.3148704767227173,1.085129976272583,0.11448568850755692,-0.08402153849601746,0.7725123763084412,0.4411918818950653,0.22649216651916504,0.3965802788734436
11.0,-0.03810488432645798,-0.6501011848449707,1.681060552597046,-0.3656690716743469,1.9346284866333008,0.2722780704498291,1.080618143081665,0.10500045120716095,-0.08137314021587372,0.7611560225486755,0.4572544991970062,0.23685932159423828,0.3942813575267792
12.0,-0.0565158985555172,-0.6589258313179016,1.7050096988677979,-0.39951130747795105,1.878920555114746,0.22503535449504852,1.0749825239181519,0.09363339841365814,-0.08231812715530396,0.7481240034103394,0.4768134653568268,0.24802668392658234,0.389155775308609
13.0,-0.08617443591356277,-0.6685566306114197,1.7402762174606323,-0.4505404829978943,1.7877906560897827,0.15288250148296356,1.065540075302124,0.07635454833507538,-0.08643995970487595,0.7258591055870056,0.5072489976882935,0.2661142647266388,0.3808020353317261
14.0,-0.0995069220662117,-0.6690945625305176,1.7539756298065186,-0.4708116948604584,1.7454694509506226,0.12191055715084076,1.0609737634658813,0.06912664324045181,-0.0911254808306694,0.7156835198402405,0.5210684537887573,0.2737339437007904,0.3759714663028717
15.0,-0.059533942490816116,-0.6553167700767517,1.711643934249878,-0.4103010594844818,1.8645399808883667,0.21492594480514526,1.0714575052261353,0.09273823350667953,-0.08887170255184174,0.745209813117981,0.4824709892272949,0.2501643896102905,0.38639625906944275
16.0,-0.040407489985227585,-0.647071897983551,1.6869741678237915,-0.3751218914985657,1.9227118492126465,0.2638710141181946,1.0775182247161865,0.10437056422233582,-0.08716823160648346,0.7589429020881653,0.4621099829673767,0.23858501017093658,0.39183828234672546
17.0,-0.02699708193540573,-0.6350334882736206,1.6682631969451904,-0.34854885935783386,1.959328532218933,0.29995739459991455,1.0804089307785034,0.11342345178127289,-0.09198706597089767,0.7686882019042969,0.44918015599250793,0.2297414243221283,0.3931596875190735
18.0,-0.013020607642829418,-0.6263695359230042,1.6436476707458496,-0.3123570680618286,2.003302812576294,0.34252825379371643,1.0865877866744995,0.12218821048736572,-0.09038863331079483,0.7792950868606567,0.4322648048400879,0.2200743407011032,0.39675411581993103
19.0,0.026268161833286285,-0.5896967053413391,1.559151530265808,-0.18717873096466064,2.1260697841644287,0.4825797379016876,1.105865240097046,0.148753821849823,-0.0906209796667099,0.8092749714851379,0.3802221119403839,0.19041115045547485,0.4052761495113373
20.0,0.015230143442749977,-0.6010172963142395,1.5874541997909546,-0.22972585260868073,2.08964204788208,0.43789657950401306,1.0989798307418823,0.14123937487602234,-0.09185567498207092,0.8004411458969116,0.3967168927192688,0.19954152405261993,0.40260764956474304
21.0,-0.0031147291883826256,-0.6161661148071289,1.6279109716415405,-0.29015517234802246,2.0295002460479736,0.3715096116065979,1.0890123844146729,0.12928670644760132,-0.0942891389131546,0.786047101020813,0.42222803831100464,0.2136533260345459,0.3977508842945099
22.0,-0.018512289971113205,-0.6261951327323914,1.656430959701538,-0.3322320580482483,1.9804450273513794,0.3224546015262604,1.0818982124328613,0.11953750252723694,-0.09631925821304321,0.7743918895721436,0.44167202711105347,0.22444862127304077,0.3935299813747406
23.0,-0.040723901242017746,-0.639528751373291,1.6922478675842285,-0.38476577401161194,1.9129358530044556,0.25875425338745117,1.0731500387191772,0.10562862455844879,-0.0974142923951149,0.7575965523719788,0.46667739748954773,0.23934702575206757,0.38855206966400146
24.0,-0.06063247472047806,-0.6436918377876282,1.6830332279205322,-0.3160402178764343,1.8492727279663086,0.2381041944026947,1.0722274780273438,0.09378467500209808,-0.09216572344303131,0.7601106762886047,0.4903205633163452,0.23113884031772614,0.35831886529922485
25.0,-0.07025229185819626,-0.6555773615837097,1.7264295816421509,-0.43262410163879395,1.8284704685211182,0.18682833015918732,1.0662944316864014,0.0870460793375969,-0.09455914795398712,0.7367820739746094,0.49518096446990967,0.25680363178253174,0.38209930062294006
26.0,-0.10314338654279709,-0.6656776070594788,1.7588573694229126,-0.47895535826683044,1.7316358089447021,0.11246312409639359,1.0581737756729126,0.06769891083240509,-0.09645131975412369,0.712602436542511,0.5259667038917542,0.275713711977005,0.3735488951206207
27.0,-0.08601459860801697,-0.6589446067810059,1.7446274757385254,-0.4595315158367157,1.7800153493881226,0.14909859001636505,1.0609079599380493,0.07810015231370926,-0.09806807339191437,0.7247940897941589,0.5111743807792664,0.26622945070266724,0.3774867057800293
28.0,-0.10824961215257645,-0.5612331628799438,1.4390617609024048,0.3652596175670624,1.6611710786819458,0.2594875991344452,1.1077274084091187,0.06779395043849945,-0.062312014400959015,0.8167675733566284,0.5516793727874756,0.09455978125333786,0.13999681174755096
29.0,-0.104653000831604,-0.5244864821434021,1.3668707609176636,0.5242162346839905,1.6447255611419678,0.3426128625869751,1.120181918144226,0.07298589497804642,-0.058801501989364624,0.8433402180671692,0.5263573527336121,0.057332634925842285,0.09185949712991714
30.0,-0.08940934389829636,-0.5609624981880188,1.4375159740447998,0.3424142599105835,1.7010033130645752,0.33995598554611206,1.1110674142837524,0.08208615332841873,-0.06366786360740662,0.832923173904419,0.5211889147758484,0.09867045283317566,0.15768738090991974
31.0,-0.07551046460866928,-0.5631140470504761,1.4421629905700684,0.31281548738479614,1.7374927997589111,0.3948325514793396,1.1121113300323486,0.09176291525363922,-0.06503748893737793,0.8424443602561951,0.498375803232193,0.104233518242836,0.1761942356824875
32.0,-0.0988713726401329,-0.49975329637527466,1.3200018405914307,0.6160874366760254,1.630486011505127,0.41532739996910095,1.129846215248108,0.08066175132989883,-0.05752130597829819,0.8623415231704712,0.500970721244812,0.036898043006658554,0.0635141134262085
33.0,-0.08779449015855789,-0.5047388076782227,1.3263814449310303,0.5841425061225891,1.6586750745773315,0.4850454330444336,1.131007194519043,0.08863043040037155,-0.058240801095962524,0.8759727478027344,0.47326186299324036,0.04432323947548866,0.08203903585672379
34.0,-0.09254232048988342,-0.4744310975074768,1.2722976207733154,0.7006063461303711,1.6088416576385498,-1.6631879806518555,1.14106285572052,0.09007047861814499,-0.05685985088348389,0.0007629573810845613,0.9991653561592102,-0.022265557199716568,0.034237656742334366
35.0,-0.07533849030733109,-0.5009118318557739,1.3155800104141235,0.5823798179626465,1.6738080978393555,0.5299605131149292,1.1364402770996094,0.09987996518611908,-0.05858360975980759,0.8832855224609375,0.45789507031440735,0.04634162038564682,0.08939358592033386
36.0,-0.08110545575618744,-0.4686761498451233,1.257203221321106,0.7063944935798645,1.6223342418670654,-1.6518021821975708,1.1474485397338867,0.10041897743940353,-0.056935206055641174,0.0010270342463627458,0.9989486336708069,-0.028732962906360626,0.0357065312564373
37.0,-0.07393430918455124,-0.46717485785484314,1.2542803287506104,0.7076225876808167,1.6208035945892334,-1.6446303129196167,1.1480636596679688,0.10878029465675354,-0.057399943470954895,0.0010007921373471618,0.9989644289016724,-0.027720779180526733,0.03606521338224411
38.0,-0.07069101929664612,-0.46551498770713806,1.2535552978515625,0.7165873646736145,1.6148219108581543,-1.6414158344268799,1.1463032960891724,0.11352671682834625,-0.05773726850748062,0.0007637986564077437,0.9992107152938843,-0.024278737604618073,0.031434740871191025
39.0,-0.07596588879823685,-0.4712828993797302,1.2671170234680176,0.7053928971290588,1.6127004623413086,-1.6466622352600098,1.1412014961242676,0.10823921859264374,-0.05780938267707825,0.0007785495254211128,0.9991757869720459,-0.023514622822403908,0.03308187797665596
40.0,-0.08243142813444138,-0.477144718170166,1.2779451608657837,0.6884219646453857,1.6161636114120483,-1.6530641317367554,1.1389321088790894,0.10056619346141815,-0.057583652436733246,0.0010065754177048802,0.9989112019538879,-0.025939229875802994,0.038762886077165604
41.0,-0.08860920369625092,-0.4827674329280853,1.293743371963501,0.6819746494293213,1.607578158378601,-1.6592204570770264,1.1314777135849,0.09557259827852249,-0.05792705714702606,0.0008080752450041473,0.9990735650062561,-0.02174341306090355,0.037129707634449005
42.0,-0.09521164745092392,-0.4874533712863922,1.3024908304214478,0.6683975458145142,1.6087522506713867,-1.6657449007034302,1.1296312808990479,0.0881524384021759,-0.05777088552713394,0.0009600573685020208,0.9988661408424377,-0.023017914965748787,0.04166183993220329
43.0,-0.10174146294593811,-0.4926997125148773,1.3158409595489502,0.6595561504364014,1.603346586227417,-1.6722286939620972,1.1239838600158691,0.0822451114654541,-0.05794978141784668,0.0008710077381692827,0.9988975524902344,-0.020639950409531593,0.04215356707572937
44.0,-0.10768181830644608,-0.4968812167644501,1.3243099451065063,0.6482973694801331,1.601683259010315,-1.6780800819396973,1.1216622591018677,0.07612648606300354,-0.05791265517473221,0.0009325632709078491,0.9987512230873108,-0.020433228462934494,0.04558255523443222
45.0,-0.10930712521076202,-0.49819061160087585,1.3228627443313599,0.6371573209762573,1.606344223022461,-1.6795742511749268,1.1249797344207764,0.07322958111763,-0.057519473135471344,0.0012320401147007942,0.9983582496643066,-0.023566605523228645,0.05219324305653572
46.0,-0.11447682976722717,-0.5006112456321716,1.333061695098877,0.6404863595962524,1.5975722074508667,-1.6848046779632568,1.118485450744629,0.06956309080123901,-0.0579778254032135,0.0008887173025868833,0.998713493347168,-0.01885935477912426,0.047062795609235764
47.0,-0.12134973704814911,-0.5046576857566833,1.3412832021713257,0.62947016954422,1.5949530601501465,-1.6915596723556519,1.1162328720092773,0.06261105835437775,-0.057951949536800385,0.0009247598354704678,0.9985570907592773,-0.018291765823960304,0.05048312246799469
48.0,-0.1219000294804573,-0.5172492861747742,1.3572748899459839,0.5699632167816162,1.6140464544296265,0.260494202375412,1.1184844970703125,0.05875873193144798,-0.05775576829910278,0.826698362827301,0.5564687252044678,0.046425960958004,0.06897111237049103
49.0,-0.13171683251857758,-0.5097542405128479,1.3484833240509033,0.6106664538383484,1.591510534286499,-1.7016254663467407,1.116483449935913,0.05161634460091591,-0.05750212073326111,0.0010712703224271536,0.9981043934822083,-0.018189044669270515,0.05878481641411781
50.0,-0.1298915147781372,-0.5094459652900696,1.3524962663650513,0.6190705299377441,1.5888816118240356,-1.6999837160110474,1.1120779514312744,0.05462611839175224,-0.058053210377693176,0.0008426436688750982,0.9984830021858215,-0.015969008207321167,0.0526873953640461
51.0,-0.13855479657649994,-0.5118733644485474,1.3596731424331665,0.6165710687637329,1.5818485021591187,-1.7086076736450195,1.108703374862671,0.046616293489933014,-0.05822041630744934,0.0006650967989116907,0.998569130897522,-0.012791772373020649,0.051919709891080856
52.0,-0.13852667808532715,-0.515699028968811,1.3610423803329468,0.5929475426673889,1.5863137245178223,-1.708178997039795,1.1127755641937256,0.04538395255804062,-0.05779864639043808,0.0010843540076166391,0.997775673866272,-0.01677202619612217,0.06450872868299484
53.0,-0.1165095865726471,-0.621367871761322,1.5772675275802612,0.048231206834316254,1.6722909212112427,0.15791435539722443,1.0835492610931396,0.05981331318616867,-0.07214279472827911,0.7729719877243042,0.5676189661026001,0.16774874925613403,0.22843684256076813
54.0,-0.13350951671600342,-0.5732126832008362,1.4655381441116333,0.33185428380966187,1.6192868947982788,0.13339924812316895,1.10019850730896,0.04749250411987305,-0.06259515881538391,0.7853043675422668,0.5941448211669922,0.1050058975815773,0.13879036903381348
55.0,-0.14226263761520386,-0.5275596976280212,1.3792864084243774,0.5422663688659668,1.5944087505340576,0.1313842535018921,1.11201810836792,0.0400964580476284,-0.05790465325117111,0.794407844543457,0.6008198261260986,0.053722623735666275,0.07103239744901657
56.0,-0.14677391946315765,-0.5186077356338501,1.3682984113693237,0.5872571468353271,1.5794578790664673,-1.7163058519363403,1.109924077987671,0.03774573281407356,-0.05791310966014862,0.0009203841327689588,0.9977517127990723,-0.014013316482305527,0.06553157418966293
57.0,-0.15614214539527893,-0.5185297131538391,1.373934030532837,0.5989699363708496,1.5705939531326294,-1.7258979082107544,1.1044009923934937,0.029648223891854286,-0.05829840153455734,0.0005135433166287839,0.9983060956001282,-0.00891748908907175,0.05749078840017319
58.0,-0.1696632206439972,-0.521600604057312,1.3802926540374756,0.5899536609649658,1.560811161994934,-1.7391929626464844,1.102845311164856,0.01656261831521988,-0.05836299806833267,0.0003273386100772768,0.998123049736023,-0.005355695262551308,0.061005011200904846
59.0,-0.17220166325569153,-0.5269606709480286,1.3854788541793823,0.5624558925628662,1.5568816661834717,-0.0919157862663269,1.1055586338043213,0.013913219794631004,-0.05806167423725128,0.73248291015625,0.6766238212585449,0.050999440252780914,0.05520972982048988
60.0,-0.1663602739572525,-0.5416870713233948,1.4076358079910278,0.4945890009403229,1.5656112432479858,-0.02429131418466568,1.1055538654327393,0.01898917742073536,-0.058474138379096985,0.7511583566665649,0.6517231464385986,0.06878949701786041,0.0792848989367485
61.0,-0.16381338238716125,-0.5242100358009338,1.3805696964263916,0.5723621249198914,1.5657349824905396,-0.03536975011229515,1.1061853170394897,0.02167251519858837,-0.058049023151397705,0.7490143775939941,0.6587361693382263,0.046903345733881,0.053331341594457626
62.0,-0.1546781212091446,-0.5207644701004028,1.3720364570617676,0.5807394981384277,1.5736476182937622,-1.7240203619003296,1.1094099283218384,0.0300002321600914,-0.057740166783332825,0.000824146147351712,0.9975919723510742,-0.012037757784128189,0.06829856336116791
63.0,-0.15730078518390656,-0.546371579170227,1.4155455827713013,0.47170618176460266,1.5747642517089844,0.016951432451605797,1.1048791408538818,0.02764657512307167,-0.05893349647521973,0.7610434293746948,0.6384761929512024,0.07373391091823578,0.08788849413394928
64.0,-0.17715413868427277,-0.6518572568893433,1.6628681421279907,-0.1256921887397766,1.532730221748352,-0.0465044304728508,1.0665665864944458,0.019212964922189713,-0.0784369558095932,0.7036874890327454,0.6257810592651367,0.22360444068908691,0.251442015171051
65.0,-0.15525582432746887,-0.6444639563560486,1.6395318508148193,-0.07561370730400085,1.5804888010025024,0.012713414616882801,1.0708816051483154,0.03432384133338928,-0.07634768635034561,0.724767804145813,0.6101871728897095,0.20607824623584747,0.24477548897266388
66.0,-0.11871760338544846,-0.6659837961196899,1.7515867948532104,-0.43329519033432007,1.6851316690444946,0.08692555874586105,1.0571515560150146,0.058601029217243195,-0.09537015110254288,0.7103919386863708,0.5448601841926575,0.27112749218940735,0.35349759459495544
67.0,-0.14439624547958374,-0.6753457188606262,1.7862646579742432,-0.5166233777999878,1.6139007806777954,0.02911253459751606,1.0519349575042725,0.04343489557504654,-0.09610216319561005,0.6825900077819824,0.5601548552513123,0.2977476418018341,0.3628274202346802
68.0,-0.16451670229434967,-0.6809528470039368,1.7937893867492676,-0.5250521898269653,1.556842565536499,-0.00929751992225647,1.0513170957565308,0.03139685094356537,-0.09277293086051941,0.6677014827728271,0.5756796598434448,0.3081992566585541,0.35746461153030396
69.0,-0.17880985140800476,-0.6781085729598999,1.7997196912765503,-0.5336362719535828,1.5138835906982422,-0.03790086880326271,1.0484638214111328,0.023676149547100067,-0.09735912084579468,0.656702995300293,0.5879037380218506,0.31505516171455383,0.3519243896007538
70.0,-0.20035475492477417,-0.6785370111465454,1.8049254417419434,-0.5397135615348816,1.4514962434768677,-0.07895232737064362,1.0469212532043457,0.011233951896429062,-0.09805496037006378,0.6400313377380371,0.6043095588684082,0.3257702887058258,0.3450271189212799
71.0,-0.23228777945041656,-0.6759157776832581,1.8059439659118652,-0.5366982817649841,1.3574172258377075,-0.14185188710689545,1.0457383394241333,-0.007253323681652546,-0.09986571222543716,0.614482045173645,0.6289945244789124,0.3406394422054291,0.3327800929546356
72.0,-0.21181228756904602,-0.6704632043838501,1.745283603668213,-0.34362471103668213,1.4251492023468018,-0.12946638464927673,1.0534123182296753,0.0019771517254412174,-0.08951589465141296,0.6498711109161377,0.6387585997581482,0.2887292504310608,0.2937523126602173
73.0,-0.23460255563259125,-0.636143147945404,1.6235474348068237,-0.007935775443911552,1.380893349647522,-0.2740428149700165,1.0718295574188232,-0.019563384354114532,-0.07436136901378632,0.640053391456604,0.7056697607040405,0.2251082956790924,0.20417669415473938
74.0,-0.20917774736881256,-0.605851948261261,1.541900634765625,0.1895601749420166,1.4636870622634888,-0.2204156368970871,1.0849647521972656,-0.007977578788995743,-0.06664922088384628,0.676389217376709,0.7008399367332458,0.16300736367702484,0.15732039511203766
75.0,-0.20368710160255432,-0.5437203049659729,1.4139378070831299,0.49085092544555664,1.507080078125,-0.29066231846809387,1.103947639465332,-0.012747028842568398,-0.058613911271095276,0.669187068939209,0.7350103259086609,0.08082791417837143,0.07358943670988083
76.0,-0.1919691562652588,-0.5459049940109253,1.4175047874450684,0.4825042188167572,1.5257306098937988,-0.20184947550296783,1.1030510663986206,-0.0025491267442703247,-0.05866231024265289,0.6975703835487366,0.7079595923423767,0.07864154130220413,0.07748749107122421
77.0,-0.187271848320961,-0.593397319316864,1.5118600130081177,0.2562310993671417,1.5162746906280518,-0.1295754313468933,1.089756727218628,0.006634542718529701,-0.06436505168676376,0.7090466618537903,0.6766485571861267,0.13703687489032745,0.14359824359416962
78.0,-0.17692673206329346,-0.535376250743866,1.397094488143921,0.5239711403846741,1.555343508720398,-0.08233490586280823,1.1065019369125366,0.008771192282438278,-0.057959362864494324,0.7360783219337463,0.6705135703086853,0.062451403588056564,0.06855807453393936
79.0,-0.18044579029083252,-0.5258379578590393,1.3865840435028076,0.5724638104438782,1.5513041019439697,-1.749521017074585,1.1029438972473145,0.006164245307445526,-0.05828520655632019,0.0001885179808596149,0.9975875020027161,-0.0027111342642456293,0.06936696916818619
80.0,-0.18795108795166016,-0.5299280285835266,1.3921117782592773,0.5539857149124146,1.5414961576461792,-0.18578298389911652,1.103653907775879,-0.0007058753399178386,-0.05818819999694824,0.7048834562301636,0.7049552798271179,0.055579423904418945,0.05557376518845558
81.0,-0.19536277651786804,-0.5293558239936829,1.390889286994934,0.5553545355796814,1.534143090248108,-0.23196156322956085,1.1043055057525635,-0.00786575861275196,-0.05817230045795441,0.6908649802207947,0.7186539173126221,0.056956805288791656,0.05475439876317978
82.0,-0.20129604637622833,-0.5233557224273682,1.384596347808838,0.5852028131484985,1.535465121269226,-1.770526647567749,1.1018424034118652,-0.01413663662970066,-0.0584820955991745,-0.00031640802626498044,0.997912585735321,0.004903406370431185,0.06439351290464401
83.0,-0.20988819003105164,-0.5224514007568359,1.382831335067749,0.5876626968383789,1.5288830995559692,-1.7791072130203247,1.102462887763977,-0.022732308134436607,-0.05848732590675354,-0.0004983407561667264,0.9978985786437988,0.007730265613645315,0.06433071196079254
84.0,-0.21399888396263123,-0.5528547763824463,1.4314963817596436,0.450126051902771,1.4867054224014282,-0.32794442772865295,1.1016193628311157,-0.020456772297620773,-0.059506990015506744,0.6564565300941467,0.7434893846511841,0.09567096084356308,0.08447171747684479
85.0,-0.21950073540210724,-0.5384506583213806,1.4041708707809448,0.5102309584617615,1.4947792291641235,-0.36735233664512634,1.1060633659362793,-0.028809964656829834,-0.0583970844745636,0.6465846300125122,0.7556788325309753,0.07924700528383255,0.06780645251274109
86.0,-0.23855474591255188,-0.5659388899803162,1.4586641788482666,0.38250574469566345,1.4322590827941895,-0.42579108476638794,1.0988667011260986,-0.038441259413957596,-0.06158427149057388,0.621594250202179,0.7663919925689697,0.12586648762226105,0.10208598524332047
87.0,-0.24487817287445068,-0.5500308871269226,1.4269992113113403,0.4502297639846802,1.4344310760498047,-0.5005216598510742,1.1046313047409058,-0.04723801463842392,-0.06012511998414993,0.5987113118171692,0.7888461947441101,0.11056497693061829,0.0839155986905098
88.0,-0.2249435931444168,-0.5189651250839233,1.369321346282959,0.5869189500808716,1.5097630023956299,-0.4262620210647583,1.1112834215164185,-0.03842989727854729,-0.05764169991016388,0.629191517829895,0.773786187171936,0.05687233433127403,0.0462447926402092
89.0,-0.23759159445762634,-0.5144845843315125,1.366609811782837,0.6087953448295593,1.50918710231781,-1.8070677518844604,1.107683539390564,-0.05165814235806465,-0.05854709446430206,-0.0010324307950213552,0.9980185031890869,0.01701165921986103,0.06056934595108032
90.0,-0.23239122331142426,-0.5181998014450073,1.3721832036972046,0.5943939685821533,1.507171392440796,-1.8015509843826294,1.1075676679611206,-0.04549067094922066,-0.05839411914348602,-0.0011293650604784489,0.9976235032081604,0.01686784066259861,0.06679462641477585
91.0,-0.22307075560092926,-0.5217580795288086,1.3789793252944946,0.583871603012085,1.5134352445602417,-0.4141078293323517,1.1057416200637817,-0.03565555065870285,-0.058347657322883606,0.6334117650985718,0.7705674767494202,0.054707955569028854,0.0449703224003315
92.0,-0.21442796289920807,-0.527003824710846,1.3865796327590942,0.562441885471344,1.515749216079712,-0.3518037497997284,1.1057100296020508,-0.02639748714864254,-0.05817613750696182,0.653300940990448,0.7529445886611938,0.059820711612701416,0.05190412700176239
93.0,-0.2850789427757263,-0.6669195294380188,1.7888888120651245,-0.49818137288093567,1.2007381916046143,-0.25462377071380615,1.0483704805374146,-0.03963049501180649,-0.10034799575805664,0.5695015788078308,0.6692940592765808,0.3634311258792877,0.3092431128025055
94.0,-0.30365702509880066,-0.660908043384552,1.7761363983154297,-0.4733758866786957,1.1449315547943115,-0.2994817793369293,1.050858736038208,-0.051848720759153366,-0.10067884624004364,0.5524076819419861,0.6837027072906494,0.3709203898906708,0.2996906042098999
95.0,-0.267273485660553,-0.6716755032539368,1.7961643934249878,-0.5130718350410461,1.2535988092422485,-0.21526694297790527,1.0475457906723022,-0.0285462848842144,-0.09919492900371552,0.5851427316665649,0.6559755802154541,0.35578441619873047,0.31736648082733154
96.0,-0.23701491951942444,-0.680054247379303,1.8026405572891235,-0.5280530452728271,1.3413656949996948,-0.1525750756263733,1.0481526851654053,-0.010305119678378105,-0.09449399262666702,0.6097307801246643,0.6332067251205444,0.34340938925743103,0.3306775689125061
97.0,-0.21468685567378998,-0.6836187839508057,1.8047888278961182,-0.5356460213661194,1.4095978736877441,-0.1060280054807663,1.0485025644302368,0.002446961123496294,-0.09246310591697693,0.6283838748931885,0.6147109866142273,0.33336570858955383,0.34078073501586914
98.0,-0.2575823664665222,-0.6784697771072388,1.7966086864471436,-0.513329267501831,1.2798460721969604,-0.19574646651744843,1.049614667892456,-0.022874172776937485,-0.093108169734478,0.5923512578010559,0.6492102742195129,0.3524579107761383,0.3215889632701874
99.0,-0.30108538269996643,-0.666533350944519,1.7748967409133911,-0.46954652667045593,1.149052381515503,-0.2951486110687256,1.0530610084533691,-0.05039655417203903,-0.09474564343690872,0.5532482266426086,0.6825810074806213,0.37094753980636597,0.3006618320941925
100.0,-0.27831998467445374,-0.6769338846206665,1.7878104448318481,-0.49411341547966003,1.216546654701233,-0.24116741120815277,1.0519226789474487,-0.03586132079362869,-0.09037245064973831,0.5735908150672913,0.6650077104568481,0.36217617988586426,0.31238874793052673
101.0,-0.2615453004837036,-0.6822371482849121,1.7928942441940308,-0.5045379996299744,1.2657668590545654,-0.205238938331604,1.0520284175872803,-0.025556333363056183,-0.08785807341337204,0.5879393815994263,0.6527017951011658,0.355020135641098,0.31979429721832275
102.0,-0.23812022805213928,-0.6848690509796143,1.799808382987976,-0.5209363102912903,1.335777997970581,-0.15598928928375244,1.0506175756454468,-0.01120145246386528,-0.08870944380760193,0.6077978610992432,0.6346103549003601,0.34473276138305664,0.3301677405834198
103.0,-0.24452319741249084,-0.6882899403572083,1.7959742546081543,-0.5114448666572571,1.3147642612457275,-0.17019638419151306,1.0529680252075195,-0.015296448022127151,-0.08371986448764801,0.6016222834587097,0.6400513052940369,0.3482155501842499,0.3273085057735443
104.0,-0.2621740400791168,-0.6872797012329102,1.7897343635559082,-0.49705374240875244,1.2612075805664062,-0.2078143060207367,1.0546724796295166,-0.026237420737743378,-0.08167216181755066,0.5862076282501221,0.653742253780365,0.3562662601470947,0.31946223974227905
105.0,-0.2855139970779419,-0.683085560798645,1.7780894041061401,-0.4728401303291321,1.1887338161468506,-0.2612776756286621,1.057159423828125,-0.04087599739432335,-0.08026981353759766,0.5644687414169312,0.6721324324607849,0.36694303154945374,0.3081652820110321
106.0,-0.30677375197410583,-0.6759859323501587,1.7623292207717896,-0.44249027967453003,1.1224769353866577,-0.3145277500152588,1.0603281259536743,-0.05488353967666626,-0.08010005950927734,0.5437504649162292,0.6890684366226196,0.37609028816223145,0.2967764139175415
107.0,-0.3231755495071411,-0.668581485748291,1.7487196922302246,-0.4174301326274872,1.0722497701644897,-0.3571682870388031,1.0626190900802612,-0.06610973179340363,-0.08105820417404175,0.5274664759635925,0.7013995051383972,0.3831427991390228,0.2881310284137726
108.0,-0.3365909457206726,-0.6592503190040588,1.7359256744384766,-0.394210547208786,1.030550241470337,-0.39595526456832886,1.0640212297439575,-0.07527590543031693,-0.0843195766210556,0.5133574604988098,0.711973249912262,0.3886334300041199,0.2802182137966156
109.0,-0.309052973985672,-0.6694743037223816,1.7646561861038208,-0.44841837882995605,1.1200979948043823,-0.31777477264404297,1.0574846267700195,-0.05608601123094559,-0.08741287142038345,0.5435343384742737,0.68977290391922,0.37569093704223633,0.296040803194046
110.0,-0.3335115909576416,-0.6568857431411743,1.7437896728515625,-0.410177618265152,1.045468807220459,-0.38294586539268494,1.060543417930603,-0.07281409204006195,-0.09014956653118134,0.5190381407737732,0.7081667184829712,0.38605424761772156,0.28295156359672546
111.0,-0.3501897156238556,-0.6487219333648682,1.7195099592208862,-0.36485642194747925,0.9880688190460205,-0.43864166736602783,1.0664713382720947,-0.08513601124286652,-0.08720764517784119,0.49836334586143494,0.7228227853775024,0.39411285519599915,0.2717282772064209
112.0,-0.3633633255958557,-0.6380129456520081,1.7012922763824463,-0.3323616087436676,0.9464411735534668,-0.4827510416507721,1.0694737434387207,-0.09512341767549515,-0.08932221680879593,0.4830414950847626,0.7331284284591675,0.39976856112480164,0.2633983790874481
113.0,-0.3944475054740906,-0.6086153388023376,1.6332989931106567,-0.2073344886302948,0.8336440920829773,-0.6217599511146545,1.0843117237091064,-0.1212957501411438,-0.08588407933712006,0.43609777092933655,0.761454701423645,0.4161686599254608,0.23834668099880219
114.0,-0.37371644377708435,-0.6330069899559021,1.679624319076538,-0.2919323146343231,0.9066816568374634,-0.5252981781959534,1.0754709243774414,-0.10368243604898453,-0.08391278237104416,0.4672369658946991,0.7425758838653564,0.4061543941497803,0.2555568218231201
115.0,-0.3528158962726593,-0.6506490707397461,1.7116148471832275,-0.3492608964443207,0.9746587872505188,-0.45096802711486816,1.0698469877243042,-0.08743025362491608,-0.08163730055093765,0.4930168092250824,0.7260637879371643,0.39655745029449463,0.26927316188812256
116.0,-0.3397064805030823,-0.6611995100975037,1.7279345989227295,-0.3782505691051483,1.0155816078186035,-0.4092288017272949,1.067412257194519,-0.07778238505125046,-0.0787709504365921,0.5076146721839905,0.7157450318336487,0.39122042059898376,0.2774580419063568
117.0,-0.3059625029563904,-0.6810988783836365,1.759331226348877,-0.43564343452453613,1.1210089921951294,-0.3146490752696991,1.0629518032073975,-0.05462414026260376,-0.07381640374660492,0.5428153872489929,0.689336359500885,0.3769243657588959,0.29680773615837097
118.0,-0.322417289018631,-0.673874020576477,1.7453874349594116,-0.40999916195869446,1.0702306032180786,-0.357573926448822,1.0654348134994507,-0.06593967974185944,-0.07439801841974258,0.5263218879699707,0.7017527222633362,0.3841050863265991,0.2880828380584717
119.0,-0.3506884276866913,-0.6571677327156067,1.7089601755142212,-0.34279483556747437,0.9750425219535828,-0.44860249757766724,1.0728113651275635,-0.08622343838214874,-0.07392919063568115,0.49256423115730286,0.7258343696594238,0.3973047435283661,0.26961809396743774
120.0,-0.3604276776313782,-0.6478435397148132,1.696739912033081,-0.32153844833374023,0.9456851482391357,-0.48024052381515503,1.0741902589797974,-0.09355640411376953,-0.07738074660301208,0.4818727970123291,0.7330628633499146,0.40111732482910156,0.2636711597442627
121.0,-0.37639594078063965,-0.6338036060333252,1.6674834489822388,-0.26812639832496643,0.8898953199386597,-0.5440821051597595,1.0800228118896484,-0.10629552602767944,-0.07723428308963776,0.45977771282196045,0.7468682527542114,0.4091031849384308,0.25184696912765503
122.0,-0.3915455639362335,-0.6153086423873901,1.6334905624389648,-0.20619754493236542,0.8365746736526489,-0.6151534914970398,1.086349606513977,-0.11920921504497528,-0.07910916954278946,0.4369303584098816,0.7605507373809814,0.4164360761642456,0.23923927545547485
123.0,-0.4016416072845459,-0.6025040149688721,1.6048047542572021,-0.15354546904563904,0.798018217086792,-0.6702790856361389,1.092644453048706,-0.1286654770374298,-0.07747330516576767,0.41929569840431213,0.7699645757675171,0.42241165041923523,0.23003056645393372
124.0,-0.41336992383003235,-0.5815826654434204,1.562569499015808,-0.07338429242372513,0.7498552799224854,-0.7527284026145935,1.1012083292007446,-0.1402510553598404,-0.07668706774711609,0.39466923475265503,0.7827965021133423,0.429596483707428,0.21659335494041443
125.0,-0.42461907863616943,-0.556685745716095,1.5204671621322632,0.004711494781076908,0.7097318172454834,-0.8344666361808777,1.1089262962341309,-0.15233421325683594,-0.07986530661582947,0.37242642045021057,0.7935875058174133,0.4355819821357727,0.20441633462905884
126.0,-0.4190281927585602,-0.5689782500267029,1.5494129657745361,-0.05033257231116295,0.735977828502655,-0.7824060320854187,1.102126121520996,-0.14566417038440704,-0.08290155231952667,0.3874655067920685,0.7867398858070374,0.43108704686164856,0.21230825781822205
127.0,-0.4109649658203125,-0.5848237872123718,1.5832587480545044,-0.11421474069356918,0.7701002955436707,-0.7193095088005066,1.0947389602661133,-0.13698488473892212,-0.08445746451616287,0.4058578908443451,0.7775024175643921,0.4258557856082916,0.22229760885238647
128.0,-0.42676711082458496,-0.5513125658035278,1.5213650465011597,0.001661961548961699,0.7098140120506287,-0.8378682136535645,1.1068848371505737,-0.15394660830497742,-0.08616671711206436,0.3727215826511383,0.7938387989997864,0.43496185541152954,0.2042224109172821
129.0,-0.4315606355667114,-0.5393185615539551,1.4931737184524536,0.0559350848197937,0.6861974596977234,-0.8886724710464478,1.113501787185669,-0.16006526350975037,-0.08291712403297424,0.3583899140357971,0.7998735308647156,0.4393300712108612,0.19684547185897827
130.0,-0.44135814905166626,-0.504619836807251,1.4329116344451904,0.17331522703170776,0.6463335156440735,-1.0050135850906372,1.125049114227295,-0.17298424243927002,-0.08525672554969788,0.32929354906082153,0.8124997019767761,0.44582751393318176,0.18068699538707733
131.0,-0.44930508732795715,-0.46805253624916077,1.3670703172683716,0.30327415466308594,0.6116832494735718,-1.1300729513168335,1.1385152339935303,-0.1856006681919098,-0.08521556109189987,0.29915088415145874,0.8236240148544312,0.4528745710849762,0.16448986530303955
132.0,-0.43566909432411194,-0.5239298343658447,1.4603168964385986,0.12176453322172165,0.6629822850227356,-0.9506607055664062,1.1207305192947388,-0.16584637761116028,-0.08025699853897095,0.34189295768737793,0.8070223331451416,0.44333764910697937,0.18781886994838715
133.0,-0.44370126724243164,-0.4903844892978668,1.396487832069397,0.24640531837940216,0.6256222724914551,-1.0691938400268555,1.1343927383422852,-0.17815348505973816,-0.07856765389442444,0.3123714327812195,0.8185239434242249,0.45043686032295227,0.17189918458461761
134.0,-0.449627161026001,-0.45272696018218994,1.3291985988616943,0.3834924101829529,0.5961838364601135,-1.2004867792129517,1.1481711864471436,-0.18914812803268433,-0.07784829288721085,0.28146541118621826,0.8294987678527832,0.4568171203136444,0.15500710904598236
135.0,-0.4453222453594208,-0.4779786169528961,1.3671793937683105,0.30597710609436035,0.6107308268547058,-1.1221747398376465,1.1416592597961426,-0.1821233332157135,-0.07383371889591217,0.29889151453971863,0.8230471014976501,0.4539601802825928,0.16485674679279327
136.0,-0.4490521550178528,-0.4412018358707428,1.2974389791488647,0.4502943456172943,0.5846834182739258,-1.2570198774337769,1.1569710969924927,-0.19157952070236206,-0.06986640393733978,0.26716071367263794,0.8336741328239441,0.46027806401252747,0.14750154316425323
137.0,-0.44355037808418274,-0.4811980426311493,1.3639594316482544,0.3139570653438568,0.6088929772377014,-1.1244394779205322,1.1439034938812256,-0.18083417415618896,-0.06800872832536697,0.2972835302352905,0.8233015537261963,0.45478543639183044,0.16421714425086975
138.0,-0.4391097128391266,-0.503137469291687,1.4019079208374023,0.23848120868206024,0.6279200315475464,-1.0511947870254517,1.1363186836242676,-0.17369873821735382,-0.06749628484249115,0.31460854411125183,0.8170542120933533,0.45088958740234375,0.17361602187156677
139.0,-0.4381399154663086,-0.5103545188903809,1.422438621520996,0.19722028076648712,0.6396893858909607,-1.0158960819244385,1.1307874917984009,-0.1711142212152481,-0.07227378338575363,0.3241170346736908,0.8137553930282593,0.4481988251209259,0.17851665616035461
140.0,-0.43217185139656067,-0.5335215926170349,1.4642301797866821,0.11517799645662308,0.6661108732223511,-0.9359579682350159,1.1223828792572021,-0.16275151073932648,-0.07210399210453033,0.3441029191017151,0.805582582950592,0.443547785282135,0.18946051597595215
141.0,-0.42532646656036377,-0.5550717115402222,1.5044585466384888,0.03641755133867264,0.6966710090637207,-0.8584890365600586,1.1143405437469482,-0.15418939292430878,-0.07240825891494751,0.36444467306137085,0.796658456325531,0.438493549823761,0.2005961537361145
142.0,-0.4167545437812805,-0.575471043586731,1.536190152168274,-0.02256614901125431,0.7256630063056946,-0.7954493165016174,1.109002709388733,-0.14489498734474182,-0.06859063357114792,0.38102397322654724,0.7889357209205627,0.4341040849685669,0.20965468883514404
143.0,-0.4042585790157318,-0.6004106402397156,1.589834213256836,-0.12485256046056747,0.7812761664390564,-0.6941800117492676,1.0973881483078003,-0.13170436024665833,-0.07171527296304703,0.41091352701187134,0.773969292640686,0.42553502321243286,0.2259238362312317
144.0,-0.3943125307559967,-0.6145638227462769,1.6192958354949951,-0.17909935116767883,0.8192889094352722,-0.6370805501937866,1.0912271738052368,-0.12225549668073654,-0.07258710265159607,0.428750604391098,0.7646453380584717,0.4196644723415375,0.2353135198354721
145.0,-0.4078439772129059,-0.5947427749633789,1.5682858228683472,-0.08307419717311859,0.7589213848114014,-0.7309657335281372,1.1033791303634644,-0.13581770658493042,-0.06602303683757782,0.39899685978889465,0.779916524887085,0.42929819226264954,0.21962429583072662
146.0,-0.39753180742263794,-0.6123709082603455,1.6042709350585938,-0.15078827738761902,0.8011881709098816,-0.6612163782119751,1.0959584712982178,-0.12572762370109558,-0.06698046624660492,0.42012277245521545,0.7688682079315186,0.4229876399040222,0.23112767934799194
147.0,-0.3863528072834015,-0.6268256902694702,1.6344596147537231,-0.20566844940185547,0.8427920341491699,-0.6024922728538513,1.0895767211914062,-0.11540441960096359,-0.06778556108474731,0.4388691782951355,0.7587219476699829,0.4166993200778961,0.24103228747844696
148.0,-0.3683259189128876,-0.6470465064048767,1.676286220550537,-0.2831161618232727,0.910891056060791,-0.5155627727508545,1.081128716468811,-0.10040660202503204,-0.06821341812610626,0.4678393006324768,0.7411264777183533,0.4071764051914215,0.2570318877696991
149.0,-0.33872371912002563,-0.6682983636856079,1.7224994897842407,-0.3666529357433319,1.0117727518081665,-0.41076621413230896,1.0715663433074951,-0.07764118909835815,-0.0692959800362587,0.5056009888648987,0.7165088057518005,0.39268404245376587,0.27709561586380005
150.0,-0.349209189414978,-0.663299024105072,1.7050966024398804,-0.33427634835243225,0.9731335639953613,-0.4485328495502472,1.0760656595230103,-0.0855160653591156,-0.06601272523403168,0.49125462770462036,0.7261620163917542,0.3983944058418274,0.2695171535015106
151.0,-0.35657089948654175,-0.6603471636772156,1.6906596422195435,-0.3077602684497833,0.9450659155845642,-0.47663405537605286,1.0802375078201294,-0.0914512574672699,-0.06198812276124954,0.4805060625076294,0.7328833937644958,0.40280354022979736,0.26409322023391724
152.0,-0.3400152921676636,-0.6751128435134888,1.7121577262878418,-0.3460388481616974,0.9983834624290466,-0.42116448283195496,1.0773216485977173,-0.0792468786239624,-0.05772313475608826,0.4999724328517914,0.7196451425552368,0.39568597078323364,0.27490225434303284
153.0,-0.3532620370388031,-0.6678802371025085,1.6892454624176025,-0.30391156673431396,0.949006974697113,-0.4702380299568176,1.0830578804016113,-0.08933308720588684,-0.05378462374210358,0.4813832640647888,0.7317633032798767,0.4030870497226715,0.26516684889793396
154.0,-0.36505088210105896,-0.6565423011779785,1.6722873449325562,-0.274198055267334,0.9116750359535217,-0.5112008452415466,1.0855234861373901,-0.09852384030818939,-0.05671367049217224,0.46734869480133057,0.7406478524208069,0.4082477390766144,0.2576042711734772
155.0,-0.3801703453063965,-0.6403672695159912,1.6361031532287598,-0.20715829730033875,0.8523373603820801,-0.5850598216056824,1.093271255493164,-0.11105461418628693,-0.05484096705913544,0.442231148481369,0.755935788154602,0.41663554310798645,0.24373659491539001
156.0,-0.3912896513938904,-0.6258993744850159,1.6069926023483276,-0.15387389063835144,0.8099884390830994,-0.643329918384552,1.0991815328598022,-0.12095825374126434,-0.0544370636343956,0.4233590066432953,0.766368567943573,0.4229217767715454,0.23363138735294342
157.0,-0.4117707312107086,-0.5877629518508911,1.5356627702713013,-0.019644416868686676,0.7278577089309692,-0.7841276526451111,1.1130167245864868,-0.1410554051399231,-0.05520249903202057,0.38163432478904724,0.7878168821334839,0.4350658357143402,0.2107546329498291
158.0,-0.4217601716518402,-0.5637195110321045,1.4936436414718628,0.05930746719241142,0.6894341707229614,-0.8651431798934937,1.1210496425628662,-0.1521991491317749,-0.05673498660326004,0.35961365699768066,0.7977732419967651,0.44122350215911865,0.19889108836650848
159.0,-0.40191370248794556,-0.6076189875602722,1.5809608697891235,-0.10650985687971115,0.7751437425613403,-0.6994096636772156,1.102882742881775,-0.13061445951461792,-0.05945827066898346,0.4070771038532257,0.7752535939216614,0.4276144206523895,0.22453561425209045
160.0,-0.3914012312889099,-0.6232910752296448,1.613829255104065,-0.16716040670871735,0.8166425824165344,-0.6362682580947876,1.095913290977478,-0.1205446720123291,-0.06073715537786484,0.42677611112594604,0.7649500966072083,0.4212745130062103,0.2350347489118576
161.0,-0.3791983127593994,-0.638387143611908,1.6455825567245483,-0.2253626137971878,0.8632370233535767,-0.5731081962585449,1.0892659425735474,-0.10972237586975098,-0.061692751944065094,0.44739213585853577,0.7533682584762573,0.4143884479999542,0.246086984872818
162.0,-0.4149155914783478,-0.5800732970237732,1.5340535640716553,-0.01745021902024746,0.7246869206428528,-0.7941811084747314,1.1112008094787598,-0.14359788596630096,-0.062459640204906464,0.3801860213279724,0.7889513969421387,0.43485844135284424,0.20955298840999603
163.0,-0.4232751429080963,-0.5601359605789185,1.5020288228988647,0.04217299446463585,0.6954283118247986,-0.8571357727050781,1.1168321371078491,-0.1527494490146637,-0.06552132964134216,0.36347445845603943,0.7966589331626892,0.43936052918434143,0.20045757293701172
164.0,-0.4311129152774811,-0.5342664122581482,1.4532783031463623,0.13799084722995758,0.6590604782104492,-0.9508329629898071,1.1267035007476807,-0.16273464262485504,-0.06466253101825714,0.3389023542404175,0.8073409795761108,0.44540709257125854,0.18697123229503632
165.0,-0.43636906147003174,-0.5111015439033508,1.4067184925079346,0.23040109872817993,0.6303432583808899,-1.037749171257019,1.136946201324463,-0.17089927196502686,-0.06152144819498062,0.316726952791214,0.8159176111221313,0.45091474056243896,0.17503833770751953
166.0,-0.42995041608810425,-0.5360338687896729,1.4470175504684448,0.15110838413238525,0.6552056670188904,-0.957862138748169,1.1296013593673706,-0.1622675061225891,-0.05890151113271713,0.3360331058502197,0.8081865906715393,0.4465844929218292,0.18568380177021027
167.0,-0.42724165320396423,-0.5436064004898071,1.4506515264511108,0.14438432455062866,0.6581401824951172,-0.9450214505195618,1.1306461095809937,-0.15978820621967316,-0.052835993468761444,0.33814865350723267,0.8069392442703247,0.4466272294521332,0.18715953826904297
168.0,-0.4371490478515625,-0.502730667591095,1.3815536499023438,0.2811398506164551,0.6164184212684631,-1.080412745475769,1.1439049243927002,-0.1737157702445984,-0.05486244708299637,0.30520838499069214,0.8196664452552795,0.4542909264564514,0.16915833950042725
169.0,-0.4414753019809723,-0.47871026396751404,1.343760371208191,0.35787761211395264,0.5996729135513306,-1.1569126844406128,1.150814414024353,-0.18065592646598816,-0.057437703013420105,0.28779202699661255,0.8261110782623291,0.4575080871582031,0.1593819558620453
170.0,-0.4453108608722687,-0.4511670768260956,1.2997413873672485,0.449453204870224,0.58371901512146,-1.247319221496582,1.159088134765625,-0.1878308653831482,-0.05943665653467178,0.2674683630466461,0.8329694867134094,0.4611859917640686,0.14808785915374756
171.0,-0.4490875005722046,-0.426396906375885,1.2634005546569824,0.5214189291000366,0.5740628242492676,-1.3194392919540405,1.1657569408416748,-0.19486187398433685,-0.06383165717124939,0.25208938121795654,0.837779700756073,0.46378934383392334,0.13955502212047577
172.0,-0.45125511288642883,-0.38847780227661133,1.1994868516921997,0.6558085680007935,0.5628662109375,-1.448026180267334,1.179251790046692,-0.20310047268867493,-0.0639120489358902,0.22349043190479279,0.8458235263824463,0.46831876039505005,0.12374303489923477
173.0,-0.45219510793685913,-0.3636917173862457,1.1588523387908936,0.7403334975242615,0.5596925020217896,-1.5291446447372437,1.1879359483718872,-0.20823055505752563,-0.06483105570077896,0.20552459359169006,0.8503276109695435,0.4709014892578125,0.11381712555885315
174.0,-0.4506188929080963,-0.3533693552017212,1.134253978729248,0.7937503457069397,0.5574023723602295,-1.5753196477890015,1.1948206424713135,-0.2093227207660675,-0.059343308210372925,0.1943173110485077,0.8524850606918335,0.4731575548648834,0.10785256326198578
175.0,-0.45008227229118347,-0.3230370581150055,1.0826592445373535,0.901103138923645,0.5596371293067932,-1.6768019199371338,1.2066150903701782,-0.21452878415584564,-0.059154532849788666,0.17107078433036804,0.8573806285858154,0.4760373830795288,0.09498242288827896
176.0,-0.44780638813972473,-0.2757541537284851,1.0018433332443237,1.0641485452651978,0.5718101859092712,-1.8300514221191406,1.2255067825317383,-0.22174076735973358,-0.0596422478556633,0.13435393571853638,0.8637349009513855,0.47993525862693787,0.07465391606092453
177.0,-0.44595587253570557,-0.24676218628883362,0.9526577591896057,1.15673828125,0.5844385623931885,-1.9165292978286743,1.236924409866333,-0.2259160876274109,-0.06156209856271744,0.11240319907665253,0.8669294714927673,0.4815603792667389,0.0624375194311142
178.0,-0.4505399763584137,-0.29061904549598694,1.0339442491531372,0.9976063370704651,0.5674697756767273,-1.7717734575271606,1.2166041135787964,-0.22067773342132568,-0.0646049976348877,0.1492687612771988,0.8617358803749084,0.4777872860431671,0.08276168256998062
179.0,-0.4432322680950165,-0.20943301916122437,0.8899080157279968,1.2665129899978638,0.6054519414901733,-2.0186383724212646,1.2509814500808716,-0.23094138503074646,-0.06610865890979767,0.08478455245494843,0.8703325986862183,0.48282545804977417,0.047035057097673416
180.0,-0.4527571201324463,-0.30476075410842896,1.063248634338379,0.9351363778114319,0.5641567707061768,-1.7158571481704712,1.2087860107421875,-0.21950604021549225,-0.06862762570381165,0.16323864459991455,0.8594712615013123,0.47591203451156616,0.09038956463336945
181.0,-0.4515496492385864,-0.27370116114616394,1.0105323791503906,1.0376030206680298,0.5724533796310425,-1.8116912841796875,1.221042275428772,-0.22462785243988037,-0.06999105215072632,0.1402130126953125,0.8634766340255737,0.4782443344593048,0.07765824347734451
182.0,-0.4497355818748474,-0.2471441775560379,0.9638491868972778,1.1259067058563232,0.5824765563011169,-1.892919659614563,1.2321676015853882,-0.22852471470832825,-0.07050392031669617,0.119748055934906,0.866377055644989,0.4802553951740265,0.06637947261333466
183.0,-0.44229423999786377,-0.1896032840013504,0.8571098446846008,1.315975546836853,0.6164844632148743,-2.063300609588623,1.2580113410949707,-0.23407526314258575,-0.07015784084796906,0.07223771512508392,0.8715488910675049,0.48330095410346985,0.040058061480522156
184.0,-0.44700655341148376,-0.21808959543704987,0.913422703742981,1.2185505628585815,0.5987244844436646,-1.9789466857910156,1.2437684535980225,-0.23197375237941742,-0.07233460992574692,0.09664970636367798,0.8695002198219299,0.4814193546772003,0.05351239815354347
185.0,-0.4417802393436432,-0.17214469611644745,0.8289275765419006,1.3556994199752808,0.6263483762741089,-2.099092483520508,1.2636665105819702,-0.2370266169309616,-0.07464092969894409,0.06197023764252663,0.8724260330200195,0.48358312249183655,0.034349918365478516
186.0,-0.4465501308441162,-0.1983170360326767,0.8820663094520569,1.2655055522918701,0.608988344669342,-2.022190570831299,1.2502707242965698,-0.23546576499938965,-0.07735160738229752,0.0849030539393425,0.8709595799446106,0.481680691242218,0.046955302357673645
187.0,-0.44989803433418274,-0.22025370597839355,0.9246866106987,1.191314458847046,0.5959681272506714,-1.9573824405670166,1.2395750284194946,-0.23360475897789001,-0.07849914580583572,0.10331843793392181,0.8690758347511292,0.48038631677627563,0.05710982158780098
188.0,-0.45240503549575806,-0.25517457723617554,0.9840790033340454,1.0823817253112793,0.5785024762153625,-1.8557223081588745,1.2261501550674438,-0.22881317138671875,-0.07546848058700562,0.12992888689041138,0.8652376532554626,0.4788646996021271,0.07190897315740585
189.0,-0.4542493224143982,-0.2800211012363434,1.0291560888290405,0.9958527684211731,0.5706844329833984,-1.7769384384155273,1.215124487876892,-0.22516769170761108,-0.07619686424732208,0.14956022799015045,0.8623504638671875,0.47660353779792786,0.08265889436006546
190.0,-0.455798476934433,-0.32863500714302063,1.1111916303634644,0.8307322859764099,0.5607908964157104,-1.6209625005722046,1.1965091228485107,-0.21718449890613556,-0.07451505959033966,0.18631277978420258,0.8549711108207703,0.47295820713043213,0.10306565463542938
191.0,-0.45386365056037903,-0.33946242928504944,1.1225930452346802,0.811427652835846,0.5594630837440491,-1.5988305807113647,1.1952550411224365,-0.21393227577209473,-0.06885379552841187,0.19047658145427704,0.8538205623626709,0.4728447496891022,0.10548567771911621
192.0,-0.4541066586971283,-0.36042195558547974,1.1607067584991455,0.732981264591217,0.5611366033554077,-1.5264767408370972,1.1861610412597656,-0.20996172726154327,-0.07061111927032471,0.2070416361093521,0.8503063321113586,0.4701167643070221,0.1144690290093422
193.0,-0.4528091251850128,-0.4181317687034607,1.2648483514785767,0.514176607131958,0.5764743089675903,-1.3219554424285889,1.1626157760620117,-0.19825264811515808,-0.07500867545604706,0.2534859776496887,0.8380326628684998,0.46246933937072754,0.1398865282535553
194.0,-0.4546356499195099,-0.39124149084091187,1.2190940380096436,0.6093279719352722,0.5675696730613708,-1.4127157926559448,1.1722691059112549,-0.20444434881210327,-0.07509294152259827,0.23323968052864075,0.8437983393669128,0.46585601568222046,0.12877024710178375
195.0,-0.45567813515663147,-0.3644290268421173,1.1743485927581787,0.7020241618156433,0.5631921291351318,-1.5012259483337402,1.1818420886993408,-0.21005956828594208,-0.07582326233386993,0.21354420483112335,0.849047064781189,0.4686419367790222,0.1178683340549469
196.0,-0.45779791474342346,-0.34946492314338684,1.1558786630630493,0.735733151435852,0.5634254813194275,-1.5369126796722412,1.1846678256988525,-0.2141987383365631,-0.08147701621055603,0.20641982555389404,0.8510722517967224,0.4691675901412964,0.11379232257604599
197.0,-0.45743995904922485,-0.3766636252403259,1.2042629718780518,0.6372659206390381,0.5672852993011475,-1.4453805685043335,1.1735248565673828,-0.20860731601715088,-0.0824783593416214,0.2271626740694046,0.845909833908081,0.466017484664917,0.12514548003673553
198.0,-0.45374131202697754,-0.4230929911136627,1.2812964916229248,0.4785892963409424,0.5818694829940796,-1.2928574085235596,1.1576787233352661,-0.19752591848373413,-0.08059018850326538,0.2610013484954834,0.8361713886260986,0.46047481894493103,0.1437319666147232
199.0,-0.4526890218257904,-0.44006434082984924,1.3159013986587524,0.40754684805870056,0.5927636623382568,-1.228432536125183,1.1494293212890625,-0.19323033094406128,-0.08401140570640564,0.2762124538421631,0.8316107988357544,0.4572378098964691,0.15186764299869537
200.0,-0.45750096440315247,-0.3982275724411011,1.2454500198364258,0.5490818619728088,0.5738641619682312,-1.3638899326324463,1.1639899015426636,-0.20460182428359985,-0.08569955080747604,0.24597343802452087,0.8407233953475952,0.46296262741088867,0.1354506015777588
201.0,-0.45586156845092773,-0.41975972056388855,1.2853436470031738,0.46746593713760376,0.5842459797859192,-1.2880609035491943,1.1550251245498657,-0.1991105079650879,-0.08751627057790756,0.26331669092178345,0.8358780145645142,0.4593803882598877,0.1447131186723709
202.0,-0.45946869254112244,-0.3726195693016052,1.205276370048523,0.6313140392303467,0.5687361359596252,-1.4442089796066284,1.1718491315841675,-0.2105034589767456,-0.0885307639837265,0.2284374237060547,0.8459107875823975,0.4652582108974457,0.1256425380706787
203.0,-0.4601568877696991,-0.38729190826416016,1.2359163761138916,0.5657472610473633,0.5734111070632935,-1.3852152824401855,1.16423499584198,-0.20804306864738464,-0.09243663400411606,0.2423555701971054,0.8421415090560913,0.4629385471343994,0.133226677775383
204.0,-0.4557191729545593,-0.43603676557540894,1.324022650718689,0.3867619037628174,0.5971179604530334,-1.217441201210022,1.1449998617172241,-0.19525030255317688,-0.09441865235567093,0.2806309759616852,0.8307508826255798,0.4554440379142761,0.15385082364082336
205.0,-0.45252877473831177,-0.4581131935119629,1.361794114112854,0.31186485290527344,0.6103178858757019,-1.1456811428070068,1.1372954845428467,-0.18883627653121948,-0.09326894581317902,0.2969885766506195,0.8249052166938782,0.4525318145751953,0.1629239022731781
206.0,-0.45191463828086853,-0.4672423005104065,1.386048674583435,0.26129817962646484,0.621878981590271,-1.1017780303955078,1.130940556526184,-0.18614262342453003,-0.09844230115413666,0.3083210587501526,0.8211397528648376,0.44962799549102783,0.16882605850696564
207.0,-0.44727805256843567,-0.48679932951927185,1.4186524152755737,0.19767257571220398,0.6388746500015259,-1.0389633178710938,1.1247971057891846,-0.17925617098808289,-0.09663332253694534,0.3231423795223236,0.81557697057724,0.446262001991272,0.17681489884853363
208.0,-0.4388960897922516,-0.5185424089431763,1.4768224954605103,0.08507777005434036,0.6740288138389587,-0.930171549320221,1.1128828525543213,-0.16719916462898254,-0.09610125422477722,0.3501776456832886,0.8043845891952515,0.4400482475757599,0.19156888127326965
209.0,-0.4314125180244446,-0.5397716164588928,1.5168815851211548,0.007854175753891468,0.7049828171730042,-0.8541147708892822,1.1048271656036377,-0.1579410433769226,-0.09608390927314758,0.37022796273231506,0.7955586910247803,0.4348228871822357,0.2023528814315796
210.0,-0.441501259803772,-0.5074608325958252,1.4491366147994995,0.13979656994342804,0.656343400478363,-0.9789866805076599,1.119816780090332,-0.17171970009803772,-0.09197365492582321,0.3370572030544281,0.8097529411315918,0.443424254655838,0.18457399308681488
211.0,-0.44716888666152954,-0.48315778374671936,1.4020782709121704,0.23211954534053802,0.629425585269928,-1.0663597583770752,1.1299545764923096,-0.18063931167125702,-0.0903807058930397,0.3152967691421509,0.8181540369987488,0.44868019223213196,0.17291048169136047
212.0,-0.43358591198921204,-0.5342870354652405,1.495935320854187,0.049204085022211075,0.6879115104675293,-0.8891386985778809,1.11083984375,-0.16142365336418152,-0.08999674022197723,0.35963699221611023,0.7997766137123108,0.43836358189582825,0.19711977243423462
213.0,-0.42403653264045715,-0.5570778250694275,1.5427616834640503,-0.04006880521774292,0.7285068035125732,-0.8020249605178833,1.1008185148239136,-0.1500818431377411,-0.09196001291275024,0.38373878598213196,0.789088785648346,0.43136683106422424,0.2097763568162918
214.0,-0.4165200889110565,-0.5726375579833984,1.572487473487854,-0.09556647390127182,0.7573338747024536,-0.7458198070526123,1.0948023796081543,-0.14194659888744354,-0.09154821932315826,0.39953288435935974,0.7812509536743164,0.42700615525245667,0.21837158501148224
215.0,-0.40675073862075806,-0.5904362797737122,1.6042506694793701,-0.1548873633146286,0.7932437062263489,-0.6826831698417664,1.0889651775360107,-0.13237762451171875,-0.08968207985162735,0.417788565158844,0.7715145945549011,0.42191973328590393,0.2284768521785736
216.0,-0.38864991068840027,-0.6130634546279907,1.652982234954834,-0.2444637417793274,0.8601706624031067,-0.5872375965118408,1.078640103340149,-0.11571814119815826,-0.09115898609161377,0.44812700152397156,0.7548779845237732,0.41180068254470825,0.2444619983434677
217.0,-0.3754894435405731,-0.62665855884552,1.683228611946106,-0.30021750926971436,0.9082184433937073,-0.5258947610855103,1.072147250175476,-0.10455282777547836,-0.09199930727481842,0.4684346616268158,0.7423617243766785,0.40511786937713623,0.2556317448616028
218.0,-0.4001349210739136,-0.5968234539031982,1.6292957067489624,-0.2023770809173584,0.8244383335113525,-0.6387156844139099,1.0819908380508423,-0.1256411224603653,-0.09597796201705933,0.4326402544975281,0.764021098613739,0.41649681329727173,0.2358485907316208
219.0,-0.4117136597633362,-0.5805302262306213,1.5967490673065186,-0.14220809936523438,0.7821202278137207,-0.7031978368759155,1.0884456634521484,-0.13651898503303528,-0.09603752195835114,0.4127676486968994,0.7745165824890137,0.4229985475540161,0.22543109953403473
220.0,-0.42437729239463806,-0.5556516647338867,1.5500303506851196,-0.05517986789345741,0.7346494197845459,-0.7925243377685547,1.0976839065551758,-0.14975859224796295,-0.0974888950586319,0.38746780157089233,0.7876384258270264,0.42985808849334717,0.21146270632743835
221.0,-0.4295567274093628,-0.532141923904419,1.5031020641326904,0.05644422024488449,0.7314798831939697,-0.8889670968055725,1.105320692062378,-0.15894237160682678,-0.0984145849943161,0.3711925148963928,0.8050432205200195,0.4202151596546173,0.19375446438789368
222.0,-0.43555060029029846,-0.5077977776527405,1.4526400566101074,0.16127394139766693,0.7154313325881958,-0.9845528602600098,1.1159244775772095,-0.1691437065601349,-0.09695900976657867,0.34965771436691284,0.8191059231758118,0.4182448089122772,0.17853917181491852
223.0,-0.4330402612686157,-0.4876096546649933,1.4016258716583252,0.2867218255996704,0.7468773722648621,-1.084492802619934,1.1265621185302734,-0.17463421821594238,-0.09228448569774628,0.33357974886894226,0.8398845195770264,0.3979206383228302,0.15804345905780792
224.0,-0.36883559823036194,-0.5100300908088684,1.3741002082824707,0.4376370310783386,1.0844876766204834,-1.037711262702942,1.1321096420288086,-0.14478135108947754,-0.07089149206876755,0.39011910557746887,0.8797339797019958,0.2484654039144516,0.1101822704076767
225.0,-0.41153815388679504,-0.5589510798454285,1.5441768169403076,0.0036842525005340576,0.8119606375694275,-0.8078390955924988,1.0962049961090088,-0.14329753816127777,-0.09497092664241791,0.4045909345149994,0.7996342778205872,0.39592909812927246,0.20032821595668793
226.0,-0.4089571535587311,-0.5788384675979614,1.5988469123840332,-0.1346435397863388,0.8032233715057373,-0.7040388584136963,1.0858687162399292,-0.13476760685443878,-0.09987008571624756,0.4189600944519043,0.7765368223190308,0.41416463255882263,0.2234516739845276
227.0,-0.39245346188545227,-0.5910416841506958,1.6096165180206299,-0.12184281647205353,0.8741759061813354,-0.6766586303710938,1.0825477838516235,-0.12340615689754486,-0.09565375745296478,0.4417882561683655,0.7774665355682373,0.38918137550354004,0.2211487740278244
228.0,-0.3077508807182312,-0.5488144159317017,1.431835412979126,0.38968855142593384,1.2769970893859863,-0.755833089351654,1.1123555898666382,-0.09576573967933655,-0.06501303613185883,0.5023643970489502,0.8397024273872375,0.1769740730524063,0.1058773621916771
229.0,-0.383407860994339,-0.6127914786338806,1.6718016862869263,-0.27813848853111267,0.8905500769615173,-0.5573873519897461,1.0714421272277832,-0.11080071330070496,-0.1008378192782402,0.4611886143684387,0.7489438056945801,0.4051488935947418,0.24948474764823914
230.0,-0.35773247480392456,-0.6326355338096619,1.7100908756256104,-0.3402799069881439,0.9780592322349548,-0.4693880081176758,1.063427209854126,-0.09091893583536148,-0.0997980535030365,0.494771808385849,0.730730414390564,0.3894749581813812,0.26371046900749207
231.0,-0.36806604266166687,-0.6287490129470825,1.700455904006958,-0.3329565227031708,0.9386242032051086,-0.49373146891593933,1.066789984703064,-0.09824801236391068,-0.09813444316387177,0.48070570826530457,0.7352136373519897,0.39998573064804077,0.26152321696281433
232.0,-0.3517344295978546,-0.6417017579078674,1.723624587059021,-0.3745856285095215,0.9905597567558289,-0.43827903270721436,1.0628197193145752,-0.08583405613899231,-0.09602239727973938,0.49996528029441833,0.7223326563835144,0.39285245537757874,0.2719143033027649
233.0,-0.33645471930503845,-0.6510648131370544,1.7438589334487915,-0.41151124238967896,1.039748191833496,-0.3896210491657257,1.0586457252502441,-0.07454022020101547,-0.09585490822792053,0.5174301266670227,0.7097835540771484,0.386249840259552,0.28157496452331543
234.0,-0.322445809841156,-0.6585952043533325,1.757315993309021,-0.4363364577293396,1.0834308862686157,-0.3501885235309601,1.0565054416656494,-0.06487810611724854,-0.0946081355214119,0.5321418642997742,0.6989436149597168,0.3801669776439667,0.28944075107574463
235.0,-0.3425355851650238,-0.6397536396980286,1.716098427772522,-0.33219876885414124,1.032116413116455,-0.44126999378204346,1.0613174438476562,-0.08102200925350189,-0.09741605818271637,0.5134389996528625,0.7260109186172485,0.3735140562057495,0.2641512155532837
236.0,-0.294627845287323,-0.6275780200958252,1.62226402759552,-0.023900162428617477,1.2214876413345337,-0.46384894847869873,1.0737764835357666,-0.060610003769397736,-0.07823139429092407,0.5673965811729431,0.7522000670433044,0.26748207211494446,0.2017659991979599
237.0,-0.25852710008621216,-0.5606281757354736,1.4491654634475708,0.39438769221305847,1.3974390029907227,-0.527488648891449,1.102235198020935,-0.05604114755988121,-0.06189965456724167,0.5875210165977478,0.7918701171875,0.1338084191083908,0.09927797317504883
238.0,-0.24034032225608826,-0.5185350179672241,1.369601845741272,0.5855277180671692,1.4926739931106567,-0.5241144895553589,1.111077904701233,-0.05295342206954956,-0.058216869831085205,0.5961063504219055,0.7991558909416199,0.06212567165493965,0.04634077847003937
239.0,-0.24861635267734528,-0.5183549523353577,1.3649853467941284,0.5756285786628723,1.4684909582138062,-0.5988755226135254,1.1163219213485718,-0.05976497009396553,-0.05783301591873169,0.5676511526107788,0.8183403611183167,0.07391037791967392,0.05126877874135971
240.0,-0.2723112106323242,-0.5493456125259399,1.4270267486572266,0.4320971965789795,1.375953197479248,-0.6272016763687134,1.1080068349838257,-0.06970145553350449,-0.06154630333185196,0.5532553791999817,0.8172098398208618,0.13372012972831726,0.09052923321723938
241.0,-0.29852864146232605,-0.5738744139671326,1.4859676361083984,0.28738933801651,1.2735931873321533,-0.6448403596878052,1.0998886823654175,-0.08088409900665283,-0.06725671142339706,0.5362371802330017,0.8111405372619629,0.1947452425956726,0.1287441998720169
242.0,-0.2527325749397278,-0.5028127431869507,1.334118127822876,0.6281287670135498,1.4868725538253784,-1.8222970962524414,1.1235508918762207,-0.06920898705720901,-0.057189010083675385,-0.0017201730515807867,0.9975726008415222,0.026689929887652397,0.06429380923509598
243.0,-0.24933432042598724,-0.5116053819656372,1.357475757598877,0.6089340448379517,1.4918521642684937,-1.8187111616134644,1.113147258758545,-0.06347337365150452,-0.05837327241897583,-0.0015793697675690055,0.9975425601005554,0.02393212728202343,0.06583153456449509
244.0,-0.25525739789009094,-0.5061548948287964,1.3479926586151123,0.6272501349449158,1.4953614473342896,-1.8249969482421875,1.114606499671936,-0.0711074247956276,-0.05854165554046631,-0.0013894675066694617,0.9979978799819946,0.023644743487238884,0.05864669010043144
245.0,-0.26199468970298767,-0.5025259852409363,1.3398244380950928,0.635051965713501,1.489967703819275,-1.8318628072738647,1.1176165342330933,-0.0786985531449318,-0.058539822697639465,-0.0015248184790834785,0.9979740381240845,0.02627061866223812,0.05792514607310295
246.0,-0.2619001567363739,-0.5061575770378113,1.3418606519699097,0.6137112975120544,1.4716790914535522,-0.6815503835678101,1.1214680671691895,-0.07671363651752472,-0.05801314115524292,0.5401257872581482,0.8379434943199158,0.06572643667459488,0.04236627370119095
247.0,-0.2752749025821686,-0.5278146266937256,1.3821407556533813,0.5181268453598022,1.4021087884902954,-0.6959130167961121,1.117415189743042,-0.0798264741897583,-0.059607118368148804,0.5323055386543274,0.8365945219993591,0.10922734439373016,0.06949880719184875
248.0,-0.26759853959083557,-0.49706849455833435,1.320726990699768,0.6363096833229065,1.465584397315979,-0.7564365267753601,1.1293872594833374,-0.08442896604537964,-0.05737990140914917,0.5109774470329285,0.8562048077583313,0.06548408418893814,0.03908047080039978
249.0,-0.2682285010814667,-0.5021089315414429,1.3346389532089233,0.6255621910095215,1.469664454460144,-0.7283763289451599,1.122883915901184,-0.08401709049940109,-0.05826732516288757,0.5232901573181152,0.8487972021102905,0.06432696431875229,0.0396580807864666
250.0,-0.27077463269233704,-0.49600690603256226,1.3252222537994385,0.6492629051208496,1.4833108186721802,-1.840881586074829,1.1229480504989624,-0.08912952989339828,-0.05854447931051254,-0.0016737966798245907,0.997979998588562,0.02977961115539074,0.05609259009361267
251.0,-0.2757369577884674,-0.4917132258415222,1.315683126449585,0.6587457656860352,1.480238437652588,-1.8460004329681396,1.1263281106948853,-0.09529554098844528,-0.05855850875377655,-0.0017268825322389603,0.9980069398880005,0.031551845371723175,0.05462249740958214
252.0,-0.2845339775085449,-0.48439693450927734,1.2988178730010986,0.6732268333435059,1.4716359376907349,-1.855074405670166,1.1327354907989502,-0.10595518350601196,-0.05853438377380371,-0.0019321622094139457,0.9979084134101868,0.035880353301763535,0.05373750999569893
253.0,-0.28891319036483765,-0.4786851704120636,1.2861056327819824,0.6856673359870911,1.4694234132766724,-1.8596495389938354,1.1372205018997192,-0.11203451454639435,-0.058553360402584076,-0.0019381148740649223,0.9979620575904846,0.03747681900858879,0.05160963907837868
254.0,-0.28420060873031616,-0.48762696981430054,1.3012460470199585,0.6552713513374329,1.4506592750549316,-0.8644205331802368,1.1358152627944946,-0.10311524569988251,-0.05802808701992035,0.47112220525741577,0.878558337688446,0.06927569210529327,0.037148721516132355
255.0,-0.2803456783294678,-0.4918990135192871,1.3119454383850098,0.6477528810501099,1.4570658206939697,-0.8320455551147461,1.1311752796173096,-0.09830964356660843,-0.05825510621070862,0.4837948977947235,0.8718255162239075,0.06695131212472916,0.0371527373790741
256.0,-0.27979883551597595,-0.4997195303440094,1.324634313583374,0.6159633994102478,1.4313560724258423,-0.8162983059883118,1.131090760231018,-0.09355700016021729,-0.058022573590278625,0.4882314205169678,0.8675276637077332,0.08279361575841904,0.04659498855471611
257.0,-0.29483020305633545,-0.5071540474891663,1.3395475149154663,0.5742670893669128,1.3789570331573486,-0.8555595278739929,1.1305763721466064,-0.10252413153648376,-0.05940327048301697,0.47312086820602417,0.872002124786377,0.11037563532590866,0.05988634005188942
258.0,-0.31856176257133484,-0.5223079919815063,1.3758611679077148,0.48533686995506287,1.2782268524169922,-0.8846921324729919,1.126268744468689,-0.11292809247970581,-0.0632278323173523,0.45835015177726746,0.8693975806236267,0.16326268017292023,0.08607279509305954
259.0,-0.29430943727493286,-0.4796610176563263,1.2816134691238403,0.6653612852096558,1.4215532541275024,-0.9611053466796875,1.1451367139816284,-0.11310039460659027,-0.05785706639289856,0.4314989149570465,0.8975554704666138,0.08162787556648254,0.039242520928382874
260.0,-0.2943650186061859,-0.4672049582004547,1.2546731233596802,0.7013774514198303,1.4430623054504395,-0.9981096386909485,1.1526715755462646,-0.11888504773378372,-0.05736526846885681,0.4164922535419464,0.905978262424469,0.06882414221763611,0.031639520078897476
261.0,-0.2937977612018585,-0.47497811913490295,1.2756913900375366,0.687917172908783,1.4521845579147339,-0.9628118276596069,1.1428823471069336,-0.11670847237110138,-0.05836368352174759,0.4324435591697693,0.8987794518470764,0.06490609794855118,0.03122926689684391
262.0,-0.29756736755371094,-0.46958115696907043,1.2638397216796875,0.6999176144599915,1.4517854452133179,-1.8687443733215332,1.1468162536621094,-0.12229571491479874,-0.05840057134628296,-0.002467626240104437,0.9974972605705261,0.045595064759254456,0.05398502200841904
263.0,-0.3023577928543091,-0.46103179454803467,1.2453113794326782,0.7194352746009827,1.4525609016418457,-1.8738011121749878,1.1527713537216187,-0.12995687127113342,-0.058468177914619446,-0.0023040713276714087,0.9976909160614014,0.04638715833425522,0.049555763602256775
264.0,-0.30572864413261414,-0.4572659730911255,1.235084056854248,0.721969723701477,1.4356931447982788,-1.08493971824646,1.1582282781600952,-0.13299725949764252,-0.05828887224197388,0.38220706582069397,0.9209305047988892,0.07036963850259781,0.02920500375330448
265.0,-0.3090224862098694,-0.44758424162864685,1.2149279117584229,0.7464773654937744,1.4478907585144043,-1.8808938264846802,1.1636040210723877,-0.1406288743019104,-0.05847705900669098,-0.002285568742081523,0.997706413269043,0.04981030523777008,0.04578021541237831
266.0,-0.2999287247657776,-0.45855751633644104,1.2357357740402222,0.7196707129478455,1.4358954429626465,-1.0673153400421143,1.1592741012573242,-0.12640069425106049,-0.057396598160266876,0.387539267539978,0.9186493754386902,0.0707518458366394,0.02984720841050148
267.0,-0.3345634639263153,-0.47894635796546936,1.2855342626571655,0.6151837110519409,1.2698177099227905,-1.1020069122314453,1.1517558097839355,-0.13915982842445374,-0.06190504878759384,0.3751981854438782,0.9118426442146301,0.1541053205728531,0.06341011077165604
268.0,-0.3008613884449005,-0.4481734335422516,1.212699294090271,0.7450276017189026,1.449028491973877,-1.8725743293762207,1.166473388671875,-0.13185666501522064,-0.05720074474811554,-0.0023201676085591316,0.997678279876709,0.04900810122489929,0.04723260924220085
269.0,-0.3360893130302429,-0.461137056350708,1.24654221534729,0.6681159138679504,1.284361720085144,-1.1757235527038574,1.1628705263137817,-0.14714987576007843,-0.06104689836502075,0.3454121947288513,0.9257563352584839,0.1441313475370407,0.05377735570073128
270.0,-0.42512303590774536,-0.4686640501022339,1.3449116945266724,0.4189176857471466,0.815178632736206,-1.1796070337295532,1.14021897315979,-0.17942535877227783,-0.08565233647823334,0.3189127743244171,0.8651486039161682,0.3631681799888611,0.13387177884578705
271.0,-0.4554862082004547,-0.43781372904777527,1.3342700004577637,0.3699420988559723,0.6171815395355225,-1.2030854225158691,1.141030192375183,-0.19498348236083984,-0.10038702189922333,0.28757309913635254,0.8326873779296875,0.4472929537296295,0.15447504818439484
272.0,-0.32977089285850525,-0.6303236484527588,1.784197211265564,-2.8008675575256348,-1.3336312770843506,1.8849797248840332,1.1759288311004639,-0.15171930193901062,-0.05932999402284622,0.3097178339958191,0.9426923394203186,0.11792062222957611,0.03874235600233078
273.0,-0.3109738826751709,-0.6374830007553101,1.7831001281738281,-2.7741434574127197,-1.429782509803772,1.9609293937683105,1.1735728979110718,-0.14328286051750183,-0.057802118360996246,0.3405121862888336,0.9371572732925415,0.0715031623840332,0.025980373844504356
274.0,-0.31504395604133606,-0.6364524364471436,1.774376392364502,-2.7543113231658936,-1.4423657655715942,1.2541834115982056,1.1760786771774292,-0.15109160542488098,-0.05847164988517761,-0.0022453321143984795,0.9976781606674194,0.05391617864370346,0.041548170149326324
275.0,-0.3155358135700226,-0.6333531141281128,1.7663718461990356,-2.7539987564086914,-1.4231973886489868,1.8999017477035522,1.1821153163909912,-0.15058334171772003,-0.05794452130794525,0.3140522241592407,0.9462093114852905,0.07387733459472656,0.024520302191376686
276.0,-0.3552834987640381,-0.6176044344902039,1.7891762256622314,-2.843975782394409,-1.209511637687683,1.8516199588775635,1.1756304502487183,-0.16362780332565308,-0.0633629560470581,0.2985670268535614,0.9360380172729492,0.1774459183216095,0.056599732488393784
277.0,-0.3281790018081665,-0.6278653740882874,1.7610352039337158,-2.761723518371582,-1.3562471866607666,1.8359822034835815,1.1868669986724854,-0.15708251297473907,-0.058687783777713776,0.2875909209251404,0.9513217806816101,0.10606712847948074,0.032064806669950485
278.0,-0.3153613209724426,-0.6287218928337097,1.7418408393859863,-2.7201144695281982,-1.4329122304916382,1.8284237384796143,1.1944189071655273,-0.15594322979450226,-0.05742107331752777,0.28067782521247864,0.9571573734283447,0.06832636147737503,0.020036092028021812
279.0,-0.3184109330177307,-0.6321429014205933,1.7568910121917725,-2.7341668605804443,-1.438965916633606,1.250512719154358,1.1850990056991577,-0.15764610469341278,-0.05846507102251053,-0.0022060340270400047,0.9976407885551453,0.05647645890712738,0.038968976587057114
280.0,-0.32058197259902954,-0.6288064122200012,1.7421464920043945,-2.714887857437134,-1.4441242218017578,1.2483338117599487,1.1921148300170898,-0.16349433362483978,-0.05855654180049896,-0.0019114165334030986,0.9978756308555603,0.055194154381752014,0.03455720841884613
281.0,-0.32214710116386414,-0.6251514554023743,1.728293538093567,-2.6996681690216064,-1.438469409942627,1.246448278427124,1.1994826793670654,-0.1669929474592209,-0.05850055068731308,-0.0019485350931063294,0.9977278709411621,0.05860835313796997,0.03317117318511009
282.0,-0.32248207926750183,-0.6229382753372192,1.723159670829773,-2.700056791305542,-1.4151984453201294,1.7560839653015137,1.2038627862930298,-0.1651304066181183,-0.05803077667951584,0.24928779900074005,0.9651978611946106,0.07653731852769852,0.019767779856920242
283.0,-0.31874847412109375,-0.619621992111206,1.705976128578186,-2.6780357360839844,-1.430543303489685,1.7191214561462402,1.2126975059509277,-0.1658153384923935,-0.0573897659778595,0.23012655973434448,0.9705792665481567,0.06892445683479309,0.016342144459486008
284.0,-0.3241446316242218,-0.6190674901008606,1.7050268650054932,-2.6733362674713135,-1.4403270483016968,1.244329810142517,1.211205005645752,-0.17373988032341003,-0.05854657292366028,-0.0016988645074889064,0.9978374242782593,0.059123437851667404,0.028672054409980774
285.0,-0.3263036906719208,-0.6160397529602051,1.696562647819519,-2.667288064956665,-1.4103424549102783,1.6704246997833252,1.2169438600540161,-0.17359188199043274,-0.05824697017669678,0.2100478857755661,0.974368691444397,0.07872409373521805,0.016970811411738396
286.0,-0.3251187205314636,-0.614031970500946,1.6862833499908447,-2.6521942615509033,-1.438585638999939,1.2431528568267822,1.2207794189453125,-0.17792309820652008,-0.05853557586669922,-0.0015617136377841234,0.9978042244911194,0.06110626086592674,0.025501225143671036
287.0,-0.32620856165885925,-0.6097885966300964,1.6716375350952148,-2.6363883018493652,-1.4203346967697144,1.5957626104354858,1.2289780378341675,-0.17914961278438568,-0.058340005576610565,0.1740536242723465,0.98186194896698,0.07402876764535904,0.013123000971972942
288.0,-0.32575535774230957,-0.605065107345581,1.6544748544692993,-2.617936372756958,-1.435197114944458,1.2422034740447998,1.2371383905410767,-0.1837175488471985,-0.05850288271903992,-0.0013385823694989085,0.9977009296417236,0.0645177811384201,0.020699793472886086
289.0,-0.32306355237960815,-0.6033573150634766,1.6470723152160645,-2.609926700592041,-1.4208523035049438,1.5401149988174438,1.2421883344650269,-0.1796029806137085,-0.05768980085849762,0.14543123543262482,0.986526370048523,0.07413525879383087,0.010928831994533539
290.0,-0.32564473152160645,-0.6012232303619385,1.6410025358200073,-2.6033146381378174,-1.435876488685608,1.2422808408737183,1.243928074836731,-0.1859760731458664,-0.05851122736930847,-0.0011874178890138865,0.9977182149887085,0.06499837338924408,0.018226739019155502
291.0,-0.3246835768222809,-0.5973535776138306,1.6280107498168945,-2.5905628204345703,-1.4428532123565674,1.2434977293014526,1.250434398651123,-0.1880365014076233,-0.05858738720417023,-0.0009566984954290092,0.99793940782547,0.062300488352775574,0.015324553474783897
292.0,-0.3250928521156311,-0.5963195562362671,1.6237090826034546,-2.5829169750213623,-1.4113980531692505,1.4748868942260742,1.2536660432815552,-0.18459463119506836,-0.05809058994054794,0.11457864195108414,0.9901897311210632,0.0794452503323555,0.009192914701998234
293.0,-0.3317807912826538,-0.5929612517356873,1.6119537353515625,-2.5571372509002686,-1.3589975833892822,1.416651964187622,1.2589443922042847,-0.18682438135147095,-0.05851653218269348,0.0899115800857544,0.9901931881904602,0.10648881644010544,0.009669403545558453
294.0,-0.39391788840293884,-0.5714522004127502,1.5975300073623657,-2.4615838527679443,-1.0136926174163818,1.3188180923461914,1.2560914754867554,-0.2160641849040985,-0.07197891175746918,0.08656002581119537,0.9555230736732483,0.28077757358551025,0.025435402989387512
295.0,-0.38275161385536194,-0.5827633142471313,1.6280083656311035,-2.5357630252838135,-1.082648754119873,1.4009085893630981,1.2460265159606934,-0.2069699764251709,-0.06828682124614716,0.11264203488826752,0.9630635380744934,0.24292658269405365,0.028413228690624237
296.0,-0.3453734815120697,-0.5977359414100647,1.6400429010391235,-2.5878584384918213,-1.2917708158493042,1.4793732166290283,1.2449558973312378,-0.18914981186389923,-0.060179561376571655,0.12713497877120972,0.9820111393928528,0.13845476508140564,0.01792488992214203
297.0,-0.38844984769821167,-0.5854099988937378,1.6546152830123901,-2.5851964950561523,-1.0573678016662598,1.4595638513565063,1.2344383001327515,-0.20611806213855743,-0.06927703320980072,0.14047740399837494,0.956632137298584,0.2524806261062622,0.0370757170021534
298.0,-0.32721227407455444,-0.6061533093452454,1.6588540077209473,-2.621032476425171,-1.3898975849151611,1.5570987462997437,1.2365853786468506,-0.17813482880592346,-0.05785227566957474,0.15558777749538422,0.9836829900741577,0.0892251506447792,0.014112618751823902
299.0,-0.3724813759326935,-0.5960373878479004,1.6770944595336914,-2.637803554534912,-1.1439341306686401,1.5368714332580566,1.2266392707824707,-0.19488945603370667,-0.06552527844905853,0.16611097753047943,0.9630663990974426,0.20883671939373016,0.0360204353928566
300.0,-0.35478919744491577,-0.6060796976089478,1.689327597618103,-2.6590864658355713,-1.242211937904358,1.5864204168319702,1.221642017364502,-0.18512605130672455,-0.06169648468494415,0.18126405775547028,0.9697357416152954,0.1607876867055893,0.03005461022257805
301.0,-0.3678731918334961,-0.6040114164352417,1.7116652727127075,-2.7018792629241943,-1.170709252357483,1.6308866739273071,1.21139395236969,-0.1870722621679306,-0.0644054263830185,0.20582881569862366,0.9581344723701477,0.19459037482738495,0.041802387684583664
302.0,-0.452403724193573,-0.5427981615066528,1.6996723413467407,-2.6404635906219482,-0.6641733050346375,1.4602185487747192,1.2037022113800049,-0.22645437717437744,-0.09423410147428513,0.17157045006752014,0.8818143606185913,0.43119436502456665,0.08389544486999512
303.0,-0.46176615357398987,-0.5314520001411438,1.6652510166168213,-2.5107786655426025,-0.5787750482559204,1.3404890298843384,1.2138721942901611,-0.23528936505317688,-0.1005759909749031,0.14681963622570038,0.8641889095306396,0.4744719862937927,0.08060944825410843
304.0,-0.46465742588043213,-0.5256109237670898,1.7191704511642456,-2.703416347503662,-0.567404568195343,1.4985694885253906,1.1925597190856934,-0.2273942232131958,-0.10113649815320969,0.18522410094738007,0.8566888570785522,0.47055861353874207,0.10173913836479187
305.0,-0.40011391043663025,-0.5895177721977234,1.735323190689087,-2.750584363937378,-0.9947344660758972,1.633124589920044,1.1983482837677002,-0.1973181962966919,-0.07224999368190765,0.2149960994720459,0.9342601299285889,0.27724429965019226,0.06380069255828857
306.0,-0.39184051752090454,-0.5957111716270447,1.7520368099212646,-2.785686492919922,-1.0363320112228394,1.6853960752487183,1.191583275794983,-0.1898452788591385,-0.07026445865631104,0.234042227268219,0.9352846741676331,0.2575157582759857,0.0644397959113121
307.0,-0.3890298306941986,-0.5981909036636353,1.7673921585083008,-2.818351984024048,-1.0481871366500854,1.7268177270889282,1.1847254037857056,-0.1851746141910553,-0.06981442123651505,0.25008299946784973,0.932410478591919,0.25199466943740845,0.06758780777454376
308.0,-0.3931216895580292,-0.5939979553222656,1.7915998697280884,-2.8872151374816895,-1.0201442241668701,1.7951092720031738,1.1737016439437866,-0.1817416250705719,-0.07148055732250214,0.2764992415904999,0.9201281666755676,0.2655980587005615,0.0798124298453331
309.0,-0.4604494571685791,-0.5051745176315308,1.7989617586135864,-3.070071220397949,-0.5815064311027527,1.8152347803115845,1.156104564666748,-0.2051423043012619,-0.09791368246078491,0.25651881098747253,0.8384878039360046,0.4597334861755371,0.14064639806747437
310.0,-0.46324777603149414,-0.5144354701042175,1.771111011505127,-2.928236961364746,-0.5708832740783691,1.6903852224349976,1.1698905229568481,-0.21455346047878265,-0.09953434765338898,0.22870060801506042,0.8464710712432861,0.46417132019996643,0.12541039288043976
311.0,-0.4639013707637787,-0.5196704268455505,1.7524465322494507,-2.8422443866729736,-0.5680755376815796,1.6166646480560303,1.1785988807678223,-0.2194840908050537,-0.09989507496356964,0.21206994354724884,0.8507823944091797,0.46655240654945374,0.11629501730203629
312.0,-0.4618774652481079,-0.522736668586731,1.7614426612854004,-2.8757686614990234,-0.5678829550743103,1.6493536233901978,1.1760563850402832,-0.21559487283229828,-0.09448903053998947,0.2186010777950287,0.8488508462905884,0.4661090075969696,0.12003514915704727
313.0,-0.4619498550891876,-0.5338072180747986,1.701870322227478,-2.629830837249756,-0.5693213939666748,1.441558837890625,1.2011239528656006,-0.22830188274383545,-0.09551787376403809,0.17084118723869324,0.8595017194747925,0.47249314188957214,0.0939163863658905
314.0,-0.4596155881881714,-0.5376221537590027,1.664605736732483,-2.5001299381256104,-0.5776936411857605,1.3361423015594482,1.2156474590301514,-0.23320618271827698,-0.09428119659423828,0.14491286873817444,0.8641359210014343,0.47530636191368103,0.07970736920833588
315.0,-0.46178197860717773,-0.5321204662322998,1.73018217086792,-2.7374651432037354,-0.5651698708534241,1.5336277484893799,1.1904171705245972,-0.2223682850599289,-0.09261413663625717,0.19200633466243744,0.8548574447631836,0.4703122079372406,0.10563505440950394
316.0,-0.45937487483024597,-0.541100263595581,1.6939553022384644,-2.5922908782958984,-0.5696431398391724,1.4151688814163208,1.2058796882629395,-0.22730179131031036,-0.08904725313186646,0.16357868909835815,0.8605722188949585,0.4738612771034241,0.0900721624493599
317.0,-0.4601016044616699,-0.532374918460846,1.7490969896316528,-2.8123056888580322,-0.5649301409721375,1.600140929222107,1.183495283126831,-0.21673089265823364,-0.08829434216022491,0.20647402107715607,0.851448655128479,0.4685044288635254,0.11361107230186462
318.0,-0.45983070135116577,-0.5382692813873291,1.7286070585250854,-2.723947525024414,-0.5637401342391968,1.5268102884292603,1.1927181482315063,-0.22083911299705505,-0.08670484274625778,0.18955345451831818,0.8550207614898682,0.4712679088115692,0.10447753965854645
319.0,-0.4573918282985687,-0.5473837852478027,1.7037086486816406,-2.617201805114746,-0.5662120580673218,1.4407614469528198,1.2038646936416626,-0.2233801782131195,-0.08181612938642502,0.16869857907295227,0.8591517806053162,0.4740617573261261,0.09308430552482605
320.0,-0.4568255841732025,-0.547286331653595,1.6779189109802246,-2.5301742553710938,-0.5722237825393677,1.3679068088531494,1.2132419347763062,-0.22780239582061768,-0.08386054635047913,0.15138037502765656,0.8624817728996277,0.4756464958190918,0.08348412811756134
321.0,-0.4536186158657074,-0.5485138893127441,1.630054235458374,-2.377962350845337,-0.5859315395355225,1.245010495185852,1.2304637432098389,-0.23324108123779297,-0.08274126052856445,0.12027785181999207,0.8669942617416382,0.4789973199367523,0.06645113974809647
322.0,-0.45058873295783997,-0.5454243421554565,1.5939000844955444,-2.277324676513672,-0.601336658000946,1.1633070707321167,1.2423275709152222,-0.23638921976089478,-0.0837060734629631,0.09805028140544891,0.869989275932312,0.48018333315849304,0.05411803349852562
323.0,-0.4470994174480438,-0.5418010950088501,1.5591974258422852,-2.189483165740967,-0.6160163283348083,1.0943142175674438,1.25381338596344,-0.23860463500022888,-0.08312464505434036,0.07819080352783203,0.8718487620353699,0.48156067728996277,0.04318824037909508
324.0,-0.4573381245136261,-0.5425556898117065,1.6531678438186646,-2.4571521282196045,-0.5797995328903198,1.3046149015426636,1.2209464311599731,-0.2329830378293991,-0.08936331421136856,0.1363871991634369,0.8651401400566101,0.4767415225505829,0.07515712082386017
325.0,-0.45434826612472534,-0.5417088866233826,1.6137275695800781,-2.338200569152832,-0.5940148830413818,1.2081835269927979,1.2344739437103271,-0.23695307970046997,-0.08933582901954651,0.11113489419221878,0.8686840534210205,0.47883641719818115,0.06125981733202934
326.0,-0.45054900646209717,-0.5373775362968445,1.572253704071045,-2.2304553985595703,-0.6113752126693726,1.1224581003189087,1.2483291625976562,-0.2402191162109375,-0.08977573364973068,0.08704184740781784,0.8714665174484253,0.4802798330783844,0.04797022417187691
327.0,-0.44990843534469604,-0.5291300415992737,1.5473371744155884,-2.1769862174987793,-0.6230083703994751,1.0771101713180542,1.2553801536560059,-0.24390403926372528,-0.09511370956897736,0.07426374405622482,0.872817873954773,0.4806261956691742,0.04089410603046417
328.0,-0.45653754472732544,-0.5344690084457397,1.6107099056243896,-2.3405869007110596,-0.5962316989898682,1.2055556774139404,1.234019160270691,-0.239901602268219,-0.09666205197572708,0.11123812198638916,0.8690854907035828,0.4780919551849365,0.06119311973452568
329.0,-0.4591929018497467,-0.5349469184875488,1.6398009061813354,-2.42602276802063,-0.5852543711662292,1.2739840745925903,1.223813772201538,-0.2373962104320526,-0.09722504019737244,0.12959469854831696,0.8665159344673157,0.4767303764820099,0.07129901647567749
330.0,-0.45376789569854736,-0.5278496146202087,1.5708844661712646,-2.2409145832061768,-0.6133853793144226,1.1245449781417847,1.2468219995498657,-0.24407966434955597,-0.09983570873737335,0.08866894245147705,0.8718802332878113,0.4791536033153534,0.048729222267866135
331.0,-0.45109570026397705,-0.5221806168556213,1.5385831594467163,-2.164632558822632,-0.6277823448181152,1.0636740922927856,1.256998896598816,-0.24679836630821228,-0.10130009055137634,0.07082271575927734,0.8734002709388733,0.4802495241165161,0.03894271329045296
332.0,-0.44717836380004883,-0.5197272300720215,1.5108472108840942,-2.0989151000976562,-0.6410897970199585,1.0137332677841187,1.2662508487701416,-0.24720019102096558,-0.09896820783615112,0.054922010749578476,0.8743767142295837,0.4811812937259674,0.03022431954741478
333.0,-0.44202879071235657,-0.5144198536872864,1.4757331609725952,-2.023956060409546,-0.6593899130821228,0.9569516181945801,1.2777295112609863,-0.24740535020828247,-0.09715849906206131,0.03563767671585083,0.8754099011421204,0.4816669225692749,0.019608518108725548
334.0,-0.44503313302993774,-0.525073766708374,1.509894609451294,-2.0880846977233887,-0.6412538886070251,1.008594036102295,1.267517328262329,-0.24485249817371368,-0.09292345494031906,0.05273186415433884,0.8741974830627441,0.48182302713394165,0.029063716530799866
335.0,-0.4405645430088043,-0.5219371914863586,1.4820839166641235,-2.0269742012023926,-0.6556171774864197,0.962957501411438,1.2767757177352905,-0.24452100694179535,-0.09024745225906372,0.03718573600053787,0.87495356798172,0.4823416769504547,0.020499635487794876
336.0,-0.4421002268791199,-0.5301352739334106,1.5044584274291992,-2.0670535564422607,-0.643660843372345,0.9959893226623535,1.2702932357788086,-0.2423567771911621,-0.0862051323056221,0.04801299795508385,0.8741381168365479,0.482571005821228,0.026505745947360992
337.0,-0.43535855412483215,-0.5145093202590942,1.4445542097091675,-1.9522221088409424,-0.6752851009368896,0.9064655900001526,1.2885764837265015,-0.2448420524597168,-0.08904021978378296,0.01738409884274006,0.875436007976532,0.4829261600971222,0.009589777328073978
338.0,-0.4325637221336365,-0.505018949508667,1.4158296585083008,-1.9027425050735474,-0.6906779408454895,0.8675429224967957,1.296887755393982,-0.2464146465063095,-0.09175027161836624,0.0034710532054305077,0.8755709528923035,0.483073353767395,0.00191506277769804
339.0,-0.4353872239589691,-0.5017260909080505,1.4228978157043457,-1.9235130548477173,-0.6873582601547241,0.8801285624504089,1.29392409324646,-0.24866370856761932,-0.09766404330730438,0.008441987447440624,0.8759480714797974,0.48230916261672974,0.004648276139050722
340.0,-0.4282309412956238,-0.48870131373405457,1.374060034751892,-1.8393462896347046,-0.7154495120048523,0.8166033625602722,1.3087786436080933,-0.2484559416770935,-0.09783388674259186,-0.01645425334572792,0.8759398460388184,0.48205462098121643,-0.00905524380505085
341.0,-0.42282572388648987,-0.4777427315711975,1.337925672531128,-1.7821872234344482,-0.7369921803474426,0.773517906665802,1.3195184469223022,-0.24803540110588074,-0.09858224540948868,-0.03450462594628334,0.8755366206169128,0.4815443158149719,-0.018977509811520576
342.0,-0.4169555902481079,-0.4708695113658905,1.3067132234573364,-1.7303218841552734,-0.7552393078804016,0.7367774248123169,1.3291064500808716,-0.24598757922649384,-0.09543493390083313,-0.05057287961244583,0.874489963054657,0.4815952777862549,-0.027851274237036705
343.0,-0.41538721323013306,-0.46054354310035706,1.2862417697906494,-1.7056275606155396,-0.7675275206565857,0.7162101864814758,1.3343838453292847,-0.24749061465263367,-0.100285604596138,-0.0594702884554863,0.8740893006324768,0.4809992015361786,-0.03272567689418793
344.0,-0.42009100317955017,-0.5058525204658508,1.417319416999817,-2.0018913745880127,-0.7891665697097778,0.9339093565940857,1.3051471710205078,-0.24379906058311462,-0.09271795302629471,-0.0070692263543605804,0.9025899767875671,0.43043002486228943,-0.003371195634827018
345.0,-0.36598077416419983,-0.5554082989692688,1.5044556856155396,-2.33880877494812,-1.1298491954803467,1.1656545400619507,1.2986071109771729,-0.2119055837392807,-0.06744971871376038,0.0007374853594228625,0.9719999432563782,0.23497986793518066,0.0001782862382242456
346.0,-0.3939315378665924,-0.5494391322135925,1.5120868682861328,-2.286076784133911,-0.9841268658638,1.1428110599517822,1.2867778539657593,-0.2246834635734558,-0.07519805431365967,0.019492117688059807,0.9504419565200806,0.31022557616233826,0.006362254731357098
347.0,-0.3656007647514343,-0.5702340602874756,1.5568971633911133,-2.432986259460449,-1.152123212814331,1.2722338438034058,1.2785168886184692,-0.2070358693599701,-0.06590160727500916,0.045635633170604706,0.9752936959266663,0.2159111499786377,0.01010284572839737
348.0,-0.39413562417030334,-0.5635668635368347,1.5656166076660156,-2.398437976837158,-1.0033625364303589,1.2540074586868286,1.2682360410690308,-0.2199476659297943,-0.07298827916383743,0.06133851781487465,0.9547160267829895,0.2905282974243164,0.01866583526134491
349.0,-0.3245807886123657,-0.5827223062515259,1.573935866355896,-2.514951467514038,-1.385904312133789,1.3200252056121826,1.2776128053665161,-0.18788957595825195,-0.05803506076335907,0.03889913484454155,0.9946963787078857,0.09514297544956207,0.0037207130808383226
350.0,-0.3204054534435272,-0.5898595452308655,1.6002275943756104,-2.5588157176971436,-1.4243489503860474,1.418799877166748,1.2658236026763916,-0.18454888463020325,-0.05761643499135971,0.08468901365995407,0.9936559200286865,0.07373037934303284,0.006284018978476524
351.0,-0.3234657645225525,-0.5880336761474609,1.5965979099273682,-2.556938648223877,-1.4370172023773193,1.244385004043579,1.2665050029754639,-0.19088299572467804,-0.05850979685783386,-0.0007200565887615085,0.9977010488510132,0.06690903753042221,0.010736983269453049
352.0,-0.32232946157455444,-0.583565354347229,1.5816054344177246,-2.5405139923095703,-1.435246467590332,1.2454184293746948,1.2740832567214966,-0.19161708652973175,-0.05847717821598053,-0.0005615288973785937,0.9976044297218323,0.06869202107191086,0.008155005052685738
353.0,-0.31962504982948303,-0.5759376287460327,1.5573270320892334,-2.5167269706726074,-1.4393384456634521,1.2482998371124268,1.2863752841949463,-0.19272825121879578,-0.05850312113761902,-0.0002679965109564364,0.9976844787597656,0.06789809465408325,0.00393790053203702
354.0,-0.3162534236907959,-0.5794881582260132,1.5658388137817383,-2.523481607437134,-1.4303025007247925,1.334776759147644,1.2832740545272827,-0.18571144342422485,-0.057476408779621124,0.04118206724524498,0.9965425133705139,0.0720982775092125,0.002979457611218095
355.0,-0.3234691321849823,-0.5739611983299255,1.5459340810775757,-2.4830849170684814,-1.3781489133834839,1.2682701349258423,1.2912583351135254,-0.1897343248128891,-0.05824985355138779,0.01328759454190731,0.9948368072509766,0.10060624033212662,0.0013437527231872082
356.0,-0.32365599274635315,-0.5693777799606323,1.5315605401992798,-2.465454578399658,-1.3702685832977295,1.2434903383255005,1.2980133295059204,-0.19099564850330353,-0.05845651775598526,0.001564008998684585,0.994415283203125,0.10552629828453064,0.0001659709814703092
357.0,-0.33431458473205566,-0.5602326393127441,1.5051552057266235,-2.4107367992401123,-1.2955589294433594,1.2009310722351074,1.307706594467163,-0.19706235826015472,-0.06059132516384125,-0.010385583154857159,0.9891528487205505,0.14651434123516083,-0.0015383234713226557
358.0,-0.31671395897865295,-0.5659248232841492,1.523361325263977,-2.4741897583007812,-1.4176729917526245,1.2299706935882568,1.3032697439193726,-0.19085533916950226,-0.05824687331914902,-0.009949433617293835,0.9966591000556946,0.08106192946434021,-0.0008092238567769527
359.0,-0.31716030836105347,-0.5679966807365417,1.5322318077087402,-2.491224527359009,-1.4381862878799438,1.2507271766662598,1.2989760637283325,-0.1933530569076538,-0.058476194739341736,2.6427693455843837e-07,0.9975643157958984,0.06975237280130386,-3.7795598473167047e-06
360.0,-0.31417468190193176,-0.5623492002487183,1.5156559944152832,-2.4778521060943604,-1.4463680982589722,1.2540935277938843,1.3074601888656616,-0.19336152076721191,-0.05854582041501999,0.00017639501311350614,0.9977995753288269,0.06625031679868698,-0.0026566949672997
361.0,-0.3118915557861328,-0.5575931072235107,1.5011928081512451,-2.4640681743621826,-1.4476128816604614,1.256458044052124,1.314758062362671,-0.19278785586357117,-0.05853823572397232,0.00032805438968352973,0.9977890849113464,0.06627707183361053,-0.0049387989565730095
362.0,-0.30754637718200684,-0.5483539700508118,1.4734857082366943,-2.4379336833953857,-1.4519001245498657,1.2610492706298828,1.3285014629364014,-0.19186533987522125,-0.05855301022529602,0.0006246334523893893,0.9978151321411133,0.06537343561649323,-0.009533973410725594
363.0,-0.310580849647522,-0.5536444783210754,1.485675573348999,-2.43739652633667,-1.4264562129974365,1.1433460712432861,1.3218756914138794,-0.18987040221691132,-0.05827685445547104,-0.055863671004772186,0.9952994585037231,0.07898494601249695,-0.004433227702975273
364.0,-0.3070371448993683,-0.5595775246620178,1.5028722286224365,-2.460252285003662,-1.4403833150863647,1.2610642910003662,1.3147879838943481,-0.18496005237102509,-0.0573468953371048,0.0004097826895304024,0.9975147247314453,0.070216104388237,-0.005821517668664455
365.0,-0.32984963059425354,-0.5523499250411987,1.478092074394226,-2.3759169578552246,-1.3026366233825684,1.1417478322982788,1.3197873830795288,-0.19617266952991486,-0.06057092547416687,-0.040997326374053955,0.9884058833122253,0.1460697054862976,-0.0060587129555642605
366.0,-0.392336368560791,-0.5116982460021973,1.3950798511505127,-2.0544979572296143,-0.9384915828704834,0.9502454400062561,1.3243004083633423,-0.23176148533821106,-0.08146467804908752,-0.044744592159986496,0.9324930906295776,0.3579939603805542,-0.017177922651171684
367.0,-0.32735997438430786,-0.5397120714187622,1.4374675750732422,-2.3141210079193115,-1.288266897201538,1.0615367889404297,1.3362512588500977,-0.1960592269897461,-0.06144207715988159,-0.07883591949939728,0.9839954972267151,0.15929505228996277,-0.012762428261339664
368.0,-0.34179210662841797,-0.5228726267814636,1.3882739543914795,-2.1815547943115234,-1.1881232261657715,0.9620277285575867,1.3466964960098267,-0.2045995444059372,-0.06669332087039948,-0.10567301511764526,0.9683547616004944,0.22476790845394135,-0.024528099223971367
369.0,-0.3940180242061615,-0.48282262682914734,1.3186311721801758,-1.8840057849884033,-0.8963451385498047,0.8257354497909546,1.3422399759292603,-0.23601770401000977,-0.08800996840000153,-0.0750301331281662,0.912562370300293,0.4006437361240387,-0.03294060379266739
370.0,-0.40143024921417236,-0.4332508146762848,1.2059032917022705,-1.5969963073730469,-0.8194851875305176,0.6357440948486328,1.3573297262191772,-0.24337978661060333,-0.10142123699188232,-0.09934576600790024,0.8708440661430359,0.4783133268356323,-0.0545659102499485
371.0,-0.3856680989265442,-0.4433591365814209,1.211408019065857,-1.6841163635253906,-0.9037358164787292,0.6783245801925659,1.3672982454299927,-0.23515872657299042,-0.09333644807338715,-0.12239602208137512,0.8925305008888245,0.4300358295440674,-0.05897241830825806
372.0,-0.38008832931518555,-0.39513206481933594,1.0959047079086304,-1.4614590406417847,-0.8924486041069031,0.5383843779563904,1.3876935243606567,-0.2336914837360382,-0.09997975826263428,-0.1535077840089798,0.8630352020263672,0.473817378282547,-0.08427772670984268
373.0,-0.3719393014907837,-0.3812711834907532,1.056517243385315,-1.4160127639770508,-0.918887734413147,0.5065433382987976,1.3981891870498657,-0.22919034957885742,-0.09878331422805786,-0.17268241941928864,0.8593083024024963,0.471989244222641,-0.09484867751598358
374.0,-0.3624477684497833,-0.37396982312202454,1.0357109308242798,-1.4249922037124634,-0.95932936668396,0.5022198557853699,1.4081069231033325,-0.22425463795661926,-0.09902530908584595,-0.19226130843162537,0.8637394309043884,0.45469364523887634,-0.1012110784649849
375.0,-0.3476351499557495,-0.45594456791877747,1.209613561630249,-1.8190661668777466,-1.0765966176986694,0.708669126033783,1.3898401260375977,-0.2119758278131485,-0.07879702746868134,-0.17971529066562653,0.9234970211982727,0.3326632082462311,-0.06473726034164429
376.0,-0.3539314270019531,-0.483256459236145,1.283057451248169,-1.9443671703338623,-1.0805079936981201,0.8035746216773987,1.3704112768173218,-0.2146139144897461,-0.07560034096240997,-0.14430072903633118,0.9385154247283936,0.3099910616874695,-0.04766244813799858
377.0,-0.3102709949016571,-0.5331645011901855,1.4169307947158813,-2.322901964187622,-1.3573567867279053,1.012069821357727,1.3498919010162354,-0.1874089390039444,-0.05936744809150696,-0.11598366498947144,0.9853794574737549,0.12394463270902634,-0.014588849619030952
